/* XPM */
static char *result[] = {
/* columns rows colors chars-per-pixel */
"640 640 250 2 ",
"   c black",
".  c #1C1D1B",
"X  c #191915",
"o  c #1D180D",
"O  c #231C0C",
"+  c #231E14",
"@  c #1F201E",
"#  c #29230D",
"$  c #342B0B",
"%  c #252214",
"&  c #2B2413",
"*  c #23221D",
"=  c #2A251C",
"-  c #2C2A1D",
";  c #2D2A15",
":  c #322D1C",
">  c #332C15",
",  c #393419",
"<  c #39320E",
"1  c #1E2121",
"2  c #262524",
"3  c #282625",
"4  c #272825",
"5  c #292926",
"6  c #262628",
"7  c #292728",
"8  c #27292A",
"9  c #2A2A29",
"0  c #312E22",
"q  c #312E2C",
"w  c #2E312C",
"e  c #343224",
"r  c #33332C",
"t  c #3A3A2D",
"y  c #393729",
"u  c #2E2E32",
"i  c #252E36",
"p  c #302F34",
"a  c #2E3134",
"s  c #2C343A",
"d  c #28343A",
"f  c #323335",
"g  c #353934",
"h  c #3A3B34",
"j  c #34353A",
"k  c #35393D",
"l  c #3A3B3D",
"z  c #393737",
"x  c #211F21",
"c  c #433A19",
"v  c #45380E",
"b  c #473B25",
"n  c #453E36",
"m  c #3E413B",
"M  c #4B431A",
"N  c #55491B",
"B  c #5A501B",
"V  c #795C1E",
"C  c #66541B",
"Z  c #4C4226",
"A  c #5B4B2C",
"S  c #554727",
"D  c #5C5325",
"F  c #524934",
"G  c #675828",
"H  c #7B5E24",
"J  c #7B5F29",
"K  c #725728",
"L  c #675535",
"P  c #6C5634",
"I  c #6C622C",
"U  c #7D6026",
"Y  c #7C6029",
"T  c #75682C",
"R  c #776936",
"E  c #7D7237",
"W  c #706631",
"Q  c #7D621E",
"!  c #363B42",
"~  c #3B3D41",
"^  c #353944",
"/  c #2E3A42",
"(  c #3E4145",
")  c #3A444B",
"_  c #3F4C53",
"`  c #414345",
"'  c #42454A",
"]  c #46494D",
"[  c #494A4E",
"{  c #474947",
"}  c #4A4E52",
"|  c #454C52",
" . c #4D5155",
".. c #4C545A",
"X. c #515455",
"o. c #52565A",
"O. c #56595D",
"+. c #595A5C",
"@. c #565956",
"#. c #50514E",
"$. c #756748",
"%. c #595D61",
"&. c #565C61",
"*. c #5C6265",
"=. c #5E6469",
"-. c #5C666C",
";. c #5F6D74",
":. c #61666B",
">. c #64696D",
",. c #676967",
"<. c #666D71",
"1. c #696E71",
"2. c #6B7478",
"3. c #757877",
"4. c #6F716E",
"5. c #635E53",
"6. c #413F42",
"7. c #86661E",
"8. c #836424",
"9. c #896924",
"0. c #86692C",
"q. c #896B2D",
"w. c #846527",
"e. c #846C33",
"r. c #896C33",
"t. c #86793A",
"y. c #9C7A39",
"u. c #9A7836",
"i. c #8C752B",
"p. c #9D7A3A",
"a. c #8B7847",
"s. c #7D827D",
"d. c #8D813C",
"f. c #94853C",
"g. c #9B8C36",
"h. c #AD953C",
"j. c #D6BB36",
"k. c #D8BC37",
"l. c #D5B43D",
"z. c #D7BB39",
"x. c #D8BC3A",
"c. c #D7B53B",
"v. c #D1AF3B",
"b. c #C39F3E",
"n. c #DAC03B",
"m. c #938542",
"M. c #998B46",
"N. c #958747",
"B. c #A7974A",
"V. c #BD9A45",
"C. c #B89B4A",
"Z. c #A89953",
"A. c #B99959",
"S. c #A58B51",
"D. c #B8A64B",
"F. c #BEAB53",
"G. c #B8A655",
"H. c #B0A453",
"J. c #97967A",
"K. c #9B966C",
"L. c #B89964",
"P. c #A7946F",
"I. c #B5AD70",
"U. c #9FA176",
"Y. c #C39C4C",
"T. c #CA9D4E",
"R. c #C49C46",
"E. c #C69B52",
"W. c #CB9E51",
"Q. c #C59E5B",
"!. c #D19F4F",
"~. c #CBA545",
"^. c #CDA944",
"/. c #C4A14C",
"(. c #CCA24D",
"). c #CDA949",
"_. c #D3AC46",
"`. c #D2AC49",
"'. c #D1A74C",
"]. c #CBB649",
"[. c #D5B343",
"{. c #D5BC43",
"}. c #D9BC42",
"|. c #D5BD4B",
" X c #D8B748",
".X c #CCA152",
"XX c #C6A758",
"oX c #D0A354",
"OX c #C8B658",
"+X c #D4BC55",
"@X c #CBA562",
"#X c #C8A766",
"$X c #C9B765",
"%X c #D0B06A",
"&X c #EBB16C",
"*X c #E8B463",
"=X c #E9B675",
"-X c #D5AD56",
";X c #DAC24C",
":X c #D7C149",
">X c #DBC353",
",X c #D9C357",
"<X c #CEC056",
"1X c #E1C859",
"2X c #D8C565",
"3X c #E2CB66",
"4X c #737C82",
"5X c #7B8488",
"6X c #7F8A90",
"7X c #888C8A",
"8X c #8D928C",
"9X c #94968A",
"0X c #8C9495",
"qX c #8D9A9C",
"wX c #929592",
"eX c #959A96",
"rX c #989D9A",
"tX c #848D92",
"yX c #9CA19D",
"uX c #ADAE8D",
"iX c #939EA4",
"pX c #8E9CA1",
"aX c #96A1A6",
"sX c #9AA6AB",
"dX c #9BA9AC",
"fX c #99A4A6",
"gX c #9BADB3",
"hX c #97ABB1",
"jX c #9EB0B6",
"kX c #A2ADAD",
"lX c #A4A8A5",
"zX c #A2ADB3",
"xX c #A5B3B7",
"cX c #B6B7B7",
"vX c #A8B1AB",
"bX c #A19B82",
"nX c #DBDDDD",
"mX c #D6D8D7",
"MX c #CBCCCB",
"NX c #DEE0DF",
"BX c #E0E2DF",
"VX c #DFE1E1",
"CX c #E2E3E2",
"ZX c #E9EAE9",
"AX c gray99",
"SX c #F4F4F4",
"DX c #EEF0EF",
"FX c #DCDEE0",
"GX c #C3BEAD",
"HX c None",
/* pixels */
"                                                                                                                                                                                                                                                                                                                                                                                                                                                                                                                                                                                                                                                                                                                                                                                                                                                                                                                                                                                                                                                                                                                                                                                                                                                                                                                                ",
"                                                                                                                                                                                                                                                                                                                                                                                                                                                                                                                                                                                                                                                                                                                                                                                                                                                                                                                                                                                                                                                                                                                                                                                                                                                                                                                                ",
"                                                                                                                                                                                                                                                                                                                                                                                                                                                                                                                                                                                                                                                                                                                                                                                                                                                                                                                                                                                                                                                                                                                                                                                                                                                                                                                                ",
"                                                                                                                                                                                                                                                                                                                                                                                                                                                                                                                                                                                                                                                                                                                                                                                                                                                                                                                                                                                                                                                                                                                                                                                                                                                                                                                                ",
"                                                                                                                                                                                                                                                                                                                                                                                                                                                                                                                                                                                                                                                                                                                                                                                                                                                                                                                                                                                                                                                                                                                                                                                                                                                                                                                                ",
"                                                                                                                                                                                                                                                                                                                                                                                                                                                                                                                                                                                                                                                                                                                                                                                                                                                                                                                                                                                                                                                                                                                                                                                                                                                                                                                                ",
"                                                                                                                                                                                                                                                                                                                                                                                                                                                                                                                                                                                                                                                                                                                                                                                                                                                                                                                                                                                                                                                                                                                                                                                                                                                                                                                                ",
"                                                                                                                                                                                                                                                                                                                                                                                                                                                                                                                                                                                                                                                                                                                                                                                                                                                                                                                                                                                                                                                                                                                                                                                                                                                                                                                                ",
"                                                                                                                                                                                                                                                                                                                                                                                                                                                                                                                                                                                                                                                                                                                                                                                                                                                                                                                                                                                                                                                                                                                                                                                                                                                                                                                                ",
"                                                                                                                                                                                                                                                                                                                                                                                                                                                                                                                                                                                                                                                                                                                                                                                                                                                                                                                                                                                                                                                                                                                                                                                                                                                                                                                                ",
"                                                                                                                                                                                                                                                                                                                                                                                                                                                                                                                                                                                                                                                                                                                                                                                                                                                                                                                                                                                                                                                                                                                                                                                                                                                                                                                                ",
"                                                                                                                                                                                                                                                                                                                                                                                                                                                                                                                                                                                                                                                                                                                                                                                                                                                                                                                                                                                                                                                                                                                                                                                                                                                                                                                                ",
"                                                                                                                                                                                                                                                                                                                                                                                                                                                                                                                                                                                                                                                                                                                                                                                                                                                                                                                                                                                                                                                                                                                                                                                                                                                                                                                                ",
"                                                                                                                                                                                                                                                                                                                                                                                                                                                                                                                                                                                                                                                                                                                                                                                                                                                                                                                                                                                                                                                                                                                                                                                                                                                                                                                                ",
"                                                                                                                                                                                                                                                                                                                                                                                                                                                                                                                                                                                                                                                                                                                                                                                                                                                                                                                                                                                                                                                                                                                                                                                                                                                                                                                                ",
"                                                                                                                                                                                                                                                                                                                                                                                                                                                                                                                                                                                                                                                                                                                                                                                                                                                                                                                                                                                                                                                                                                                                                                                                                                                                                                                                ",
"                                                                                                                                                                                                                                                                                                                                                                                                                                                                                                                                                                                                                                                                                                                                                                                                                                                                                                                                                                                                                                                                                                                                                                                                                                                                                                                                ",
"                                                                                                                                                                                                                                                                                                                                                                                                                                                                                                                                                                                                                                                                                                                                                                                                                                                                                                                                                                                                                                                                                                                                                                                                                                                                                                                                ",
"                                                                                                                                                                                                                                                                                                                                                                                                                                                                                                                                                                                                                                                                                                                                                                                                                                                                                                                                                                                                                                                                                                                                                                                                                                                                                                                                ",
"                                                                                                                                                                                                                                                                                                                                                                                                                                                                                                                                                                                                                                                                                                                                                                                                                                                                                                                                                                                                                                                                                                                                                                                                                                                                                                                                ",
"                                                                                                                                                                                                                                                                                                                                                                                                                                                                                                                                                                                                                                                                                                                                                                                                                                                                                                                                                                                                                                                                                                                                                                                                                                                                                                                                ",
"                                                                                                                                                                                                                                                                                                                                                                                                                                                                                                                                                                                                                                                                                                                                                                                                                                                                                                                                                                                                                                                                                                                                                                                                                                                                                                                                ",
"                                                                                                                                                                                                                                                                                                                                                                                                                                                                                                                                                                                                                                                                                                                                                                                                                                                                                                                                                                                                                                                                                                                                                                                                                                                                                                                                ",
"                                                                                                                                                                                                                                                                                                                                                                                                                                                                                                                                                                                                                                                                                                                                                                                                                                                                                                                                                                                                                                                                                                                                                                                                                                                                                                                                ",
"                                                                                                                                                                                                                                                                                                                                                                                                                                                                                                                                                                                                                                                                                                                                                                                                                                                                                                                                                                                                                                                                                                                                                                                                                                                                                                                                ",
"                                                                                                                                                                                                                                                                                                                                                                                                                                                                                                                                                                                                                                                                                                                                                                                                                                                                                                                                                                                                                                                                                                                                                                                                                                                                                                                                ",
"                                                                                                                                                                                                                                                                                                                                                                                                                                                                                                                                                                                                                                                                                                                                                                                                                                                                                                                                                                                                                                                                                                                                                                                                                                                                                                                                ",
"                                                                                                                                                                                                                                                                                                                                                                                                                                                                                                                                                                                                                                                                                                                                                                                                                                                                                                                                                                                                                                                                                                                                                                                                                                                                                                                                ",
"                                                                                                                                                                                                                                                                                                                                                                                                                                                                                                                                                                                                                                                                                                                                                                                                                                                                                                                                                                                                                                                                                                                                                                                                                                                                                                                                ",
"                                                                                                                                                                                                                                                                                                                                                                                                                                                                                                                                                                                                                                                                                                                                                                                                                                                                                                                                                                                                                                                                                                                                                                                                                                                                                                                                ",
"                                                                                                                                                                                                                                                                                                                                                                                                                                                                                                                                                                                                                                                                                                                                                                                                                                                                                                                                                                                                                                                                                                                                                                                                                                                                                                                                ",
"                                                                                                                                                                                                                                                                                                                                                                                                                                                                                                                                                                                                                                                                                                                                                                                                                                                                                                                                                                                                                                                                                                                                                                                                                                                                                                                                ",
"                                                                                                                                                                                                                                                                                                                                                                                                                                                                                                                                                                                                                                                                                                                                                                                                                                                                                                                                                                                                                                                                                                                                                                                                                                                                                                                                ",
"                                                                                                                                                                                                                                                                                                                                                                                                                                                                                                                                                                                                                                                                                                                                                                                                                                                                                                                                                                                                                                                                                                                                                                                                                                                                                                                                ",
"                                                                                                                                                                                                                                                                                                                                                                                                                                                                                                                                                                                                                                                                                                                                                                                                                                                                                                                                                                                                                                                                                                                                                                                                                                                                                                                                ",
"                                                                                                                                                                                                                                                                                                                                                                                                                                                                                                                                                                                                                                                                                                                                                                                                                                                                                                                                                                                                                                                                                                                                                                                                                                                                                                                                ",
"                                                                                                                                                                                                                                                                                                                                                                                                                                                                                                                                                                                                                                                                                                                                                                                                                                                                                                                                                                                                                                                                                                                                                                                                                                                                                                                                ",
"                                                                                                                                                                                                                                                                                                                                                                                                                                                                                                                                                                                                                                                                                                                                                                                                                                                                                                                                                                                                                                                                                                                                                                                                                                                                                                                                ",
"                                                                                                                                                                                                                                                                                                                                                                                                                                                                                                                                                                                                                                                                                                                                                                                                                                                                                                                                                                                                                                                                                                                                                                                                                                                                                                                                ",
"                                                                                                                                                                                                                                                                                                                                                                                                                                                                                                                                                                                                                                                                                                                                                                                                                                                                                                                                                                                                                                                                                                                                                                                                                                                                                                                                ",
"                                                                                                                                                                                                                                                                                                                                                                                                                                                                                                                                                                                                                                                                                                                                                                                                                                                                                                                                                                                                                                                                                                                                                                                                                                                                                                                                ",
"                                                                                                                                                                                                                                                                                                                                                                                                                                                                                                                                                                                                                                                                                                                                                                                                                                                                                                                                                                                                                                                                                                                                                                                                                                                                                                                                ",
"                                                                                                                                                                                                                                                                                                                                                                                                                                                                                                                                                                                                                                                                                                                                                                                                                                                                                                                                                                                                                                                                                                                                                                                                                                                                                                                                ",
"                                                                                                                                                                                                                                                                                                                                                                                                                                                                                                                                                                                                                                                                                                                                                                                                                                                                                                                                                                                                                                                                                                                                                                                                                                                                                                                                ",
"                                                                                                                                                                                                                                                                                                                                                                                                                                                                                                                                                                                                                                                                                                                                                                                                                                                                                                                                                                                                                                                                                                                                                                                                                                                                                                                                ",
"                                                                                                                                                                                                                                                                                                                                                                                                                                                                                                                                                                                                                                                                                                                                                                                                                                                                                                                                                                                                                                                                                                                                                                                                                                                                                                                                ",
"                                                                                                                                                                                                                                                                                                                                                                                                                                                                                                                                                                                                                                                                                                                                                                                                                                                                                                                                                                                                                                                                                                                                                                                                                                                                                                                                ",
"                                                                                                                                                                                                                                                                                                                                                                                                                                                                                                                                                                                                                                                                                                                                                                                                                                                                                                                                                                                                                                                                                                                                                                                                                                                                                                                                ",
"                                                                                                                                                                                                                                                                                                                                                                                                                                                                                                                                                                                                                                                                                                                                                                                                                                                                                                                                                                                                                                                                                                                                                                                                                                                                                                                                ",
"                                                                                                                                                                                                                                                                                                                                                                                                                                                                                                                                                                                                                                                                                                                                                                                                                                                                                                                                                                                                                                                                                                                                                                                                                                                                                                                                ",
"                                                                                                                                                                                                                                                                                                                                                                                                                                                                                                                                                                                                                                                                                                                                                                                                                                                                                                                                                                                                                                                                                                                                                                                                                                                                                                                                ",
"                                                                                                                                                                                                                                                                                                                                                                                                                                                                                                                                                                                                                                                                                                                                                                                                                                                                                                                                                                                                                                                                                                                                                                                                                                                                                                                                ",
"                                                                                                                                                                                                                                                                                                                                                                                                                                                                                                                                                                                                                                                                                                                                                                                                                                                                                                                                                                                                                                                                                                                                                                                                                                                                                                                                ",
"                                                                                                                                                                                                                                                                                                                                                                                                                                                                                                                                                                                                                                                                                                                                                                                                                                                                                                                                                                                                                                                                                                                                                                                                                                                                                                                                ",
"                                                                                                                                                                                                                                                                                                                                                                                                                                                                                                                                                                                                                                                                                                                                                                                                                                                                                                                                                                                                                                                                                                                                                                                                                                                                                                                                ",
"                                                                                                                                                                                                                                                                                                                                                                                                                                                                                                                                                                                                                                                                                                                                                                                                                                                                                                                                                                                                                                                                                                                                                                                                                                                                                                                                ",
"                                                                                                                                                                                                                                                                                                                                                                                                                                                                                                                                                                                                                                                                                                                                                                                                                                                                                                                                                                                                                                                                                                                                                                                                                                                                                                                                ",
"                                                                                                                                                                                                                                                                                                                                                                                                                                                                                                                                                                                                                                                                                                                                                                                                                                                                                                                                                                                                                                                                                                                                                                                                                                                                                                                                ",
"                                                                                                                                                                                                                                                                                                                                                                                                                                                                                                                                                                                                                                                                                                                                                                                                                                                                                                                                                                                                                                                                                                                                                                                                                                                                                                                                ",
"                                                                                                                                                                                                                                                                                                                                                                                                                                                                                                                                                                                                                                                                                                                                                                                                                                                                                                                                                                                                                                                                                                                                                                                                                                                                                                                                ",
"                                                                                                                                                                                                                                                                                                                                                                                                                                                                                                                                                                                                                                                                                                                                                                                                                                                                                                                                                                                                                                                                                                                                                                                                                                                                                                                                ",
"                                                                                                                                                                                                                                                                                                                                                                                                                                                                                                                                                                                                                                                                                                                                                                                                                                                                                                                                                                                                                                                                                                                                                                                                                                                                                                                                ",
"                                                                                                                                                                                                                                                                                                                                                                                                                                                                                                                                                                                                                                                                                                                                                                                                                                                                                                                                                                                                                                                                                                                                                                                                                                                                                                                                ",
"                                                                                                                                                                                                                                                                                                                                                                                                                                                                                                                                                                                                                                                                                                                                                                                                                                                                                                                                                                                                                                                                                                                                                                                                                                                                                                                                ",
"                                                                                                                                                                                                                                                                                                                                                                                                                                                                                                                                                                                                                                                                                                                                                                                                                                                                                                                                                                                                                                                                                                                                                                                                                                                                                                                                ",
"                                                                                                                                                                                                                                                                                                                                                                                                                                                                                                                                                                                                                                                                                                                                                                                                                                                                                                                                                                                                                                                                                                                                                                                                                                                                                                                                ",
"                                                                                                                                                                                                                                                                                                                                                                                                                                                                                                                                                                                                                                                                                                                                                                                                                                                                                                                                                                                                                                                                                                                                                                                                                                                                                                                                ",
"                                                                                                                                                                                                                                                                                                                                                                                                                                                                                                                                                                                                                                                                                                                                                                                                                                                                                                                                                                                                                                                                                                                                                                                                                                                                                                                                ",
"                                                                                                                                                                                                                                                                                                                                                                                                                                                                                                                                                                                                                                                                                                                                                                                                                                                                                                                                                                                                                                                                                                                                                                                                                                                                                                                                ",
"                                                                                                                                                                                                                                                                                                                                                                                                                                                                                                                                                                                                                                                                                                                                                                                                                                                                                                                                                                                                                                                                                                                                                                                                                                                                                                                                ",
"                                                                                                                                                                                                                                                                                                                                                                                                                                                                                                                                                                                                                                                                                                                                                                                                                                                                                                                                                                                                                                                                                                                                                                                                                                                                                                                                ",
"                                                                                                                                                                                                                                                                                                                                                                                                                                                                                                                                                                                                                                                                                                                                                                                                                                                                                                                                                                                                                                                                                                                                                                                                                                                                                                                                ",
"                                                                                                                                                                                                                                                                                                                                                                                                                                                                                                                                                                                                                                                                                                                                                                                                                                                                                                                                                                                                                                                                                                                                                                                                                                                                                                                                ",
"                                                                                                                                                                                                                                                                                                                                                                                                                                                                                                                                                                                                                                                                                                                                                                                                                                                                                                                                                                                                                                                                                                                                                                                                                                                                                                                                ",
"                                                                                                                                                                                                                                                                                                                                                                                                                                                                                                                                                                                                                                                                                                                                                                                                                                                                                                                                                                                                                                                                                                                                                                                                                                                                                                                                ",
"                                                                                                                                                                                                                                                                                                                                                                                                                                                                                                                                                                                                                                                                                                                                                                                                                                                                                                                                                                                                                                                                                                                                                                                                                                                                                                                                ",
"                                                                                                                                                                                                                                                                                                                                                                                                                                                                                                                                                                                                                                                                                                                                                                                                                                                                                                                                                                                                                                                                                                                                                                                                                                                                                                                                ",
"                                                                                                                                                                                                                                                                                                                                                                                                                                                                                                                                                                                                                                                                                                                                                                                                                                                                                                                                                                                                                                                                                                                                                                                                                                                                                                                                ",
"                                                                                                                                                                                                                                                                                                                                                                                                                                                                                                                                                                                                                                                                                                                                                                                                                                                                                                                                                                                                                                                                                                                                                                                                                                                                                                                                ",
"                                                                                                                                                                                                                                                                                                                                                                                                                                                                                                                                                                                                                                                                                                                                                                                                                                                                                                                                                                                                                                                                                                                                                                                                                                                                                                                                ",
"                                                                                                                                                                                                                                                                                                                                                                                                                                                                                                                                                                                                                                                                                                                                                                                                                                                                                                                                                                                                                                                                                                                                                                                                                                                                                                                                ",
"                                                                                                                                                                                                                                                                                                                                                                                                                                                                                                                                                                                                                                                                                                                                                                                                                                                                                                                                                                                                                                                                                                                                                                                                                                                                                                                                ",
"                                                                                                                                                                                                                                                                                                                                                                                                                                                                                                                                                                                                                                                                                                                                                                                                                                                                                                                                                                                                                                                                                                                                                                                                                                                                                                                                ",
"                                                                                                                                                                                                                                                                                                                                                                                                                                                                                                                                                                                                                                                                                                                                                                                                                                                                                                                                                                                                                                                                                                                                                                                                                                                                                                                                ",
"                                                                                                                                                                                                                                                                                                                                                                                                                                                                                                                                                                                                                                                                                                                                                                                                                                                                                                                                                                                                                                                                                                                                                                                                                                                                                                                                ",
"                                                                                                                                                                                                                                                                                                                                                                                                                                                                                                                                                                                                                                                                                                                                                                                                                                                                                                                                                                                                                                                                                                                                                                                                                                                                                                                                ",
"                                                                                                                                                                                                                                                                                                                                                                                                                                                                                                                                                                                                                                                                                                                                                                                                                                                                                                                                                                                                                                                                                                                                                                                                                                                                                                                                ",
"                                                                                                                                                                                                                                                                                                                                                                                                                                                                                                                                                                                                                                                                                                                                                                                                                                                                                                                                                                                                                                                                                                                                                                                                                                                                                                                                ",
"                                                                                                                                                                                                                                                                                                                                                                                                                                                                                                                                                                                                                                                                                                                                                                                                                                                                                                                                                                                                                                                                                                                                                                                                                                                                                                                                ",
"                                                                                                                                                                                                                                                                                                                                                                                                                                                                                                                                                                                                                                                                                                                                                                                                                                                                                                                                                                                                                                                                                                                                                                                                                                                                                                                                ",
"                                                                                                                                                                                                                                                                                                                                                                                                                                                                                                                                                                                                                                                                                                                                                                                                                                                                                                                                                                                                                                                                                                                                                                                                                                                                                                                                ",
"                                                                                                                                                                                                                                                                                                                                                                                                                                                                                                                                                                                                                                                                                                                                                                                                                                                                                                                                                                                                                                                                                                                                                                                                                                                                                                                                ",
"                                                                                                                                                                                                                                                                                                                                                                                                                                                                                                                                                                                                                                                                                                                                                                                                                                                                                                                                                                                                                                                                                                                                                                                                                                                                                                                                ",
"                                                                                                                                                                                                                                                                                                                                                                                                                                                                                                                                                                                                                                                                                                                                                                                                                                                                                                                                                                                                                                                                                                                                                                                                                                                                                                                                ",
"                                                                                                                                                                                                                                                                                                                                                                                                                                                                                                                                                                                                                                                                                                                                                                                                                                                                                                                                                                                                                                                                                                                                                                                                                                                                                                                                ",
"                                                                                                                                                                                                                                                                                                                                                                                                                                                                                                                                                                                                                                                                                                                                                                                                                                                                                                                                                                                                                                                                                                                                                                                                                                                                                                                                ",
"                                                                                                                                                                                                                                                                                                                                                                                                                                                                                                                                                                                                                                                                                                                                                                                                                                                                                                                                                                                                                                                                                                                                                                                                                                                                                                                                ",
"                                                                                                                                                                                                                                                                                                                                                                                                                                                                                                                                                                                                                                                                                                                                                                                                                                                                                                                                                                                                                                                                                                                                                                                                                                                                                                                                ",
"                                                                                                                                                                                                                                                                                                                                                                                                                                                                                                                                                                                                                                                                                                                                                                                                                                                                                                                                                                                                                                                                                                                                                                                                                                                                                                                                ",
"                                                                                                                                                                                                                                                                                                                                                                                                                                                                                                                                                                                                                                                                                                                                                                                                                                                                                                                                                                                                                                                                                                                                                                                                                                                                                                                                ",
"                                                                                                                                                                                                                                                                                                                                                                                                                                                                                                                                                                                                                                                                                                                                                                                                                                                                                                                                                                                                                                                                                                                                                                                                                                                                                                                                ",
"                                                                                                                                                                                                                                                                                                                                                                                                                                                                                                                                                                                                                                                                                                                                                                                                                                                                                                                                                                                                                                                                                                                                                                                                                                                                                                                                ",
"                                                                                                                                                                                                                                                                                                                                                                                                                                                                                                                                                                                                                                                                                                                                                                                                                                                                                                                                                                                                                                                                                                                                                                                                                                                                                                                                ",
"                                                                                                                                                                                                                                                                                                                                                                                                                                                                                                                                                                                                                                                                                                                                                                                                                                                                                                                                                                                                                                                                                                                                                                                                                                                                                                                                ",
"                                                                                                                                                                                                                                                                                                                                                                                                                                                                                                                                                                                                                                                                                                                                                                                                                                                                                                                                                                                                                                                                                                                                                                                                                                                                                                                                ",
"                                                                                                                                                                                                                                                                                                                                                                                                                                                                                                                                                                                                                                                                                                                                                                                                                                                                                                                                                                                                                                                                                                                                                                                                                                                                                                                                ",
"                                                                                                                                                                                                                                                                                                                                                                                                                                                                                                                                                                                                                                                                                                                                                                                                                                                                                                                                                                                                                                                                                                                                                                                                                                                                                                                                ",
"                                                                                                                                                                                                                                                                                                                                                                                                                                                                                                                                                                                                                                                                                                                                                                                                                                                                                                                                                                                                                                                                                                                                                                                                                                                                                                                                ",
"                                                                                                                                                                                                                                                                                                                                                                                                                                                                                                                                                                                                                                                                                                                                                                                                                                                                                                                                                                                                                                                                                                                                                                                                                                                                                                                                ",
"                                                                                                                                                                                                                                                                                                                                                                                                                                                                                                                                                                                                                                                                                                                                                                                                                                                                                                                                                                                                                                                                                                                                                                                                                                                                                                                                ",
"                                                                                                                                                                                                                                                                                                                                                                                                                                                                                                                                                                                                                                                                                                                                                                                                                                                                                                                                                                                                                                                                                                                                                                                                                                                                                                                                ",
"                                                                                                                                                                                                                                                                                                                                                                                                                                                                                                                                                                                                                                                                                                                                                                                                                                                                                                                                                                                                                                                                                                                                                                                                                                                                                                                                ",
"                                                                                                                                                                                                                                                                                                                                                                                                                                                                                                                                                                                                                                                                                                                                                                                                                                                                                                                                                                                                                                                                                                                                                                                                                                                                                                                                ",
"                                                                                                                                                                                                                                                                                                                                                                                                                                                                                                                                                                                                                                                                                                                                                                                                                                                                                                                                                                                                                                                                                                                                                                                                                                                                                                                                ",
"                                                                                                                                                                                                                                                                                                                                                                                                                                                                                                                                                                                                                                                                                                                                                                                                                                                                                                                                                                                                                                                                                                                                                                                                                                                                                                                                ",
"                                                                                                                                                                                                                                                                                                                                                                                                                                                                                                                                                                                                                                                                                                                                                                                                                                                                                                                                                                                                                                                                                                                                                                                                                                                                                                                                ",
"                                                                                                                                                                                                                                                                                                                                                                                                                                                                                                                                                                                                                                                                                                                                                                                                                                                                                                                                                                                                                                                                                                                                                                                                                                                                                                                                ",
"                                                                                                                                                                                                                                                                                                                                                                                                                                                                                                                                                                                                                                                                                                                                                                                                                                                                                                                                                                                                                                                                                                                                                                                                                                                                                                                                ",
"                                                                                                                                                                                                                                                                                                                                                                                                                                                                                                                                                                                                                                                                                                                                                                                                                                                                                                                                                                                                                                                                                                                                                                                                                                                                                                                                ",
"                                                                                                                                                                                                                                                                                                                                                                                                                                                                                                                                                                                                                                                                                                                                                                                                                                                                                                                                                                                                                                                                                                                                                                                                                                                                                                                                ",
"                                                                                                                                                                                                                                                                                                                                                                                                                                                                                                                                                                                                                                                                                                                                                                                                                                                                                                                                                                                                                                                                                                                                                                                                                                                                                                                                ",
"                                                                                                                                                                                                                                                                                                                                                                                                                                                                                                                                                                                                                                                                                                                                                                                                                                                                                                                                                                                                                                                                                                                                                                                                                                                                                                                                ",
"                                                                                                                                                                                                                                                                                                                                                                                                                                                                                                                                                                                                                                                                                                                                                                                                                                                                                                                                                                                                                                                                                                                                                                                                                                                                                                                                ",
"                                                                                                                                                                                                                                                                                                                                                                                                                                                                                                                                                                                                                                                                                                                                                                                                                                                                                                                                                                                                                                                                                                                                                                                                                                                                                                                                ",
"                                                                                                                                                                                                                                                                                                                                                                                                                                                                                                                                                                                                                                                                                                                                                                                                                                                                                                                                                                                                                                                                                                                                                                                                                                                                                                                                ",
"                                                                                                                                                                                                                                                                                                                                                                                                                                                                                                                                                                                                                                                                                                                                                                                                                                                                                                                                                                                                                                                                                                                                                                                                                                                                                                                                ",
"                                                                                                                                                                                                                                                                                                                                                                                                                                                                                                                                                                                                                                                                                                                                                                                                                                                                                                                                                                                                                                                                                                                                                                                                                                                                                                                                ",
"                                                                                                                                                                                                                                                                                                                                                                                                                                                                                                                                                                                                                                                                                                                                                                                                                                                                                                                                                                                                                                                                                                                                                                                                                                                                                                                                ",
"                                                                                                                                                                                                                                                                                                                                                                                                                                                                                                                                                                                                                                                                                                                                                                                                                                                                                                                                                                                                                                                                                                                                                                                                                                                                                                                                ",
"                                                                                                                                                                                                                                                                                                                                                                                                                                                                                                                                                                                                                                                                                                                                                                                                                                                                                                                                                                                                                                                                                                                                                                                                                                                                                                                                ",
"                                                                                                                                                                                                                                                                                                                                                                                                                                                                                                                                                                                                                                                                                                                                                                                                                                                                                                                                                                                                                                                                                                                                                                                                                                                                                                                                ",
"                                                                                                                                                                                                                                                                                                                                                                                                                                                                                                                                                                                                                                                                                                                                                                                                                                                                                                                                                                                                                                                                                                                                                                                                                                                                                                                                ",
"                                                                                                                                                                                                                                                                                                                                                                                                                                                                                                                                                                                                                                                                                                                                                                                                                                                                                                                                                                                                                                                                                                                                                                                                                                                                                                                                ",
"                                                                                                                                                                                                                                                                                                                                                                                                                                                                                                                                                                                                                                                                                                                                                                                                                                                                                                                                                                                                                                                                                                                                                                                                                                                                                                                                ",
"                                                                                                                                                                                                                                                                                                                                                                                                                                                                                                                                                                                                                                                                                                                                                                                                                                                                                                                                                                                                                                                                                                                                                                                                                                                                                                                                ",
"                                                                                                                                                                                                                                                                                                                                                                                                                                                                                                                                                                                                                                                                                                                                                                                                                                                                                                                                                                                                                                                                                                                                                                                                                                                                                                                                ",
"                                                                                                                                                                                                                                                                                                                                                                                                                                                                                                                                                                                                                                                                                                                                                                                                                                                                                                                                                                                                                                                                                                                                                                                                                                                                                                                                ",
"                                                                                                                                                                                                                                                                                                                                                                                                                                                                                                                                                                                                                                                                                                                                                                                                                                                                                                                                                                                                                                                                                                                                                                                                                                                                                                                                ",
"                                                                                                                                                                                                                                                                                                                                                                                                                                                                                                                                                                                                                                                                                                                                                                                                                                                                                                                                                                                                                                                                                                                                                                                                                                                                                                                                ",
"                                                                                                                                                                                                                                                                                                                                                                                                                                                                                                                                                                                                                                                                                                                                                                                                                                                                                                                                                                                                                                                                                                                                                                                                                                                                                                                                ",
"                                                                                                                                                                                                                                                                                                                                                                                                                                                                                                                                                                                                                                                                                                                                                                                                                                                                                                                                                                                                                                                                                                                                                                                                                                                                                                                                ",
"                                                                                                                                                                                                                                                                                                                                                                                                                                                                                                                                                                                                                                                                                                                                                                                                                                                                                                                                                                                                                                                                                                                                                                                                                                                                                                                                ",
"                                                                                                                                                                                                                                                                                                                                                                                                                                                                                                                                                                                                                                                                                                                                                                                                                                                                                                                                                                                                                                                                                                                                                                                                                                                                                                                                ",
"                                                                                                                                                                                                                                                                                                                                                                                                                                                                                                                                                                                                                                                                                                                                                                                                                                                                                                                                                                                                                                                                                                                                                                                                                                                                                                                                ",
"                                                                                                                                                                                                                                                                                                                                                                                                                                                                                                                                                                                                                                                                                                                                                                                                                                                                                                                                                                                                                                                                                                                                                                                                                                                                                                                                ",
"                                                                                                                                                                                                                                                                                                                                                                                                                                                                                                                                                                                                                                                                                                                                                                                                                                                                                                                                                                                                                                                                                                                                                                                                                                                                                                                                ",
"                                                                                                                                                                                                                                                                                                                                                                                                                                                                                                                                                                                                                                                                                                                                                                                                                                                                                                                                                                                                                                                                                                                                                                                                                                                                                                                                ",
"                                                                                                                                                                                                                                                                                                                                                                                                                                                                                                                                                                                                                                                                                                                                                                                                                                                                                                                                                                                                                                                                                                                                                                                                                                                                                                                                ",
"                                                                                                                                                                                                                                                                                                                                                                                                                                                                                                                                                                                                                                                                                                                                                                                                                                                                                                                                                                                                                                                                                                                                                                                                                                                                                                                                ",
"                                                                                                                                                                                                                                                                                                                                                                                                                                                                                                                                                                                                                                                                                                                                                                                                                                                                                                                                                                                                                                                                                                                                                                                                                                                                                                                                ",
"                                                                                                                                                                                                                                                                                                                                                                                                                                                                                                                                                                                                                                                                                                                                                                                                                                                                                                                                                                                                                                                                                                                                                                                                                                                                                                                                ",
"                                                                                                                                                                                                                                                                                                                                                                                                                                                                                                                                                                                                                                                                                                                                                                                                                                                                                                                                                                                                                                                                                                                                                                                                                                                                                                                                ",
"                                                                                                                                                                                                                                                                                                                                                                                                                                                                                                                                                                                                                                                                                                                                                                                                                                                                                                                                                                                                                                                                                                                                                                                                                                                                                                                                ",
"                                                                                                                                                                                                                                                                                                                                                                                                                                                                                                                                                                                                                                                                                                                                                                                                                                                                                                                                                                                                                                                                                                                                                                                                                                                                                                                                ",
"                                                                                                                                                                                                                                                                                                                                                                                                                                                                                                                                                                                                                                                                                                                                                                                                                                                                                                                                                                                                                                                                                                                                                                                                                                                                                                                                ",
"                                                                                                                                                                                                                                                                                                                                                                                                                                                                                                                                                                                                                                                                                                                                                                                                                                                                                                                                                                                                                                                                                                                                                                                                                                                                                                                                ",
"                                                                                                                                                                                                                                                                                                                                                                                                                                                                                                                                                                                                                                                                                                                                                                                                                                                                                                                                                                                                                                                                                                                                                                                                                                                                                                                                ",
"                                                                                                                                                                                                                                                                                                                                                                                                                                                                                                                                                                                                                                                                                                                                                                                                                                                                                                                                                                                                                                                                                                                                                                                                                                                                                                                                ",
"                                                                                                                                                                                                                                                                                                                                                                                                                                                                                                                                                                                                                                                                                                                                                                                                                                                                                                                                                                                                                                                                                                                                                                                                                                                                                                                                ",
"                                                                                                                                                                                                                                                                                                                                                                                                                                                                                                                                                                                                                                                                                                                                                                                                                                                                                                                                                                                                                                                                                                                                                                                                                                                                                                                                ",
"                                                                                                                                                                                                                                                                                                                                                                                                                                                                                                                                                                                                                                                                                                                                                                                                                                                                                                                                                                                                                                                                                                                                                                                                                                                                                                                                ",
"                                                                                                                                                                                                                                                                                                                                                                                                                                                                                                                                                                                                                                                                                                                                                                                                                                                                                                                                                                                                                                                                                                                                                                                                                                                                                                                                ",
"                                                                                                                                                                                                                                                                                                                                                                                                                                                                                                                                                                                                                                                                                                                                                                                                                                                                                                                                                                                                                                                                                                                                                                                                                                                                                                                                ",
"                                                                                                                                                                                                                                                                                                                                                                                                                                                                                                                                                                                                                                                                                                                                                                                                                                                                                                                                                                                                                                                                                                                                                                                                                                                                                                                                ",
"                                                                                                                                                                                                                                                                                                                                                                                                                HXHXHXHXyXlXwXrXeXrXyXrXrXfXyXyXlXrXlXlXlXyXyXlXfXyXrXeXyXrXyXyXyXyXyXrXrXfXyXyXyXfXHXlXyXyXyXyXlXlXlXfXlXlXlXlXlXlXHXHXlXkXHXHXHXHXlXlXlXlXlXlXlXfXlXlXlXHXHXHXHXHXHXHXHXHXHXHXHXHX    HXHXHXHXHXHXlXHXHXHXlXHXHXHXHXHXHX      HX          HXHXHX                                                                                                                                                                                                                                                                                                                                                                                                                                                                                                                                                                                                                                                              ",
"                                                                                                                                                                                                                                                                                                                                                                                                              4.. 9 4 9 9 + 2 r 5 9 2 @ 2 + 1 + . . . . . . . @ * 2 9 r 9 f 9 w r w 9 w w 9 9 5 9 4 4 * 4 9 w 5 8 4 5 5 9 q 9 u u 9 q 9 9 9 9 9 4 9 9 a f 9 9 p w w 9 9 8 8 4 4 4 4 4 5 2 2 2 2 2 3 * 2 2 5 5 5 2 4 5 5 4 4 9 5 4 5 2 . @ 2 * 2 2 * 2 * 2 5 2 9 9 2 2 2 4 2 3.                                                                                                                                                                                                                                                                                                                                                                                                                                                                                                                                                                                                                                                  ",
"                                                                                                                                                                                                                                                                                                                                                                                                              s.2 9 9 9 8 9 9 5 5 9 9 5 5 9 7 7 6 3 2 2 2 2 4 9 5 9 9 9 9 7 9 7 9 3 4 4 3 3 3 5 9 9 9 9 9 a w 4 9 9 5 9 9 9 9 9 9 9 9 9 9 9 9 4 9 9 9 9 9 9 9 9 9 9 9 9 9 9 9 5 9 4 9 9 9 9 5 9 9 3 3 9 9 9 9 9 9 9 9 9 9 9 9 9 9 3 5 9 9 3 2 9 9 9 9 9 9 2 5 3 9 9 9 r 9 3 3.                                                                                                                                                                                                                                                                                                                                                                                                                                                                                                                                                                                                                                                  ",
"                                                                                                                                                                                                                                                                                                                                                                                                              3.2 4 9 5 9 6 9 3 5 5 3 4 5 3 5 3 5 5 5 5 4 4 4 9 9 9 9 9 7 7 9 9 9 7 5 5 5 5 9 9 9 9 9 9 9 9 9 9 5 5 w 9 7 q 9 7 9 9 9 9 9 9 9 5 5 5 5 9 9 9 7 0 9 9 9 5 9 5 5 9 9 9 9 9 9 5 5 5 5 9 5 9 5 5 9 9 9 5 9 9 5 9 5 5 9 5 5 5 9 9 9 5 9 5 9 5 9 5 9 9 5 9 5 9 5 * 3.                                                                                                                                                                                                                                                                                                                                                                                                                                                                                                                                                                                                                                                  ",
"                                                                                                                                                                                                                                                                                                                                                                                                              3.2 9 7 9 8 9 9 5 5 9 4 4 5 9 5 5 5 5 3 5 4 5 5 5 5 5 9 7 9 9 7 9 7 9 5 9 5 5 5 3 8 9 9 9 8 9 9 9 9 5 9 9 5 9 9 9 9 9 9 9 9 9 9 5 5 0 9 9 q 9 5 9 5 9 q 5 9 3 7 0 5 9 q 5 5 5 9 5 7 0 7 5 9 0 5 5 q 9 9 5 5 5 5 5 5 5 5 5 7 3 3 5 3 5 9 5 5 q 3 5 5 5 9 5 3 + 4.                                                                                                                                                                                                                                                                                                                                                                                                                                                                                                                                                                                                                                                  ",
"                                                                                                                                                                                                                                                                                                                                                                                                              3.6 9 2 2 2 2 9 2 5 5 2 5 5 9 5 3 3 5 2 5 5 9 9 2 4 5 3 9 7 7 7 7 7 9 5 5 q 3 5 3 5 8 9 2 9 9 9 9 5 9 9 5 9 9 9 7 9 9 9 9 0 9 9 5 9 3 9 7 5 5 5 5 5 5 3 9 9 9 9 9 5 5 5 9 9 5 5 5 9 5 7 9 9 9 q 5 3 5 5 5 9 5 9 3 5 9 5 9 0 9 9 9 5 5 3 5 5 5 3 3 9 5 5 9 3 * 4.                                                                                                                                                                                                                                                                                                                                                                                                                                                                                                                                                                                                                                                  ",
"                                                                                                                                                                                                                                                                                                                                                                                                              4.1 2 9 8 9 9 9 5 9 4 5 5 5 5 5 3 2 5 9 5 2 5 4 5 5 5 5 9 9 7 7 7 7 3 5 5 3 5 3 5 9 9 4 9 4 8 9 5 9 5 5 9 5 9 q 9 q 7 7 9 9 5 3 9 5 9 9 5 9 5 5 5 q 3 5 9 5 q 9 9 5 5 5 5 5 5 9 5 5 5 9 5 7 5 9 9 5 5 3 3 9 5 5 q 9 5 5 9 9 5 9 3 9 9 5 9 5 3 5 9 5 5 5 5 3 2 3.                                                                                                                                                                                                                                                                                                                                                                                                                                                                                                                                                                                                                                                  ",
"                                                                                                                                                                                                                                                                                                                                                                                                              3.2 2 2 3 8 6 8 5 5 9 5 4 4 3 5 3 5 5 3 5 9 2 5 4 9 4 5 9 9 9 7 9 9 5 3 3 5 3 5 5 8 9 9 6 9 9 9 9 9 9 5 5 5 9 9 9 7 7 9 7 5 5 9 7 5 3 q 5 5 5 9 5 9 5 5 5 5 5 9 7 9 5 9 5 9 9 9 0 9 5 5 5 5 3 5 5 5 9 q 5 5 5 5 9 5 9 5 5 5 5 5 9 0 5 5 5 9 5 5 5 9 9 5 5 5 0 3.                                                                                                                                                                                                                                                                                                                                                                                                                                                                                                                                                                                                                                                  ",
"                                                                                                                                                                                                                                                                                                                                                                                                              3.2 2 6 8 6 9 4 5 5 5 5 9 5 5 5 5 5 3 5 5 5 2 5 9 9 5 5 7 7 7 7 9 7 3 5 5 5 9 7 7 9 7 9 9 9 9 9 5 7 7 7 9 7 7 7 7 7 7 7 9 9 9 0 7 5 q 9 5 5 5 5 9 5 5 5 5 3 9 9 0 5 5 5 5 5 5 5 3 3 5 9 5 5 3 5 9 q 5 5 9 9 7 5 5 9 5 9 5 5 3 0 7 9 7 9 5 0 7 5 9 0 9 5 9 5 9 3.                                                                                                                                                                                                                                                                                                                                                                                                                                                                                                                                                                                                                                                  ",
"                                                                                                                                                                                                                                                                                                                                                                                                              3.2 6 2 8 9 9 9 5 5 9 5 9 5 3 5 3 5 5 3 5 4 5 5 2 3 5 3 5 7 9 7 7 9 7 7 9 7 9 7 7 7 9 7 7 9 9 9 8 7 7 7 9 7 7 7 7 9 9 9 9 7 7 5 9 5 3 7 7 5 9 5 9 9 9 9 9 7 q 9 9 9 9 5 3 9 5 5 9 7 7 5 9 9 9 5 7 3 5 5 5 7 0 9 5 9 5 5 5 5 9 5 5 5 5 5 5 9 7 5 5 9 9 9 9 5 r 3.                                                                                                                                                                                                                                                                                                                                                                                                                                                                                                                                                                                                                                                  ",
"                                                                                                                                                                                                                                                                                                                                                                                                              3.6 7 2 9 8 9 9 3 5 5 5 5 3 5 5 5 3 5 5 3 5 4 3 5 5 5 3 5 5 5 5 3 q 3 7 7 7 q 9 9 7 9 9 7 7 9 7 7 p 7 9 7 7 q 7 p 9 9 9 9 7 7 9 5 5 5 5 0 5 7 9 5 7 9 5 0 7 3 5 9 0 7 5 q 5 5 3 5 5 0 5 5 5 5 0 7 5 5 5 9 9 9 q 5 5 7 3 9 5 5 9 5 5 5 5 9 5 5 9 3 5 9 5 5 9 f s.                                                                                                                                                                                                                                                                                                                                                                                                                                                                                                                                                                                                                                                  ",
"                                                                                                                                                                                                                                                                                                                                                                                                              3.7 7 2 3 7 7 3 5 9 5 9 4 4 9 5 9 9 5 5 9 3 3 3 5 5 3 5 5 3 3 3 9 3 7 9 7 7 7 7 9 9 7 7 9 7 7 9 7 7 9 7 7 7 7 6 6 9 9 7 7 7 9 5 5 5 9 9 7 0 7 3 9 0 7 9 7 0 7 7 3 9 7 5 9 5 5 5 9 9 5 5 3 9 5 5 9 5 9 5 5 5 5 3 5 0 9 9 3 3 5 5 5 5 5 5 5 5 9 5 q 9 5 5 9 9 9 7X                                                                                                                                                                                                                                                                                                                                                                                                                                                                                                                                                                                                                                                  ",
"                                                                                                                                                                                                                                                                                                                                                                                                              3.9 7 3 7 2 3 9 5 4 4 5 5 5 5 5 5 5 5 5 5 3 3 5 5 3 3 3 3 3 3 5 4 5 5 9 7 9 7 9 7 9 9 9 7 7 9 q 7 7 7 7 7 6 6 6 u 9 9 9 9 9 3 7 0 9 5 5 3 q 3 5 5 7 7 7 9 4 4 5 0 w 9 5 5 5 5 5 5 5 9 5 7 3 7 5 5 9 5 5 9 5 9 5 5 5 5 9 5 5 3 5 5 5 5 3 5 w 5 w 4 5 5 5 5 9 9 J.                                                                                                                                                                                                                                                                                                                                                                                                                                                                                                                                                                                                                                                  ",
"                                                                                                                                                                                                                                                                                                                                                                                                              3.7 9 9 9 5 2 2 3 5 4 2 4 2 2 5 5 5 5 5 3 4 4 4 5 2 2 * 3 5 3 3 3 5 3 7 7 7 7 7 9 9 3 9 9 2 2 x x 2 x x 2 x x 7 7 8 9 6 7 5 9 3 7 5 5 5 3 3 * 2 2 2 + x 7 4 w w 5 4 9 0 r 9 9 5 5 5 5 5 0 3 9 9 5 3 5 5 3 5 9 5 9 5 9 3 7 5 5 5 5 5 4 3 4 4 5 4 4 2 5 3 2 2 x 4XHX                                                                                                                                                                                                                                                                                                                                                                                                                                                                                                                                                                                                                                                ",
"                                                                                                                                                                                                                                                                                                                                                                                                HXHXlXHXHXHXHX7X+.o.@.@.@.X.#.+.+.+.@.#.#.#.9 5 9 5 5 3 { ,.5.,.,.,.,.*.r 3 5 3 5 5 3 7 7 7 7 7 q f 4.3.4.4.1.,.,.*.,.*.:.4Xa.s.9 9 7 9 3 5 9 7 5 5 5 5 3 + #.,.:.,.,.1.;.;.-.5X3.3.4.3.` 4 5 5 5 9 9 9 5 9 5 5 5 3 5 5 3 5 3 5 3 3 7 9 5 3 5 5 - 9 z { #.m m s f r 3 3 l h 3.mX  HX                  HX                                                                                                                                                                                                                                                                                                                                                                                                                                                                                                                                                                                                                        ",
"                                                                                                                                                                                                                                                                                                                                                                                  HXm ` l g a 9 8 9 9 2 a w 2 vXCXZXCXVXVXCXNXNXBXCXBXNXBXMX5 5 q 5 3 * 8XDXCXBXBXBXBXZX{ 5 3 3 3 3 7 7 7 7 7 7 q z mXZXZXZXnXnXBXBXBXBXFXCXDXBX~ 9 9 9 7 0 9 7 5 9 9 8 9 . vXCXnXNXNXCXZXCXZXZXDXZXZXDX3.2 3 5 5 9 5 9 5 5 3 5 5 5 5 3 5 5 5 5 5 9 9 7 0 5 5 5 5 5 lXmXmXmXmXMXmXMXMXMXMXMX7X[ { #.#.[ #.#.#.X.#.+.,.,.=.                                                                                                                                                                                                                                                                                                                                                                                                                                                                                                                                                                                                                      ",
"                                                                                                                                                                                                                                                                                                                                                                                  yX4 w r r 9 9 2 2 5 4 7 2 + cXnXCXBXnXCXnXnXNXBXBXNXNXnXMX5 5 3 5 2 2 s.BXnXNXnXBXnXZXF 5 3 5 3 3 3 6 7 7 3 7 q f nXCXVXNXNXnXNXnXNXNXnXNXBXNXl 9 5 9 9 7 9 7 7 7 3 5 2 . rXZXnXCXVXVXVXCXVXVXCXCXCXCX4.5 3 3 7 9 9 7 7 3 5 9 3 5 5 5 9 5 5 5 5 5 5 q 5 5 5 3 5 2 vXNXVXFXmXmXmXmXnXnXnXCX3.x 5 q 5 2 % x 2 * * 5 z h 9                                                                                                                                                                                                                                                                                                                                                                                                                                                                                                                                                                                                                       ",
"                                                                                                                                                                                                                                                                                                                                                                                  yX4 9 4 9 4 4 9 5 3 5 3 x x cXnXCXnXCXnXCXCXNXBXBXNXNXnXmX9 5 5 3 2 2 J.BXNXnXnXBXBXZX{ 3 5 5 3 7 7 7 7 3 7 7 f j nXBXCXNXNXNXNXNXNXNXNXNXFXBXl 0 5 5 9 7 9 9 7 7 3 9 4 @ cXCXnXNXVXVXCXVXVXVXVXCXNXZX3.3 5 7 7 9 7 7 7 9 5 5 3 5 9 5 5 5 9 3 9 5 5 3 9 5 q 3 5 2 cXNXVXmXFXnXnXnXnXnXNXNX4.+ 3 5 * 3 3 3 2 2 3 9 5 q w                                                                                                                                                                                                                                                                                                                                                                                                                                                                                                                                                                                                                       ",
"                                                                                                                                                                                                                                                                                                                                                                                  yX5 w 4 9 4 5 5 5 7 3 2 x . vXnXCXnXnXCXnXCXVXNXNXNXNXNXmX9 5 5 4 2 * 3.ZXNXNXnXBXnXZX{ 5 3 3 3 7 7 3 3 6 6 3 9 f MXCXNXnXNXnXNXnXNXNXNXFXBXBXn q 5 5 7 7 7 7 9 7 7 5 2 2 vXZXVXVXVXVXCXVXVXVXVXVXCXZX4.3 9 3 7 7 9 7 7 5 5 5 5 3 9 5 9 5 0 9 9 5 5 5 9 5 3 q 7 2 vXNXVXFXVXnXNXnXBXnXnXCX4.2 2 5 5 5 3 5 5 5 5 5 9 9 r                                                                                                                                                                                                                                                                                                                                                                                                                                                                                                                                                                                                                       ",
"                                                                                                                                                                                                                                                                                                                                                                                  rX9 9 4 5 5 9 3 9 5 7 3 6 . vXnXnXBXBXNXCXCXBXNXNXNXNXNXmX5 2 9 5 5 2 4.BXnXNXBXBXBXZX{ 5 5 5 5 7 7 3 3 6 6 6 9 f MXnXNXNXNXVXNXNXNXBXNXBXBXFXl 9 5 9 7 7 7 7 q 7 9 5 5 9 cXZXCXVXVXVXVXVXVXVXVXVXCXCX4.5 3 3 7 7 7 7 7 3 2 3 5 5 5 3 5 3 7 9 3 5 5 9 5 5 3 3 7 3 vXNXNXVXnXnXnXnXnXnXnXCX4.+ 2 3 5 5 5 3 5 5 5 3 5 q 9                                                                                                                                                                                                                                                                                                                                                                                                                                                                                                                                                                                                                       ",
"                                                                                                                                                                                                                                                                                                                                                                                  7X4 9 5 9 5 5 9 5 5 5 9 4 + vXnXnXVXBXCXnXNXCXNXVXVXNXNXmX4 2 9 5 4 5 ,.CXBXNXBXBXNXDX{ 5 5 3 3 7 7 7 7 7 3 3 2 2 MXmXnXVXNXnXnXNXNXNXNXnXnXnXl 9 9 5 9 7 9 7 9 7 7 9 5 r cXZXCXFXVXVXVXVXVXVXZXVXVXFX;.. 2 6 7 7 7 7 7 3 5 5 5 3 5 3 5 3 5 5 5 5 9 5 5 5 5 3 6 2 vXFXnXNXnXnXnXnXnXnXmXCX4.@ 2 3 4 4 5 5 5 5 3 5 5 q 9 lX                                                                                                                                                                                                                                                                                                                                                                                                                                                                                                                                                                                                                    ",
"                                                                                                                                                                                                                                                                                                                                                                                  7X4 9 5 5 8 5 4 5 9 4 4 4 + vXnXnXNXVXNXCXNXNXNXVXVXNXNXMXw 4 5 4 5 4 @.NXmXBXBXBXnXZX{ 2 5 5 5 3 7 7 7 7 6 6 2 9 MXnXnXNXNXNXNXNXNXNXNXNXNXmXf 4 3 3 9 7 7 9 7 7 7 9 2 r cXZXCXCXFXCXVXVXVXFXVXVXFXFX<.2 2 6 7 9 7 7 7 3 3 3 5 5 9 5 5 5 5 3 5 5 7 7 9 9 q 5 7 X lXFXNXnXnXnXnXnXnXmXNXCX4.2 3 3 3 4 3 3 5 5 5 5 5 9 4 yX                                                                                                                                                                                                                                                                                                                                                                                                                                                                                                                                                                                                                    ",
"                                                                                                                                                                                                                                                                                                                                                                                  8X2 9 5 4 5 5 5 9 5 5 5 5 2 vXmXnXnXCXBXVXNXCXVXVXVXNXVXMXw 4 5 5 5 2 +.ZXBXBXBXnXBXZX{ 9 9 5 5 3 7 7 3 3 6 3 2 6 MXnXnXNXnXnXNXnXNXNXNXnXnXmXh 2 3 5 7 7 7 9 7 7 3 9 6 9 cXDXCXCXFXCXVXVXFXCXCXFXFXCX4.2 3 3 9 3 7 3 3 3 3 5 3 5 7 7 3 5 5 5 5 5 5 0 5 5 5 3 6 . vXmXnXFXnXnXnXnXmXnXnXCX4.2 3 2 4 3 3 3 4 5 5 3 5 5 r HX                                                                                                                                                                                                                                                                                                                                                                                                                                                                                                                                                                                                                    ",
"                                                                                                                                                                                                                                                                                                                                                                                  wX2 w 4 5 4 5 5 9 9 5 4 5 2 lXmXnXCXBXnXVXCXNXVXVXVXNXCXMXr 2 9 4 4 5 +.ZXBXBXBXBXCXZX{ 5 2 5 5 7 7 7 7 3 6 x 2 9 MXmXnXNXNXNXNXNXNXNXNXNXnXmXl 3 3 5 7 q 7 7 7 7 7 9 7 2 cXDXCXCXCXCXCXVXCXCXFXCXCXZX3.2 9 2 3 3 5 3 5 5 4 5 3 5 0 3 5 5 4 5 3 9 9 5 9 9 5 3 7 + cXmXmXFXFXnXnXnXnXnXmXZX2.+ 3 3 - 4 4 3 4 5 5 3 5 9 f HX                                                                                                                                                                                                                                                                                                                                                                                                                                                                                                                                                                                                                    ",
"                                                                                                                                                                                                                                                                                                                                                                                  eX6 r 4 4 5 9 9 5 9 9 7 7 3 lXmXnXCXBXNXCXNXNXCXNXCXNXCXMX9 4 w 4 4 w F BXBXBXBXBXBXZX{ 7 2 4 7 7 9 7 7 7 6 6 2 9 MXmXnXnXnXNXnXNXNXNXNXNXnXmXn 6 7 7 7 9 9 7 7 7 7 7 8 6 xXZXFXCXFXCXCXCXCXVXCXCXCXCX3.* 3 3 3 3 5 3 2 9 5 2 5 3 3 5 5 5 3 3 3 5 7 7 9 3 9 3 3 x vXnXFXFXmXFXFXFXmXFXnXVX2.2 5 3 3 3 3 3 3 5 5 3 5 5 r HX                                                                                                                                                                                                                                                                                                                                                                                                                                                                                                                                                                                                                    ",
"                                                                                                                                                                                                                                                                                                                                                                                  eX2 w 9 5 5 4 9 5 5 5 9 9 + lXmXnXCXBXnXCXNXCXnXBXNXnXCXMX9 5 5 5 9 5 #.BXBXBXBXBXBXZX] 8 2 5 9 q 9 9 q 7 6 6 x 9 MXnXnXnXNXNXNXnXNXNXNXnXNXnX{ 6 q 9 7 9 9 7 7 6 3 7 8 i cXDXZXFXCXCXVXCXFXFXCXCXCXCX3.3 9 3 7 3 q 7 9 9 7 2 3 3 3 7 4 5 5 3 3 5 3 7 9 9 9 7 6 1 vXFXFXFXFXFXmXmXFXmXFXVX4.1 3 4 4 3 4 4 3 5 5 2 5 9 f                                                                                                                                                                                                                                                                                                                                                                                                                                                                                                                                                                                                                       ",
"                                                                                                                                                                                                                                                                                                                                                                                  eX. 5 2 9 5 9 5 8 4 5 9 3 2 yXCXNXCXnXnXVXNXCXCXNXBXCXBXcX9 5 5 9 5 4 @.ZXBXBXmXBXBXZXF 1 9 q q q 9 7 9 7 9 7 3 9 MXBXnXNXBXNXNXnXBXBXnXmXCXCX6.2 x 6 x 7 p p i 8 2 5 4 . cXSXDXVXFXFXFXCXCXCXnXFXCXZX3.7 3 7 p 7 q 3 3 9 6 2 x 2 x 2 3 4 3 3 3 3 3 7 7 7 7 3 9 . hXFXmXFXFXFXFXmXmXnXmXNX3.2 3 3 4 3 3 4 5 3 3 3 5 9 g HX                                                                                                                                                                                                                                                                                                                                                                                                                                                                                                                                                                                                                    ",
"                                                                                                                                                                                                                                                                                                                                                                                  wX. 9 5 9 5 4 5 5 9 9 5 5 * lXnXBXCXnXCXnXBXNXnXCXNXCXCXyX4 9 4 5 4 - 3.BXZXBXZXZXDXDX{ 2 . 3 9 9 7 7 7 7 q 3 x z MXnXmXnXmXmXnXnXnXnXmXmXnXMXX.X.@.#.[ 6.{ { F l l [ X.+.cXDXCXZXCXFXCXFXFXmXmXCXZXZX3.[ @.@.@.+.X.#.X.X.X.' n ` f 2 3 3 4 3 5 2 q l k k n z l i xXmXFXFXmXFXmXmXnXnXFXNX2.2 5 5 3 4 3 4 5 3 4 5 5 5 r lX                                                                                                                                                                                                                                                                                                                                                                                                                                                                                                                                                                                                                    ",
"                                                                                                                                                                                                                                                                                                                                                                                  eX@ 9 5 9 4 5 5 9 5 8 5 4 2 yXnXNXCXBXNXNXCXnXCXCXnXCXZXyX3 3 5 5 5 5 9 m r l l 9 4 @ mXBXDXDXZXnXnXBXmXnXCXZXCXSX,.z 7 q 9 q 4 2 9 9 1 1 . . cXCXZXBXCXZXZXCXCXCXZXCXZXDXyXp j r r f f z z n a f h 6 MXDXSXSXSXSXSXDXZXZXNXCXCXBXwXX 7 7 3 3 3 7 lXDXCXZXZXCXNXCXmXmXnXmXnXmXmXFXmXFXFXFX1.7 7 7 7 7 3 7 3 3 3 3 5 5 3                                                                                                                                                                                                                                                                                                                                                                                                                                                                                                                                                                                                                       ",
"                                                                                                                                                                                                                                                                                                                                                                                  eX. 5 5 5 9 5 4 5 5 5 4 4 2 yXCXNXCXnXNXNXnXNXBXNXnXCXCXvX5 q 5 9 5 5 9 4 5 w f q w * mXBXnXBXBXnXnXnXnXmXCXCXCXDX4.q 3 3 6 6 5 5 9 w w 9 9 5 vXBXBXBXBXFXFXBXCXNXNXCXCXCXrXq 9 * 2 + + 2 2 2 2 5 2 2 cXDXCXCXCXCXCXnXNXnXmXmXnXmXwXx 3 7 3 x 3 + 7XnXnXmXnXnXnXNXnXnXmXnXnXmXmXmXFXmXFXFX1.7 7 7 x 7 3 = 3 3 3 3 3 3 5                                                                                                                                                                                                                                                                                                                                                                                                                                                                                                                                                                                                                       ",
"                                                                                                                                                                                                                                                                                                                                                                                  rX. 4 4 5 9 9 9 5 5 9 2 3 3 yXCXCXCXNXNXNXNXCXNXCXCXCXBXcX3 9 9 9 5 9 9 5 9 9 r 9 q 2 mXCXBXBXBXBXnXBXnXnXBXBXBXDX4.q 3 5 3 3 5 w 5 9 5 5 5 9 cXBXBXBXCXBXFXBXNXNXNXCXnXnXwXx 5 3 3 5 6 2 5 5 5 9 4 2 cXCXCXCXCXCXCXnXCXnXnXnXFXFXwX+ 3 3 3 3 3 x wXFXBXmXnXnXnXnXmXmXnXmXmXnXFXmXmXFXmXFX2.7 x 3 3 3 3 3 3 3 3 3 3 3 5                                                                                                                                                                                                                                                                                                                                                                                                                                                                                                                                                                                                                       ",
"                                                                                                                                                                                                                                                                                                                                                                                  rXX 2 5 9 5 5 5 9 9 4 3 9 + lXCXCXNXNXNXNXCXnXNXNXNXCXnXcX2 9 9 5 5 9 q 5 9 5 9 9 q 2 MXNXBXBXnXnXBXnXBXnXBXnXnXZX4.q 5 q 3 9 5 9 9 5 9 9 9 w lXBXBXNXFXBXBXBXCXnXnXnXnXnX7X+ 2 5 5 9 9 5 9 5 5 5 3 1 cXmXnXNXnXNXnXnXnXnXnXNXFXFXlX3 3 3 3 3 3 3 wXFXnXnXmXmXnXmXnXnXmXmXmXnXmXFXmXFXmXFX2.p 3 3 3 3 3 3 3 3 3 x 3 3 5                                                                                                                                                                                                                                                                                                                                                                                                                                                                                                                                                                                                                       ",
"                                                                                                                                                                                                                                                                                                                                                                                  rX. 2 4 9 9 4 5 5 5 5 5 3 . lXCXCXCXNXBXFXNXCXNXCXCXNXnXcX2 3 9 5 5 5 5 5 q 5 q q q 2 mXnXnXnXnXnXnXnXBXnXnXBXnXZX4.9 9 5 5 9 9 5 w 9 5 9 9 r lXCXBXnXBXBXBXBXBXFXBXFXCXnX7Xx 5 5 9 9 9 5 9 5 9 5 2 . lXnXnXNXNXNXNXNXnXnXNXVXnXBXvX7 5 5 5 5 7 3 wXnXnXnXnXnXFXmXFXmXmXFXmXmXmXFXmXmXFXFX1.7 3 3 3 3 3 3 3 3 4 2 2 3 9                                                                                                                                                                                                                                                                                                                                                                                                                                                                                                                                                                                                                       ",
"                                                                                                                                                                                                                                                                                                                                                                                  yXX 2 5 5 5 9 8 9 5 9 4 2 * lXnXFXnXBXCXNXBXnXNXNXCXnXnXcX* 5 9 9 5 9 5 9 9 9 9 9 q 2 MXnXBXnXnXBXBXnXnXBXBXBXNXDX4.5 9 9 5 9 9 5 5 5 9 9 9 3 lXCXBXBXBXBXBXBXFXBXFXBXnXnXwXx 9 5 0 9 q 5 q q 5 9 9 . lXmXnXFXnXNXnXnXnXnXVXVXnXCXlXx 5 5 2 5 3 3 yXCXmXnXmXmXnXFXmXmXFXmXmXFXmXFXFXmXFXFXa.x x 3 3 3 3 = 3 3 = 3 2 2 9                                                                                                                                                                                                                                                                                                                                                                                                                                                                                                                                                                                                                       ",
"                                                                                                                                                                                                                                                                                                                                                                                  yXX 2 4 9 5 5 5 5 5 5 5 3 2 lXnXBXBXnXnXnXFXBXCXNXCXCXnXcX= 3 5 5 5 9 5 5 q 5 9 q q + MXBXNXnXnXnXBXnXnXBXnXBXBXZX4.9 9 9 9 9 5 9 9 5 5 9 r 9 lXBXBXnXBXBXnXnXBXFXFXFXnXCXwX+ 9 5 9 9 5 9 9 9 9 5 5 . lXmXnXnXNXNXNXNXNXnXNXVXNXNXlX2 5 3 5 3 3 9 yXCXnXmXnXnXmXnXmXFXFXmXFXmXFXmXFXFXFXFX4Xx 3 3 3 3 3 3 3 3 2 3 2 * 9                                                                                                                                                                                                                                                                                                                                                                                                                                                                                                                                                                                                                       ",
"                                                                                                                                                                                                                                                                                                                                                                                  yX. 2 4 5 5 9 5 9 5 5 9 2 3 lXNXnXNXCXnXCXNXNXnXCXCXNXnXcX6 3 5 5 5 9 5 5 q 9 q q r & MXBXnXNXBXnXnXBXBXnXBXBXnXZX4.q 9 0 9 5 9 9 5 9 9 5 9 3 cXBXBXnXBXBXBXBXBXBXFXCXCXnXwXx 5 9 5 0 9 5 q 9 5 9 r 2 lXmXnXnXNXnXNXNXNXNXNXVXNXnXyXx 5 5 2 5 3 3 yXCXnXnXmXnXFXmXFXmXFXmXVXmXmXFXFXFXFXZX:.x x 3 3 3 3 x 3 3 4 2 2 2 9                                                                                                                                                                                                                                                                                                                                                                                                                                                                                                                                                                                                                       ",
"                                                                                                                                                                                                                                                                                                                                                                                  yXX 2 5 5 9 9 9 9 9 9 9 9 6 lXnXFXNXNXBXNXNXNXNXBXNXNXnXcX3 3 9 5 5 5 9 9 9 9 q 9 r 2 MXnXNXNXnXNXNXnXBXnXNXnXnXZX3.3 7 q 7 7 7 7 q 7 q 9 9 q lXCXBXBXNXNXnXCXFXBXBXFXNXCXwXx 5 5 5 5 9 5 5 5 9 9 9 6 lXmXnXNXNXNXNXNXCXNXnXnXnXVXrX. 3 4 3 2 7 3 yXCXFXmXnXnXnXnXmXVXmXmXFXFXFXFXmXFXFXFX4Xx 3 4 2 2 2 2 * 2 2 3 * * w                                                                                                                                                                                                                                                                                                                                                                                                                                                                                                                                                                                                                       ",
"                                                                                                                                                                                                                                                                                                                                                                                  yXX 2 5 9 4 5 9 9 9 9 7 7 2 lXnXnXNXNXnXCXNXNXNXNXBXNXNXcX3 5 5 5 5 5 5 5 5 q 9 q f 9 mXnXNXNXBXNXnXBXNXnXBXNXNXZX3.7 7 7 7 q 7 7 3 q 9 9 5 5 vXCXBXnXNXnXCXnXFXCXNXBXNXCXwXx 5 4 5 q 5 q q 5 9 9 r 2 lXFXNXNXNXNXNXNXnXnXCXnXnXVXlXX 3 3 3 - 7 3 rXCXFXFXmXmXnXnXFXmXVXFXFXFXFXFXFXFXFXFX4X6 * 4 4 * 2 2 5 2 3 2 2 2 9                                                                                                                                                                                                                                                                                                                                                                                                                                                                                                                                                                                                                       ",
"                                                                                                                                                                                                                                                                                                                                                                                  eX@ 4 5 4 5 5 9 5 9 9 7 7 x lXnXFXNXNXCXnXBXnXNXNXNXNXNXcX* 9 5 5 5 5 5 5 5 9 9 9 9 2 mXNXNXNXnXBXBXnXNXnXBXBXBXDX4.9 q 7 7 7 9 9 9 7 7 9 5 q vXCXBXnXBXCXNXNXNXBXBXBXFXCX7Xx 5 4 5 q 5 5 q 9 9 9 9 1 lXFXFXNXNXNXNXNXVXCXNXVXFXCXlXX 3 3 3 3 7 x rXBXFXnXnXnXnXnXnXFXFXmXFXmXFXmXFXFXFXFX4Xx 2 5 4 4 4 3 2 3 2 3 * 2 9                                                                                                                                                                                                                                                                                                                                                                                                                                                                                                                                                                                                                       ",
"                                                                                                                                                                                                                                                                                                                                                                                  eX4 5 9 9 4 9 5 9 9 8 7 7 2 lXNXNXNXNXnXCXnXCXNXBXNXBXNXcX3 3 9 5 5 5 5 5 5 q q 9 9 x mXCXNXNXNXnXNXnXBXNXnXNXFXZX3.7 7 7 7 q 9 9 9 0 0 5 9 9 lXCXnXFXCXnXNXCXNXBXFXBXFXFXwX+ 5 5 5 9 9 9 5 5 5 9 7 . lXmXFXNXNXNXNXVXVXNXNXnXFXCXlX. 3 4 3 3 7 X rXBXnXnXnXnXnXnXFXFXFXFXFXFXFXFXmXmXFXFXa.6 4 3 2 3 4 3 5 2 3 2 2 * a                                                                                                                                                                                                                                                                                                                                                                                                                                                                                                                                                                                                                       ",
"                                                                                                                                                                                                                                                                                                                                                                                  eX* 4 4 5 4 5 4 9 9 9 8 9 2 yXNXNXNXNXNXNXCXnXCXCXNXNXBXcX= 3 5 5 5 3 5 5 9 9 q 9 9 . mXCXNXNXnXnXNXNXBXnXNXnXNXZX1.7 7 7 7 7 0 9 9 9 9 7 q 7 GXBXBXnXCXnXCXnXnXCXCXBXCXCXwXx 4 5 5 5 9 9 9 9 5 q 5 . lXNXNXNXNXNXVXNXNXNXnXNXFXVXlX. 3 3 3 3 3 x rXFXFXmXFXnXFXFXmXFXFXnXFXmXmXFXmXmXnXVX4.2 5 3 4 2 4 3 5 2 2 3 2 2 f                                                                                                                                                                                                                                                                                                                                                                                                                                                                                                                                                                                                                       ",
"                                                                                                                                                                                                                                                                                                                                                                                  eX2 5 5 4 9 5 4 9 9 9 9 6 6 lXNXNXNXNXNXNXnXBXNXNXCXNXNXcX2 6 9 3 5 5 5 5 5 9 9 q 5 . mXBXNXBXnXBXNXnXnXBXnXBXnXZX1.6 7 p q 7 9 9 9 0 9 0 3 3 cXnXnXnXBXnXnXCXnXBXFXnXnXCXwXx w 5 5 9 9 9 0 5 5 9 2 . lXFXNXVXNXNXnXNXnXNXVXnXFXVXiXX 3 3 3 3 7 x yXCXFXnXnXnXFXmXFXFXFXnXFXFXFXFXmXFXmXCX3.* 2 4 3 4 2 5 2 5 3 4 2 2 9                                                                                                                                                                                                                                                                                                                                                                                                                                                                                                                                                                                                                       ",
"                                                                                                                                                                                                                                                                                                                                                                                  rX4 4 5 5 5 5 9 9 9 9 5 9 9 lXNXNXnXNXNXNXNXnXNXNXCXNXnXvX2 9 3 5 5 5 5 5 5 q 9 9 7 + mXCXBXnXnXnXNXnXNXnXNXnXNXZXa.7 7 7 q 7 9 9 9 9 9 9 3 3 cXBXBXBXCXFXNXnXBXBXBXCXFXCX7Xx 5 5 5 q 5 9 5 9 9 9 5 . kXNXNXNXNXVXnXnXNXNXNXVXFXCXlXX 2 7 6 3 7 x rXFXFXmXnXnXmXFXFXmXFXFXFXmXFXmXmXFXnXCX3.2 3 4 4 3 5 3 3 3 3 5 2 + h                                                                                                                                                                                                                                                                                                                                                                                                                                                                                                                                                                                                                       ",
"                                                                                                                                                                                                                                                                                                                                                                                  eX2 4 5 9 9 5 5 5 5 4 4 5 5 rXCXnXCXNXNXNXFXCXNXNXCXNXNXcX* 9 3 3 5 5 5 5 5 9 9 9 9 = mXCXnXNXNXNXnXnXnXBXnXBXnXCX4Xi 7 7 7 7 7 0 9 9 9 9 7 9 cXBXnXBXBXBXnXCXFXCXBXFXnXCX7X7 5 9 5 5 9 5 9 5 9 9 4 . lXFXVXNXnXnXVXNXCXnXNXnXNXVXlXX 2 2 3 6 3 7 yXCXFXmXnXnXnXnXFXmXFXFXmXFXmXFXmXmXnXFX3.2 5 5 2 4 2 2 7 6 3 3 2 2 l                                                                                                                                                                                                                                                                                                                                                                                                                                                                                                                                                                                                                       ",
"                                                                                                                                                                                                                                                                                                                                                                                  rX2 5 5 9 5 9 5 4 5 5 3 3 5 yXVXNXNXVXNXNXNXNXNXNXCXNXCXcX2 9 5 5 4 5 5 5 5 9 9 q 5 2 mXCXnXnXBXnXnXnXBXnXBXnXFXZXa.7 7 9 5 q 0 9 9 7 9 9 9 9 cXnXNXNXNXNXNXNXBXFXBXBXFXBX7X= 7 7 9 9 9 0 7 9 5 9 9 . lXFXFXNXNXnXNXNXnXNXnXVXFXCXlXX 2 5 5 5 3 x lXFXnXnXnXFXnXnXnXnXnXmXFXmXmXmXFXFXFXFX3.7 7 3 3 3 3 3 7 7 6 3 3 6 g                                                                                                                                                                                                                                                                                                                                                                                                                                                                                                                                                                                                                       ",
"                                                                                                                                                                                                                                                                                                                                                                                  eX4 9 5 3 5 3 5 5 9 5 5 q 5 rXVXNXVXVXNXNXNXNXNXNXCXNXCXcX2 5 5 5 9 2 3 9 9 9 9 9 5 5 NXCXnXnXnXnXnXnXnXnXnXnXFXZX4X9 9 9 9 5 9 9 9 0 9 9 7 9 cXCXBXNXNXNXNXBXFXBXFXFXFXBX7X3 7 7 7 7 7 7 9 9 5 9 9 . lXVXNXNXNXnXnXNXNXNXnXnXFXVXlXX 2 2 5 5 3 + yXnXmXFXnXnXFXnXnXFXmXFXmXFXFXmXmXmXFXFX4.7 3 3 3 x 2 2 6 3 3 6 6 9 l                                                                                                                                                                                                                                                                                                                                                                                                                                                                                                                                                                                                                       ",
"                                                                                                                                                                                                                                                                                                                                                                                  yX* 9 3 5 5 5 9 5 9 4 5 9 * yXVXVXVXVXNXNXNXNXNXCXNXNXCXcX. 2 5 5 3 5 9 5 5 5 9 r 5 5 mXBXnXnXnXBXnXBXnXnXBXnXFXFX3.9 7 9 5 9 9 9 5 9 9 9 7 2 cXCXnXBXNXNXNXNXBXBXBXBXBXCXwX3 3 7 7 0 9 5 3 5 9 9 9 . lXVXFXnXNXnXNXnXNXnXnXnXFXNXrX. 2 5 5 2 3 7 wXnXFXnXnXFXFXFXmXmXFXFXmXmXmXmXmXmXmXFX1.7 2 3 3 6 2 3 3 2 6 x 9 f g                                                                                                                                                                                                                                                                                                                                                                                                                                                                                                                                                                                                                       ",
"                                                                                                                                                                                                                                                                                                                                                                                  yX2 q 5 9 5 9 5 5 5 5 5 5 4 yXVXVXNXNXVXNXNXNXnXNXNXCXBXcX. 2 5 5 5 4 5 5 9 5 9 9 5 5 mXmXnXnXBXnXnXnXBXnXnXnXFXCX3.7 9 9 9 9 5 9 5 9 9 q 9 9 cXnXBXBXNXBXnXBXBXCXFXFXFXCX7X7 3 7 q 7 9 9 5 9 9 9 9 . vXFXFXFXNXNXNXnXnXNXnXnXFXFXrX2 5 4 3 5 3 7 rXCXmXFXFXnXmXFXFXFXmXmXFXmXnXmXmXmXmXFX1.p 3 6 6 x 3 2 6 7 3 3 9 9 z                                                                                                                                                                                                                                                                                                                                                                                                                                                                                                                                                                                                                       ",
"                                                                                                                                                                                                                                                                                                                                                                                  lX. 9 5 5 5 5 9 8 5 5 4 4 * yXCXCXVXVXNXNXNXNXBXNXNXnXCXcX. 7 9 2 5 3 5 5 5 9 9 q 3 2 nXMXnXnXnXnXnXnXBXnXnXnXFXCX4X6 7 9 9 5 q 5 9 0 9 9 9 q cXnXBXFXBXBXBXCXBXCXFXBXnXnX7Xx 5 9 5 9 5 9 5 9 9 3 9 1 vXMXnXnXnXNXnXNXnXnXnXnXnXNXyX7 5 5 5 2 7 3 yXnXnXnXnXnXnXnXFXmXFXFXmXmXmXmXmXmXmXFX4.w 3 3 2 4 2 3 3 2 3 2 6 7 g                                                                                                                                                                                                                                                                                                                                                                                                                                                                                                                                                                                                                       ",
"                                                                                                                                                                                                                                                                                                                                                                                  lX@ 5 2 5 5 5 5 5 3 5 4 4 4 yXZXVXVXVXNXNXNXNXNXNXCXnXBXcXx 2 5 5 4 5 9 5 7 0 9 q 9 3 NXmXnXnXBXnXBXnXnXnXBXnXmXCX3.7 5 9 9 5 3 9 9 9 q 5 5 9 cXFXBXFXFXBXCXFXCXFXCXBXnXnX8X. 5 3 5 5 5 5 5 5 5 3 9 * lXmXnXnXnXnXnXnXNXnXNXnXnXNXrX6 2 8 7 9 7 7 yXFXFXmXmXnXnXFXmXnXmXmXmXmXmXmXmXmXmXVX4.w 3 5 5 2 7 2 2 2 3 3 3 6 l                                                                                                                                                                                                                                                                                                                                                                                                                                                                                                                                                                                                                       ",
"                                                                                                                                                                                                                                                                                                                                                                                  HX* 4 2 9 4 5 5 8 5 5 4 4 4 eXZXCXVXVXFXFXNXNXNXNXCXNXBXGX9 7 5 4 5 5 5 9 3 9 9 q q 7 NXBXnXnXnXnXnXnXnXnXnXnXFXCX3.7 3 9 9 5 5 5 9 9 5 9 5 9 cXnXBXCXCXBXFXBXCXBXBXBXnXmXwX+ 5 5 3 9 0 5 5 9 5 3 7 2 lXmXnXnXnXnXNXnXnXnXnXnXFXCXyX7 6 9 7 7 9 q rXFXFXFXmXnXnXmXnXmXmXnXFXmXmXmXmXmXmXVX4.0 5 5 3 3 7 9 3 3 3 3 3 5 l                                                                                                                                                                                                                                                                                                                                                                                                                                                                                                                                                                                                                       ",
"                                                                                                                                                                                                                                                                                                                                                                                  HX@ 5 4 5 3 4 5 5 5 3 4 4 4 qXZXVXNXVXFXFXNXNXNXNXnXCXCXcX9 7 2 5 5 9 5 5 3 5 5 9 p 0 BXnXnXNXBXnXBXnXBXnXnXnXFXZXs.q q 5 5 5 9 q 5 9 5 5 q j GXnXCXBXnXFXCXBXFXBXFXCXBXCXwX3 5 2 3 9 9 9 5 5 9 3 9 u lXFXNXnXNXNXnXnXnXnXFXnXFXCXlX7 6 9 7 6 9 q lXCXFXFXFXnXnXnXmXnXnXmXmXmXmXmXmXmXmXVX3.5 5 3 3 3 3 2 2 5 3 3 9 q l                                                                                                                                                                                                                                                                                                                                                                                                                                                                                                                                                                                                                       ",
"                                                                                                                                                                                                                                                                                                                                                                                  yX@ 2 4 5 5 5 4 9 3 5 5 5 2 eXVXVXVXVXVXVXNXNXNXNXNXNXCXMX5 2 5 4 5 9 5 5 5 3 9 q r r nXmXnXnXnXNXNXNXnXnXnXnXFXZX7Xp 7 7 7 7 5 9 5 5 9 9 9 r cXCXCXFXnXCXCXCXnXCXCXnXBXCXrX7 5 5 5 5 9 5 9 9 3 5 q 9 kXnXFXnXnXnXnXnXnXnXNXnXnXFXlX7 3 6 6 6 7 x wXCXnXnXnXmXnXnXmXnXmXmXmXmXmXmXmXmXmXBX3.5 9 2 2 3 3 3 5 2 3 5 q q z                                                                                                                                                                                                                                                                                                                                                                                                                                                                                                                                                                                                                       ",
"                                                                                                                                                                                                                                                                                                                                                                                  yX. 2 2 5 2 4 4 5 5 5 3 9 2 wXVXVXVXVXVXVXNXVXCXNXNXNXCXcX5 2 9 2 5 2 9 5 5 9 9 9 9 2 nXmXnXnXNXNXnXnXnXnXnXnXFXCX5X7 7 7 7 q 5 q 5 q 5 q q 2 cXCXFXCXCXCXnXCXnXCXCXCXBXCXrX7 9 5 5 9 7 7 5 5 3 9 9 r lXFXnXnXnXnXnXnXnXnXnXnXnXnXwXx 7 7 7 7 7 q rXnXmXnXmXnXnXmXnXnXnXmXnXmXmXnXmXmXmXnX3.4 5 3 5 6 7 3 5 5 3 5 9 5 w                                                                                                                                                                                                                                                                                                                                                                                                                                                                                                                                                                                                                       ",
"                                                                                                                                                                                                                                                                                                                                                                                  wXX 2 2 5 4 5 5 5 9 5 2 5 2 8XVXVXNXNXVXnXnXVXNXNXBXCXCXcX5 5 5 4 4 5 9 5 5 5 9 5 9 2 CXnXnXnXNXNXNXnXnXnXnXnXFXCXa.6 3 3 7 7 9 5 5 5 5 q q 2 cXnXFXCXCXnXFXCXCXCXCXCXCXZXrX7 9 5 5 5 5 0 5 9 5 9 9 9 lXCXnXnXnXnXnXNXNXnXnXmXnXnXtXX 3 7 7 7 7 3 wXCXnXnXnXnXnXmXnXmXmXmXmXnXmXmXmXnXmXmX3.4 2 5 3 7 6 3 3 3 5 4 3 5 a                                                                                                                                                                                                                                                                                                                                                                                                                                                                                                                                                                                                                       ",
"                                                                                                                                                                                                                                                                                                                                                                                  eXX 2 4 2 2 5 2 9 5 5 5 5 2 wXCXVXnXnXFXFXnXnXnXnXCXZXZXMXg 5 9 5 5 9 5 9 5 5 5 9 2 2 ZXnXnXnXBXBXBXBXNXBXNXNXnXCX4Xi 3 q 7 7 5 9 5 3 9 5 5 3 lXCXnXnXnXnXnXCXZXCXZXZXZXDXwX7 5 9 5 9 5 9 5 5 5 5 5 9 vXCXNXNXNXnXBXNXmXmXmXmXmXmX7Xx x 7 7 6 7 x rXnXmXmXmXFXFXFXnXnXnXMXnXnXNXmXmXmXmXmX4.; 2 5 5 7 9 3 3 2 3 3 4 * 9                                                                                                                                                                                                                                                                                                                                                                                                                                                                                                                                                                                                                       ",
"                                                                                                                                                                                                                                                                                                                                                                                  8X. 2 2 9 8 9 9 8 9 2 5 9 2 7XVXnXnXmXmXmXnXmXnXmXVXNXnXGX9 9 5 5 9 9 9 9 9 5 9 5 5 1 mXmXmXmXnXBXnXmXmXmXmXmXMXNX4.* 3 q 7 7 9 5 9 q 9 9 7 2 lXmXMXMXmXmXmXnXnXnXnXnXnXnX7X7 5 9 5 5 5 9 5 5 9 7 7 7 lXnXmXnXnXmXnXMXMXMXMXMXMXMXs.x = 3 3 3 q x wXMXMXMXMXMXmXMXMXMXMXMXmXmXmXMXMXMXcXMX:.. 3 2 8 2 2 7 7 7 2 7 7 2 a                                                   HX  HX                                                                                                                                                                                                                                                                                                                                                                                                                                                                                                                                                              ",
"                                                                                                                                                                          4.@ 2 5 9 9 w f g w 4 4 4 4 4 4 * 4 @ 4 @ @ 4 w w w w r a r r g w a w w r g k g a w 9 9 4 w 5 9 w w 9 w 9 9 w w 9 g g f g g j j z f r f f f g g a w 9 9 4 4 w 8 8 9 9 9 w w a l g g l g k g g z 9 4 4 2 4 . 2 6 9 2 3 9 7 8 9 8 2 2 9 9 f 9 @ @ 6 9 9 4 4 r j f j a 9 5 9 5 5 5 5 5 5 9 9 5 + 5 4 q 9 5 f f y r f r f 3 7 + 3 7 7 9 0 5 5 5 5 9 9 7 x x x x 3 x 7 7 7 7 q p p p n 7 7 2 3 9 5 5 5 9 5 7 9 9 9 f z l h h h k 9 5 3 * @ x x + x 3 3 3 3 7 7 3 3 7 x x p z p p q 7 q p z j r 4 * 4 + . 2 9 2 2 7 7 7 7 7 7 7 7 2 * 1 8 2 f 9 j l h f r f w g f f r r r f f g h g f 4 @ * X eX                                                                                                                                                                                                                                                                                                                                                                                                                                                                                                                                                            ",
"                                                                                                                                                                          4.2 4 5 9 9 9 4 5 9 5 4 5 5 5 5 w w w 5 w w 4 5 4 4 4 4 8 5 9 9 5 5 5 5 5 4 5 5 9 9 9 w w w 9 9 w 9 9 9 w w 9 9 g 9 w r 9 9 9 9 9 f 9 9 w 9 w 9 w 5 4 5 4 9 4 5 4 4 7 6 7 8 3 9 9 9 9 9 9 9 r 9 5 4 2 2 2 2 9 9 6 5 8 3 8 8 3 6 2 6 7 9 9 9 2 2 9 9 9 9 9 9 9 9 9 9 5 5 5 5 9 9 5 9 5 5 5 3 3 5 5 9 9 9 q r 5 9 5 5 3 5 5 3 3 9 3 3 7 9 5 5 9 5 q 3 7 7 3 3 7 7 q 7 q q p q 7 7 q 3 7 9 9 5 5 9 5 5 5 9 9 7 7 9 9 7 7 8 8 9 2 9 2 2 2 7 x 3 3 3 3 q 3 7 7 3 7 q 7 q 7 7 7 7 7 7 7 q 7 5 9 2 * 2 2 2 9 2 6 9 2 7 7 7 7 7 7 2 7 2 2 2 2 7 9 9 9 9 9 9 5 7 5 5 9 8 3 3 3 5 r r 9 r 5 5 5 X 0X                                                                                                                                                                                                                                                                                                                                                                                                                                                                                                                                                            ",
"                                                                                                                                                                          3.2 5 4 4 5 9 5 4 4 5 5 4 9 5 5 4 5 5 9 5 9 5 9 9 4 9 5 4 5 4 4 5 5 4 8 5 5 5 4 4 2 5 5 4 8 5 5 5 5 4 5 9 9 5 4 2 9 5 9 5 5 9 7 9 9 9 9 9 8 9 5 4 5 5 8 5 5 5 5 5 3 7 7 7 3 9 5 9 5 5 9 5 5 5 5 5 2 5 5 2 5 9 9 2 6 9 9 3 7 8 9 2 9 9 2 8 6 8 9 9 8 9 9 8 9 9 5 5 9 5 5 9 5 9 5 5 5 5 5 5 3 5 9 0 7 7 0 5 5 5 3 5 3 5 3 3 3 5 5 7 7 0 3 5 5 3 3 7 7 7 7 7 7 7 7 7 7 7 7 7 7 7 7 7 7 7 9 9 9 5 5 5 3 9 7 7 9 7 9 9 9 9 9 9 9 9 6 5 8 2 7 7 7 7 3 3 3 7 7 7 3 7 3 7 7 7 7 3 7 7 7 7 7 7 5 3 5 3 3 2 3 8 9 2 8 9 6 7 7 7 7 7 7 7 7 5 2 8 2 9 3 5 5 5 3 9 5 3 3 3 3 5 9 5 4 5 3 5 5 5 5 3 X eX                                                                                                                                                                                                                                                                                                                                                                                                                                                                                                                                                            ",
"                                                                                                                                                                          3.@ 8 4 8 8 5 7 5 7 3 7 5 7 9 5 9 5 9 5 5 9 5 5 9 5 5 9 5 5 5 9 5 5 9 5 5 4 5 5 5 5 9 5 5 5 9 5 9 5 9 5 5 9 5 5 9 5 5 9 5 9 6 9 9 9 9 8 9 9 7 9 3 5 9 5 5 5 5 5 9 3 7 7 7 7 9 7 7 5 9 9 5 5 5 5 5 5 5 5 5 7 9 6 2 9 6 6 6 9 8 9 2 9 8 3 8 9 6 9 9 9 2 6 9 9 9 8 3 4 5 4 9 5 9 5 5 5 3 3 3 3 5 9 5 5 9 5 5 5 3 9 9 3 5 3 5 5 5 5 5 5 5 3 5 3 5 5 9 7 7 7 9 9 9 7 9 9 7 7 7 2 9 9 9 9 9 9 7 7 7 7 7 9 7 7 9 7 9 9 9 9 7 6 7 9 9 7 7 8 7 9 8 6 9 3 5 3 5 5 9 3 7 7 3 7 7 7 7 7 7 7 7 7 7 5 5 3 9 5 5 9 5 7 2 9 6 7 7 7 7 7 7 7 6 8 8 7 2 7 6 9 9 3 7 9 7 7 7 7 7 7 7 7 q 5 9 9 5 9 5 3 3 X eX                                                                                                                                                                                                                                                                                                                                                                                                                                                                                                                                                            ",
"                                                                                                                                                                          3.2 8 5 4 9 6 8 9 6 9 6 8 9 3 3 8 5 4 3 5 5 5 9 5 5 5 5 5 9 4 5 5 5 5 5 5 5 9 9 5 5 2 5 4 5 5 4 9 5 5 5 9 4 5 5 5 2 5 5 5 5 9 8 9 9 9 8 3 9 7 4 5 9 5 5 9 5 9 5 4 5 7 7 9 7 7 9 9 5 5 5 4 5 2 9 5 2 9 9 5 9 2 9 3 8 5 9 4 9 3 6 9 8 7 7 3 7 7 7 9 9 7 7 3 7 9 7 9 9 2 5 2 5 4 9 5 9 3 5 5 5 5 3 5 5 3 5 9 9 5 5 5 5 9 5 9 5 3 5 3 5 3 9 5 5 9 3 9 7 9 7 9 7 7 9 7 7 3 7 7 7 9 8 9 6 8 7 3 0 7 7 7 3 9 7 7 7 7 9 7 7 9 7 9 9 7 7 7 7 7 7 3 3 3 2 5 5 5 5 3 2 9 7 3 7 7 7 7 7 7 7 7 7 7 5 9 5 5 5 3 3 9 9 7 4 9 8 7 7 3 7 7 7 3 2 5 3 7 2 7 6 7 7 7 7 9 q 7 7 7 7 7 7 7 5 5 5 9 9 5 3 5 X eX                                                                                                                                                                                                                                                                                                                                                                                                                                                                                                                                                            ",
"                                                                                                                                                                          4.* 4 5 9 2 5 9 2 9 2 3 8 6 9 6 5 2 9 9 9 5 2 4 5 9 5 9 5 5 9 9 5 9 9 5 9 5 8 5 5 9 4 5 4 9 5 5 5 9 5 5 9 5 9 4 5 9 5 5 5 9 5 8 8 5 9 9 2 6 9 4 9 9 5 9 5 5 9 5 9 9 6 9 6 9 9 8 9 5 9 8 3 4 5 9 4 5 4 9 5 9 4 3 8 6 5 6 9 7 9 9 6 7 9 9 7 9 9 6 7 7 7 7 9 3 9 9 9 4 5 5 4 4 5 5 5 9 5 9 9 5 5 7 5 3 9 3 3 9 7 3 9 9 3 7 5 9 7 9 9 3 9 5 9 5 5 5 7 7 7 7 7 7 9 7 7 7 9 7 7 7 9 7 7 9 7 9 3 9 9 7 7 7 7 7 7 7 9 7 9 9 9 9 7 7 7 7 7 7 7 6 3 2 9 9 5 7 3 3 9 9 9 6 8 9 9 9 9 7 7 7 9 7 7 9 3 3 5 9 3 5 9 9 2 7 9 9 3 7 7 6 9 3 7 6 3 7 7 7 7 7 7 9 6 9 7 7 7 7 7 q 7 9 7 5 9 9 9 5 9 3 3 X wX                                                                                                                                                                                                                                                                                                                                                                                                                                                                                                                                                            ",
"                                                                                                                                                                          3.9 5 3 2 5 5 5 5 2 4 4 5 5 2 5 4 5 5 2 5 4 9 5 9 4 4 3 4 4 9 5 4 2 5 4 5 2 5 8 5 5 5 9 9 5 5 9 4 5 4 5 4 2 5 9 5 2 9 8 5 5 8 9 9 9 8 9 9 8 9 3 8 9 7 9 9 8 9 9 8 9 9 9 9 8 9 9 9 5 5 5 5 9 5 9 6 9 9 9 9 8 7 8 9 9 8 9 7 7 6 7 7 7 7 7 8 7 2 9 9 4 9 5 9 4 9 5 5 9 5 5 9 2 5 9 5 5 5 5 3 5 7 7 9 7 7 9 9 7 3 7 9 7 7 7 3 7 9 7 7 9 9 9 9 7 9 9 7 7 7 7 9 9 7 9 9 8 3 2 9 7 9 7 7 7 7 7 9 9 7 7 0 7 7 9 9 7 9 7 7 7 9 7 7 9 7 7 8 6 9 7 8 9 2 7 7 7 2 2 7 3 8 9 4 6 3 8 3 9 7 7 7 7 7 7 7 7 7 7 7 9 3 5 5 5 3 5 3 8 9 4 6 2 6 7 7 7 3 7 3 6 7 7 7 9 3 7 7 7 7 7 7 7 9 5 5 5 5 5 3 3 3 1 eX                                                                                                                                                                                                                                                                                                                                                                                                                                                                                                                                                            ",
"                                                                                                                                                                          3.5 9 5 2 5 3 5 4 4 5 5 4 5 4 3 5 9 2 9 4 5 4 9 9 2 4 4 3 5 2 5 5 5 4 5 9 5 9 4 5 3 5 4 4 9 5 5 9 5 9 5 5 4 9 5 4 4 5 9 5 5 9 8 9 9 9 9 8 7 9 2 9 8 9 8 5 2 9 9 9 9 9 9 9 4 9 3 8 5 5 5 5 8 5 9 2 2 9 6 8 6 5 9 9 9 6 2 9 7 7 7 7 7 7 8 3 8 9 2 9 4 3 4 5 4 4 9 5 5 5 5 2 4 9 5 5 3 5 5 3 9 7 7 9 7 7 7 7 7 7 7 7 7 7 7 7 7 7 7 7 3 6 7 7 5 6 9 3 7 7 7 9 7 9 9 9 6 8 9 8 9 7 7 7 7 7 7 7 7 9 7 7 7 7 9 7 9 7 7 7 9 7 7 7 7 7 7 2 9 6 9 8 3 9 7 7 7 7 7 7 7 9 2 9 9 8 9 7 7 7 7 7 7 9 7 7 7 7 7 7 7 3 3 5 3 5 3 7 3 2 6 3 9 2 3 2 7 7 7 2 7 7 7 7 7 7 7 7 7 7 9 7 9 9 9 5 9 5 9 5 9 q 4 eX                                                                                                                                                                                                                                                                                                                                                                                                                                                                                                                                                            ",
"                                                                                                                                                                          4.* 5 9 5 5 5 3 5 5 5 5 2 4 3 9 4 4 5 2 5 2 9 5 5 4 5 5 4 4 5 5 5 2 5 5 5 9 3 5 4 4 4 4 5 4 5 5 4 5 4 4 9 5 5 5 9 3 4 5 2 8 9 5 9 8 9 9 9 9 9 8 9 9 9 7 9 9 8 8 6 3 8 2 8 7 6 9 9 5 5 9 4 3 4 9 8 9 9 9 3 9 2 9 8 9 9 6 9 7 7 7 7 7 7 5 8 7 2 9 6 9 4 5 4 3 5 5 5 9 5 9 9 9 5 5 5 5 5 5 5 3 7 7 7 7 7 7 9 7 7 7 7 7 7 7 7 7 7 7 7 9 7 2 9 8 6 8 7 7 7 7 7 7 7 3 8 9 9 9 9 9 9 7 7 7 7 7 9 9 7 7 7 7 7 9 9 9 7 7 7 7 7 7 7 7 7 7 9 4 9 2 9 9 6 7 7 7 3 3 7 7 7 2 8 2 9 7 7 7 7 7 7 9 7 7 7 7 7 7 7 7 7 3 6 7 2 3 8 8 2 2 8 2 6 7 7 7 7 7 7 7 7 7 7 9 7 7 7 7 7 7 9 9 9 5 5 5 5 5 5 q 9 2 yX                                                                                                                                                                                                                                                                                                                                                                                                                                                                                                                                                            ",
"                                                                                                                                                                          3.2 2 2 5 3 3 5 5 4 2 2 2 4 4 2 2 5 4 5 5 5 5 5 2 9 5 2 5 4 5 4 4 4 4 4 5 9 4 4 9 9 9 9 5 9 9 5 5 5 4 2 5 4 9 5 4 5 9 4 9 5 8 9 9 8 4 2 8 9 8 9 9 2 9 6 6 9 9 9 9 9 5 9 9 9 9 2 9 5 8 5 5 9 5 6 9 9 8 9 9 7 9 9 9 2 3 9 9 2 7 3 7 7 7 6 9 6 9 9 8 2 5 8 5 5 4 4 5 5 9 5 8 5 5 3 3 5 3 3 5 3 7 7 7 9 7 7 9 7 7 9 9 9 7 9 7 7 9 9 7 9 9 9 9 8 7 9 7 9 7 7 7 7 9 9 9 9 3 9 6 9 7 7 9 7 7 7 7 7 7 7 p 9 9 9 7 7 7 7 9 9 7 9 7 7 7 7 7 7 8 8 6 2 9 2 7 3 7 7 6 3 8 9 5 9 6 7 7 7 7 7 7 7 7 9 7 7 9 9 7 7 7 7 7 7 7 7 3 6 6 8 3 6 3 7 7 7 7 2 7 7 7 7 7 7 9 7 7 7 q 7 7 7 7 9 5 9 q 5 9 3 q 4 lX                                                                                                                                                                                                                                                                                                                                                                                                                                                                                                                                                            ",
"                                                                                                                                                                          4.* 3 3 2 3 4 2 5 5 2 5 5 5 2 2 5 4 5 5 4 2 5 8 9 9 6 9 9 2 9 2 5 4 4 2 5 4 5 5 2 5 5 5 5 4 5 8 5 5 9 5 9 5 5 9 9 5 4 5 5 9 9 9 6 9 9 9 9 7 9 8 9 9 6 8 5 2 9 9 3 8 6 6 9 9 8 9 5 4 3 5 4 4 9 2 9 9 9 8 9 8 9 8 7 9 8 6 3 7 7 7 7 7 7 9 9 9 9 2 3 8 5 5 5 9 5 4 9 5 5 5 5 5 4 5 5 5 9 5 5 9 9 7 9 7 7 7 7 9 9 9 9 7 9 7 7 9 7 7 7 3 9 9 9 9 9 9 7 7 9 7 q 7 7 8 9 9 8 6 9 9 7 9 7 7 9 9 q 9 9 7 7 9 7 9 9 7 9 9 7 7 9 7 9 9 7 7 9 4 7 9 2 9 7 6 7 3 9 7 7 7 7 9 6 8 7 2 9 7 9 7 7 7 7 7 7 7 7 7 7 3 7 7 7 2 7 7 6 9 4 9 6 6 2 7 7 7 7 7 7 7 2 7 3 7 7 7 7 7 7 9 7 9 3 q 5 3 3 5 5 9 p 9 lX                                                                                                                                                                                                                                                                                                                                                                                                                                                                                                                                                            ",
"                                                                                                                                                                          4.2 3 5 5 5 2 4 4 4 2 4 5 4 4 5 5 4 4 2 9 5 5 9 4 9 8 4 4 4 4 4 4 4 4 5 4 4 4 4 4 4 4 5 5 5 9 5 4 9 9 9 4 5 9 5 5 5 5 4 4 4 8 4 w 9 9 9 9 9 9 8 4 9 9 9 5 4 9 8 5 4 4 8 9 7 6 7 5 4 3 5 2 5 5 4 9 9 5 5 9 3 9 w 5 8 4 5 9 5 5 8 4 8 4 8 5 5 4 4 8 8 4 5 5 5 5 5 5 5 5 5 5 5 5 5 5 5 5 5 5 5 9 9 9 7 9 7 7 5 7 9 7 7 7 9 9 9 9 9 9 9 9 9 8 9 9 w 5 5 4 7 9 9 5 9 9 9 9 8 9 9 9 9 7 9 7 9 9 7 7 7 7 7 7 9 9 9 9 9 9 9 9 9 9 7 7 4 4 9 4 8 4 4 8 5 5 9 9 9 9 8 4 9 4 9 8 9 9 9 9 3 3 9 3 8 9 5 9 9 2 7 7 7 7 2 7 4 4 9 4 4 9 5 9 5 9 4 5 9 5 3 9 9 2 7 7 7 7 7 7 7 7 7 9 7 3 7 3 3 5 3 q 5 lX                                                                                                                                                                                                                                                                                                                                                                                                                                                                                                                                                            ",
"                                                                                                                                                                          3.* 5 5 5 5 5 4 4 4 4 4 4 * 4 4 5 5 4 5 5 4 5 5 5 4 5 4 - 4 4 4 e 4 4 w 5 4 4 5 4 4 - 4 5 5 5 5 w 5 9 5 5 5 9 9 9 9 9 w 8 w 4 w 9 9 9 q 9 5 9 w w 4 9 5 5 3 3 5 5 5 4 2 2 2 2 2 3 5 5 4 5 9 9 5 9 9 5 9 9 9 0 5 4 4 4 5 5 5 5 5 w 0 4 5 9 5 5 5 0 5 5 5 4 5 5 5 5 5 5 5 5 9 5 5 w w 4 9 w 5 5 9 5 5 5 7 7 5 5 3 5 5 9 5 5 5 9 9 q 5 5 9 0 5 5 5 5 5 w 9 9 5 5 5 5 5 5 5 4 4 5 5 5 5 4 9 9 q 7 u 7 9 q 4 4 9 9 5 5 4 4 3 3 3 3 4 4 4 4 4 4 5 w 9 9 9 9 9 9 9 w 5 9 9 4 5 2 4 4 5 4 5 5 4 4 5 4 5 9 5 3 9 5 9 5 5 w 5 5 9 9 9 5 5 5 9 9 5 5 5 7 8 9 9 9 7 7 9 6 9 9 9 q q 0 9 q q 9 9 q 5 HX                                                                                                                                                                                                                                                                                                                                                                                                                                                                                                                                                            ",
"                                                                                                                                                                          4.O # O O O # O # # O O O O o O O @ O O + # % & # # & ; @ # o # % @ # # # ; # # % @ @ # o o o % o X o o + o + # @ & & # ; ; # % ; ; & & ; ; $ ; # ; ; & & + + O # @ O O + + + X o o o X o o @ & & & & & & & ; # ; # % & O + % & & # % & & & # # # # ; # & & # ; # & O & + O + % % @ O & % % & & > % % & # # + % # & + # & % * & % & + % % % o # o % % & # & # & % & # % & # % & # # % O + + + + + + + ; % % @ & & # # # # ; # ; # # # O # & % # % % % & % & # % & + # O + O % % % # & ; # % % # & # # $ > # & # ; ; # $ # $ > $ $ ; % $ # & O # o o o + O o O O O + O # ; & + O O > & # 9X  HXHXfXlXlXlXHXlXeXyXeXyXfX                                                                                                                                                                                                                                                                                                                                                                                                                                                                                                                                ",
"                                                                                                                                              s 2 @ * * 4 * * 4 * * 2 * + N.,X<X+X+XOXOX].OXOXOXOX+X<X<XOX+X<XF.OX+XOXOXOXOXOXOXF.<XF.F.F.<XOXOXF.F.F.F.F.OXF.F.OXOXOXOXOXOXOXOXOXOXOXOXF.OXOXF.F.F.F.H.F.F.F.].].XXF.F.XXOXF.H.OXOXOXOXOXOX$XF.OXOXOXOXOXOXOXOXOXOXOXF.F.F.XXF.F.XXF.D.OXOXF.F.XXOX].F.OXXXF.D./.OXF.XXXXF.XXF.F.XXG.F.XXD.F.F.F.XXOXD.F.OXF.H.OXXXXXG.F.D.F.F.XXXXF.F.F.F.F.XXF.F.OXF.OXOXOXOXOXOXOXOXOXOXF.F.XXXXF.F.F.F.F.F.F.F.F.G.F.XXOXOXOXOXOXOXXXOXOX%XF.OXOXF.XXF.OXF.F.F.F.XXF.F.F.F.F.OXF.F.F.F.F.F.F.F.F.F.XXF.F.OXOXF.OXXXF.XXF.F.F.F.F.G.OXOXOXOXOXXX].OXOXOXF.F.OXXXF.F.F.D.F.H.F.F.F.XXOXF.F.F.XXXXOXOXOXOXXXOXF.F.F.F.D.XXOXOX3X$.- * 5 2 @ @ @ 1 @ X . . X X lX                                                                                                                                                                                                                                                                                                                                                                                                                                                                                                                              ",
"                                                                                                                                              F 2 * * * * 4 4 * 3 * 5 4 - f.].{.{.z.z.{.z.v.z.{.z.z.z.z.].n.z.z.n.v.l.z.z.z.z.z.].j.].j.z.z.z.z.n.n.:Xz.].n.z.z.z.{.z.{.{.z.z.{.{.n.n.].z.z.].z.].n.j.j.n.n.n.v.v.z.z.].v.n.z.n.l.z.z.].{.{.{.z.{.z.:Xn.}.{.x.}.:Xz.{.z.z.l.z.z.l.z.z.z.].z.z.].z.{.z.{.z.n.F.n.v.z.].z.z.z.{.].{.z.{.{.{.{.z.{.n.{.z.:Xz.:X:Xz.z.z.{.{.z.].z.z.{.{.n.{.z.}.:X{.z.z.{.z.z.].z.z.z.z.z.].z.z.{.l.z.{.{.z.{.{.z.{.z.{.:Xz.{.{.z.{.z.{.z.z.z.{.z.z.].z.z.v.z.].z.z.n.z.].n.v.n.F.n.{.z.{.z.:Xz.{.n.n.n.{.z.{.z.{.{.x.:X:X{.:X{.n.{.].n.z.z.z.n.z.z.z.z.z.].v.n.].j.v.z.l.z.n.z.z.z.l.z.{.n.{.z.:X{.:Xz.:Xz.x.z.l.z.{.z.].z.z.z.z.l.:Xt.e 0 9 4 4 4 4 5 2 5 3 3 2 9 fX                                                                                                                                                                                                                                                                                                                                                                                                                                                                                                                              ",
"                                                                                                                                              { * 4 5 3 4 4 5 5 2 4 4 4 - f.:Xn.{.z.z.z.z.x.z.z.x.x.x.{.z.z.z.z.n.z.n.z.z.z.z.z.n.z.n.n.v.n.].].n.n.z.n.z.n.n.z.z.z.z.n.z.n.z.z.z.z.j.z.n.z.z.n.z.z.j.].n.v.n.z.z.z.k.j.z.z.v.n.j.j.z.z.z.z.z.j.z.j.j.z.x.z.z.z.z.z.z.z.z.z.z.z.z.z.{.z.z.z.z.n.x.x.z.z.j.j.n.n.n.z.n.z.z.z.k.k.z.z.z.j.k.x.{.x.k.}.x.x.z.z.j.j.j.j.n.j.n.j.k.n.j.z.z.z.z.z.k.z.n.z.z.z.z.z.z.j.k.j.k.k.n.z.z.z.z.z.z.z.z.k.k.k.j.j.j.z.z.z.z.z.z.z.z.z.z.z.z.z.z.z.z.z.z.z.z.z.z.n.z.z.n.n.z.z.z.z.n.x.n.z.n.z.z.z.z.z.z.x.n.z.z.k.k.z.k.z.z.z.z.z.z.z.z.l.z.k.j.j.k.k.j.j.n.n.j.j.j.n.j.j.j.z.z.z.z.z.z.z.n.z.z.z.j.z.l.z.l.z.z.z.k.z.z.z.z.j.:Xt.e 5 5 - 4 5 3 3 5 5 3 5 5 * yX                                                                                                                                                                                                                                                                                                                                                                                                                                                                                                                              ",
"                                                                                                                                              ) * 4 4 3 2 3 2 2 3 2 4 4 & f.|.z.{.z.z.z.z.z.{.z.z.z.z.x.z.z.z.z.z.].{.z.z.z.].n.z.z.z.j.n.n.z.z.n.n.z.z.z.z.z.z.z.z.z.z.z.z.z.z.z.z.z.z.z.z.z.z.j.j.n.].].n.z.z.z.z.z.z.z.z.z.z.j.j.j.z.z.z.z.j.z.z.l.z.z.z.x.x.z.{.z.z.z.n.z.z.z.z.z.n.n.j.j.z.z.z.z.z.n.n.z.z.n.z.z.z.z.z.z.z.x.x.z.z.k.z.z.z.z.z.z.z.z.j.z.j.j.z.j.j.z.z.z.j.z.z.z.z.n.z.z.z.j.z.j.j.z.k.k.k.k.z.k.k.k.k.n.j.z.z.z.z.z.z.z.z.z.z.z.j.z.z.z.z.z.z.j.z.z.z.z.z.z.j.j.z.z.z.z.z.z.z.z.z.z.z.z.z.{.z.x.z.z.z.z.k.z.z.z.n.z.z.k.z.z.z.z.n.n.z.z.k.z.{.z.z.{.z.j.j.j.j.j.j.j.j.n.j.j.j.j.j.n.z.z.z.z.z.z.z.z.z.n.n.z.z.z.z.z.z.z.z.z.z.z.z.z.z.z.j.:Xi.: 5 4 4 5 5 5 5 5 5 5 5 5 2 lX                                                                                                                                                                                                                                                                                                                                                                                                                                                                                                                              ",
"                                                                                                                                              F * 3 4 * 3 2 3 4 3 2 2 4 ; g.{.z.z.z.z.z.n.k.z.z.z.z.l.z.j.n.z.j.n.n.z.z.z.z.j.n.z.n.z.z.j.n.z.z.n.n.v.z.z.z.z.n.n.z.z.n.z.z.z.z.z.z.z.z.z.z.z.z.n.j.j.j.n.j.z.z.z.j.n.z.j.n.z.n.z.z.j.z.z.z.z.j.l.j.z.z.z.z.{.z.z.z.z.z.z.z.z.j.n.z.j.z.z.z.n.z.n.n.z.z.n.].z.n.z.z.j.n.z.j.n.z.z.z.z.z.z.z.z.z.z.z.z.z.j.j.j.j.j.j.j.j.j.z.j.n.z.k.j.k.k.k.k.z.z.z.z.n.z.z.n.z.k.j.z.j.j.j.j.j.j.z.z.z.k.z.k.z.z.j.z.n.z.z.z.n.z.z.z.z.z.z.z.z.j.j.j.j.j.j.z.j.z.z.n.z.n.j.n.z.z.k.z.n.z.z.k.z.z.z.z.z.z.n.z.n.k.z.z.z.z.z.z.z.n.z.z.z.z.z.n.l.z.z.z.z.j.j.j.j.j.j.n.j.j.j.n.j.n.z.n.z.n.z.z.z.z.z.z.z.z.z.z.l.z.z.z.z.z.z.j.j.:XE : 3 3 5 5 5 5 9 5 5 5 9 9 * yX                                                                                                                                                                                                                                                                                                                                                                                                                                                                                                                              ",
"                                                                                                                                              #.* 4 2 2 4 2 2 4 = 3 2 2 - B.z.z.z.z.n.{.z.z.z.z.z.n.z.z.z.z.z.z.j.z.z.z.n.j.z.z.z.n.z.n.j.z.z.z.n.j.z.z.z.z.z.z.z.z.z.z.z.n.j.z.z.n.j.z.z.z.j.z.z.z.n.j.z.z.j.j.j.z.z.z.z.n.z.z.z.j.j.z.j.z.z.j.j.z.j.j.z.z.n.j.z.j.z.z.j.z.j.z.z.z.j.z.n.j.z.j.z.z.z.z.j.z.z.j.j.z.j.z.z.z.j.z.z.n.z.z.z.z.z.z.v.n.z.z.j.].j.z.z.z.j.z.j.z.z.z.z.z.z.n.j.z.z.n.j.z.z.j.n.j.z.z.n.j.z.z.z.z.z.z.z.n.z.z.n.j.z.j.z.z.z.z.z.n.j.z.z.j.z.j.z.z.z.z.z.j.z.z.z.z.z.z.z.z.n.z.z.z.z.z.z.j.z.j.z.z.j.z.z.j.z.z.z.n.z.z.n.k.z.z.z.j.z.z.n.j.z.z.j.z.z.z.j.z.j.z.z.z.z.z.z.j.z.z.z.j.n.z.z.z.n.z.z.z.n.z.z.j.z.j.j.j.z.z.j.z.j.z.j.j.j.l.>XR ; 4 5 5 5 5 5 5 5 5 5 5 3 4 rX                                                                                                                                                                                                                                                                                                                                                                                                                                                                                                                              ",
"                                                                                                                                              m 2 2 2 2 2 2 2 4 3 3 3 4 ; B.{.n.z.{.z.z.z.z.z.z.z.z.z.z.z.j.j.n.z.z.z.z.z.z.j.z.z.z.z.k.j.z.z.z.z.z.z.z.n.z.z.j.z.n.z.j.z.z.j.z.z.k.z.z.z.z.z.n.z.z.z.z.z.z.z.z.z.z.z.z.z.j.j.z.j.z.z.j.z.j.j.z.z.j.z.z.j.z.z.z.z.z.z.z.j.z.j.z.z.j.z.z.z.z.j.z.j.z.z.z.z.j.j.z.z.j.z.z.z.z.z.z.z.j.z.z.j.z.z.z.z.z.z.z.j.n.j.j.z.z.n.z.z.j.z.z.z.z.z.z.z.z.z.j.z.z.z.z.z.z.z.z.z.z.z.z.j.n.j.n.z.z.z.j.z.z.z.z.j.n.z.j.z.j.z.j.z.j.j.z.j.z.j.z.j.z.z.z.z.z.n.j.z.z.j.z.z.j.n.z.z.z.z.n.n.z.z.z.z.n.z.z.z.z.z.z.z.z.z.k.z.n.z.z.z.z.z.z.z.j.j.j.z.j.j.z.j.z.z.z.z.j.n.z.z.z.j.j.z.z.j.z.z.z.j.z.z.n.z.z.n.z.z.z.z.j.z.z.j.j.z.z.>XW ; 5 5 5 4 5 5 3 5 3 5 9 5 9 yX                                                                                                                                                                                                                                                                                                                                                                                                                                                                                                                              ",
"                                                                                                                                              ` 5 4 2 2 4 2 4 4 3 3 3 4 - g.{.n.z.z.{.z.z.z.z.z.z.j.z.z.n.z.z.z.k.n.z.z.z.z.z.z.z.n.z.z.j.n.n.z.z.z.n.z.j.z.z.n.z.z.z.n.z.z.z.z.z.z.n.z.n.z.z.z.n.z.z.z.n.z.z.z.n.j.z.z.z.z.j.j.z.j.z.z.z.z.z.z.z.z.z.j.z.z.z.z.z.j.j.z.z.z.z.z.z.j.z.z.j.z.j.j.z.j.j.l.j.z.z.j.j.z.z.z.z.z.z.z.z.z.z.j.n.j.z.z.j.j.].z.j.j.j.j.j.z.z.z.j.j.j.z.z.j.j.j.j.z.z.z.z.z.n.z.z.z.z.n.j.z.n.z.z.z.z.z.z.z.z.z.z.z.n.z.z.z.z.n.z.j.z.z.z.z.z.z.z.z.z.n.z.j.z.z.z.z.z.z.z.k.z.z.z.z.j.z.n.j.z.z.j.z.j.n.j.z.z.z.z.z.z.z.j.z.n.z.z.z.z.z.z.z.z.n.z.n.j.z.z.z.z.z.j.z.z.z.z.z.z.z.z.z.z.z.z.z.z.j.z.z.z.z.z.j.z.z.z.z.z.z.z.j.z.j.z.z.z.z.>XR ; 5 4 5 5 4 5 3 5 3 5 5 q 9 lXHX                                                                                                                                                                                                                                                                                                                                                                                                                                                                                                                            ",
"                                                                                                                                              m 5 * 2 2 * 4 2 2 2 3 3 4 % f.].z.z.z.z.n.z.n.z.z.z.z.j.z.j.z.z.z.z.z.z.z.z.z.n.j.j.z.z.z.z.z.z.z.z.z.j.z.z.j.z.z.z.z.z.z.z.j.n.z.z.z.j.z.j.z.z.j.j.z.z.j.z.j.z.z.z.z.k.z.z.z.z.z.z.z.z.z.z.z.z.z.z.j.n.z.z.z.z.z.z.n.z.z.j.n.z.z.z.z.z.j.z.j.z.z.j.j.j.j.z.z.z.z.z.z.z.j.j.z.n.j.z.z.z.n.j.j.].z.j.j.j.z.j.j.j.j.z.z.z.z.z.z.z.z.z.z.z.n.z.n.z.z.z.z.j.z.z.z.z.j.z.z.j.z.z.z.z.k.z.j.n.z.z.z.j.z.z.z.z.z.z.z.z.z.z.z.j.z.z.z.j.z.z.z.j.n.j.j.n.z.n.z.z.j.n.z.z.j.z.z.z.z.z.z.z.z.z.z.j.n.n.z.z.n.z.z.z.z.j.z.j.n.z.z.j.z.z.z.z.z.z.z.z.z.n.z.z.z.z.z.z.z.j.n.z.z.j.n.z.z.j.n.z.z.z.n.z.z.z.z.z.z.j.z.j.z.z.z.z.{.>XT 5 9 4 5 4 3 5 5 5 3 3 5 5 5 lX                                                                                                                                                                                                                                                                                                                                                                                                                                                                                                                              ",
"                                                                                                                                              { 4 * 4 4 2 2 4 4 4 2 4 4 % f.].z.z.{.z.z.z.z.z.z.n.z.z.j.z.z.z.k.z.z.z.j.z.z.z.z.j.n.z.z.j.z.z.z.n.j.z.j.z.z.z.z.z.z.j.z.z.z.n.j.j.z.z.z.z.z.z.z.z.z.z.j.j.z.z.z.z.z.n.z.z.z.z.z.z.j.z.z.z.z.z.z.n.j.z.z.j.n.z.z.z.z.j.n.z.z.z.n.z.n.j.z.j.j.z.j.v.z.j.z.j.z.z.z.j.z.n.z.j.j.j.z.z.z.j.n.z.z.z.z.z.v.n.z.j.j.z.z.z.j.z.z.z.z.z.z.z.z.z.z.z.n.z.z.n.j.z.z.z.z.z.z.j.z.z.z.j.n.z.z.z.z.z.z.z.z.z.z.z.z.z.z.z.z.n.j.z.j.z.j.j.j.z.z.z.z.z.j.z.n.z.z.z.z.n.j.z.z.z.n.z.z.n.j.n.j.z.z.z.z.z.z.z.z.z.z.z.k.z.z.z.j.z.z.j.z.z.j.z.n.z.z.z.z.z.z.z.z.j.z.z.z.z.z.z.z.z.j.z.z.z.z.z.n.j.z.z.z.z.z.z.z.z.j.j.j.j.z.j.j.z.{.+XR - 3 3 5 4 4 3 5 3 3 2 5 5 9 lX                                                                                                                                                                                                                                                                                                                                                                                                                                                                                                                              ",
"                                                                                                                                              { 4 2 2 2 2 2 4 4 2 2 2 4 % f.{.z.z.z.z.z.z.z.j.z.j.z.z.z.z.z.z.z.z.k.z.n.z.j.n.z.z.z.z.j.z.z.z.z.z.z.z.z.z.j.n.z.n.z.z.z.z.z.z.z.n.z.z.z.z.j.n.z.j.z.z.n.z.z.n.z.z.z.j.z.z.z.z.j.z.n.z.z.n.j.z.z.z.z.z.z.z.z.z.z.z.z.z.z.z.z.z.j.z.z.z.z.z.j.j.z.n.j.z.j.z.z.z.z.z.z.z.j.z.n.z.z.z.z.z.z.z.z.z.z.z.z.z.z.z.z.z.z.n.z.z.j.n.z.z.j.j.n.z.j.j.z.z.z.z.z.z.z.n.j.z.j.n.z.z.z.z.z.z.z.z.z.j.n.z.z.j.z.n.z.z.j.z.z.z.z.j.n.z.z.z.n.z.z.z.z.z.z.z.j.j.z.z.z.z.z.z.z.z.z.z.z.z.z.z.z.z.z.j.n.z.z.j.n.j.z.n.z.z.z.z.n.z.z.n.z.z.z.z.j.z.z.n.j.j.n.z.z.n.z.n.j.z.j.z.z.z.n.z.z.n.j.z.z.j.z.j.j.z.j.j.z.z.z.j.j.z.z.z.z.z.z.+XW @ 2 3 5 4 5 5 3 5 3 5 5 2 2 rX                                                                                                                                                                                                                                                                                                                                                                                                                                                                                                                              ",
"                                                                                                                                              { 4 2 2 4 4 * 5 4 2 4 4 4 % d.{.z.z.n.z.n.z.z.z.j.z.z.z.j.z.z.n.j.n.z.z.z.z.z.z.z.z.z.z.z.j.z.z.z.z.z.z.j.z.z.z.z.j.z.j.n.z.z.z.z.z.z.j.n.z.z.n.z.z.z.z.z.z.z.j.z.j.z.z.z.n.j.z.n.z.z.z.j.z.z.j.n.z.z.n.z.z.z.j.z.z.j.j.z.z.z.z.z.z.z.z.z.z.z.z.j.j.j.j.z.j.z.z.z.z.z.z.z.z.z.z.z.j.n.z.z.n.v.z.z.j.j.j.j.n.z.z.j.z.j.z.n.z.z.z.z.z.z.z.z.z.z.z.j.z.j.n.j.z.z.z.n.z.z.z.n.z.z.z.z.n.z.z.z.n.z.j.z.j.z.n.z.z.z.z.j.z.z.j.z.z.z.j.z.z.j.z.z.z.z.z.n.z.z.n.z.n.j.z.z.z.n.z.z.z.z.n.z.z.z.z.j.z.z.z.n.z.j.j.z.z.z.z.z.z.z.j.n.j.z.z.z.z.z.z.z.z.z.z.z.j.n.n.z.n.j.z.z.z.z.z.j.z.z.j.j.z.j.z.z.z.j.z.j.j.j.z.j.z.j.z.z.+XW o 3 4 4 5 5 5 3 3 5 4 4 * 2 yX                                                                                                                                                                                                                                                                                                                                                                                                                                                                                                                              ",
"                                                                                                                                              m = 4 - - 5 - - % % = % % @ d.z.z.z.z.z.z.z.z.z.z.z.j.z.j.z.z.z.z.z.z.z.j.n.z.z.n.z.z.z.z.z.j.j.n.z.z.j.n.z.z.j.z.z.z.z.z.z.n.z.j.j.z.z.z.z.z.j.z.j.n.z.z.j.z.n.z.n.z.z.z.j.z.z.z.z.z.z.n.z.z.j.z.j.z.j.z.z.z.z.n.j.z.z.z.n.z.j.z.z.z.z.z.z.z.z.z.j.n.z.n.z.z.j.j.j.n.z.z.z.z.z.j.z.z.j.n.n.z.z.z.n.j.j.j.].j.z.z.z.z.z.z.z.z.j.n.z.z.z.j.n.z.z.n.z.z.z.z.z.z.z.j.z.z.j.z.j.z.j.n.j.z.j.z.z.z.n.z.z.z.z.z.j.z.j.z.z.z.z.n.z.z.z.z.z.n.z.j.z.z.j.z.z.z.n.z.z.z.z.z.j.k.z.z.z.z.j.z.z.z.z.n.z.z.k.z.z.z.n.z.z.j.n.z.z.z.z.z.z.z.z.n.z.j.z.z.n.j.j.z.z.z.z.z.z.z.z.j.n.z.z.z.z.z.z.n.z.z.z.j.j.z.j.z.z.l.j.z.z.z.j.n.].e.+ - 5 : 5 - : - : - - % = % iX                                                                                                                                                                                                                                                                                                                                                                                                                                                                                                                              ",
"                                                                                      s.7X8X7X5X7X8XeXeX8X8X8X8X0X8XwXwX8X8X7X7XeXeX8X7X8X8X9XF Z c m M Z M D S N B B N N h.{.z.z.z.z.n.z.z.z.j.z.z.n.j.j.z.z.z.z.z.z.z.z.z.z.z.z.z.z.z.z.z.z.z.n.z.z.n.z.z.z.n.z.z.n.j.z.z.z.j.n.j.z.z.j.z.n.z.z.z.z.z.n.j.z.z.z.j.z.z.z.z.j.z.z.z.z.z.z.z.z.z.j.z.j.z.z.z.z.z.z.z.j.z.n.z.j.z.z.z.z.z.z.z.j.j.j.z.z.z.n.j.z.j.z.z.z.z.z.z.z.n.j.z.z.n.z.z.z.z.n.j.z.j.j.z.z.z.z.j.z.z.z.z.j.z.n.z.z.z.z.z.z.j.z.z.z.z.z.z.n.z.z.j.n.z.z.z.j.z.n.z.j.z.j.n.z.z.z.z.z.z.j.z.z.j.z.j.z.j.z.z.n.j.z.z.n.z.z.z.z.z.z.z.n.z.z.z.k.z.z.n.j.z.j.z.z.k.z.z.z.z.z.k.z.z.z.z.n.j.z.z.z.z.z.z.n.z.z.j.z.z.j.n.z.z.z.z.z.j.z.z.z.z.z.z.n.j.z.z.z.z.z.n.z.z.j.z.z.z.j.].j.z.z.z.z.j.z.n.j.n.].f.N N D D D L I I I I G G D Z J.rXwXeXwXeXeX8X8X8XwXwXeXyX                                                                                                                                                                                                                                                                                                                                                                                                                                                                                                    ",
"                                                                                    HXX 2 * * * 2 4 * 4 * 4 4 4 4 4 4 1 4 4 2 2 2 4 5 5 4 * ; a.2X$XOX<X+XOX+XOXOXOX].].].].j.z.z.z.z.j.j.n.z.z.z.z.z.z.n.z.z.j.n.j.z.z.z.z.z.z.n.j.z.z.n.z.z.z.z.k.z.z.z.j.j.z.z.z.z.z.z.n.z.z.z.z.z.z.z.n.z.z.z.z.n.z.z.k.z.z.z.n.z.z.z.z.n.z.n.j.j.n.j.n.z.z.n.z.z.z.z.n.z.j.z.n.z.z.z.z.z.z.z.j.j.n.n.j.j.z.z.z.n.j.z.j.j.z.z.z.z.z.z.j.z.z.z.z.z.j.j.n.z.j.z.j.z.z.z.j.n.j.j.z.z.z.z.z.z.z.j.z.z.z.j.n.z.z.n.z.n.z.z.z.j.z.z.z.j.z.z.z.z.z.j.z.z.z.z.z.z.z.n.z.z.j.z.j.z.z.z.z.n.z.z.z.z.z.j.z.j.z.z.j.z.z.j.n.k.z.z.z.z.z.z.z.z.z.n.z.z.z.z.j.z.n.z.z.z.z.n.z.z.z.n.z.z.n.z.z.j.z.z.z.j.n.z.z.z.z.z.n.z.n.z.n.z.n.z.z.z.z.z.z.z.z.z.j.j.z.z.z.z.j.j.j.z.j.j.z.z.j.j.v.j.j.n.{.|.+X;X+X,X,X<X,X<X].|.<X<X2X: 2 * 3 3 2 2 2 9 5 9 5 8 @ eX                                                                                                                                                                                                                                                                                                                                                                                                                                                                                                  ",
"                                                                                    HXX 2 3 3 6 4 4 4 4 4 * * 2 4 * 4 4 2 = * 2 2 4 2 2 4 @ @ m.>X].n.z.{.{.x.x.z.}.}.x.z.}.x.z.z.z.j.z.j.z.z.j.j.j.z.z.z.z.z.j.j.z.z.n.n.z.z.z.z.z.j.n.z.z.z.z.n.z.z.z.z.n.j.z.z.j.z.j.z.z.z.z.z.z.n.j.z.z.z.z.j.z.j.z.z.z.z.j.z.z.z.n.z.n.z.z.n.z.z.z.z.z.z.j.z.n.z.n.z.j.z.z.z.z.z.z.z.z.z.z.n.z.z.z.z.z.j.n.z.z.z.z.z.z.z.n.z.z.z.z.n.z.z.z.n.z.z.z.z.z.z.z.z.z.z.z.z.z.j.z.z.z.z.z.n.j.z.z.z.z.n.j.z.z.z.z.z.z.z.z.n.z.z.j.z.j.z.z.j.n.z.j.z.z.n.j.z.z.z.j.j.j.z.n.z.z.j.z.z.z.z.z.z.z.z.z.z.z.z.z.z.n.z.n.z.n.z.z.z.z.z.n.z.z.z.z.j.z.z.z.n.j.z.z.z.z.z.n.z.n.z.z.n.k.z.z.z.z.z.z.n.z.z.z.z.z.z.z.z.j.z.z.z.z.z.j.j.z.z.n.z.n.n.z.z.z.n.z.z.z.j.j.j.n.z.z.z.z.j.z.l.j.j.j.k.z.z.z.k.k.x.x.x.x.j.j.j.j.k.OX< 7 6 3 3 2 2 2 * 2 2 3 4 X yX                                                                                                                                                                                                                                                                                                                                                                                                                                                                                                  ",
"                                                                                      X 5 3 2 2 2 4 4 4 2 2 4 2 1 4 4 4 2 2 4 2 3 2 4 * 4 @ ; a.>Xz.z.z.z.z.z.z.z.z.k.k.x.z.z.z.z.z.j.z.z.z.z.z.z.n.z.z.z.z.z.n.n.z.z.z.z.z.z.z.z.j.z.z.z.z.z.n.j.z.z.k.z.z.z.z.z.n.z.z.n.z.j.z.z.z.z.z.z.z.z.j.n.z.z.z.z.z.z.n.z.z.z.j.k.z.z.z.j.z.z.z.z.z.z.n.z.z.z.j.n.z.z.z.z.j.n.z.n.z.j.n.j.z.z.z.z.z.z.z.n.z.z.j.z.j.z.j.z.j.n.z.z.j.z.z.j.z.z.z.z.z.z.j.z.j.z.z.z.z.z.z.j.j.n.z.z.z.z.z.j.z.z.z.z.z.z.j.z.j.n.z.z.z.z.n.z.n.z.z.z.z.z.z.z.z.z.z.z.z.n.z.z.z.z.z.z.z.z.j.z.j.n.j.n.j.z.z.j.n.z.z.z.j.z.j.z.z.z.z.z.z.z.j.z.j.n.z.z.z.z.n.z.z.z.z.j.n.j.n.j.z.z.z.z.z.z.z.z.j.n.z.j.z.z.z.z.z.j.n.z.z.z.z.n.z.z.z.z.z.z.z.j.z.z.z.j.z.z.z.j.n.j.j.j.j.z.z.j.z.z.j.z.j.j.j.z.k.k.k.k.k.z.k.k.n.j.n.j.j.n.OX< 3 2 2 2 2 3 5 4 2 2 = 4 @ yX                                                                                                                                                                                                                                                                                                                                                                                                                                                                                                  ",
"                                                                                    HX. 4 9 2 2 4 4 * 2 2 2 * 4 4 2 4 2 2 2 2 2 2 * 5 = 4 4 = m.|.l.z.z.{.z.z.j.z.z.z.{.k.x.k.z.z.z.j.n.z.z.z.j.j.z.z.z.j.n.z.z.z.z.z.z.z.z.z.z.z.z.z.z.z.z.z.z.z.z.z.z.j.z.j.z.z.z.n.j.z.z.n.j.z.n.n.j.z.z.z.n.z.z.z.z.n.j.z.z.z.z.z.n.z.z.n.j.z.z.z.n.j.z.z.z.z.z.z.j.z.z.z.z.z.z.j.z.z.z.z.z.z.z.z.z.z.n.z.z.j.z.z.z.n.j.z.z.z.z.z.n.j.z.z.n.z.n.z.n.z.z.z.n.z.z.z.j.z.z.z.z.z.z.j.z.z.z.j.z.n.z.z.z.z.z.z.n.z.z.z.z.z.z.z.z.z.z.j.z.z.z.n.z.z.j.z.z.j.z.z.j.z.z.z.z.z.z.j.z.z.n.j.z.j.n.z.z.z.z.z.z.n.z.z.z.j.n.k.z.z.j.z.z.j.z.z.z.z.n.z.n.z.z.n.j.z.z.z.z.n.z.k.z.z.z.k.z.j.n.z.z.n.z.z.z.j.z.j.z.z.z.z.z.z.n.z.j.n.z.z.z.j.z.z.z.z.z.z.z.j.z.z.j.z.z.z.z.n.v.z.z.z.j.j.j.j.j.j.j.z.z.k.z.z.k.z.z.z.z.j.,X< = - 3 2 2 * 3 2 2 2 3 5 * rX                                                                                                                                                                                                                                                                                                                                                                                                                                                                                                  ",
"                                                                                    HX. 9 2 2 2 2 2 2 2 * 4 2 2 2 4 4 * 2 * * 2 4 2 * 2 4 * * m.:Xj.z.z.z.z.z.k.k.z.n.z.z.k.z.z.z.z.z.z.z.z.z.z.z.z.z.z.z.z.z.z.z.j.z.n.z.z.n.z.z.z.n.z.z.z.z.z.z.z.z.j.j.z.z.z.z.z.z.z.z.z.z.z.z.j.z.z.z.z.z.z.z.j.z.z.z.z.z.z.j.n.z.z.z.k.z.z.z.z.z.z.z.z.j.z.z.z.n.z.z.z.j.n.n.z.n.z.z.n.z.z.z.z.z.z.z.j.z.z.z.z.j.z.z.z.z.z.z.j.z.z.z.z.z.j.j.z.z.j.z.z.z.z.j.n.z.z.j.z.j.j.z.z.n.z.z.z.z.j.j.j.j.z.z.z.z.j.j.n.j.n.n.z.z.z.z.z.n.z.z.z.j.z.z.n.z.z.n.z.z.z.z.z.z.z.j.z.z.z.z.z.z.z.z.z.z.z.z.z.j.n.k.z.n.z.z.z.z.z.z.n.j.z.n.z.k.z.j.z.z.z.z.z.z.z.j.z.z.z.j.z.z.z.z.z.z.z.z.z.z.j.j.z.j.z.n.z.z.z.j.z.n.z.z.z.z.z.z.j.z.z.n.z.z.j.j.j.n.z.z.z.z.z.j.z.j.z.j.z.j.j.z.z.j.j.z.z.k.z.z.z.z.z.z.z.z.z.z.k.z.,Xv 4 2 * 3 2 2 3 2 = 3 2 2 2 eX                                                                                                                                                                                                                                                                                                                                                                                                                                                                                                  ",
"                                                                                    HX@ 9 2 4 2 2 * 2 2 2 2 2 2 2 * 4 2 2 2 * 2 2 * 2 2 4 = ; m.:Xz.z.z.z.z.z.z.z.z.z.k.z.z.z.z.z.j.z.z.z.z.z.j.z.z.z.z.j.z.z.j.z.n.z.z.n.{.z.z.n.z.z.{.z.z.z.z.z.n.j.z.l.j.z.j.n.z.z.z.z.z.z.z.z.j.z.z.z.n.z.z.z.n.j.z.z.z.n.z.z.n.j.z.z.z.z.z.z.n.z.z.z.z.n.z.z.z.z.j.n.j.z.z.j.z.j.z.z.j.z.j.z.n.z.z.z.z.z.z.z.z.n.z.z.z.n.z.j.z.z.z.z.n.j.z.z.z.z.n.z.n.j.j.z.z.z.j.z.j.z.z.z.z.z.j.z.j.j.z.z.z.z.z.z.n.j.z.z.z.z.z.j.z.z.z.z.z.z.z.z.z.z.z.z.j.z.z.z.z.z.z.n.j.z.z.j.z.z.z.z.z.n.z.z.z.z.z.z.z.z.z.z.z.j.n.z.z.z.z.z.z.z.z.z.z.j.n.z.z.z.z.n.z.z.z.z.n.z.j.z.z.z.z.z.z.n.j.z.z.z.z.z.z.n.j.z.z.z.n.z.n.z.z.z.z.j.z.z.z.z.n.j.z.z.z.z.z.z.z.z.z.z.j.z.j.z.j.j.j.j.z.j.z.z.z.z.z.z.z.z.z.z.j.z.k.z.k.z.k.}.,X< 0 3 2 3 3 4 3 3 3 2 4 2 4 rX                                                                                                                                                                                                                                                                                                                                                                                                                                                                                                  ",
"                                                                                    HX@ 5 2 2 2 2 2 2 4 2 4 2 4 2 4 2 2 4 2 4 2 2 2 2 3 2 4 ; B.].z.z.z.z.z.z.z.z.z.z.z.x.z.n.z.z.n.z.j.j.z.z.n.z.z.n.j.z.z.z.n.z.z.z.z.z.z.z.z.z.z.z.z.z.n.z.{.z.z.j.j.j.j.j.z.j.z.j.z.n.j.z.z.n.z.z.z.z.j.z.j.z.z.z.z.j.z.j.z.z.z.z.z.n.j.z.z.z.j.z.j.z.z.j.z.n.j.z.z.z.z.z.z.z.z.z.z.z.z.n.z.z.j.j.z.j.z.n.j.z.z.j.z.z.z.j.z.z.n.j.z.z.z.z.z.z.z.z.z.z.z.z.z.z.z.z.n.j.z.z.z.n.j.z.z.z.n.z.z.z.j.j.z.z.z.z.z.z.z.j.z.j.z.j.z.n.j.z.j.n.j.z.z.z.z.n.j.z.z.z.j.z.j.j.z.z.j.j.n.z.z.j.z.z.k.j.n.z.z.z.j.z.z.z.z.z.z.z.z.n.z.j.n.z.z.z.z.z.z.z.z.j.z.k.z.z.z.z.n.z.z.j.n.z.z.z.z.z.j.n.z.z.z.z.z.z.z.z.j.j.z.z.j.n.z.n.z.z.z.z.j.z.z.z.j.n.z.z.j.n.z.z.z.j.z.z.n.j.j.z.j.z.z.j.z.z.z.z.z.n.z.z.k.z.z.z.z.k.z.x.1Xc 5 3 4 2 4 * 3 4 4 2 2 2 @ rX                                                                                                                                                                                                                                                                                                                                                                                                                                                                                                  ",
"                                                                                      @ 5 2 2 2 4 2 2 4 * 2 2 2 4 2 4 2 2 2 2 2 * 4 1 4 @ - % B.{.z.j.z.j.n.z.j.z.n.z.z.j.n.z.z.n.z.z.z.z.z.n.z.j.n.z.k.z.z.z.n.z.z.z.n.z.z.z.z.{.z.n.z.z.:Xz.z.n.z.z.j.z.j.z.j.z.z.j.j.z.z.z.z.z.n.z.z.z.j.z.z.j.z.z.z.j.n.z.z.z.z.z.z.z.z.z.j.z.z.z.z.z.n.n.z.z.z.z.z.z.z.j.j.z.z.z.j.z.z.z.n.z.z.z.j.z.z.z.z.j.n.z.z.j.z.z.z.z.z.n.z.z.z.z.z.z.z.z.z.z.z.z.n.z.z.z.z.z.k.z.z.z.j.z.z.n.z.z.z.z.j.j.z.z.z.n.j.z.z.z.j.j.j.j.j.z.z.j.n.z.z.z.j.z.z.z.n.j.z.z.n.j.j.j.z.j.z.z.z.j.z.z.z.k.z.n.z.z.z.z.z.j.z.z.z.z.j.z.z.n.z.k.z.z.z.z.z.z.z.z.z.k.z.n.j.z.z.z.n.z.z.z.j.z.z.z.n.j.z.z.n.j.z.j.z.n.z.z.z.j.z.z.z.z.z.z.z.n.n.z.j.z.z.z.n.k.z.z.z.k.z.z.j.z.z.z.n.j.j.j.z.j.z.z.z.z.z.n.z.z.j.j.z.z.j.z.z.n.j.z.2Xv 5 5 2 3 3 2 2 3 4 3 2 2 * yX                                                                                                                                                                                                                                                                                                                                                                                                                                                                                                  ",
"                                                                                      . 5 4 4 2 * 2 2 4 4 4 2 4 * 2 2 2 * 2 4 2 4 4 4 4 @ 4 ; B.].j.z.z.z.z.z.z.j.z.j.z.z.z.z.j.j.j.z.z.z.j.z.k.z.z.z.z.z.z.k.z.z.z.z.z.z.n.}.z.z.z.z.z.z.z.z.z.j.z.z.z.j.z.z.z.j.j.j.j.z.j.n.z.j.z.z.z.z.n.z.z.z.z.z.n.z.z.z.j.n.z.n.z.n.z.z.n.z.n.z.z.z.z.j.z.z.n.z.j.n.z.j.n.z.j.n.z.z.z.j.j.z.z.z.n.z.z.n.j.z.z.z.z.z.n.z.z.z.z.j.j.j.z.j.z.j.j.n.z.z.j.z.j.z.j.z.j.j.z.z.z.z.n.z.z.k.z.z.z.z.z.n.z.z.j.j.j.z.j.z.z.j.n.j.j.z.z.z.z.n.z.z.z.z.z.z.j.z.z.z.z.z.z.z.j.z.j.j.z.n.z.z.z.j.n.z.z.z.z.n.z.z.z.z.n.z.z.z.z.j.z.z.n.n.z.j.z.j.n.z.j.z.z.z.z.j.n.z.z.z.z.z.n.z.z.j.z.z.z.z.z.z.z.z.n.z.z.z.z.n.z.z.z.j.n.k.z.z.z.z.z.z.z.z.z.z.k.z.z.z.z.j.z.k.z.k.l.j.j.z.j.z.j.j.z.z.z.j.z.z.z.n.z.z.z.n.z.j.j.z.,XM - 2 4 2 3 3 4 5 2 5 3 2 2 eX                                                                                                                                                                                                                                                                                                                                                                                                                                                                                                  ",
"                                                                                      . 5 4 2 2 2 2 2 * 2 4 2 2 4 3 * 4 4 2 2 2 4 4 4 - 4 - ; g.{.k.n.j.z.z.z.z.z.z.j.z.z.z.z.z.z.z.z.j.z.z.z.z.z.z.z.z.z.z.z.z.z.z.z.}.z.z.{.z.z.z.z.{.z.z.z.z.z.z.z.j.z.z.z.z.z.j.j.j.j.j.j.j.z.z.j.z.z.z.z.z.z.n.z.z.z.z.j.z.z.k.n.z.z.z.z.z.j.z.z.z.z.z.j.j.j.z.z.n.j.z.j.j.z.z.z.z.z.n.j.j.z.z.z.z.j.z.z.z.z.z.j.z.z.z.z.z.z.z.z.z.z.z.z.z.z.z.z.z.z.z.z.z.z.z.j.z.z.z.z.z.z.z.z.z.z.z.k.z.z.z.z.z.z.z.j.j.z.z.n.j.z.z.j.j.z.z.z.z.j.z.z.z.z.z.z.j.j.n.z.z.z.z.z.n.j.z.z.j.z.z.z.z.z.z.z.z.z.z.k.z.j.z.k.z.z.n.j.z.z.z.z.z.z.z.z.j.z.z.z.n.z.z.z.n.z.z.z.j.k.n.j.z.z.z.z.z.j.n.z.j.n.z.z.z.z.z.z.n.z.z.k.z.z.z.z.z.z.z.z.n.n.k.z.z.z.z.z.k.z.z.z.j.k.z.z.z.z.j.z.z.z.j.z.z.j.j.j.j.n.z.z.z.z.z.j.z.n.j.:X,X< - 4 4 3 3 3 2 3 = 4 4 2 @ yX                                                                                                                                                                                                                                                                                                                                                                                                                                                                                                  ",
"                                                                                      X 2 2 2 2 2 2 4 2 2 2 4 4 * 4 4 4 2 3 3 2 2 4 4 4 @ 4 # B.{.j.z.z.z.z.z.z.z.z.n.z.z.z.z.z.z.z.z.n.j.z.z.z.z.z.z.k.n.z.z.z.n.z.z.z.n.{.z.z.z.:Xz.z.z.z.z.z.z.z.z.z.j.z.z.z.j.z.j.j.n.].n.n.n.z.z.n.z.z.j.j.z.j.j.n.z.z.n.j.n.z.z.j.z.z.z.j.z.z.n.z.z.z.n.j.z.n.z.j.z.z.j.n.z.z.z.z.z.j.j.j.z.n.z.z.j.n.n.j.z.j.n.z.z.z.z.z.n.z.z.z.z.z.z.z.n.z.j.n.z.z.z.j.z.j.z.j.z.j.z.z.k.z.z.j.z.j.k.n.n.z.z.z.j.n.j.n.z.z.z.z.z.z.n.n.j.n.z.z.j.z.z.z.z.z.z.n.z.z.z.z.z.z.z.z.z.z.j.z.z.z.z.n.n.z.n.z.n.n.z.z.n.z.z.z.z.z.z.z.n.z.j.j.j.j.n.k.z.z.z.z.z.z.z.z.j.z.z.n.z.z.z.z.z.z.z.n.z.z.z.n.z.z.z.j.z.z.z.j.n.z.z.k.z.n.z.z.z.n.z.z.z.z.z.z.z.z.z.n.z.z.j.z.z.z.z.z.j.z.j.z.j.z.j.z.j.j.j.j.j.z.z.z.z.z.z.z.j.j.z.].M ; 4 4 4 4 3 4 3 3 5 2 * 4 yX                                                                                                                                                                                                                                                                                                                                                                                                                                                                                                  ",
"                                                                                      . * 4 2 2 * 4 2 2 2 3 2 * 4 2 2 4 4 * 4 3 * 2 2 = 4 4 ; B.z.z.z.z.j.z.j.z.z.j.z.z.z.z.z.j.z.z.n.j.z.z.z.z.z.j.z.z.z.z.n.z.z.z.z.n.{.x.z.z.z.z.z.l.z.z.z.j.z.z.z.z.l.z.j.z.j.j.j.j.n.n.n.n.z.n.z.v.z.n.j.j.z.j.j.j.n.n.j.n.j.z.z.z.j.j.z.n.n.n.n.n.n.n.z.j.z.n.j.n.z.j.n.n.j.n.n.j.n.n.j.n.j.j.j.j.z.n.z.n.n.n.j.n.n.n.z.j.j.z.z.z.j.j.z.z.j.k.n.j.n.j.j.n.z.z.z.z.x.x.z.z.z.j.l.j.n.z.z.z.z.z.z.z.n.n.j.n.n.n.n.j.n.n.n.n.z.z.z.z.z.z.z.z.n.z.n.n.n.j.z.n.n.n.z.n.z.n.z.z.n.n.:Xz.z.z.n.z.x.}.k.j.z.n.z.z.z.j.z.k.j.j.j.j.z.z.j.j.z.z.z.z.j.j.n.j.z.z.j.z.n.n.n.n.z.n.n.z.n.n.j.n.j.j.z.k.z.z.z.l.z.j.j.j.j.j.z.z.z.z.z.n.k.k.z.z.z.z.x.k.z.z.z.z.z.l.z.z.z.z.z.j.j.j.v.j.j.j.j.j.l.z.j.j.n.j.n.j.z.j.n.:Xv - 4 4 4 5 3 5 4 - 2 3 5 * wX                                                                                                                                                                                                                                                                                                                                                                                                                                                                                                  ",
"                                                                                      X 2 2 2 2 4 2 4 2 2 4 2 4 2 & = ; - ; ; ; ; & ; % # @ $ h.l.n.z.n.n.z.z.j.z.n.z.z.z.z.n.j.z.z.z.z.z.z.n.j.z.n.k.z.z.z.z.z.z.z.z.z.z.z.z.z.z.k.{.{.:X:X:X{.{.z.{.:Xz.].:Xz.:X<Xz.n.:X:Xn.:X:X:X:X:X:X:X:X:X:X:X:X:X;X>X;X>X;X;X:X<X:X<X|.].].v.n.].v.].].:X:X].n.].n.:X].].].<Xn.].<Xn.].n.<X:X].:X:X:X:X].:X].:X].].:X:X>X:X:X<X:X<X:X|.:X<X;X<X:X>X<X<X:X<X:X:X>X|.+X+X;X<X:X:X<X<X>X;X<X:X<X>X<X;X>X<X>X<X<X:X:X:X<X<X<X:X<X>X<X:X<X<X:X:X<X<X>X>X;X>X>X>X>X<X<X<X<X<X<X,X,X:X<X>X<X>X>X<X<X<X>X:Xj.j.z.z.n.z.z.z.z.z.n.z.j.n.<X<X|.|.|.:X<X,X,X<X<X,X,X,X,X,X1X,X,X,X,X>X,X,X>X>X>X>X+X:X|.:X|.].:X<X<X:X<X>X<X|.|.|.|.|.|.;X+X>X,X,X>X,X,X>X>X>X;X|.;X|.|.|.:X].|.{.:X:X:Xn.j.z.z.j.j.j.z.z.z.n.j.j.+XM : * r : 0 5 5 5 * 3 * = * eX                                                                                                                                                                                                                                                                                                                                                                                                                                                                                                  ",
"                                                                                      . 2 2 2 2 * 4 2 2 2 4 4 2 * L E E t.i.d.t.E i.i.t.i.d.d.^.z.z.z.z.z.z.z.j.z.j.z.z.z.z.n.z.z.z.z.z.z.z.z.z.j.z.z.z.z.z.z.z.z.z.z.z.n.z.{.z.n.n.b.M.M.d.d.m.m.m.m.m.m.m.m.d.d.d.t.t.t.t.t.E t.t.E t.t.E t.t.d.E $.d.E E E E E E t.t.t.m.d.a.t.E E E d.m.d.E d.E E E E E m.E E T W E E E E T E T E E E E R E E E E W E E W W R T R W T R R R R W W W W I I I I I I W W W W I I I I I I I I I I I I I I I I I I I D I I I I I I I D I I I I I I I I I I I I I G D I I D D D D D D D D N D B D G D D B d.n.n.n.z.z.z.z.j.k.j.n.n.j.].C I G L D D D I I I B D D D D D D D G D I D G G I G I I I I W W W W W I I I I I I I I I I I I W W I G P G I G I I G W I I I W W T T T W E E i.:Xj.z.z.j.j.z.z.z.z.z.j.z.<XC C N M N N B C B B N N N c J.                    HXHXHX                                                                                                                                                                                                                                                                                                                                                                                                                                                                        ",
"                                                                                      . 4 2 2 2 2 2 4 * 2 2 6 5 % Z.,X:X:X:X:X:Xn.{.z.j.n.].z.z.j.j.z.z.z.z.z.z.z.n.z.j.z.j.j.z.z.n.z.j.z.n.z.z.z.z.n.z.z.n.z.z.z.z.n.z.z.x.z.z.j.:Xi.m m e m r 8 0 0 w r t r r w 4 m d w w m w m w w m t g r r y m y m y t m t g t r r r r r t m m m m g m g t m g m m m m w t m m m m , m m m m r m g t m s m s g m g g t m r m m g m m g m g g h g h g m m m m m m m h h n l h m m l k g g g g y m m h g g g g m m m m m m m m m m m m m m m g k k g r s a r r g r g m g g g g r m g m g m m t h m t E :Xk.z.z.z.z.z.z.k.j.j.n.:XOXM m m n z m g m g g k k m m m g g g a g g g g g g g j h h m m m m m m m F m m Z h m m m m h h g g z g p z g g t r g h t t h h y e m y y m Z N ,Xj.j.z.j.j.z.j.z.j.j.j.z.n.;X;X,X|.|.,X>X>X>X:X<X:X<X3XS r g l l m l m l m m s r g @.                                                                                                                                                                                                                                                                                                                                                                                                                                                                      ",
"                                                                                      . 5 2 2 * 2 2 * 4 2 3 2 4 @ Z.:Xn.j.j.z.z.n.j.j.n.j.n.z.z.z.z.n.z.z.z.n.j.z.z.z.z.j.z.z.z.j.z.z.z.j.n.z.z.n.z.z.n.z.z.n.z.z.z.z.x.z.z.z.x.j.].t.z ! k h ! k g z j j k k k m d s g k m s s k m k k k k k k s s j k j k k k g k j j j k j j d m k s g k k s k k k g k k g k m m s m s k m k k k m g k m k d g k k k ! ! k ! k k k k k k k ~ ( k ( ~ ~ ! l ! ! k k k k ! l j k k k k ^ ^ l ^ ! l l l k ~ l ( m k k k k k k k k ~ k ~ k k k ! l ^ ! ^ ^ / ! ! ! / ! ! k ! j j k k s k k k k k m m s m E :Xz.n.z.z.z.z.j.z.z.j.z.l.OXc ! ~ ~ ~ ! ! ( k l ~ k ! k ! ! ! l ! l l k ! l l l ! l k l ~ l ~ l ~ k ^ h j ^ k l j j l k l l l l l z n z k k k k k k k k k l k k k ( j m Z ,Xn.j.j.j.j.j.z.j.j.j.z.z.j.z.z.z.{.v.n.n.v.n.].n.n.n.;XN - 4 9 9 a w 9 w 9 4 @ @ X #.                                                                                                                                                                                                                                                                                                                                                                                                                                                                      ",
"                                                                                      . 4 2 2 2 2 2 2 4 4 4 = 5 # H.n.n.j.j.j.j.j.j.j.j.j.z.z.z.j.k.z.z.z.z.z.z.z.z.j.n.z.z.z.z.n.z.z.z.z.z.z.z.z.z.z.z.z.z.z.z.z.k.z.z.z.n.z.k.n.{.t.g j ! z k k k k k ! g k k m s k k k k k k k k k k k / j ^ ! m k k k k k k k k ! k k k ! k d d ! g k k k k k ! k ! k ! ! k m d ! ! k k k ! k ( s ! k / k m k ! ! ! ! k ! k ~ ! ~ ! l l ! k k k k k k k k l k k k ^ ^ k ~ ~ l ! ! k l l k l k ! ! k k ~ l ! k / ( m k k k k l k k j z k k k k k ^ ! j ! ! ! ! ! ! k ! k l ! k k k l l k k k d s s m E :Xl.z.n.j.z.z.j.j.j.n.z.j.F.c h l ^ k k k k k ! ! k k k k k k k k l ! k / ! ! l ! k l l k z k l k z j k l k ~ ~ l ~ ^ ^ l ^ j l ^ ^ ^ ! ! ~ ~ ( l l ! k l ~ ( l l ( k m Z ,Xn.n.n.j.j.z.j.j.j.z.z.z.j.z.j.k.z.j.z.z.z.n.n.j.j.j.;XN @ 9 9 9 6 8 5 2 2 @ * . * {                                                                                                                                                                                                                                                                                                                                                                                                                                                                       ",
"                                                                                      . 3 2 2 2 * 2 2 2 2 5 4 - ; B.:Xz.z.z.z.z.z.z.z.z.z.z.z.z.k.z.j.n.z.j.z.z.n.z.z.z.z.z.j.n.z.z.z.z.z.z.z.n.z.z.z.z.z.n.z.z.z.:Xz.z.z.z.x.:Xz.|.R r j ! / j ! k l ! k k k k k k s k s k s m k g g k k s k k j k s k k k k j k k s k k k k k m d / k / k k k k k k k k k k s d d m m d k k k k k k / k k k k k / k k ! m k k k k k k k k m k k k k s k k ! k m ! k k z k k k j k k ! k z k l k k k k k k k k g k ( s k k k k k k k k ! j g k j k k ! ! k ! k k k ! ! k ! k k k k s k k k k k s g d t E :Xj.z.j.j.k.j.j.j.j.n.j.j.<X, k k k ! k k k ( k k k k k k ( / k ! k ! m / ( k l ! k k j k j j j k ^ k ~ k k ~ k k ~ k j l l l k l ^ k k l m ! k l m k ~ k k k k k k k m M ,Xj.j.j.j.j.j.j.j.j.j.z.v.n.k.k.z.k.j.z.j.j.z.j.j.j.k.>XN e 9 9 9 2 2 7 2 2 4 2 2 @ #.                                                                                                                                                                                                                                                                                                                                                                                                                                                                      ",
"                                                                                      @ 5 2 4 2 4 2 * 2 4 8 4 * # M.l.z.n.z.z.z.n.z.n.z.z.n.z.z.z.z.z.z.z.n.z.j.j.z.z.j.z.j.z.z.z.j.n.z.n.z.z.z.z.n.z.z.{.z.z.z.z.z.x.z.{.z.z.z.z.|.I w z k ! k j k k j k k k k s k m k m k s k j k ! k k k k k j k k k k k j k k k s k k k j k d m k k k k k k k k k k ! k k ( m d d s k k k k k k k / / k ! k k m k k k k k k / k k k ! k ! k ! k m ! k ! k k k ! k ! ^ k k k k k k j k k k ! k ! k k k ! k ! ! k k k m k k ! ! k k k k j k k k k k k k ! k ! ! ! ( ! k k k k / m g k k k k k k g m r E :Xn.z.j.j.j.n.j.n.j.j.j.j.].m k ! j k k k k ! k k k / ! k k k k k k k k k k k ! k l ! ^ k k k j k k k k l ^ k ^ j l j ^ l ^ l k k k k ! ! k ! ! m l ! k k l k ! m k k m M >Xj.j.j.j.j.j.j.n.v.j.z.j.j.j.j.z.z.z.z.l.z.j.j.j.j.n.>XB w 9 8 2 6 6 2 4 1 2 4 2 . ]                                                                                                                                                                                                                                                                                                                                                                                                                                                                       ",
"                                                                                      @ 4 2 2 2 2 2 * 3 2 2 5 4 # M.n.n.k.z.z.n.z.n.n.z.z.z.{.z.z.z.z.z.z.z.z.z.z.j.z.z.z.j.z.z.z.n.z.z.n.{.z.z.z.:Xz.z.z.z.z.:Xz.z.z.{.z.n.z.z.z. XI r k ! ! l l j ! ! k k k k g k s k k g k k j j g s j ^ j k ! j ! j k k j ! k k s k k k g k k k k k k k k k k k k k k k k k k k k / k k / k ! k k m k k k / k ! k k k k k k k k k ( / k k k / m k k k k k ( ! k ~ k k k ! j ^ j k k j k k ^ k / k k k k m k k k ! k k k k k k k k k k k k k k k k k ! k / k ! k k ! k k k k k k s k s k k k s k k t E {.j.j.n.j.j.j.j.n.j.j.j.j.OX, m j k k k k k k m k k k d ( k ! k k k k ! k ! ( ! j l ^ l ^ k k k k k k k k l j ^ j l ^ l l ^ k l k j ^ l ~ k ~ ( k m k k ! k k l ! k k m M <Xn.j.j.j.j.j.j.j.j.z.v.n.j.z.j.j.j.z.j.j.l.j.j.j.z.l.>XC 5 2 8 2 2 2 2 2 2 2 4 2 @ #.                                                                                                                                                                                                                                                                                                                                                                                                                                                                      ",
"                                                                                      @ 4 * 2 2 * 2 4 4 4 4 5 = @ M.z.n.z.z.z.z.z.z.z.z.z.z.n.z.j.n.z.z.z.z.z.z.z.n.z.z.z.n.z.z.z.z.z.z.z.z.z.n.k.z.z.{.z.z.z.z.{.z.n.z.z.z.z.z.z.+XW h z k ! k ! j l k k k z k k j j k k s k k k j k k j j k j j j j j k k k j k k k k k k k s d k k s k k k k k k / k k s k / k k k k k k / m k k k k k s ( k k m k k k k m k k k k d k k k ( ! k ! ! ! k k k k k k k k k k ! k k k ! ! k k k k k k k k k / / ( k k k k ! k ! ! k k k k k k k k k k ! k ! ! ! ! ! ! ! k k k d s k g / m k k ! g k k t E {.z.j.j.j.n.j.j.j.n.j.j.j.OXv k g k k k ! ! k k s k k k k k g ! k k ! k ! k k ! ^ j l j j ^ k k k k k j l l k j ^ l ~ l ^ k k k k l k l k k k k l ! k k m l k k m ~ k m M >Xn.j.j.j.j.v.n.j.j.j.z.n.j.l.j.j.j.z.j.j.j.j.z.l.z.n.,XG e 9 2 2 6 2 2 2 2 2 2 5 * @.                                                                                                                                                                                                                                                                                                                                                                                                                                                                      ",
"                                                                                      * 4 2 2 2 4 2 2 2 2 5 4 4 % B.{.z.z.n.z.z.z.z.j.z.n.z.z.z.z.z.z.z.z.j.z.j.z.z.z.z.z.z.n.j.z.z.n.z.z.z.z.{.x.z.z.z.}.z.z.z.z.z.{.z.{.z.:Xz.l.:XI r z k k l j ! k ! j ! k k k k k k k s s j j j k z ! k j ! j k j l j ! k j k k s k k k k k ( s k ( k k k d / k k k k k k m k / k k k k k k ! k k / k k k k k k k k k k k k ! k k / m / k k k k k k m k k k k ! k ^ k k j k k j j j j j k j k k k k k k k k s k k k k / k k k k k k s g g k k j k k ! k k ! k ! k s k k j k k k k k k k k g k g k t E :Xn.j.j.n.j.j.j.j.n.j.j.z.OXm k k k k k k k k ) s k k k ( ) s k k k k k k k k l k k ^ ^ l k k k k k k ^ ^ k k k ^ k k j k k k ^ l j k k k ~ k k ! k k k ! k ( ! m k k m M ].j.j.j.j.j.v.j.j.j.z.j.z.z.k.j.z.l.j.j.j.j.j.j.j.z.n.1XC 5 6 2 2 2 2 2 2 4 2 2 4 5 @.                                                                                                                                                                                                                                                                                                                                                                                                                                                                      ",
"                                                                                      2 5 2 4 * 2 2 4 2 2 4 4 * o B.{.z.z.z.z.n.z.z.z.n.z.z.z.z.j.z.z.n.z.j.z.j.j.n.z.j.n.z.z.z.z.z.z.z.n.z.z.n.:Xz.z.z.n.z.z.z.z.z.n.z.z.z.z.z.z.>XG z k k ^ k l j ! j k j k k k k g j k k k g k k k l ~ ! j ! j k ! j k l j ! k k k m d k k ! k k k k d k k ( k k k k k / k k k k k k s k k ! k k k k / m k k k k k k k k k k k k k k k k k ! k k ! k / k k ! l ! j j k k ! j j k j j ^ l k k k k k k / s k k k k ! k k k k k k k k k k k k k k j ! k k ! k k k k k k k g k j g k s m d k s k k j s g E :Xn.j.k.j.j.j.j.n.j.j.j.z.OX, k k k k k k k k k k k s k k k k k ! k k k k ! k k k k ^ l ~ k k k k k k j j k k k k k k ^ j j ^ k l ^ k ! k ( k ! m k ! m k k k k k k ( m M :Xj.j.j.j.j.j.j.j.j.j.z.j.z.j.z.j.j.z.z.j.j.z.j.j.z.{.,XD 0 2 2 2 2 2 2 2 * 2 2 2 5 +.                                                                                                                                                                                                                                                                                                                                                                                                                                                                      ",
"                                                                                    HX4 9 2 2 2 2 * 4 2 4 2 4 = % Z.].j.z.z.z.z.n.k.z.z.k.z.z.z.z.z.k.z.z.j.z.z.z.z.j.z.z.z.n.z.z.z.z.n.z.z.z.z.k.z.z.z.z.z.{.z.{.z.z.z.z.}.z.n.x.>XG Z ! ! ! k k k k k k k j k k k k k k k k k k k k k k ! k k k k k k k s k k k k k k k s k g k k k k s k k k k / k s k d k k k k k k k k k k k k k k ! k k k k k k k k k j k k k k k ! k k k k k ! k k k k ! k k k k k k j k j z j j k k k k s ! k k k k k k k k ! k k k k k k k k k k k g k k k ! k k k k k k k k k k k k k k j k k k k k s k j g m E :Xj.n.j.j.j.j.j.k.n.k.k.x.OXc l ! j ! ! k k k k k k k k s k k k k k k l k k k k k ! ! j k ! k k k k k ! j j k j k k k ! k k k k k k k k l l k k k ( k ! k k m ! k k k F Z >Xk.z.k.j.j.j.j.j.j.j.j.j.z.j.z.z.z.z.z.z.z.z.k.k.x.}.1XB 5 2 2 2 2 2 2 2 2 2 2 3 5 +.                                                                                                                                                                                                                                                                                                                                                                                                                                                                      ",
"                                                                                      2 5 4 2 2 2 4 2 2 2 2 4 - O Z.l.k.x.z.x.x.z.z.k.z.z.z.z.z.k.z.z.z.z.n.z.z.z.z.z.j.n.z.z.z.j.z.z.j.z.{.n.z.k.x.}.x.z.z.z.z.z.z.z.z.k.x.x.x.n.>XI t f k k k k k k ^ k k k k k k k j g k k k k s k k g k k k k k k k k k k k k s k s k s k s k k s k k k k k k k ( d k ( ! ! / k ! k k / ! k k / k ! d ( ! k / ! ! k / k k k k k k ! k k k ! k ! ! k k / k ! k k k / k k ! j ^ ^ ^ ^ k k ! k k ! ! k k ! / k k ! ! k k ! k k k k k k k ! / j k ! k ! ! ! ! k / / k k m k k k g k k k k k g j g j k g E :Xj.n.j.j.n.j.j.k.z.k.k.n.OX, j j k j k k / k k k k k k k k k k / k k ! j ! k ! k k k k k k k k k k k k k ! j ! j l k k k k k ! k ! k k k k l l k k k k m k k ! k l k m D ;Xj.n.j.j.j.j.j.j.j.j.j.j.j.z.j.j.z.z.z.z.l.z.z.z.{.{.1XM 4 6 2 2 2 2 3 2 2 2 2 3 9 5.HX                                                                                                                                                                                                                                                                                                                                                                                                                                                                    ",
"                                                                                      2 4 2 2 2 4 2 2 4 4 2 4 4 O Z.l.n.z.k.z.z.x.x.z.z.z.z.j.k.z.n.k.z.z.z.z.z.n.j.z.j.j.z.z.z.n.z.z.z.z.z.z.n.x.x.x.k.j.j.j.j.z.k.z.z.n.z.x.{.:X>XI h h k ! z k k k ^ l k k k k g k k k k k k k m ! j s j j k k j k k k k k j k k k k k k k / k ( k k s k k k k m k k m k k k k k k s k / k k m ! k ! k k k ( ( k k k k k k ! k k j k j k k k / k k ! ( k k k k k k k ! k k / l k k k k k k k k k ! j k k j ! k k k k k k k k g k k k k g k j j k k k l ! k k d m k k d k k h k k j g g k k k k s k r E :Xj.j.j.n.j.j.k.k.z.k.k.:XOX, l ^ j ! j ^ j j k k s k k k s k k k k k j k k ! z j k k k k k l k k k k l j k l h k k k h j k k l k k l k g ! ! l g k l k k ! m k k ! ! g D ,Xj.z.j.j.k.z.z.j.n.j.n.j.n.z.z.z.z.z.z.z.z.z.z.z.x.{.>Xv 3 2 2 2 2 * 9 3 6 2 9 9 5 ,.                                                                                                                                                                                                                                                                                                                                                                                                                                                                      ",
"                                                                                      2 2 2 2 * * 2 2 2 2 * 4 * O Z.l.k.z.z.z.z.k.k.k.z.z.z.z.z.z.z.z.z.z.z.j.n.z.z.z.j.z.z.j.z.j.z.z.z.n.z.z.z.z.x.k.n.n.n.j.n.x.}.n.}.{.}.n.z.k.;XI h ~ ! k l k k k z k l l ~ ( ( l k ! ! k ! k k k k l k ! k k ! ! ! k k k ! k k j k k k k d d d m d k k ! d k s k m k k ( ( ! m ( ) ( m k ( ! k / m k k k k k k / m k k k k k k k ~ ! k k k k m k / s m k k k k k k k k k m k l l l k k k k k k l l l k l l / m k ( ( s m k ! k k k g k k k k k k k k k k k k k ( ! ( / k k k k k k k k k s k g g t E z.j.j.j.j.n.j.j.k.z.k.k.k.OX, j j ^ j ^ ! j ^ ! k k k k k g / k / ( k / k k ^ ! k j k j j j k k k k k k l k k l ! ! ! k ! m k k k s k k ( ! ! k l l l k k k k k l k ! g D <Xj.z.j.j.l.z.n.z.:Xv.n.n.n.j.z.l.z.z.z.z.z.z.z.k.k.z.].< o @ * - 4 - 5 % % 2 * 4 5 ,.                                                                                                                                                                                                                                                                                                                                                                                                                                                                      ",
"                                                                                      * * 2 4 2 2 2 2 * 4 4 6 - % B.v.n.n.j.z.z.z.x.x.z.z.z.z.z.z.z.z.z.z.n.j.z.z.z.z.z.n.j.z.z.z.n.z.z.z.z.z.z.x.x.j.<Xz.v.n.].{.|. X>X;X>X>X|.:X,XI , : : : > - : ; e e b Z y g s k m g k k g k k k ! j s ) d _ ..2.6X6X2.;.-.-.&..._ _ _ ) ) ) ) ) / d / / i d / _ _ _ ) ) / ) _ ..) ) _ ) ) ) d ) .._ _ d d d d i i d d d d d d d d i i i d d d d d d ) _ ) _ ) ) ) _ _ ) ) _ ) | _ _ _ ) _ _ ) s ) ( / d s s / d s d d s s d d i d d _ | _ _ d ) ) ;.-.*._ d d ) <.&.=.s k k k k k k k j s g j k t E :Xn.n.j.j.n.j.k.k.k.k.k.x.+X, j ^ j ! j ! ^ k k k k k / ) &.-.2.2.-.&.-...-...&.......d / ) ) ) / / d d d / d ) ) ) ^ s _ -.&..._ / _ ;.-..._ ( g k ! k k ! k k k k ! s L 2XOX<X<X2XOXOXF.OXF.OXF.F.].].n.j.j.z.z.z.z.z.x.x.z.z.<Xv O O O O O < v $ O < < < v 5.HX                                                                                                                                                                                                                                                                                                                                                                                                                                                                    ",
"                                                                                      2 2 2 2 2 4 * 4 2 4 4 1 4 O Z.j.j.j.j.z.z.x.x.k.x.z.z.z.z.j.z.j.n.k.z.z.z.z.j.z.z.z.z.z.z.z.z.z.j.n.j.z.z.x.z.n.g.d.m.d.d.m.M.S.M.M.M.f.f.f.f.B.XXG.G.H.G.H.F.G.F.F.F.F.F.K.m k ! ! ! ! ! ( ~ ! ! ! <.AXAXAXAXAXAXAXAXAXAXAXAXAXAXAXAXAXAXAXSXAXAXAXAXAXAXAXAXAXAXAXAXAXAXAXAXAXAXAXAXSXAXAXAXAXAXAXAXAXAXAXAXAXAXAXAXAXAXAXAXAXAXAXAXAXAXAXAXAXAXAXAXAXAXAXSXAXAXAXAXAXAXAXAXAXAXAXAXAXAXAXAXAXAXAXAXAXAXAXAXAXAXAXAXAXAXAXAXAXAXAXAXAXAXAXAXSXAXAXAXAXAXAXAXAXAXAXAX;.k k g k s k k g k j k j g E {.n.j.j.k.n.j.n.k.z.k.n.n.OX, j j ^ j k ! k k k k k k s MXAXAXAXAXAXAXAXAXSXAXAXAXAXAXAXAXAXAXAXAXAXAXAXAXAXAXAXAXAXAXAXAXAXAXAXAXAXAXAXAXAXAXAXs k k k k l k k k k l ( g 0 $ > , < , , , , ; < , m < B.n.j.z.z.z.z.z.z.z.c.z.j.:XD.OXOXXX$X$X%X%XOXOXOX,X%X$X$X9X8XeXrXrXrXeX7X7X8XeXeXrXlX                                                                                                                                                                                                                                                                                                                                                                                                                                          ",
"                                                                                      4 2 2 2 2 2 2 2 2 2 @ 4 - % Z.n.n.j.z.z.z.z.x.z.z.z.z.z.z.z.z.z.j.z.j.z.z.z.z.z.z.z.j.j.n.z.z.z.n.j.j.z.n.k.k.>XB ; @ @ ; = * - ; ; : : & % # A. X:X:X|.z.x.{.{.{.x.x.x.{.m.z k ! ! ! ! / ! ! ! ! / iXAXAXAXAXAXAXAXAXAXAXAXAXAXAXAXAXAXAXAXAXAXAXAXAXAXAXAXAXAXAXAXAXAXAXAXAXAXAXAXAXAXAXAXAXAXAXAXAXAXAXAXAXAXAXAXAXAXAXAXAXAXAXAXAXAXAXAXAXAXAXAXAXAXAXAXAXAXAXAXAXAXAXAXAXAXAXAXAXAXAXAXAXAXAXAXAXAXAXAXAXAXAXAXAXAXAXAXAXAXAXAXAXAXAXAXAXAXAXAXAXAXAXAXAXAXAXAXAX5X! k s k k j k k k s k j g E ].j.j.j.j.j.j.z.k.x.k.k.n.OX, z ^ j ^ ^ k ^ k ^ k k k ) AXAXAXAXAXAXAXAXAXAXAXAXAXAXAXAXAXAXAXAXAXAXAXAXAXAXAXAXAXAXAXAXAXAXAXAXAXAXAXAXAXAXAXAXk l k k k l k k l k j k k k j k h h ~ k k k g m m ) m H.:Xj.z.z.z.z.z.z.x.z.x.n.j.j.j.j.].:X|.}.}.}.x.}.}.|.;X$X$ - 2 6 6 2 1 @ X X . X . +.                                                                                                                                                                                                                                                                                                                                                                                                                                          ",
"                                                                                      * 4 2 2 2 4 * 4 4 4 4 4 4 O B.].n.z.z.z.z.x.z.z.z.k.z.z.k.z.n.z.z.z.n.z.z.j.j.n.z.z.z.z.z.j.z.z.z.z.z.z.z.n.j.>XD w w 0 4 4 4 5 9 9 9 9 3 4 # F.}.x.k.x.x.{.z.{.n.z.z.k.{.N.j ( ! ! ! ! ( k ! ! ^ ^ qXAXAXAXAXAXAXAXAXAXAXAXAXAXAXAXAXAXAXAXAXAXAXAXAXAXAXAXAXAXAXAXAXAXAXAXAXAXAXAXAXAXAXAXAXAXAXAXAXAXAXAXAXAXAXAXAXAXAXAXAXAXAXAXAXAXAXAXAXAXAXAXAXAXAXAXAXAXAXAXAXAXAXAXAXAXAXAXAXAXAXAXAXAXAXAXAXAXAXAXAXAXAXAXAXAXAXAXAXAXAXAXAXAXAXAXAXAXAXAXAXAXAXAXAXAXAXAXAX4X! ! m k k g k k k k k g r E :Xn.j.n.k.j.j.z.k.z.k.k.n.OX, k ^ j ! j ^ k l k k k ! ..AXAXAXAXAXAXAXAXAXAXAXAXAXAXAXAXAXAXAXAXAXAXAXAXAXAXAXAXAXAXAXAXAXAXAXAXAXAXAXAXAXAXAXAX~ h k ! m k k k k k k l k k ! z l l ! m k k d m d m , B.z.z.z.l.c.{.z.z.z.z.z.v.j.j.n.j.z.z.x.x.n.n.k.k.k.}.;X2X> 5 q 9 u 9 2 8 4 2 2 1 1 *.                                                                                                                                                                                                                                                                                                                                                                                                                                          ",
"                                                                                      @ 4 2 2 2 2 2 * 2 2 2 4 - X Z.j.n.n.z.z.z.z.j.z.z.z.z.j.j.z.z.z.n.j.z.z.j.z.z.n.z.z.z.z.z.k.z.z.k.z.k.j.k.k.z.,XD 4 8 6 8 4 4 4 4 4 9 9 2 4 ; D.l.n.z.k.x.{.z.{.z.}.z.k.:XN.t ( ( ! ! ^ ) ! ! ^ ^ ^ MXAXAXAXAXAXAXAXAXAXAXAXAXAXAXAXAXAXAXAXAXAXAXAXAXAXAXAXAXAXAXAXAXAXAXAXAXAXAXAXAXAXAXAXAXAXAXAXAXAXAXAXAXAXAXAXAXAXAXAXAXAXAXAXAXAXAXAXAXAXAXAXAXAXAXAXAXAXAXAXAXAXAXAXAXAXAXAXAXAXAXAXAXAXAXAXAXAXAXAXAXAXAXAXAXAXAXAXAXAXAXAXAXAXAXAXAXAXAXAXAXAXAXAXAXAXAXAXAX4Xj k k k k j k j k k s k g E :Xn.k.j.j.j.j.j.j.j.j.k.{.OX< k ! ^ j ^ j k k k k k k ..AXAXAXAXAXAXAXAXAXAXAXAXAXAXAXAXAXAXAXAXAXAXAXAXAXAXAXAXAXAXAXAXAXAXAXAXAXAXAXAXAXAXAXAX) ~ z k l k k l l k k k l ( k k k l k k m ! ! k k m y B.n.n.z.z.z.z.z.l.n.v.z.z.z.z.].z.z.z.n.x.z.x.k.x.k.}.x.$X& 0 9 6 9 4 6 8 7 5 2 4 2 ,.                                                                                                                                                                                                                                                                                                                                                                                                                                          ",
"                                                                                      @ 4 2 2 2 4 2 4 4 2 4 4 - O B.v.n.z.z.z.z.z.z.j.j.j.j.z.n.z.j.z.z.z.z.n.z.z.z.j.z.z.z.z.j.z.z.z.n.z.k.k.k.k.z.,XN 5 4 6 6 4 4 4 4 6 9 5 4 5 - D.:Xz.z.:Xx.x.n.k.z.z.x.x.}.a.m / ! ! ^ ~ ^ ! ! ! ^ ) FXAXAXAXAXAXAXAXAXAXAXAXAXAXAXAXAXAXAXAXAXAXAXAXAXAXAXAXAXAXAXAXAXAXAXAXAXAXAXAXAXAXAXAXAXAXAXAXAXAXAXAXAXAXAXAXAXAXAXAXAXAXAXAXAXAXAXAXAXAXAXAXAXAXAXAXAXAXAXAXAXAXAXAXAXAXAXAXAXAXAXAXAXAXAXAXAXAXAXAXAXAXAXAXAXAXAXAXAXAXAXAXAXAXAXAXAXAXAXAXAXAXAXAXAXAXAXAXAX-.! k k k g k k k g k k k r E :Xk.j.j.j.j.n.j.n.k.k.k.n.$Xc z ^ j ! j / k k k k k k ) AXAXAXAXAXAXAXAXAXAXAXAXAXAXAXAXAXAXAXAXAXAXAXAXAXAXAXAXAXAXAXAXAXAXAXAXAXAXAXAXAXAXAXAX( ! l l k l k k l l k k k m k k k m ! ! k l k k k k : B.z.n.].n.z.z.z.z.z.n.n.z.z.z.z.n.z.z.k.x.n.z.k.x.k.x.x.OXO 9 9 9 4 4 8 4 8 6 6 8 4 ,.                                                                                                                                                                                                                                                                                                                                                                                                                                          ",
"                                                                                      @ 4 2 2 2 4 2 4 2 2 2 * 5 o B.n.n.z.z.z.z.z.z.z.z.z.z.z.z.z.j.z.z.z.z.z.j.z.j.z.z.z.z.z.n.z.z.z.z.z.k.k.z.k.z.,XD 4 4 2 6 8 4 4 4 8 2 2 5 5 , G.x.:Xz.{.x.n.x.n.z.z.z.}.:Xm.s ! ! ! ~ ^ ^ ! ^ ) ~ ^ ZXAXAXAXAXAXAXAXAXAXAXAXAXAXAXAXAXAXAXAXAXAXAXAXAXAXAXAXAXAXAXAXAXAXAXAXAXAXAXAXAXAXAXAXAXAXAXAXAXAXAXAXAXAXAXAXAXAXAXAXAXAXAXAXAXAXAXAXAXAXAXAXAXAXAXAXAXAXAXAXAXAXAXAXAXAXAXAXAXAXAXAXAXAXAXAXAXAXAXAXAXAXAXAXAXAXAXAXAXAXAXAXAXAXAXAXAXAXAXAXAXAXAXAXAXAXAXAXAX/ k j s k k k k k k j j s w E :Xj.j.k.j.j.j.k.j.k.k.k.z.OX, j ! ^ j ^ ^ ! k k / k k s AXAXAXAXAXAXAXAXAXAXAXAXAXAXAXAXAXAXAXAXAXAXAXAXAXAXAXAXAXAXAXAXAXAXAXAXAXAXAXAXAXAXAXAX2.k j l l k ~ ! k ! k k k ! k k ! k ( ! k k m ( j k 5 B.z.z.z.z.z.l.z.z.z.z.z.z.v.n.z.z.x.n.z.n.z.z.z.x.z.k.x.XXO 3 9 9 6 8 8 8 7 5 9 8 8 ,.                                                                                                                                                                                                                                                                                                                                                                                                                                          ",
"                                                                                      @ 2 2 2 4 4 @ 2 4 2 4 = 5 X Z.F.z.z.z.z.z.z.z.z.z.z.z.z.z.z.n.z.z.z.z.z.z.z.z.n.z.n.j.z.z.n.z.z.z.z.z.k.z.k.z.>XB w 9 4 8 4 8 4 4 2 6 5 4 9 : G.{.z.z.x.k.z.z.x.{.z.z.x.:Xa.g ! ! ! ) ^ ~ ! ! ! ^ ) SXAXAXAXAXAXAXAXAXAXAXAXAXAXAXAXAXAXAXAXAXAXAXAXAXAXAXAXAXAXAXAXAXAXAXAXAXAXAXAXAXAXAXAXAXAXAXAXAXAXAXAXAXAXAXAXAXAXAXAXAXAXAXAXAXAXAXAXAXAXAXAXAXAXAXAXAXAXAXAXAXAXAXAXAXAXAXAXAXAXAXAXAXAXAXAXAXAXAXAXAXAXAXAXAXAXAXAXAXAXAXAXAXAXAXAXAXAXAXAXAXAXAXAXAXAXAXAXAXi k j k k k k m k k g j j r t.{.n.j.j.n.j.j.k.k.k.n.k.k.$X, ! j j ! ^ j j ! j j / k s AXAXAXAXAXAXAXAXAXAXAXAXAXAXAXAXAXAXAXAXAXAXAXAXAXAXAXAXAXAXAXAXAXAXAXAXAXAXAXAXAXAXAXAX! l k j k k k m k k k k k ! k m k k k l k k ! l k l - Z.].z.z.z.z.z.z.z.z.z.l.z.z.n.z.z.z.z.z.z.z.n.z.x.z.x.c.$XO 5 7 6 7 4 9 8 5 7 2 8 2 ,.                                                                                                                                                                                                                                                                                                                                                                                                                                          ",
"                                                                                      @ * 2 2 2 - 1 4 4 4 4 - 4 % B.n.n.v.n.n.n.z.z.z.z.z.z.z.z.n.z.z.z.n.z.z.z.z.z.z.z.z.n.z.n.j.z.z.z.j.z.k.z.z.n.,XG r 9 8 8 4 9 4 2 9 9 8 5 w : H.{.}.x.x.x.{.z.z.z.z.z.}.:Xa.g ! ( ~ ^ ^ ) ^ ^ ~ ^ ) ZXAXAXAXAXAXAXAXAXAXAXAXAXAXAXAXAXAXAXAXAXAXAXAXAXAXAXAXAXAXAXAXAXAXAXAXAXAXAXAXAXAXAXAXAXAXAXAXAXAXAXAXAXAXAXAXAXAXAXAXAXAXAXAXAXAXAXAXAXAXAXAXAXAXAXAXAXAXAXAXAXAXAXAXAXAXAXAXAXAXAXAXAXAXAXAXAXAXAXAXAXAXAXAXAXAXAXAXAXAXAXAXAXAXAXAXAXAXAXAXAXAXAXAXAXAXAXAXAXd k k k k k k k k k k j k r E :Xn.j.n.j.j.j.j.j.k.k.k.k.$X, k ^ ^ j k k j j k k s k g AXAXAXAXAXAXAXAXAXAXAXAXAXAXAXAXAXAXAXAXAXAXAXAXAXAXAXAXAXAXAXAXAXAXAXAXAXAXAXAXAXAXAXAX! l k ! l k l k k m k m k k k ! k k k k m k k ( k k - Z.{.z.z.z.j.z.z.z.z.z.z.z.z.z.z.n.z.z.z.z.z.z.z.k.x.k.:X$X# 5 9 9 2 8 8 4 7 9 8 8 4 ,.                                                                                                                                                                                                                                                                                                                                                                                                                                          ",
"                                                                                      @ 2 2 * 2 4 4 4 4 4 4 4 - % B.].n.n.z.z.z.z.z.z.z.j.z.z.z.j.z.j.z.j.j.j.z.z.z.z.z.z.j.z.j.z.z.n.z.j.j.n.j.z.n.>XG r 9 8 8 4 8 4 4 5 9 9 5 4 ; H.x.}.k.:Xx.x.z.k.{.z.z.x.{.m.r / / ! ) ^ ^ ^ ^ ^ ^ ^ MXAXAXAXAXAXAXAXAXAXAXAXAXAXAXAXAXAXAXAXAXAXAXAXAXAXAXAXAXAXAXAXAXAXAXAXAXAXAXAXAXAXAXAXAXAXAXAXAXAXAXAXAXAXAXAXAXAXAXAXAXAXAXAXAXAXAXAXAXAXAXAXAXAXAXAXAXAXAXAXAXAXAXAXAXAXAXAXAXAXAXAXAXAXAXAXAXAXAXAXAXAXAXAXAXAXAXAXAXAXAXAXAXAXAXAXAXAXAXAXAXAXAXAXAXAXAXAXAXd j ~ g k k k k s k k k g e t.:Xj.j.j.j.j.n.j.j.k.k.x.x.+X, k k k ^ j ^ k ! k k ! k k AXAXAXAXAXAXAXAXAXAXAXAXAXAXAXAXAXAXAXAXAXAXAXAXAXAXAXAXAXAXAXAXAXAXAXAXAXAXAXAXAXAXAXAX| ~ j k k ! k ! m k k k k ! m k k ! m k ! k ! k k m 0 H.{.z.z.].n.z.z.z.z.z.z.z.z.{.z.z.z.z.z.z.n.z.z.z.x.x.}.$X# 4 8 6 4 5 8 8 8 3 2 2 8 ,.                                                                                                                                                                                                                                                                                                                                                                                                                                          ",
"                                                                                      @ 2 * 2 2 4 4 4 @ 4 4 4 4 X B.n.n.z.z.z.z.z.z.z.z.j.z.n.z.z.z.n.j.z.z.z.j.z.z.z.j.j.z.j.j.z.z.j.j.j.n.n.z.z.n.,XI r 9 6 7 2 8 4 4 4 9 9 5 5 ; Z.[.z.x.x.x.z.z.x.z.{.z.z.:XN.r ! ! ^ ^ ~ ^ ) ^ ^ ~ / VXAXAXAXAXAXAXAXAXAXAXAXAXAXAXAXAXAXAXAXAXAXAXAXAXAXAXAXAXAXAXAXAXAXAXAXAXAXAXAXAXAXAXAXAXAXAXAXAXAXAXAXAXAXAXAXAXAXAXAXAXAXAXAXAXAXAXAXAXAXAXAXAXAXAXAXAXAXAXAXAXAXAXAXAXAXAXAXAXAXAXAXAXAXAXAXAXAXAXAXAXAXAXAXAXAXAXAXAXAXAXAXAXAXAXAXAXAXAXAXAXAXAXAXAXAXAXAXAX..s k k k s g k j k k k j w d.:Xj.j.j.j.j.j.n.j.k.k.k.x.OX, k k ! j j j ^ j k k k k s AXAXAXAXAXAXAXAXAXAXAXAXAXAXAXAXAXAXAXAXAXAXAXAXAXAXAXAXAXAXAXAXAXAXAXAXAXAXAXAXAXAXAXAX&.! k l k k l k ! k l k k l k m k k k k ( k m k l h : H.z.j.z.z.z.z.j.z.z.z.z.z.z.z.z.z.z.z.n.z.z.z.z.z.z.}.:XOX# 5 5 6 2 8 8 6 9 4 9 4 9 ,.                                                                                                                                                                                                                                                                                                                                                                                                                                          ",
"                                                                                      . 2 2 2 2 @ 4 4 4 4 @ 4 4 o M.v.n.z.z.z.n.z.z.z.z.z.j.j.z.z.z.z.z.z.z.z.z.z.z.z.j.j.n.n.z.k.k.z.k.j.j.j.z.z.n.>XD 9 9 9 2 8 6 4 4 4 4 4 4 4 $ Z.{.z.:Xx.x.z.n.{.z.z.z.z.|.N.r ! ! ^ ) ^ ^ ^ ~ ^ / ^ FXAXAXAXAXAXAXAXAXAXAXAXAXAXAXAXAXAXAXAXAXAXAXAXAXAXAXAXAXAXAXAXAXAXAXAXAXAXAXAXAXAXAXAXAXAXAXAXAXAXAXAXAXAXAXAXAXAXAXAXAXAXAXAXAXAXAXAXAXAXAXAXAXAXAXAXAXAXAXAXAXAXAXAXAXAXAXAXAXAXAXAXAXAXAXAXAXAXAXAXAXAXAXAXAXAXAXAXAXAXAXAXAXAXAXAXAXAXAXAXAXAXAXAXAXAXAXAXAX) k g k k k k j g k k g j r d.].n.j.j.j.j.j.j.j.k.k.x.x.OX, l ^ j ^ ! ^ k k k k k k s AXAXAXAXAXAXAXAXAXAXAXAXAXAXAXAXAXAXAXAXAXAXAXAXAXAXAXAXAXAXAXAXAXAXAXAXAXAXAXAXAXAXAXAX) k ! k k k k k k k k k ! k k k k k ! k k k k k l k - Z.v.n.].z.z.z.l.z.j.l.{.z.z.z.z.z.z.z.z.z.z.z.n.z.x.x.|.G.O 4 9 9 2 8 8 6 2 4 6 8 w ,.                                                                                                                                                                                                                                                                                                                                                                                                                                          ",
"                                                                                      @ 2 2 2 2 2 4 2 * 4 2 2 4 O B.n.n.z.z.z.z.z.z.z.j.z.z.z.z.z.z.z.n.z.z.z.z.z.z.z.j.j.k.z.z.z.z.x.x.x.x.x.z.k.;X>XN r 9 8 8 8 4 8 6 8 8 4 4 8 # H.z.z.n.z.{.z.z.z.z.{.z.z.|.N.k ! ! ^ ! ^ ^ ^ ^ ^ ^ ^ ZXAXAXAXAXAXAXAXAXAXAXAXAXAXAXAXAXAXAXAXAXAXAXAXAXAXAXAXAXAXAXAXAXAXAXAXAXAXAXAXAXAXAXAXAXAXAXAXAXAXAXAXAXAXAXAXAXAXAXAXAXAXAXAXAXAXAXAXAXAXAXAXAXAXAXAXAXAXAXAXAXAXAXAXAXAXAXAXAXAXAXAXAXAXAXAXAXAXAXAXAXAXAXAXAXAXAXAXAXAXAXAXAXAXAXAXAXAXAXAXAXAXAXAXAXAXAXAXAX) j g s k g k k k j g s m e t.z.z.j.n.j.n.j.j.j.j.j.n.j.F., m k ^ j ^ / j j / j ^ k s AXAXAXAXAXAXAXAXAXAXAXAXAXAXAXAXAXAXAXAXAXAXAXAXAXAXAXAXAXAXAXAXAXAXAXAXAXAXAXAXAXAXAXAX-.j j k k k k k k k k k m k k d m ( d m k k k k g k 5 Z.{.z.z.z.z.{.z.z.z.z.l.j.j.j.l.z.n.j.z.z.z.].z.z.z.z.z.XX# * 5 4 3 9 6 5 2 5 6 6 8 ,.                                                                                                                                                                                                                                                                                                                                                                                                                                          ",
"                                                                                      . 2 4 * 4 2 2 4 2 4 2 4 5 X Z.n.n.z.z.z.j.z.z.j.z.j.z.j.z.z.z.z.j.z.j.z.z.z.z.n.z.j.j.k.z.z.z.j.c.x.x.}.x.x.}.>XN * * 4 4 2 2 2 8 8 8 4 4 4 @ Z.j.z.z.n.].z.:Xz.z.n.z.z.|.N.g ! ( ) ! ~ ) ^ ^ ) ^ ^ ZXAXAXAXAXAXAXAXAXAXAXAXAXAXAXAXAXAXAXAXAXAXAXAXAXAXAXAXAXAXAXAXAXAXAXAXAXAXAXAXAXAXAXAXAXAXAXAXAXAXAXAXAXAXAXAXAXAXAXAXAXAXAXAXAXAXAXAXAXAXAXAXAXAXAXAXAXAXAXAXAXAXAXAXAXAXAXAXAXAXAXAXAXAXAXAXAXAXAXAXAXAXAXAXAXAXAXAXAXAXAXAXAXAXAXAXAXAXAXAXAXAXAXAXAXAXAXAXAX) g k k k j j k g s k d m 4 d.].n.j.j.j.j.j.j.n.j.j.j.j.OXc k k j / k j ^ j j j j k s AXAXAXAXAXAXAXAXAXAXAXAXAXAXAXAXAXAXAXAXAXAXAXAXAXAXAXAXAXAXAXAXAXAXAXAXAXAXAXAXAXAXAXAX&.! k k k ! ! k k k ! k ! k k ! k k m / / m ( k l k : Z.n.z.z.z.z.x.l.z.z.z.j.j.j.z.n.z.z.z.z.z.z.z.z.z.{.n.z.OXO 4 5 2 4 6 9 3 4 3 6 7 2 ,.                                                                                                                                                                                                                                                                                                                                                                                                                                          ",
"                                                                                      . 2 * 2 * 2 4 2 2 4 2 = 4 % B.].j.z.j.z.z.z.z.z.z.z.z.z.j.j.z.z.z.z.z.z.z.z.j.z.z.n.n.z.{.{.{.{.{.}.k.{.|.n.n.>XN : % , - ; - - - ; - # @ O # D.j.z.z.j.j.z.z.z.z.z.{.z.:XN.r ! ! ^ ~ ^ ^ ~ ^ ^ ^ ^ VXAXAXAXAXAXAXAXAXAXAXAXAXAXAXAXAXAXAXAXAXAXAXAXAXAXAXAXAXAXAXAXAXAXAXAXAXAXAXAXAXAXAXAXAXAXAXAXAXAXAXAXAXAXAXAXAXAXAXAXAXAXAXAXAXAXAXAXAXAXAXAXAXAXAXAXAXAXAXAXAXAXAXAXAXAXAXAXAXAXAXAXAXAXAXAXAXAXAXAXAXAXAXAXAXAXAXAXAXAXAXAXAXAXAXAXAXAXAXAXAXAXAXAXAXAXAXAXAXi k k k j k k s k k k g m m t.].n.j.j.j.j.j.j.n.j.n.n.j.<Xc k k k k j k j k j k k k s AXAXAXAXAXAXAXAXAXAXAXAXAXAXAXAXAXAXAXAXAXAXAXAXAXAXAXAXAXAXAXAXAXAXAXAXAXAXAXAXAXAXAXAX;.<...) -.4X4X2.<.<.5X;.2.2.2.2.5X5X2.5X6X6X0X5X&./ r H.<X>X>X<X{.]. X+X;X<X:X:X:X:Xj.j.z.z.n.n.z.z.j.z.z.n.j.OX# = 9 5 w 9 r 5 w 5 3 q 2 *.                                                                                                                                                                                                                                                                                                                                                                                                                                          ",
"                                                                                      X 2 4 2 2 4 * 4 2 2 9 = 4 o M.j.n.z.n.z.z.z.z.j.z.z.z.j.z.j.n.z.z.j.z.z.n.z.j.z.z.n.D.G.G.G.G.H.D.G.H.Z.Z.B.H.H.t.e.E t.m.N.N.N.M.N.E m.d.d.d.].n.n.j.j.n.z.z.{.z.z.z.z.:XN.g ! ! ) ^ ^ ^ ! ^ ~ ^ ! ZXAXAXAXAXAXAXAXAXAXAXAXAXAXAXAXAXAXAXAXAXAXAXAXAXAXAXAXAXAXAXAXAXAXAXAXAXAXAXAXAXAXAXAXAXAXAXAXAXAXAXAXAXAXAXAXAXAXAXAXAXAXAXAXAXAXAXAXAXAXAXAXAXAXAXAXAXAXAXAXAXAXAXAXAXAXAXAXAXAXAXAXAXAXAXAXAXAXAXAXAXAXAXAXAXAXAXAXAXAXAXAXAXAXAXAXAXAXAXAXAXAXAXAXAXAXAXAXAXi s g j k k k g g k k k d m t.n.j.j.j.n.j.j.j.j.j.j.n.n.F.m k ! s ! / k ^ k k k k k s AXAXAXAXAXAXAXAXAXAXAXAXAXAXAXAXAXAXAXAXAXAXAXAXAXAXAXAXAXAXAXAXAXAXAXAXAXAXAXAXAXAXAXAXAXAXAXAXAXAXAXAXAXAXAXAXAXAXAXAXSXAXAXAXAXAXAXAXAXAXAXvX$.R E E E E E W W T T I T F.z.z.z.z.z.z.{.z.n.z.l.z.z.].< < , < $ $ $ $ < < # $ # ,.                    HX                                                                                                                                                                                                                                                                                                                                                                                                                    ",
"                                                                                      X 2 2 2 2 2 3 2 2 5 9 2 4 % B.n.n.z.j.j.n.z.z.z.z.n.z.z.z.z.j.z.j.j.z.z.j.z.z.j.j.:Xd., : : - - - e , e e : : , H.>X>X;X:X;X;X;X|.{.{.:X{.:X:Xj.z.j.z.l.n.z.z.z.z.z.z.z.:XN.t ! ! / ! ~ ^ / ~ ^ ) / ZXAXAXAXAXAXAXAXAXAXAXAXAXAXAXAXAXAXAXAXAXAXAXAXAXAXAXAXAXAXAXAXAXAXAXAXAXAXAXAXAXAXAXAXAXAXAXAXAXAXAXAXAXAXAXAXAXAXAXAXAXAXAXAXAXAXAXAXAXAXAXAXAXAXAXAXAXAXAXAXAXAXAXAXAXAXAXAXAXAXAXAXAXAXAXAXAXAXAXAXAXAXAXAXAXAXAXAXAXAXAXAXAXAXAXAXAXAXAXAXAXAXAXAXAXAXAXAXAXi s s j s g k k k s g g k t d.z.j.j.z.k.k.k.j.j.k.k.j.j.F.c ^ j j / j ^ ! j k k ! k s AXAXAXAXAXAXAXAXAXAXAXAXAXAXAXAXAXAXAXAXAXAXAXAXAXAXAXAXAXAXAXAXAXAXAXAXAXAXAXAXAXAXAXAXAXAXAXAXAXAXAXAXAXAXAXAXAXAXAXAXAXAXAXAXAXAXAXAXAXAXAXcXm g r g r w r r g s m m > H.n.z.z.z.z.z.z.z.n.{.k.j.z.:X<X2X<X+XOX+X$XOXOXOX+X2X2XN.@ * 2 8 a l l l m m m ` [                                                                                                                                                                                                                                                                                                                                                                                                                 ",
"                                                                                      X 2 2 2 2 4 2 4 2 2 9 = 4 X B.j.n.z.z.z.z.z.z.z.j.z.j.z.z.z.j.z.z.z.z.z.n.z.z.j.n.:Xt.y k k k j a g k k k j g y B.z.z.z.z.z.z.z.z.n.l.z.z.j.j.n.n.j.j.z.z.n.z.z.z.z.z.z.|.N.t ) ! ! ! ) ^ ! ! ! ^ / VXAXAXAXAXAXAXAXAXAXAXAXAXAXAXAXAXAXAXAXAXAXAXAXAXAXAXAXAXAXAXAXAXAXAXAXAXAXAXAXAXAXAXAXAXAXAXAXAXAXAXAXAXAXAXAXAXAXAXAXAXAXAXAXAXAXAXAXAXAXAXAXAXAXAXAXAXAXAXAXAXAXAXAXAXAXAXAXAXAXAXAXAXAXAXAXAXAXAXAXAXAXAXAXAXAXAXAXAXAXAXAXAXAXAXAXAXAXAXAXAXAXAXAXAXAXAXAXAXi s g k k k g k k j k k k t d.].z.z.k.k.z.z.j.j.z.k.n.j.OXc z ^ j k ^ j j ! j ! j k g AXAXAXAXAXAXAXAXAXAXAXAXAXAXAXAXAXAXAXAXAXAXAXAXAXAXAXAXAXAXAXAXAXAXAXAXAXAXAXAXAXAXAXAXAXAXAXAXAXAXAXAXAXAXAXAXAXAXAXAXAXAXAXAXAXAXAXAXAXAXAXmXd s k k k k j k s m m g : G.n.z.j.j.z.z.z.z.z.z.k.z.z.z.n.z.z.{.:X:X:X{.{.z.k.l.{.M.o 9 w 5 4 7 9 5 5 8 5 4 9                                                                                                                                                                                                                                                                                                                                                                                                                 ",
"                                                                                      . 2 * 2 4 2 2 2 5 5 2 3 5 % B.v.n.z.n.z.z.z.z.n.j.z.z.n.j.z.n.z.z.z.z.z.z.z.z.z.z.z.N.r k k k k k k k k j k k e H.{.z.z.n.z.z.z.n.j.n.z.n.j.z.z.z.z.z.z.z.z.z.z.z.z.z.z.|.N.g ! ! ~ ^ ! ^ ) ^ ^ ^ ^ FXAXAXAXAXAXAXAXAXAXAXAXAXAXAXAXAXAXAXAXAXAXAXAXAXAXAXAXAXAXAXAXAXAXAXAXAXAXAXAXAXAXAXAXAXAXAXAXAXAXAXAXAXAXAXAXAXAXAXAXAXAXAXAXAXAXAXAXAXAXAXAXAXAXAXAXAXAXAXAXAXAXAXAXAXAXAXAXAXAXAXAXAXAXAXAXAXAXAXAXAXAXAXAXAXAXAXAXAXAXAXAXAXAXAXAXAXAXAXAXAXAXAXAXAXAXAXAXAXi j j k k k k j g k k k s m d.:Xj.z.z.n.z.z.z.z.k.k.j.j.OXb l j k k j ^ j j ^ ^ j ! ) AXAXAXAXAXAXAXAXAXAXAXAXAXAXAXAXAXAXAXAXAXAXAXAXAXAXAXAXAXAXAXAXAXAXAXAXAXAXAXAXAXAXAXAXAXAXAXAXAXAXAXAXAXAXAXAXAXAXAXAXAXAXAXAXAXAXAXAXAXAXAXFXd m k k k k j k k s s m e H.n.z.z.z.z.z.z.j.z.z.z.z.z.z.z.n.z.n.z.x.n.x.n.k.k.z.].M.% 2 2 4 2 2 2 2 2 4 8 2 2                                                                                                                                                                                                                                                                                                                                                                                                                 ",
"                                                                                      @ 2 2 2 2 4 2 4 4 2 4 4 5 @ M.v.z.z.j.z.z.j.n.z.j.z.z.z.z.z.z.z.z.j.n.z.z.z.z.z.z.{.E g k k k k k k k k g k ! Z Z.{.z.z.z.z.z.z.z.j.z.z.z.z.n.z.z.z.z.z.z.z.z.z.z.z.z.z.{.N.h ) ^ ! / ) ^ / ! ! ^ / ZXAXAXAXAXAXAXAXAXAXAXAXAXAXAXAXAXAXAXAXAXAXAXAXAXAXAXAXAXAXAXAXAXAXAXAXAXAXAXAXAXAXAXAXAXAXAXAXAXAXAXAXAXAXAXAXAXAXAXAXAXAXAXAXAXAXAXAXAXAXAXAXAXAXAXAXAXAXAXAXAXAXAXAXAXAXAXAXAXAXAXAXAXAXAXAXAXAXAXAXAXAXAXAXAXAXAXAXAXAXAXAXAXAXAXAXAXAXAXAXAXAXAXAXAXAXAXAXAXi j j g j k k k k k k g g y d.].j.z.z.z.z.z.z.z.x.k.n.j.OXc l ! k k ^ j j ^ j ! ! j ) AXAXAXAXAXAXAXAXAXAXAXAXAXAXAXAXAXAXAXAXAXAXAXAXAXAXAXAXAXAXAXAXAXAXAXAXAXAXAXAXAXAXAXAXAXAXAXAXAXAXAXAXAXAXAXAXAXAXAXAXAXAXAXAXAXAXAXAXAXAXAXVXd / k s k j ! k k m s s e G.n.n.z.z.z.z.z.z.z.z.z.n.z.z.z.z.z.k.z.z.z.x.x.x.k.n.:XN.o 2 2 4 8 6 4 6 8 2 9 6 2                                                                                                                                                                                                                                                                                                                                                                                                                 ",
"                                                                                      @ * 2 2 2 * 2 4 4 2 9 2 5 & Z.z.z.z.z.n.z.z.z.j.z.j.z.z.z.z.z.z.z.z.z.n.z.z.z.z.j.>Xt.r ! k k j k ! k j j k h n B.{.k.z.k.n.z.z.n.z.z.x.x.n.z.z.z.z.z.j.z.z.z.z.z.z.j.z.{.N.t ! ( ^ ! ! ! ^ ! ! ! ! FXAXAXAXAXAXAXAXAXAXAXAXAXAXAXAXAXAXAXAXAXAXAXAXAXAXAXAXAXAXAXAXAXAXAXAXAXAXAXAXAXAXAXAXAXAXAXAXAXAXAXAXAXAXAXAXAXAXAXAXAXAXAXAXAXAXAXAXAXAXAXAXAXAXAXAXAXAXAXAXAXAXAXAXAXAXAXAXAXAXAXAXAXAXAXAXAXAXAXAXAXAXAXAXAXAXAXAXAXAXAXAXAXAXAXAXAXAXAXAXAXAXAXAXAXAXAXAXAXi k g k k k k s g ! k z k t d.{.j.z.z.z.z.n.j.j.z.x.j.j.OX, k k k k j ^ j / ! j ^ ! ( AXAXAXAXAXAXAXAXAXAXAXAXAXAXAXAXAXAXAXAXAXAXAXAXAXAXAXAXAXAXAXAXAXAXAXAXAXAXAXAXAXAXAXAXAXAXAXAXAXAXAXAXAXAXAXAXAXAXAXAXAXAXAXAXAXAXAXAXAXAXAXSX! ! j j ^ / j k k j j j , F.:Xn.z.z.n.z.z.z.z.z.z.z.z.z.z.n.z.k.:Xn.x.z.z.x.k.j.z.f.O 4 4 4 4 2 5 6 8 9 6 2 1                                                                                                                                                                                                                                                                                                                                                                                                                 ",
"                                                                                      * 2 2 2 2 4 3 4 3 4 3 4 5 & B.v.n.z.z.j.z.z.z.z.z.z.z.n.j.z.z.j.n.z.j.j.z.z.j.z.j.:Xt.r l k k ! j j k k k j j t B.{.k.z.k.k.z.z.z.z.z.n.z.z.z.z.j.j.z.z.j.j.z.z.j.z.j.l.{.M.m ( / ^ ) ) ! ) / ^ ^ ) ZXAXAXAXAXAXAXAXAXAXAXAXAXAXAXAXAXAXAXAXAXAXAXAXAXAXAXAXAXAXAXAXAXAXAXAXAXAXAXAXAXAXAXAXAXAXAXAXAXAXAXAXAXAXAXAXAXAXAXAXAXAXAXAXAXAXAXAXAXAXAXAXAXAXAXAXAXAXAXAXAXAXAXAXAXAXAXAXAXAXAXAXAXAXAXAXAXAXAXAXAXAXAXAXAXAXAXAXAXAXAXAXAXAXAXAXAXAXAXAXAXAXAXAXAXAXAXAXAXi f k k k g k k k j k k m y d.].z.z.j.z.z.j.z.j.c.j.j.j.OXZ k k k k ! j ! j j ^ j j s AXAXAXAXAXAXAXAXAXAXAXAXAXAXAXAXAXAXAXAXAXAXAXAXAXAXAXAXAXAXAXAXAXAXAXAXAXAXAXAXAXAXAXAXAXAXAXAXAXAXAXAXAXAXAXAXAXAXAXAXAXAXAXAXAXAXAXAXAXAXAXAX} k j j j j k k k k s g ; F.n.z.z.z.z.n.z.z.n.z.z.z.n.z.z.z.z.z.x.x.n.{.z.n.x.n.].E @ 4 1 1 4 6 2 2 2 2 2 2 2                                                                                                                                                                                                                                                                                                                                                                                                                 ",
"                                                                                      4 2 2 2 4 = 2 3 4 2 8 - 5 @ Z.z.z.j.z.z.z.z.z.n.j.j.z.z.z.z.z.z.z.z.z.j.z.z.z.z.k.}.t.y k k j k k ^ j k j j k t B.{.k.k.k.k.k.z.z.n.z.z.n.z.z.n.j.z.z.z.z.n.v.j.z.z.n.z.{.N.g ( ! ! ~ / ) ^ ^ ) / ( ZXAXAXAXAXAXAXAXAXAXAXAXAXAXAXAXAXAXAXAXAXAXAXAXAXAXAXAXAXAXAXAXAXAXAXAXAXAXAXAXAXAXAXAXAXAXAXAXAXAXAXAXAXAXAXAXAXAXAXAXAXAXAXAXAXAXAXAXAXAXAXAXAXAXAXAXAXAXAXAXAXAXAXAXAXAXAXAXAXAXAXAXAXAXAXAXAXAXAXAXAXAXAXAXAXAXAXAXAXAXAXAXAXAXAXAXAXAXAXAXAXAXAXAXAXAXAXAXAXi s j k k j j k g k k k m r m.z.j.z.z.z.z.z.z.j.z.k.j.n.OXc k k k k j ^ ! ! ^ j k / k AXAXAXAXAXAXAXAXAXAXAXAXAXAXAXAXAXAXAXAXAXAXAXAXAXAXAXAXAXAXAXAXAXAXAXAXAXAXAXAXAXAXAXAXAXAXAXAXAXAXAXAXAXAXAXAXAXAXAXAXAXAXAXAXAXAXAXAXAXAXAXAXO.! k l j k k k / j j d , <X:Xz.z.n.z.z.z.z.z.z.z.z.k.n.z.x.x.k.x.n.{.n.z.z.z.z.:XE ; 2 2 4 4 6 2 2 2 2 6 8 2                                                                                                                                                                                                                                                                                                                                                                                                                 ",
"                                                                                    HX4 2 2 2 2 4 2 3 3 4 5 4 4 O M.z.z.z.n.z.z.j.z.z.z.n.z.z.z.z.z.z.j.z.z.z.n.z.z.z.n.}.t.r k k k j k j z k ^ j g n Z.{.k.z.n.j.k.z.z.z.z.z.n.n.n.z.z.z.n.z.z.j.z.z.j.l.z.z.{.N.t ( / ^ ) ! ! ) ! ! ! ! SXAXAXAXAXAXAXAXAXAXAXAXAXAXAXAXAXAXAXAXAXAXAXAXAXAXAXAXAXAXAXAXAXAXAXAXAXAXAXAXAXAXAXAXAXAXAXAXAXAXAXAXAXAXAXAXAXAXAXAXAXAXAXAXAXAXAXAXAXAXAXAXAXAXAXAXAXAXAXAXAXAXAXAXAXAXAXAXAXAXAXAXAXAXAXAXAXAXAXAXAXAXAXAXAXAXAXAXAXAXAXAXAXAXAXAXAXAXAXAXAXAXAXAXAXAXAXAXAXi s j g j k g s k k s s m y m.].j.z.n.z.z.j.z.j.z.k.j.n.].m j k k k ^ j j ! j ! ! ! / AXAXAXAXAXAXAXAXAXAXAXAXAXAXAXAXAXAXAXAXAXAXAXAXAXAXAXAXAXAXAXAXAXAXAXAXAXAXAXAXAXAXAXAXAXAXAXAXAXAXAXAXAXAXAXAXAXAXAXAXAXAXAXAXAXAXAXAXAXAXAXAXo.! j j ! k k k k j j w - F.z.z.z.z.z.z.z.j.j.k.z.z.z.n.z.z.n.n.z.z.z.z.{.z.z.{.:Xd.; 2 2 4 8 6 2 2 6 2 9 2 .                                                                                                                                                                                                                                                                                                                                                                                                                 ",
"                                                                                      2 2 2 4 2 5 3 3 3 3 9 5 - O B.z.n.j.z.n.n.n.z.z.z.z.n.j.z.n.j.z.z.z.j.z.z.z.z.x.z.:Xt.t l l j j j j j ^ j k k y B.{.z.n.z.z.z.z.z.x.x.n.x.z.z.z.j.n.j.z.z.n.j.n.n.j.j.j.:Xm.g ! ! ! ( ! ! / ! ) ^ 2.AXAXAXAXAXAXAXAXAXAXAXAXAXAXAXAXAXAXAXAXAXAXAXAXAXAXAXAXAXAXAXAXAXAXAXAXAXAXAXAXAXAXAXAXAXAXAXAXAXAXAXAXAXAXAXAXAXAXAXAXAXAXAXAXAXAXAXAXAXAXAXAXAXAXAXAXAXAXAXAXAXAXAXAXAXAXAXAXAXAXAXAXAXAXAXAXAXAXAXAXAXAXAXAXAXAXAXAXAXAXAXAXAXAXAXAXAXAXAXAXAXAXAXAXAXAXAXAXAXi j k g k g ! k j g g j k y m.v.j.z.j.z.z.j.z.z.z.z.j.j.<Xm m w k s z k k s k k k k s AXAXAXAXAXAXAXAXAXAXAXAXAXAXAXAXAXAXAXAXAXAXAXAXAXAXAXAXAXAXAXAXAXAXAXAXAXAXAXAXAXAXAXAXAXAXAXAXAXAXAXAXAXAXAXAXAXAXAXAXAXAXAXAXAXAXAXAXAXAXAXAX:.^ j j k k k k j g s s % F.:Xz.z.z.z.z.k.z.z.n.z.z.z.z.x.x.z.z.n.z.z.z.{.z.z.k.<Xd.; 8 4 2 2 3 6 2 2 2 8 2 2                                                                                                                                                                                                                                                                                                                                                                                                                 ",
"                                                                                      * 4 9 4 4 4 4 4 4 4 3 5 5 @ M.].z.v.z.n.v.z.z.z.z.j.z.n.z.z.z.z.z.j.z.z.z.z.z.z.z.;Xa.r ! j ! j ! k k k ^ ! f t H.{.z.j.j.k.z.z.z.k.x.z.x.z.j.j.n.j.j.z.z.j.j.v.j.z.z.j.].d.r / ( ! ! ( ! ) ^ ! ! ( FXAXAXAXAXAXAXAXAXAXAXAXAXAXAXAXAXAXAXAXAXAXAXAXAXAXAXAXAXAXAXAXAXAXAXAXAXAXAXAXAXAXAXAXAXAXAXAXAXAXAXAXAXAXAXAXAXAXAXAXAXAXAXAXAXAXAXAXAXAXAXAXAXAXAXAXAXAXAXAXAXAXAXAXAXAXAXAXAXAXAXAXAXAXAXAXAXAXAXAXAXAXAXAXAXAXAXAXAXAXAXAXAXAXAXAXAXAXAXAXAXAXAXAXAXAXAXAXAXi j s j k k k j k k s m m r m.].j.z.z.z.z.n.z.j.z.l.j.j.F.M m s k d k k ! k k k k s s AXAXAXAXAXAXAXAXAXAXAXAXAXAXAXAXAXAXAXAXAXAXAXAXAXAXAXAXAXAXAXAXAXAXAXAXAXAXAXAXAXAXAXAXAXAXAXAXAXAXAXAXAXAXAXAXAXAXAXAXAXAXAXAXAXAXAXAXAXAXAXNXs l j k k k k k ! ! s m ; D.n.z.z.z.{.z.z.z.z.z.x.{.z.z.z.n.z.x.n.n.x.z.n.k.z.k.;Xm.* 7 2 2 2 2 3 2 6 2 6 2 2                                                                                                                                                                                                                                                                                                                                                                                                                 ",
"                                                                                      2 4 4 5 4 5 4 5 4 4 5 - 5 % M.n.n.n.z.v.n.z.].n.j.z.z.j.z.j.j.z.z.z.j.z.z.z.k.k.z.|.t.f l ! j j j j j k ^ k j y G.z.z.k.j.k.n.z.z.x.x.z.z.z.z.j.n.n.n.n.z.z.n.n.j.j.j.z.:XM.y k ! ) ! ! ! ! ^ ^ ^ ! xXAXAXAXAXAXAXAXAXAXAXAXAXAXAXAXAXAXAXAXAXAXAXAXAXAXAXAXAXAXAXAXAXAXAXAXAXAXAXAXAXAXAXAXAXAXAXAXAXAXAXAXAXAXAXAXAXAXAXAXAXAXAXAXAXAXAXAXAXAXAXAXAXAXAXAXAXAXAXAXAXAXAXAXAXAXAXAXAXAXAXAXAXAXAXAXAXAXAXAXAXAXAXAXAXAXAXAXAXAXAXAXAXAXAXAXAXAXAXAXAXAXAXAXAXAXAXAXAXi s g k s j k g k s s s d m m.<Xj.z.z.z.j.j.z.j.z.j.j.z.F.M s s g k s k k k k k ! k s AXAXAXAXAXAXAXAXAXAXAXAXAXAXAXAXAXAXAXAXAXAXAXAXAXAXAXAXAXAXAXAXAXAXAXAXAXAXAXAXAXAXAXAXAXAXAXAXAXAXAXAXAXAXAXAXAXAXAXAXAXAXAXAXAXAXAXAXAXAXAXVXs j k k k k k k k s m s , F.:Xn.z.z.z.n.{.z.z.z.z.n.k.n.z.x.n.z.n.z.x.x.{.j.z.x.>Xm.= 2 2 2 6 7 6 8 2 6 2 6 2                                                                                                                                                                                                                                                                                                                                                                                                                 ",
"                                                                                      . * 4 2 2 2 4 - 5 4 4 * 9 # g.j.n.n.n.n.n.z.z.n.j.z.z.z.z.z.z.j.z.z.z.n.j.z.k.z.z.{.t.y l ! j j j ^ z ^ j k j y Z.{.z.z.k.k.z.z.k.x.x.x.z.n.z.z.n.z.v.z.z.v.n.j.n.n.j.v.:XZ.a ! ! / ! ! ! ! ~ ~ ^ ! zXAXAXAXAXAXAXAXAXAXAXAXAXAXAXAXAXAXAXAXAXAXAXAXAXAXAXAXAXAXAXAXAXAXAXAXAXAXAXAXAXAXAXAXAXAXAXAXAXAXAXAXAXAXAXAXAXAXAXAXAXAXAXAXAXAXAXAXAXAXAXAXAXAXAXAXAXAXAXAXAXAXAXAXAXAXAXAXAXAXAXAXAXAXAXAXAXAXAXAXAXAXAXAXAXAXAXAXAXAXAXAXAXAXAXAXAXAXAXAXAXAXAXAXAXAXAXAXAXi s g k k k k k k k d w m w d.n.j.z.z.z.z.z.z.n.z.z.j.j.F.m s m k k k k s k k k k g s AXAXAXAXAXAXAXAXAXAXAXAXAXAXAXAXAXAXAXAXAXAXAXAXAXAXAXAXAXAXAXAXAXAXAXAXAXAXAXAXAXAXAXAXAXAXAXAXAXAXAXAXAXAXAXAXAXAXAXAXAXAXAXAXAXAXAXAXAXAXAXSX^ l j j k j k k k s m s e H.z.z.n.n.n.z.z.n.k.k.n.z.n.z.n.z.z.z.z.n.z.z.z.z.k.k.<Xd.% 6 2 2 6 2 7 2 2 8 9 2 2                                                                                                                                                                                                                                                                                                                                                                                                                 ",
"                                                                                      * 4 9 9 9 4 0 4 9 4 9 5 5 o B.l.x.z.n.z.{.z.z.z.z.z.z.z.z.z.z.z.z.z.z.z.n.{.k.z.n.}.E f l k k k l j k k ^ j k y Z.{.z.z.k.k.z.z.z.x.x.x.n.j.n.:X|.<X,X+X X>X>X:Xv.z.<X>X<XN.k ^ ^ ^ <.;.:.:.2.4X/ / sXAXAXAXAXAXAXAXAXAXAXAXAXAXAXAXAXAXAXAXAXAXAXAXAXAXAXAXAXAXAXAXAXAXAXAXAXAXAXAXAXAXAXAXAXAXAXAXAXAXAXAXAXAXAXAXAXAXAXAXAXAXAXAXAXAXAXAXAXAXAXAXAXAXAXAXAXAXAXAXAXAXAXAXAXAXAXAXAXAXAXAXAXAXAXAXAXAXAXAXAXAXAXAXAXAXAXAXAXAXAXAXAXAXAXAXAXAXAXAXAXAXAXAXAXAXAXAXAXi a g k k s g k k k k j k e N.n.n.z.n.z.z.z.z.z.z.z.j.z.<Xc g s s k k k k k ^ j k k s AXAXAXAXAXAXAXAXAXAXAXAXAXAXAXAXAXAXAXAXAXAXAXAXAXAXAXAXAXAXAXAXAXAXAXAXAXAXAXAXAXAXAXAXAXAXAXAXAXAXAXAXAXAXAXAXAXAXAXAXAXAXAXAXAXAXAXAXAXAXAXZX/ ^ ^ ^ ^ ~ ^ ^ p / / j 0 I.].v.z.:X:X:X{.{.{.n.x. X|.n.n.z.z.x.n.z.z.n.{.z.z.z.<Xd.% 9 2 2 2 2 2 6 2 7 9 8 2                                                                                                                                                                                                                                                                                                                                                                                                                 ",
"                                                                                      & # # # $ $ > # ; ; # > ; # B.l.k.z.x.z.z.z.{.n.z.z.z.z.z.z.z.z.z.].z.z.z.z.z.x.z.|.E t l ! k k ^ ^ j l ^ / l y C.{.z.z.k.k.z.z.k.k.k.x.x.n.:X9.t.E E a.a.d.M.B.B.Z.Z.Z.Z.4.cXDXmXDXAXAXAXAXAXAXCXxXAXAXAXAXAXAXAXAXAXAXAXAXAXAXAXAXAXAXAXAXAXAXAXAXAXAXAXAXAXAXAXAXAXAXAXAXAXAXAXAXAXAXAXAXAXAXAXAXAXAXAXAXAXAXAXAXAXAXAXAXAXAXAXAXAXAXAXAXAXAXAXAXAXAXAXAXAXAXAXAXAXAXAXAXAXAXAXAXAXAXAXAXAXAXAXAXAXAXAXAXAXAXAXAXAXAXAXAXAXAXAXAXAXAXAXAXAXAXAXAXAXAXAXAXAXAXAXAXAXi a s g k k k k s k s k g y N.z.j.z.j.z.j.z.z.z.z.z.j.n.OXc k k k k k s k k j j k j s AXAXAXAXAXAXAXAXAXAXAXAXAXAXAXAXAXAXAXAXAXAXAXAXAXAXAXAXAXAXAXAXAXAXAXAXAXAXAXAXAXAXAXAXAXAXAXAXAXAXAXAXAXAXAXAXAXAXAXAXAXAXAXAXAXAXAXAXAXAXAXAXMXcXcXSXSXAXSXDXZXMXMXMXcXN.m.m.m.M.M.B.B.B.B.B.G.G./.].x.z.z.x.z.z.n.z.z.z.z.z.>Xd.% 9 * 2 2 2 2 7 2 2 9 2 .                                                                                                                                                                                                                                                                                                                                                                                                                 ",
"F ! ( l m m l m ( m m m l m l m l h g g k g g g g g f w g g m k g g k h l l h a w m , I.G.G.G.G.F.$XF.F.F.OXF.OXF.:X:Xz.{.z.z.z.z.z.z.z.z.z.z.z.z.z.z.z.n.j.z.z.z.z.x.z.:Xt.r ! j k k k j l l j ! l t B.x.x.z.k.z.z.k.z.k.z.x.x.j.<XM f h j ^ n g t t m m m ` F MXAXAXAXAXAXAXAXAXAXAXAXAXAXAXAXAXAXAXAXAXAXAXAXAXAXAXAXAXAXAXAXAXAXAXAXAXAXAXAXAXAXAXAXAXAXAXAXAXAXAXAXAXAXAXAXAXAXAXAXAXAXAXAXAXAXAXAXAXAXAXAXAXAXAXAXAXAXAXAXAXAXAXAXAXAXAXAXAXAXAXAXAXAXAXAXAXAXAXAXAXAXAXAXAXAXAXAXAXAXAXAXAXAXAXAXAXAXAXAXAXAXAXAXAXAXAXAXAXAXAXAXAXAXAXAXAXAXAXAXAXAXi a g j k k k j k k k g g r M.].z.z.z.z.n.z.z.k.z.z.j.z.OXm k k s k s k k k j / k k s AXAXAXAXAXAXAXAXAXAXAXAXAXAXAXAXAXAXAXAXAXAXAXAXAXAXAXAXAXAXAXAXAXAXAXAXAXAXAXAXAXAXAXAXAXAXAXAXAXAXAXAXAXAXAXAXAXAXAXAXAXAXAXAXAXAXAXAXAXAXAXAXAXAXAXAXAXAXAXAXAXAXAXAXAX/ 3 @ = = 4 5 0 ; - q e 0 , B >Xz.z.z.z.x.z.n.z.n.z.z.:Xd.% 5 2 2 2 2 6 6 6 2 2 2 X h { ] { ] { { { [ { { ( ( { @.                                                                                                                                                                                                                                                                                                                                                                                  ",
"8 u 9 8 7 9 7 8 6 9 8 9 9 9 9 3 9 9 9 9 9 8 9 9 9 9 9 9 9 5 9 5 5 9 5 5 5 5 r w 5 e $ 2X:X:Xn.z.z.{.{.z.z.j.j.z.j.j.z.z.z.z.z.z.z.{.z.z.z.n.z.z.z.z.z.z.j.n.z.z.z.z.z.n.:Xt.r k k l k z l j j j j z t B.x.x.z.k.k.x.k.x.k.k.n.x.:X<XZ ! ) ! ( ( ( ( ! ~ ~ l ' ~ cXAXAXAXAXAXAXAXAXAXAXAXAXAXAXAXAXAXAXAXAXAXAXAXAXAXAXAXAXAXAXAXAXAXAXAXAXAXAXAXAXAXAXAXAXAXAXAXAXAXAXAXAXAXAXAXAXAXAXAXAXAXAXAXAXAXAXAXAXAXAXAXAXAXAXAXAXAXAXAXAXAXAXAXAXAXAXAXAXAXAXAXAXAXAXAXAXAXAXAXAXAXAXAXAXAXAXAXAXAXAXAXAXAXAXAXAXAXAXAXAXAXAXAXAXAXAXAXAXAXAXAXAXAXAXAXAXAXAXAXAXAXd s k j j g j j g k k g s r M.].z.z.z.z.z.z.z.k.z.j.j.n.OXc s k k k k k k / k k k k s AXAXAXAXAXAXAXAXAXAXAXAXAXAXAXAXAXAXAXAXAXAXAXAXAXAXAXAXAXAXAXAXAXAXAXAXAXAXAXAXAXAXAXAXAXAXAXAXAXAXAXAXAXAXAXAXAXAXAXAXAXAXAXAXAXAXAXAXAXAXAXAXAXAXAXAXAXAXAXAXAXAXAXAXAX-.i s f k k l j k ! 6.^ n z W >Xx.z.z.n.z.z.z.z.z.z.n.:Xd.; 2 2 2 2 6 2 2 2 1 2 2 1 2 2 4 8 9 9 9 8 4 9 4 5 4 2 g                                                                                                                                                                                                                                                                                                                                                                                   ",
"8 9 9 9 6 9 9 9 9 9 9 8 9 9 8 8 9 8 8 3 9 6 9 9 3 8 9 5 4 4 4 4 2 2 2 4 4 4 5 4 4 4 < <Xn.n.j.z.z.z.z.z.z.z.z.z.j.z.z.z.z.z.z.n.z.z.z.{.z.z.z.{.z.z.z.n.z.z.n.z.x.k.k.z.:Xt.t k z z z ^ j ^ z j l ^ y Z.k.n.k.k.k.k.k.x.k.k.x.x.}.2XZ l ' ^ ( ' ! ) ! ! ~ ~ ~ ^ xXAXAXAXAXAXAXAXAXAXAXAXAXAXAXAXAXAXAXAXAXAXAXAXAXAXAXAXAXAXAXAXAXAXAXAXAXAXAXAXAXAXAXAXAXAXAXAXAXAXAXAXAXAXAXAXAXAXAXAXAXAXAXAXAXAXAXAXAXAXAXAXAXAXAXAXAXAXAXAXAXAXAXAXAXAXAXAXAXAXAXAXAXAXAXAXAXAXAXAXAXAXAXAXAXAXAXAXAXAXAXAXAXAXAXAXAXAXAXAXAXAXAXAXAXAXAXAXAXAXAXAXAXAXAXAXAXAXAXAXAXAX..j g k j j s k k g s g j r M.{.z.z.z.n.j.z.n.j.l.j.j.z.F.m j k k s k k k / k k j ! d AXAXAXAXAXAXAXAXAXAXAXAXAXAXAXAXAXAXAXAXAXAXAXAXAXAXAXAXAXAXAXAXAXAXAXAXAXAXAXAXAXAXAXAXAXAXAXAXAXAXAXAXAXAXAXAXAXAXAXAXAXAXAXAXAXAXAXAXAXAXAXAXAXAXAXAXAXAXAXAXAXAXAXAXAX-.p p p p p j j j j p ^ p p D >X{.z.n.z.z.n.z.z.n.z.z.<Xt.% 2 6 2 2 2 6 2 2 2 2 2 2 2 2 2 2 6 2 2 2 4 4 1 2 2 2 g                                                                                                                                                                                                                                                                                                                                                                                   ",
"9 2 8 9 5 9 9 2 9 8 9 7 7 9 9 9 9 9 9 9 5 8 2 8 9 9 6 2 4 5 4 5 9 5 5 5 5 5 4 4 w 0 < ,X:Xn.k.z.z.z.z.l.z.z.j.z.j.n.z.z.{.z.z.{.n.z.z.z.z.{.n.z.z.z.z.z.z.z.j.z.z.x.k.:X|.t.t k ^ ^ j j j j j j j ^ y Z.k.k.k.k.k.z.x.k.k.k.k.x.n.,XM ( ) ^ ^ ^ ( ! ! ) ) ~ ^ ^ xXAXAXAXAXAXAXAXAXAXAXAXAXAXAXAXAXAXAXAXAXAXAXAXAXAXAXAXAXAXAXAXAXAXAXAXAXAXAXAXAXAXAXAXAXAXAXAXAXAXAXAXAXAXAXAXAXAXAXAXAXAXAXAXAXAXAXAXAXAXAXAXAXAXAXAXAXAXAXAXAXAXAXAXAXAXAXAXAXAXAXAXAXAXAXAXAXAXAXAXAXAXAXAXAXAXAXAXAXAXAXAXAXAXAXAXAXAXAXAXAXAXAXAXAXAXAXAXAXAXAXAXAXAXAXAXAXAXAXAXAXAX) u k j j j j k k k j s s e d.:Xj.z.z.z.z.z.z.j.z.j.j.z.OX, s k k k k k k k k k k ! s AXAXAXAXAXAXAXAXAXAXAXAXAXAXAXAXAXAXAXAXAXAXAXAXAXAXAXAXAXAXAXAXAXAXAXAXAXAXAXAXAXAXAXAXAXAXAXAXAXAXAXAXAXAXAXAXAXAXAXAXAXAXAXAXAXAXAXAXAXAXAXAXAXAXAXAXAXAXAXAXAXAXAXAXAX-.i ^ ^ ^ ^ j ^ j j j j ^ z N +Xl.z.z.z.z.z.z.z.z.z.z.>Xt.& 2 6 2 2 6 2 2 2 6 2 1 2 6 2 2 2 2 2 2 2 2 4 2 2 2 6 l                                                                                                                                                                                                                                                                                                                                                                                   ",
"9 9 9 9 9 8 9 9 5 9 9 6 9 8 2 8 8 9 6 6 6 3 9 9 9 9 9 4 9 5 5 5 9 4 4 9 4 5 4 4 4 0 $ ,Xn.j.k.z.z.z.z.z.z.z.z.n.z.z.z.z.z.z.z.z.z.z.z.z.z.z.z.{.z.z.z.z.z.j.z.z.z.x.z.z.|.a.r k z j ^ z ^ j j ^ j j t B.z.k.n.k.k.x.x.x.k.k.k.k.n.,XS m ) ^ ~ ) ) ^ ( ) ~ ~ ! / qXAXAXAXAXAXAXAXAXAXAXAXAXAXAXAXAXAXAXAXAXAXAXAXAXAXAXAXAXAXAXAXAXAXAXAXAXAXAXAXAXAXAXAXAXAXAXAXAXAXAXAXAXAXAXAXAXAXAXAXAXAXAXAXAXAXAXAXAXAXAXAXAXAXAXAXAXAXAXAXAXAXAXAXAXAXAXAXAXAXAXAXAXAXAXAXAXAXAXAXAXAXAXAXAXAXAXAXAXAXAXAXAXAXAXAXAXAXAXAXAXAXAXAXAXAXAXAXAXAXAXAXAXAXAXAXAXAXAXAXAXAX/ j k j j k j g j j j f s e d.{.z.z.j.z.z.z.z.j.l.j.z.n.OX, k k k k k k k / k j ^ ! s AXAXAXAXAXAXAXAXAXAXAXAXAXAXAXAXAXAXAXAXAXAXAXAXAXAXAXAXAXAXAXAXAXAXAXAXAXAXAXAXAXAXAXAXAXAXAXAXAXAXAXAXAXAXAXAXAXAXAXAXAXAXAXAXAXAXAXAXAXAXAXAXAXAXAXAXAXAXAXAXAXAXAXAXAXpX^ ^ ^ p ^ ^ j ^ j ^ ^ k a S ;Xx.z.n.z.z.z.z.z.n.z.}.>Xt.= 6 2 6 2 2 2 6 6 6 6 2 2 2 2 4 2 2 6 2 9 2 2 2 6 2 8 j                                                                                                                                                                                                                                                                                                                                                                                   ",
"7 8 9 7 7 9 8 6 9 8 9 9 9 9 9 9 9 6 9 4 5 8 6 9 9 8 9 4 5 4 9 5 5 4 5 4 5 5 w 4 5 e < ,Xn.z.n.z.x.z.z.z.z.z.z.z.z.z.z.n.n.z.z.z.z.z.n.{.z.n.z.z.z.z.z.z.z.j.z.z.z.x.z.x.:Xt.r k z ^ z ^ z j j j ^ j y Z.x.k.k.k.k.x.x.x.n.k.n.k.n.,XS ( ^ _ ~ ^ ~ ~ ~ ~ ~ ^ ~ ^ qXAXAXAXAXAXAXAXAXAXAXAXAXAXAXAXAXAXAXAXAXAXAXAXAXAXAXAXAXAXAXAXAXAXAXAXAXAXAXAXAXAXAXAXAXAXAXAXAXAXAXAXAXAXAXAXAXAXAXAXAXAXAXAXAXAXAXAXAXAXAXAXAXAXAXAXAXAXAXAXAXAXAXAXAXAXAXAXAXAXAXAXAXAXAXAXAXAXAXAXAXAXAXAXAXAXAXAXAXAXAXAXAXAXAXAXAXAXAXAXAXAXAXAXAXAXAXAXAXAXAXAXAXAXAXAXAXAXAXAXAXAX/ j k k g s k k s k k j g r m.{.n.z.z.n.z.k.z.z.z.z.n.n.OX, g s k k k ! k k / j j ! s AXAXAXAXAXAXAXAXAXAXAXAXAXAXAXAXAXAXAXAXAXAXAXAXAXAXAXAXAXAXAXAXAXAXAXAXAXAXAXAXAXAXAXAXAXAXAXAXAXAXAXAXAXAXAXAXAXAXAXAXAXAXAXAXAXAXAXAXAXAXAXAXAXAXAXAXAXAXAXAXAXAXAXAXAXxX~ ^ p ^ ^ p / ^ j j ^ j g S >Xz.z.x.z.z.z.z.z.z.z.x.+Xt.+ 6 6 6 2 6 2 2 2 2 2 2 2 8 6 2 6 2 6 6 2 2 2 2 2 2 8 g                                                                                                                                                                                                                                                                                                                                                                                   ",
"9 8 9 9 9 9 6 9 8 9 2 9 9 6 7 9 9 8 6 9 6 7 9 9 9 8 9 4 5 5 9 5 5 5 5 5 5 5 5 5 5 e M 2X}.{.z.z.z.z.z.z.z.z.z.z.z.z.k.n.z.z.n.z.z.z.z.{.z.z.z.{.z.z.z.j.j.j.z.z.z.z.z.z.|.t.r j ^ j ^ z ^ j z ^ j ^ q C.l.z.n.k.k.k.k.k.n.k.k.k.n.:XD ( ) ) ^ ^ ~ ^ ~ ^ ~ ~ ^ ^ iXAXAXAXAXAXAXAXAXAXAXAXAXAXAXAXAXAXAXAXAXAXAXAXAXAXAXAXAXAXAXAXAXAXAXAXAXAXAXAXAXAXAXAXAXAXAXAXAXAXAXAXAXAXAXAXAXAXAXAXAXAXAXAXAXAXAXAXAXAXAXAXAXAXAXAXAXAXAXAXAXAXAXAXAXAXAXAXAXAXAXAXAXAXAXAXAXAXAXAXAXAXAXAXAXAXAXAXAXAXAXAXAXAXAXAXAXAXAXAXAXAXAXAXAXAXAXAXAXAXAXAXAXAXAXAXAXAXAXAXAXAX) j l j j j s k g k j g s e m.{.n.z.z.z.n.z.j.z.z.z.j.z.F.m g s k s k k j ! ^ k j k / AXAXAXAXAXAXAXAXAXAXAXAXAXAXAXAXAXAXAXAXAXAXAXAXAXAXAXAXAXAXAXAXAXAXAXAXAXAXAXAXAXAXAXAXAXAXAXAXAXAXAXAXAXAXAXAXAXAXAXAXAXAXAXAXAXAXAXAXAXAXAXAXAXAXAXAXAXAXAXAXAXAXAXAXAXcX^ ^ ^ p ^ ^ i ^ ^ ^ ^ p p D ,Xz.z.z.z.z.z.z.z.j.n.v.>XE * 7 6 6 2 6 6 x 6 6 2 2 2 2 2 2 6 2 8 2 6 4 8 2 8 6 8 l HX                                                                                                                                                                                                                                                                                                                                                                                ",
"9 9 7 9 7 7 9 7 9 9 9 7 9 9 7 9 3 7 9 8 9 9 4 9 9 3 4 5 5 2 5 5 5 5 5 5 5 5 5 5 5 w < ,Xz.z.n.z.z.z.z.z.z.n.n.z.z.z.z.z.z.z.z.z.z.z.z.z.x.z.x.x.z.z.z.z.j.j.j.z.z.x.z.x.{.a.t j z ^ ^ z z ^ ^ p k k 0 H.{.k.k.k.n.n.k.k.k.k.n.k.n.:XD ( ) ) ) ) ) ~ _ ~ ^ ~ ~ ^ zXAXAXAXAXAXAXAXAXAXAXAXAXAXAXAXAXAXAXAXAXAXAXAXAXAXAXAXAXAXAXAXAXAXAXAXAXAXAXAXAXAXAXAXAXAXAXAXAXAXAXAXAXAXAXAXAXAXAXAXAXAXAXAXAXAXAXAXAXAXAXAXAXAXAXAXAXAXAXAXAXAXAXAXAXAXAXAXAXAXAXAXAXAXAXAXAXAXAXAXAXAXAXAXAXAXAXAXAXAXAXAXAXAXAXAXAXAXAXAXAXAXAXAXAXAXAXAXAXAXAXAXAXAXAXAXAXAXAXAXAXAX| j ! g g k g j s k s g s r d.{.z.z.z.z.k.z.z.z.z.z.n.j.F., s m k k k k ! j j j ^ / s AXAXAXAXAXAXAXAXAXAXAXAXAXAXAXAXAXAXAXAXAXAXAXAXAXAXAXAXAXAXAXAXAXAXAXAXAXAXAXAXAXAXAXAXAXAXAXAXAXAXAXAXAXAXAXAXAXAXAXAXAXAXAXAXAXAXAXAXAXAXAXAXAXAXAXAXAXAXAXAXAXAXAXAXAXgX^ ^ s s ^ ^ ^ ^ p p ^ j p G >Xn.x.n.z.z.z.z.z.j.z.n.<XE - 6 6 2 2 2 2 x 6 2 2 2 6 6 6 2 7 2 2 6 2 6 9 1 2 8 8 F                                                                                                                                                                                                                                                                                                                                                                                   ",
"5 9 5 4 5 5 4 9 9 5 5 5 5 4 5 2 5 9 5 5 5 9 4 5 3 4 5 5 5 4 4 5 5 5 4 5 5 5 5 - 5 5 < ,Xz.}.z.z.z.z.z.z.z.z.k.z.z.z.z.k.z.z.z.z.n.z.{.z.x.x.x.x.z.z.v.j.l.z.j.z.z.x.k.z.:Xt.y l j j z ^ p ^ z ^ j l r Z.z.k.n.n.k.k.k.k.k.k.k.n.n.:XI m ~ ) ^ ^ ~ ~ ~ ) _ ~ ~ ^ cXAXAXAXAXAXAXAXAXAXAXAXAXAXAXAXAXAXAXAXAXAXAXAXAXAXAXAXAXAXAXAXAXAXAXAXAXAXAXAXAXAXAXAXAXAXAXAXAXAXAXAXAXAXAXAXAXAXAXAXAXAXAXAXAXAXAXAXAXAXAXAXAXAXAXAXAXAXAXAXAXAXAXAXAXAXAXAXAXAXAXAXAXAXAXAXAXAXAXAXAXAXAXAXAXAXAXAXAXAXAXAXAXAXAXAXAXAXAXAXAXAXAXAXAXAXAXAXAXAXAXAXAXAXAXAXAXAXAXAXAXAX| j j j k g k j j k g k s t t.:Xz.z.z.z.z.z.z.j.z.z.n.n.F., m d k / / j ! ^ ! j j ! | AXAXAXAXAXAXAXAXAXAXAXAXAXAXAXAXAXAXAXAXAXAXAXAXAXAXAXAXAXAXAXAXAXAXAXAXAXAXAXAXAXAXAXAXAXAXAXAXAXAXAXAXAXAXAXAXAXAXAXAXAXAXAXAXAXAXAXAXAXAXAXAXAXAXAXAXAXAXAXAXAXAXAXAXAXcX^ ^ i ^ p ^ p p ^ j ^ z p D ,Xx.k.z.n.z.z.z.z.z.z.z.:XE - 2 2 2 2 6 6 6 6 2 2 2 2 2 2 2 6 2 2 2 4 2 9 2 2 2 w k                                                                                                                                                                                                                                                                                                                                                                                   ",
"9 5 5 9 9 5 9 4 4 4 9 5 5 9 9 9 4 5 5 9 4 5 4 5 5 9 5 5 5 4 4 5 5 5 5 5 5 5 5 5 4 0 , +Xz.z.z.z.k.z.z.n.n.z.z.k.j.n.z.z.n.z.{.z.z.z.z.z.x.x.x.z.z.z.j.j.z.z.z.j.z.k.z.z.:Xa.f j z ^ ^ z ^ z ^ z z j y H.z.z.n.k.k.n.k.k.k.k.k.n.k.;XI ( ) ) ^ ) ) ) ^ ^ ^ ^ ^ ^ cXAXAXAXAXAXAXAXAXAXAXAXAXAXAXAXAXAXAXAXAXAXAXAXAXAXAXAXAXAXAXAXAXAXAXAXAXAXAXAXAXAXAXAXAXAXAXAXAXAXAXAXAXAXAXAXAXAXAXAXAXAXAXAXAXAXAXAXAXAXAXAXAXAXAXAXAXAXAXAXAXAXAXAXAXAXAXAXAXAXAXAXAXAXAXAXAXAXAXAXAXAXAXAXAXAXAXAXAXAXAXAXAXAXAXAXAXAXAXAXAXAXAXAXAXAXAXAXAXAXAXAXAXAXAXAXAXAXAXAXAXAX4X/ j s k j k s g k f k s r E :Xz.z.n.j.z.z.z.z.z.z.n.n.OX, s k ! k k ! j ! j ! z ^ s AXAXAXAXAXAXAXAXAXAXAXAXAXAXAXAXAXAXAXAXAXAXAXAXAXAXAXAXAXAXAXAXAXAXAXAXAXAXAXAXAXAXAXAXAXAXAXAXAXAXAXAXAXAXAXAXAXAXAXAXAXAXAXAXAXAXAXAXAXAXAXAXAXAXAXAXAXAXAXAXAXAXAXAXAXFX^ ^ ^ ^ ^ ^ ^ ^ p ^ ^ z p G >Xx.x.z.z.z.z.z.z.z.z.z.:XR - 2 2 2 2 3 x 2 2 2 2 2 2 2 2 2 2 2 2 2 2 2 9 2 2 2 8 g HX                                                                                                                                                                                                                                                                                                                                                                                ",
"9 8 4 9 8 9 8 9 4 8 8 8 8 9 9 9 9 8 8 9 8 8 8 8 8 4 8 9 5 4 4 9 4 4 9 9 5 5 5 5 - 5 < ,Xz.z.z.z.z.j.z.z.z.z.k.z.z.z.z.z.n.z.z.z.z.z.z.z.c.x.z.z.z.z.z.z.z.j.j.k.x.z.x.x.:Xa.r z ^ p z ^ z p ^ ^ j j e H.n.n.k.k.n.k.k.n.n.n.n.k.n.>XI m ~ ^ ^ ^ ~ ) ^ ~ ! ~ ~ / cXAXAXAXAXAXAXAXAXAXAXAXAXAXAXAXAXAXAXAXAXAXAXAXAXAXAXAXAXAXAXAXAXAXAXAXAXAXAXAXAXAXAXAXAXAXAXAXAXAXAXAXAXAXAXAXAXAXAXAXAXAXAXAXAXAXAXAXAXAXAXAXAXAXAXAXAXAXAXAXAXAXAXAXAXAXAXAXAXAXAXAXAXAXAXAXAXAXAXAXAXAXAXAXAXAXAXAXAXAXAXAXAXAXAXAXAXAXAXAXAXAXAXAXAXAXAXAXAXAXAXAXAXAXAXAXAXAXAXAXAXAX/ a k j j g j j k j j j f y d.{.z.z.z.z.z.z.z.z.z.j.j.z.F., k s k ^ k / j ! k k k ^ &.AXAXAXAXAXAXAXAXAXAXAXAXAXAXAXAXAXAXAXAXAXAXAXAXAXAXAXAXAXAXAXAXAXAXAXAXAXAXAXAXAXAXAXAXAXAXAXAXAXAXAXAXAXAXAXAXAXAXAXAXAXAXAXAXAXAXAXAXAXAXAXAXAXAXAXAXAXAXAXAXAXAXAXAXAXcX^ ^ ^ ^ p ^ ^ ^ ^ j ^ p p A >Xx.x.z.n.z.n.{.z.z.{.z.:XE & 2 2 2 2 x 6 2 2 2 2 2 2 6 2 6 2 8 2 4 2 2 9 2 2 2 9 g HX                                                                                                                                                                                                                                                                                                                                                                                ",
"8 9 9 4 6 6 4 9 9 4 9 9 9 8 8 5 9 9 9 9 8 w w 9 9 8 w 8 4 5 9 4 8 2 5 9 9 w 5 9 5 e < +Xj.n.z.z.z.n.z.z.z.z.z.j.j.z.z.z.z.z.{.z.{.z.l.z.x.l.x.z.z.z.z.j.j.z.j.l.x.x.x.x.:Xu.r g p z ^ p z ^ ^ z j j y Z.x.k.k.n.n.n.k.n.n.n.n.n.n.,XL ` ~ _ ^ ) ~ ) ) ' ~ ^ ~ ^ MXAXAXAXAXAXAXAXAXAXAXAXAXAXAXAXAXAXAXAXAXAXAXAXAXAXAXAXAXAXAXAXAXAXAXAXAXAXAXAXAXAXAXAXAXAXAXAXAXAXAXAXAXAXAXAXAXAXAXAXAXAXAXAXAXAXAXAXAXAXAXAXAXAXAXAXAXAXAXAXAXAXAXAXAXAXAXAXAXAXAXAXAXAXAXAXAXAXAXAXAXAXAXAXAXAXAXAXAXAXAXAXAXAXAXAXAXAXAXAXAXAXAXAXAXAXAXAXAXAXAXAXAXAXAXAXAXAXAXAXAXAXs j k j j j j g k s f j g r d.{.n.z.n.z.z.n.n.z.n.l.j.z.OXe s k k j s ! ! j k k k / | AXAXAXAXAXAXAXAXAXAXAXAXAXAXAXAXAXAXAXAXAXAXAXAXAXAXAXAXAXAXAXAXAXAXAXAXAXAXAXAXAXAXAXAXAXAXAXAXAXAXAXAXAXAXAXAXAXAXAXAXAXAXAXAXAXAXAXAXAXAXAXAXAXAXAXAXAXAXAXAXAXAXAXAXAXCX~ ^ i ^ ^ ^ ^ ^ p j ^ ^ z B >Xx.x.k.z.z.z.z.z.z.z.z.:XE - 3 6 4 2 6 6 3 3 2 2 3 3 2 6 2 2 8 2 4 5 4 9 2 6 8 9 m                                                                                                                                                                                                                                                                                                                                                                                   ",
"4 4 5 4 - 4 2 4 2 2 4 4 3 4 4 5 4 4 5 4 4 5 5 4 5 5 5 0 w 0 5 5 5 e 5 5 0 5 - 4 5 0 < ,Xz.z.z.z.z.z.k.z.z.z.z.z.z.z.z.z.z.{.z.z.z.z.z.z.x.c.l.x.z.z.j.j.j.l.j.z.z.z.z.z. Xa.q z z ^ z ^ z ^ z ^ z z g Z.}.n.n.n.n.n.k.k.n.n.n.n.n.,XA ' ) ) ) ^ ~ ~ ~ ~ ~ ~ ^ j xXAXAXAXAXAXAXAXAXAXAXAXAXAXAXAXAXAXAXAXAXAXAXAXAXAXAXAXAXAXAXAXAXAXAXAXAXAXAXAXAXAXAXAXAXAXAXAXAXAXAXAXAXAXAXAXAXAXAXAXAXAXAXAXAXAXAXAXAXAXAXAXAXAXAXAXAXAXAXAXAXAXAXAXAXAXAXAXAXAXAXAXAXAXAXAXAXAXAXAXAXAXAXAXAXAXAXAXAXAXAXAXAXAXAXAXAXAXAXAXAXAXAXAXAXAXAXAXAXAXAXAXAXAXAXAXAXAXAXAXAXAXs k k g g j j g k g j f s e m.].n.z.z.z.z.z.z.z.z.z.n.j.OX, ! j j ! j ! ! j k k k k ..AXAXAXAXAXAXAXAXAXAXAXAXAXAXAXAXAXAXAXAXAXAXAXAXAXAXAXAXAXAXAXAXAXAXAXAXAXAXAXAXAXAXAXAXAXAXAXAXAXAXAXAXAXAXAXAXAXAXAXAXAXAXAXAXAXAXAXAXAXAXAXAXAXAXAXAXAXAXAXAXAXAXAXAXAXzX^ p ^ ^ j p ^ ^ ^ ^ ^ p z B >Xc.x.z.z.z.z.z.k.z.z.z.;XI = 6 3 3 5 3 0 3 3 3 4 5 5 3 4 5 = 5 4 5 5 * 2 2 * * 8 m HX                                                                                                                                                                                                                                                                                                                                                                                ",
"o O o # o o O O # o O O o # # % # % # # # # % # # ; # ; % # # ; ; > , : , > & ; % & $ <Xz.z.k.z.z.n.n.z.z.z.z.j.z.z.n.z.z.z.n.z.z.l.l.z.z.z.z.z.z.z.z.j.j.j.z.j.z.z.z.{.}.a.q ^ j p z ^ p p ^ p k k 5 L.,X1X1X1X1X1X1X1X3X1X1X,X3X3XF ) ^ ^ ~ ^ ~ ) ) _ ~ ^ ^ p ZXAXAXAXAXAXAXAXAXAXAXAXAXAXAXAXAXAXAXAXAXAXAXAXAXAXAXAXAXAXAXAXAXAXAXAXAXAXAXAXAXAXAXAXAXAXAXAXAXAXAXAXAXAXAXAXAXAXAXAXAXAXAXAXAXAXAXAXAXAXAXAXAXAXAXAXAXAXAXAXAXAXAXAXAXAXAXAXAXAXAXAXAXAXAXAXAXAXAXAXAXAXAXAXAXAXAXAXAXAXAXAXAXAXAXAXAXAXAXAXAXAXAXAXAXAXAXAXAXAXAXAXAXAXAXAXAXAXAXAXAXAXi j s k k k s k k s j f j y d.{.z.z.z.z.z.z.z.z.x.z.l.{.OX, ~ ! / j ! j ! k k k k ! ! AXAXAXAXAXAXAXAXAXAXAXAXAXAXAXAXAXAXAXAXAXAXAXAXAXAXAXAXAXAXAXAXAXAXAXAXAXAXAXAXAXAXAXAXAXAXAXAXAXAXAXAXAXAXAXAXAXAXAXAXAXAXAXAXAXAXAXAXAXAXAXAXAXAXAXAXAXAXAXAXAXAXAXAXAX-.^ p p i ^ ^ p p ^ j ^ z n D >Xx.x.n.k.z.z.z.z.z.z.z.<XI O + O o O O & # & & & # # ; ; ; ; & : ; % & % ; & & - g mX                                    HXHXHXHX                                                  HXHXHX                                                                        HXHXHXHX                                                                                                                                                                                            ",
"OXG.D.F.F.G.D.D.G.F.D.G.D.G.D.C.Z.D.H.H.C.C.D.Z.D.B.D.C.C.C.H.B.C.B.Z.B.h.Z.B.g.Z.H.b.:Xz.j.z.z.z.n.j.z.z.j.j.z.z.z.z.z.z.z.z.z.z.z.n.z.z.v.j.z.z.z.z.z.z.].j.j.j.z.j.z.].m.8 d j j p j j j ^ j p j p n S M Z M M M M M M M , , > e r u j a p ^ p / j j p ^ a s i 5X4X6XtX6X4X6X6X4X4X4X=.%._ ^ / | | ^ ) ) ) ^ ) ^ / ! ^ | ..&......._ ^ ^ ) | | _ ^ ^ / / / d d i / i / i / ! ! ! ( ) | | .... .) ) ' | &.&...) ' _ ! ! ) ( s s / ) ! _ o..._ ) | | _ _ ) | ..............! ( _ | ..o.O.| ..| ) d s i i i i a i a i 8 i 8 i d d s s s s s i s k ! ] s a s a a f f u u f f a f 9 f f r m.{.n.z.z.z.j.z.j.z.v.n.n.z.F.- l j f j j f u j f j p j j i 5X%.2.<. .) s / / s / s s i i i i i i d d d i i d d a / | &.| ..| ^ _ ~ _ ) _ _ | _ _ &.%.-.<.<.<.<.*._ ) ) / d / / / ) / / d d i d / /  .| _ _ ..*.-.&.2.;.2.4X<.eX( s a i u u u p u u 9 p u u a h D |.{.x.z.z.z.z.z.z.z.z.n.v.v.B.H.B.g.B.B.B.B.B.B.B.M.B.M.f.t.m.M.M.M.M.M.f.d.f.d.t.a.{ #.#.{ {  .#.[ [ X.#.[ #.#.X.{ [ #.X.#.#.[ #.#.X.#.X.X.#.X.X.#.#.[ X.#.#.X.#.X.#.#.#.#.#. . .X.X.X.@.X.X.@.@.#.@.@.@.@.X.X.#.#.#. . .#.X.X.X.X.X.X.#.@.X.@.+.@.+.+.X.X.X.+.@.O.o.+.o.o.X.X.X.@.@.+.+.O.+.+.+.,.,.,.,.,.,.,.+.+.+.+.%.+.*.+.+.+.@.+.@.o.@.#.X.X.+.+.O.@.+.@.*.+.+.+.+.+.+.+.+.+.%.@.X.X.+.+.*.*.+.*.5.+.*.5.+.+.+.+.+.@.*.+.,.5.*.,.*.                            ",
"z.{.{.:X:X:X{.:X:X{.:X{.{.{.{.{.{.z.x.{.{.{.{.{.{.{.{.{.{.}.{.].n.:X{.:X{.{.}.{.z.:Xn.j.z.z.{.z.z.z.z.z.z.z.l.z.z.z.z.z.z.{.z.z.z.z.z.z.z.n.].z.z.z.z.z.z.z.j.j.z.j.z.z.:Xt.e s j z ^ p j j p j j j j n z p g h g g f t f g j g p p p f p a s p s p p p s s p p s i d i i s i p i ^ i p i i u i u s s i a i p p i d i s p ^ d i i i s p j s j i p p s p a i p s p p s i p p i i i i u i i a i i s u i i s s p s i s a a a u i a a s u f a a a s u a s a d a a a s a a s a a f a a a j f a s a j j a a a s s a f j a a a u u i a a a a u s a a g f p s a a a a f f a f f 9 f f f f f s y d.{.n.z.n.z.j.z.z.j.z.z.j.j.<X; f a a f u j j j j j f j p s j j i s s u s i p a i i u i u u i a a i u a a a a i i u s u s i u s s s p s a a i a a i s j i s s s s a s s a s a a a s i i u u i i i i i u u i i u i u i u a i a s i u j j j j f j j j j j z f f h D >Xx.z.z.z.z.z.z.n.z.z.j.].z.z.:X:X:X:X{.}.|.|.}.:X:X|.}.;X>X;X|.}.;X|.:X{.l.:X:X>X2X@ 1 1 6 2 4 w a w 8 9 9 4 5 5 w 9 3 * * 3 * 2 2 2 4 5 w 9 r q q q r w q 9 9 r 9 r r 9 9 3 2 2 * @ 2 1 2 @ @ * @ @ @ 2 * . 2 5 9 9 5 9 5 4 4 8 5 5 9 9 u 9 9 9 4 3 4 2 5 4 2 2 1 + + 2 + 2 2 2 7 9 9 9 9 9 q 9 2 2 * @ @ @ @ * . 1 2 @ * * 1 2 4 8 4 4 9 9 w a g 9 9 w 9 9 w 9 9 9 w 9 9 9 5 9 4 2 2 9 3 2 4 5 4 4 4 4 4 5 4 4 4 2 5 w r w X 2 9 2 5 4                             ",
"n.z.z.z.z.z.x.x.j.z.x.x.z.z.z.l.x.}.x.x.z.k.z.z.x.x.z.z.x.x.x.x.k.z.:Xz.x.z.x.x.z.n.j.n.z.z.z.z.z.j.z.j.z.z.z.z.z.j.z.z.z.z.z.z.].j.z.z.z.z.z.z.z.z.z.z.n.n.z.z.v.j.z.n.{.d.r g p j p z j j j j / j a p p s p p a a s s a s a a p p p p p s p a s p p ^ p p p p f u a a p p p u p p p p p p p p p u p p a a f f p f a f p p p p a f a p p p u a p p u p p a f p f p a a s p f a f p j p p a u u u a u j a p p p a f a a f u p f f p f f f f a a p p p p w p p p u f a a p u f u a p u u f u a p f a a u a w f f p p a f p f a a a a a a p p f f f j f a s a f f p f f a u a u r f f f r m.{.z.z.z.z.j.z.z.j.z.z.n.n.F., j f j j j j p j j f j j j f j j a p p a p u p a f a a a p u u u a a a a u u w a u u p p p p p u p s p s f u u u a p a a p p p p f f p u a f p 9 f 9 u 9 9 f p 9 u 9 p 9 u u 9 p p u p 9 a s s a a f z f p j j f j j j f j j f z D ;X{.k.z.z.z.z.z.z.z.z.j.z.j.c.j.j.l.z.:Xn.}.x.x.k.x.x.x.x.x.c.x.n.n.x.k.k.n.n.k.z.OXo 4 1 2 6 2 8 9 9 2 2 9 2 5 2 2 2 2 2 2 * 2 2 2 2 4 3 2 4 9 9 5 9 9 5 9 9 9 5 9 9 9 9 5 5 7 6 2 2 2 2 2 2 2 2 4 2 2 2 2 2 3 6 2 9 4 8 9 4 7 9 9 9 9 9 9 9 u 9 9 9 9 8 9 2 2 2 2 2 2 2 2 x 2 2 2 9 9 9 7 9 9 9 3 9 5 2 2 2 * * 2 2 2 2 4 2 2 2 8 9 8 8 9 9 9 9 9 u 9 9 9 9 5 4 9 8 4 4 9 9 w 9 6 2 9 8 9 7 5 5 2 5 4 4 5 5 5 4 2 5 r r 5 9 5 5 5 3 5 5                             ",
"z.j.l.z.x.x.x.k.z.z.x.c.z.z.j.n.x.x.x.x.l.n.z.z.z.z.z.z.x.x.x.x.z.z.k.k.z.}.z.x.z.z.z.z.z.z.z.z.z.z.n.z.z.z.z.{.].n.z.z.z.l.z.z.z.z.z.z.z.z.z.z.].z.n.v.v.z.z.z.n.j.j.z.{.d.w j j p ^ p p ^ z j p j j ^ s p s s a a a a a a a a s a a a ^ p p p p s p p p s p s u a a i p p p j p ^ p u p p p u p p p p a f p p p p u u p f a j a p p a p a a a a a a a a a p a p a a a p p p p p f u p p f u j p a u a s u u u u u a a a u f p a w u u u f f 9 9 p f p r a 9 f p 9 a w f 9 u u a u p f u f u a 9 a p f f f p p p p u u u u r p a f r a f p f u u f u a a a s f f f f f f f f f a f a y m.{.k.z.z.z.z.z.z.n.z.z.n.n.F., z f f j f j z j j j j f f f u u j p f f p p a a a f a a a a a a a a 9 a a w u u f f 9 a p p u p u u u p a u f u p f p p p u p u 9 p u u u u p p p p u f u p u p p p u u 9 u u p p p u p f 9 9 a w a f f j f j f j f f f f j f m D ;Xz.z.z.z.n.z.z.{.z.z.j.z.j.j.k.j.j.j.k.x.x.x.x.x.c.j.x.x.k.x.x.x.x.x.k.j.j.j.k.z.XXo 2 2 2 6 4 9 8 4 8 6 2 9 5 4 2 8 2 2 8 2 2 8 2 9 3 3 5 2 2 2 2 5 5 5 4 5 5 5 5 5 4 3 2 4 3 6 2 3 2 2 2 6 2 8 4 4 9 6 6 6 5 9 9 9 9 9 9 9 8 9 2 6 3 9 9 9 9 9 9 9 9 6 9 9 5 9 6 8 6 9 8 9 9 4 8 6 9 9 7 2 9 6 5 7 5 2 2 2 5 2 4 9 6 5 9 4 9 7 3 6 2 9 9 9 9 9 9 9 9 9 8 9 9 2 6 2 4 8 4 8 9 4 9 9 9 9 3 3 3 5 3 3 5 4 5 5 5 5 5 3 2 3 5 5 5 5 3 5 w w                             ",
"z.z.z.z.n.z.z.z.j.z.z.z.z.z.z.k.k.x.z.z.j.x.x.x.z.z.c.k.z.z.z.z.z.k.k.z.z.z.z.z.k.j.k.k.z.z.z.z.z.z.z.z.j.n.z.z.z.z.z.n.z.j.z.z.z.v.n.z.z.z.l.z.n.j.j.j.j.j.j.j.z.z.z.z.|.m.5 s p ^ p ^ p ^ z p j p p ^ p p p p s j j p f f a s a a p / s p p p a a p p s p s p a i s p p p i p / p p p ^ i i p s u s u a f a a a a p a a a a a s a p s s a a a p j s u a a j a a a p s a s a s a u u f a a a a u a a a u u u s a u a a a w u a a a a u u u u f p p p u a a a u a w u a a a a a a a a p a a a w p p p p p f f a a a u i a f f u u q f p u w a a a a a a p u j p p f f f f f f a a f r y m.{.j.z.n.j.z.z.z.n.l.j.z.z.OX, m d f a j p j j j j f j u a a a a a a a u s a a a a p u a a a a a a a p a w a a a a a a a f a u p u u p u a a w w a a a p u u u a u u a a u a u u u u i u u u i i u i u i u u u u u u u a u u u u a f f j j j f f j j j j j f h G :Xz.{.z.x.z.z.z.z.z.z.z.j.z.z.z.l.j.z.c.k.k.j.j.j.j.j.x.k.x.k.k.k.c.c.k.k.n.x.x.}.XXO 2 2 6 6 8 2 9 2 2 7 2 8 8 2 2 3 6 5 2 6 9 2 2 9 4 6 2 9 2 6 4 9 6 4 2 2 4 4 2 5 5 2 4 2 7 3 3 7 7 2 3 6 9 8 2 2 9 9 6 9 6 9 9 9 9 9 9 9 9 9 8 9 9 9 9 9 9 9 9 9 9 6 8 7 9 9 7 9 9 6 3 8 9 5 2 9 2 9 9 7 8 9 6 9 5 4 3 4 4 5 2 7 7 9 9 9 9 7 9 9 9 9 6 8 9 9 8 9 8 8 5 8 9 6 9 9 9 8 2 9 9 9 6 7 3 2 7 7 7 7 2 5 5 5 3 5 2 5 5 5 4 3 3 3 2 9 5 5 5 g                             ",
"z.z.j.k.n.z.k.k.k.k.k.z.j.j.z.k.x.x.k.x.c.x.k.x.x.x.j.j.k.k.x.x.k.n.k.k.z.k.j.n.z.z.z.z.k.j.k.z.z.z.z.z.j.z.z.z.z.z.z.l.].n.z.z.z.z.z.z.z.z.z.z.j.j.].z.z.z.].z.l.z.z.z.{.m.r j p z ^ p z p ^ ^ z ^ / p p j / p a p p a a a p p u p p p p p s p p p s p p p p p u j s p i p s s p i i / p p p p j u u u a u u p a u p a p j a p p p p p p p a a a a u p j a u a a a p a a a a a a u j a j u a a p a u a u j u u u u u a a a a a u a u u u f a u a a u p f u f u f u a u a u u u a u p a a u u a p a p u p a p a u a j u p f p u f f a f f f f f f f f f j j p p p f u f f u f f a g s m m.].n.z.z.z.j.z.z.z.z.j.z.z.OX, s d f j p j p f p f j p j f a f a f f a p p a a a a p p p a w u a p u a a a u u a u u u f 9 a f p u f u f a a a a a a a p u u u u a u u u f u u u u u p u u u u f u u a u p u u u u u a u a u a u f f f j f j f j f a f p j f n D :Xz.z.z.z.z.z.z.z.z.z.z.j.j.z.j.j.j.z.k.k.k.j.k.k.j.j.x.x.x.c.x.x.x.k.k.k.k.k.x.}.].O 2 6 6 2 2 4 2 8 8 3 9 2 2 6 9 8 8 2 9 2 4 6 6 9 9 3 8 2 8 3 2 6 3 8 9 6 9 2 5 2 4 5 2 5 2 8 6 4 6 6 5 7 7 7 7 2 7 9 9 8 8 9 6 8 7 9 7 9 7 7 7 9 8 9 9 9 9 9 9 9 7 7 7 9 6 9 4 9 8 9 8 6 9 6 6 9 9 8 9 8 9 2 8 9 3 5 5 5 5 3 9 9 7 9 9 2 7 7 7 7 7 9 9 7 7 7 7 3 5 9 7 3 7 7 9 7 9 7 7 7 7 7 7 2 ` n 7 7 7 7 9 3 5 5 5 5 4 5 5 3 5 5 5 5 5 2 5 5 5 w                             ",
"z.k.k.n.z.z.z.z.x.x.x.x.x.x.x.x.x.x.c.x.x.x.z.x.z.z.x.x.x.x.c.x.z.z.z.{.z.z.z.z.n.z.z.n.z.z.z.z.n.z.z.z.j.z.z.z.z.z.z.z.z.z.z.z.z.z.n.v.z.l.z.z.z.n.j.z.z.z.z.z.j.k.z.z.:Xf.e j ^ p p ^ ^ p ^ p p j p ^ p p p p p s a a j a j u s p p p a a p ^ p ^ p s p p p p p a a p a p p s p p p p p p p p f u u p u p u u u p p a a a f p p p ^ p p j f p a p f a p a u a j j p p f p a p a a a a p f f u a a j u s p j u a u p p u p a a u f p p p p u p a p u p f u j p u p a p a f u u p f a a p p p p a p p a p a f p j f u u p f u j a f f u p f p p p p p f u j p j f f f f f f f u a g s y m.{.z.z.z.z.z.j.z.j.z.z.z.z.F., r s f f z j j f p f j f f p p u p p u p a a a p a p u a p p u u u p a a u u a p u p p f a u a u f u u u u u u f i a p u p p u p i u u f f u f u u p p 9 p p 9 p u u u 9 9 u u u u f u a p u f a u a a j j j p f j f j j j j j h I |.z.z.z.k.z.:Xn.j.z.z.j.j.j.l.z.l.j.z.c.j.c.k.c.x.c.k.x.k.k.x.x.k.x.c.k.x.x.x.x.}.+XO 4 5 7 5 2 6 7 6 2 8 4 6 9 2 2 6 2 2 8 8 6 9 2 9 6 2 2 8 7 2 9 9 6 2 6 9 7 4 2 5 5 5 3 5 3 4 2 6 4 6 9 7 7 3 2 6 2 9 9 6 7 8 9 6 9 9 7 2 9 7 7 8 9 9 8 6 6 7 7 9 7 9 7 9 9 8 9 8 7 8 7 9 9 8 2 9 9 9 9 7 9 2 3 9 9 9 9 9 3 9 9 9 9 9 9 9 9 9 7 2 7 7 7 9 7 9 9 3 3 9 9 7 7 3 2 3 2 6 3 9 9 7 3 7 2 6 6 7 2 9 9 5 9 3 5 5 5 5 5 5 5 5 5 5 3 5 3 3 9 r                             ",
"z.n.z.z.z.z.z.n.z.x.z.x.x.z.z.x.k.z.x.x.z.z.c.k.c.j.z.c.z.z.x.x.k.z.z.z.z.j.k.z.z.z.z.z.z.z.z.z.j.j.z.z.z.z.z.z.z.].z.{.z.z.z.z.n.z.n.z.z.z.z.z.z.v.z.z.z.z.z.z.l.z.z.z.:Xa.5 j p p ^ z p ^ p ^ ^ p j p / p ^ p p p p s u p p s s j p p p a p p p p p p s p p s u a a a a a p p p p p p / p p p u u f u u f j u p a p a p a a p p p p p p p p p p p p a a a j u p a p p p p p a a a u f u u a u u p u p f p u u a u u a a u u p u u u u u u u u u p p p u j p u f a j u f u p j j u a f a u f a a p a p a a a a u p j u f a p a u u a p f f u f j u f f a p f j f f p f f a f f a w s e m.{.j.z.z.z.j.z.z.z.z.z.v.n.F.e g s f j f j p j j j f j j p j j f a j u f a p f a a a a a p u u f a u u a f j u a u f u u f p a u u u f f u a u u a a a u p a u f u a p a u u u u u p p u f f a a a w i a a i u u u u u u u u u u f u j j p j j f f j f j z f t G |.z.z.z.z.z.k.z.z.z.z.z.n.j.j.j.z.z.z.j.k.c.j.j.x.k.k.c.x.k.x.k.x.x.x.x.x.x.x.x.}.OXO 4 4 7 9 4 9 2 4 6 5 6 2 9 6 9 2 7 9 7 2 5 6 8 2 2 9 6 9 2 8 3 8 9 9 2 2 8 7 8 3 2 8 2 8 4 3 5 6 8 5 2 7 8 9 6 7 6 9 6 9 7 6 3 8 8 7 9 9 9 9 9 9 9 6 9 9 9 9 9 9 9 9 9 2 9 9 2 8 6 9 9 9 9 9 9 9 8 9 4 6 9 9 9 8 2 9 9 9 4 7 2 9 6 9 9 8 9 6 6 9 9 9 9 3 9 9 6 6 9 6 7 9 6 2 9 a 9 4 5 3 2 5 4 6 9 9 9 7 9 9 8 3 2 9 5 3 2 3 5 3 5 2 5 3 3 3 q 3 4 l                             ",
"z.z.n.z.z.z.z.z.z.z.k.z.n.z.z.z.z.z.z.z.z.z.c.j.x.c.x.j.j.c.k.c.x.z.z.z.j.z.z.z.n.z.z.z.z.z.z.n.z.j.z.z.z.z.n.n.z.n.z.z.z.{.z.z.z.z.z.z.z.z.z.z.z.z.].z.z.z.l.c.z.z.z.z.|.t.0 j j / j j p p ^ p ^ p p ^ j a j u p ^ a p p p p p a a a a p p s p p p p p p p p u / p p p p s u s i p p p s p p p a f u f u u u u u j u f p a p f a f p a f a f a j u a p u f u f a f a p u j f a a a p a p a a p u f u j u p j u f i u a a a a a u s u u a a p p p p p p u u f j j u a p a u u u u u u u u u u j f u u u u a a p u u u u j u u u f f u j f a f u f u u j a j u f f p f p f u f f f f g 0 d.{.z.z.z.z.z.z.z.z.n.z.n.z.F.> z p p j j j p j j f a f f j u j a u j f a p p a u f u u j u j u u f u u s u u p f u u u u f s p p a u f u a f u u a u u s u u u u u a a u u u u u u u a u f u u a a u u a a u u u u u a a u u a u u f u j f f p j f j p z l f z G }.z.{.z.k.z.n.z.z.z.z.k.n.z.z.k.z.k.z.j.z.j.c.k.c.k.j.x.j.x.x.x.k.x.j.x.x.x.x.k.}.+XO 4 4 7 6 6 6 2 7 4 6 5 8 3 6 2 8 4 6 6 4 9 2 9 2 9 8 3 9 3 8 7 9 8 9 2 6 2 9 9 2 5 6 3 6 2 5 2 8 2 2 2 8 2 6 4 7 6 5 8 9 2 9 2 9 2 6 2 9 9 6 8 9 9 5 9 9 9 8 9 8 9 9 6 8 8 9 6 9 9 9 9 9 9 8 3 8 9 7 8 9 5 9 8 6 6 9 9 9 8 9 9 8 9 9 9 9 9 9 9 7 6 9 6 9 9 9 7 8 2 9 8 2 6 2 9 8 7 9 4 5 2 4 4 3 9 9 9 9 9 6 6 8 9 8 2 9 6 5 2 5 5 5 5 5 3 5 0 6 * w                             ",
"z.z.z.z.k.n.x.z.k.k.z.z.z.z.z.z.z.k.k.z.z.x.j.x.k.k.x.j.k.j.z.j.z.z.z.z.z.z.z.z.j.z.z.j.z.j.z.j.z.z.z.z.z.z.n.v.z.z.n.z.z.z.z.z.{.z.z.z.z.z.z.z.l.z.z.z.z.z.z.z.z.z.z.n.{.t.5 j j p j j ^ j p ^ p j / p p p s u p u p p s a / p a a a a p p p s p s p s p s p s p p p p p p p u p p s p p p i p u u u u u u u u u u u u u p u p a a a p u f u u u u p s f a j u a a a a u u u u a p p f a p a u u f a u a u u u u u u a a 9 a a u u u u a u p p u p p p f u u a u f u a a f u u u j j a j u u u a u j u a a f a u j u u u f a f u u u u a a u j u j p u u j j u u j a j j j u f f f a 0 d.{.j.n.z.z.j.z.z.z.v.z.z.z.F., z j f j u j f f p j j j p u j u f u u a f p a p p u u a u u u u a a u j p f u u u u f f u u u u u p a u u u u u u u a u p u u u u f u u u u u u u u u u u i u u a a u u u u a 9 a a u u u u u u u j p f j j j j j j j j p j f p G |.z.z.z.z.z.z.z.z.z.z.z.z.z.z.z.z.z.k.j.z.x.x.x.j.j.z.x.x.c.k.x.x.x.x.x.x.x.k.x.x.$X# - 3 6 6 2 2 2 6 6 2 6 2 6 4 9 2 9 6 4 6 2 8 2 6 8 7 5 6 8 5 9 2 3 8 9 2 8 9 6 8 6 4 6 8 4 2 5 2 2 6 6 2 9 2 4 6 9 3 3 8 9 6 8 9 9 9 9 9 9 7 9 9 8 6 8 6 9 9 5 5 5 5 5 3 9 9 9 7 6 8 2 9 9 9 9 7 9 9 9 9 9 9 9 9 7 9 9 9 9 9 9 9 9 6 9 8 6 9 9 9 9 2 9 7 8 2 9 3 9 8 7 9 3 8 9 2 2 5 5 5 5 2 5 2 2 2 8 9 9 9 9 3 9 2 9 8 2 3 3 2 3 5 5 5 3 5 3 3 9 8                             ",
"n.z.n.z.z.n.n.z.z.z.z.z.z.z.z.n.z.z.z.z.x.z.x.j.z.x.k.c.z.j.c.k.j.z.z.z.z.j.z.z.z.z.n.z.z.n.z.z.n.z.z.z.z.z.z.z.z.z.z.z.z.z.z.z.z.z.z.z.].z.z.z.n.j.z.z.z.z.z.z.l.z.x.z.}.t.q j ^ p p ^ p j j j ^ p ^ p j a p f s a p / p / a p u u f p s s p p p s p i s p p p p p a a u a a j p p p p u s p p a u u a u j u u u u u u a a p p a a f p a p p f p u p u u f a f f a a p u u u f a f a a a a a a a u f a a u f a u u u u u u a a p p p s p u p u p p p p u a f u u u f u u u u a u u f u a a u p u a a f a a a a j u j u u u u u u u a p u a f f j u j u a f f a j a j u u j g a a f f r N.].j.z.z.j.j.z.j.z.v.z.z.z.OX, j u j j j f j p a j f j s f u j f a a u p a a a p p u u u u f u u a a a p u p u u a a a a u u f p f a p a p u a f f u u u u u u a f a a u u u u u u u u u u u u f u u a a a a f f u u a f u u f u a j j j f p l p p j j k k h r T :Xz.z.z.z.z.z.z.z.n.z.z.z.z.z.z.z.z.n.z.x.x.z.k.x.x.c.c.k.k.c.j.k.x.k.x.x.x.x.x.}.$XO 4 4 3 2 9 6 9 2 6 9 9 6 5 8 3 7 7 2 2 2 6 2 2 9 6 9 8 3 9 6 9 5 6 9 2 8 9 2 3 8 9 2 2 2 5 5 4 4 9 6 4 9 7 8 6 2 9 8 9 8 4 9 6 9 8 9 9 2 2 8 9 7 9 9 3 9 9 2 3 3 5 4 5 4 9 9 9 7 9 6 9 9 6 9 9 7 6 2 9 6 9 8 2 9 9 8 8 9 9 9 9 9 6 2 9 9 9 9 7 7 9 7 9 7 2 8 9 8 9 2 7 2 4 6 9 9 9 9 2 4 4 2 5 2 7 9 2 9 6 9 2 8 2 6 9 2 2 9 5 5 2 2 3 5 5 3 3 3 4 9                             ",
"x.k.x.z.z.z.z.z.z.x.k.z.z.z.z.z.z.z.k.z.x.k.x.x.k.x.x.z.k.c.j.j.j.z.z.z.z.j.n.z.z.z.z.j.z.z.z.z.z.j.z.n.z.z.n.z.z.z.z.{.z.z.{.z.z.z.z.z.l.j.z.z.z.z.z.z.z.z.z.z.z.x.x.z.}.a.q j p p ^ p ^ j j j ^ p p j j a f f p p p p a p p p a p u p p p p p p u p p p u p p p s a a a a u u p / p p p p p p a u u u u a u u u u u u u j p j p p a p u u f p f j u f f u a f p f a a a a u f a a a p p p f a f u u a p u u u u u a u u u w s u u u u u p u u p p p p f u u u a a u u f u u u u u u u u a u u u a f a a p f a u j u u u j f a j j u a u u u a u j u f f f f a u f p f j u s g a f f y N.z.j.z.z.j.z.j.j.z.n.n.z.l.F., z j u f f j j j f f j f p p j f f f a g j a a p s a u u u j u u u a f f p u u u s u u a f f j u f p p s a p a a a p u u p u j u j u f a p p i u u u u u a u u u 9 f 9 q u 9 a u u u u u u u u a u j j f j z j p j j p z j z j r T :Xz.z.z.n.z.z.z.z.k.z.k.z.z.k.z.z.z.z.z.x.x.k.x.x.k.x.j.z.j.x.x.c.x.x.x.x.x.k.k.}.+X# 5 5 7 6 8 4 6 2 2 4 6 9 6 2 8 2 8 9 9 9 9 6 8 6 2 2 4 6 9 2 2 5 5 4 5 3 2 3 8 5 8 9 9 4 2 2 2 6 2 7 6 2 2 9 2 9 6 4 2 2 2 5 5 5 5 2 4 9 5 5 9 3 4 5 2 2 5 5 9 9 9 9 5 5 2 7 3 7 5 9 9 8 9 2 9 7 2 8 9 9 9 2 9 6 9 9 9 9 9 8 6 9 9 8 9 9 6 7 7 7 7 7 7 7 9 9 7 9 9 7 8 2 2 2 2 6 6 4 2 2 2 5 9 4 8 9 2 4 8 2 9 9 9 6 9 9 9 2 5 5 5 3 5 5 5 9 q 3 2 w                             ",
"n.n.z.z.z.z.x.z.x.x.x.k.n.z.z.z.z.j.c.j.z.x.k.x.x.c.x.k.x.z.x.x.x.z.z.z.z.j.k.j.z.n.z.z.j.z.z.z.z.z.z.z.j.z.z.n.z.n.v.n.z.z.z.z.z.z.z.z.z.x.z.z.z.z.z.z.z.z.z.z.z.z.k.j.{.N.r z ^ p j j a j j j p p ^ p j p f f p f f f p a f f f f j p f f p i a p f p f p a f p j f j j f f a f f f f a f p f f a p g f a f f j f f f f f p p j f z p f z f z j j f f z j f f p p p p u p p u f f f s a p f p a f a a p f f f f f j f d w s w f f w g a f j p p p p f p f p f p a f a r a a a f f a a j f f f f f f g j z s j j j j f s f f g p a g u u f f a u f f s f f s g f f f f r s s s s a d e M.].n.n.z.j.z.z.j.j.z.z.z.v.F., z j z j j f g j f s a f p p a a u f a a u u a u u a f f j p f f f f f f j f j f j f f f a f f a u f f u a a a a w f a g f f j f f f f f f u a a f f g a f f a g a a f f f f a s j f f j s f f f a g k j j z k z ^ l z l k k z r R <Xz.x.z.z.z.z.z.k.z.z.z.k.z.z.x.z.j.z.j.x.x.x.x.c.x.k.x.x.k.j.x.x.k.x.x.x.x.x.x.x.2X& 5 3 7 6 3 3 2 4 3 2 2 2 2 6 6 6 9 3 6 2 7 2 7 6 9 9 9 u 9 9 9 5 9 9 5 9 5 9 9 9 9 9 9 9 3 3 2 2 2 6 6 6 2 2 9 2 2 2 2 4 2 4 3 3 4 7 9 4 7 7 9 9 9 9 9 5 9 5 7 9 9 5 5 5 9 5 7 7 9 5 9 9 9 9 9 9 9 9 9 7 9 9 9 9 9 7 9 9 5 5 9 2 5 9 2 4 7 7 3 3 7 7 9 9 9 9 5 9 5 5 5 8 4 8 8 8 5 4 4 4 5 9 9 9 8 9 8 9 9 9 9 3 7 7 7 7 2 2 2 3 3 3 3 3 q 3 3 3 5 r                             ",
"z.z.n.x.n.x.n.z.x.x.x.x.k.z.k.k.x.j.j.z.x.k.c.x.z.j.z.x.z.z.j.z.x.z.z.z.k.z.l.z.z.j.z.j.j.z.z.z.z.z.z.z.n.z.v.n.z.n.n.n.l.z.z.z.l.z.z.z.z.x.z.z.l.z.z.z.c.z.z.z.z.z.j.j.|.d.: y q q 0 9 q q q y q q q p r e 5 5 5 - 0 q q 0 q q 0 r r r e q r e q q q r e e r y f y e q r e 0 r 0 0 0 5 3 5 5 0 e 5 5 : - 0 0 0 5 0 q 0 : 0 e y r e e e e 0 q r e 0 e 0 : 5 e 5 0 3 - 5 - 0 0 0 - - - 0 0 3 5 0 : 5 - e 0 0 e r e e e 0 e e e e : e e e e e e e y q e e 5 : 0 e 0 0 0 0 5 e 0 0 0 5 e e 5 e e 5 y e r e e e e 0 e 0 e e e e e r e e e e : e e : 5 0 : 0 0 e e 5 0 0 e 0 0 0 0 ; , e e ; M.z.j.j.z.j.j.z.l.z.z.z.j.j.F.; 0 y y 0 5 r r 0 e e e e 0 e e 0 5 ; 0 - 3 = - - - - - - 0 5 0 0 : 5 - e 5 : : 5 : 5 e - - e - 0 5 e 5 e e e - e : 5 - 0 0 5 5 : - e e - : 5 r e e e e e 0 0 0 - : : 0 e e : e 0 5 : 0 0 e e e r e 0 e e e e r r y e 0 3 e y b , T  Xx.x.z.z.x.z.z.n.z.z.z.z.z.z.z.j.x.x.x.z.j.x.x.j.x.x.k.c.x.x.x.x.x.c.x.x.x.x.x.{.$X$ e - = = % 3 - 5 5 = % = = * * + % * * = * = % + * % % = 5 0 5 ; - - : 5 e : 0 : - - - - & - = % % + + + % * + * + X + % % = = 3 - - 4 - : 3 0 : : 5 : 3 - - - - - - - 5 - - 0 ; = = ; - - 3 : - - - = - = = = * = = * = = = * = = - - - - 0 0 0 0 0 - 4 0 5 = - 5 - - - = - - = ; * = - - ; 5 - % * = % & % = & + % % = % = = ; - & % = = + & - - e yXHXlXyX  HXHXHXHXHX        ",
"n.z.z.z.k.x.n.x.x.x.x.x.x.x.x.k.z.x.x.k.k.x.z.x.k.c.j.z.z.z.z.j.z.j.k.z.z.z.z.j.z.z.z.j.z.z.z.z.z.z.z.n.n.z.z.z.z.v.v.n.n.v.z.z.z.z.z.z.z.z.z.z.l.z.j.l.k.x.x.x.z.z.z.n.{.D.m.M.u.t.t.t.t.t.t.t.t.t.u.a.t.t.m.m.d.d.m.m.t.m.f.m.m.m.m.m.m.d.f.m.a.m.f.m.f.N.m.d.m.m.t.f.d.f.m.m.m.m.m.m.N.m.f.m.m.N.m.m.m.f.m.m.m.m.M.f.m.M.f.M.N.m.m.M.M.M.M.m.m.M.m.m.f.N.m.N.N.M.N.M.M.m.f.m.f.m.m.m.m.m.f.m.m.m.f.m.m.f.t.f.m.d.m.m.d.m.d.d.m.m.d.d.f.d.f.d.a.d.d.t.d.d.t.t.t.t.t.d.d.t.d.t.t.d.t.d.d.d.d.d.d.d.d.d.f.m.m.m.m.m.m.N.m.N.N.m.m.m.N.m.M.d.d.m.f.m.f.m.m.N.m.m.m.M.N.m.f.m.m.m.M.M.N.M.F.n.n.j.z.n.z.j.z.z.j.z.n.v.<Xg.M.M.d.t.t.t.d.m.m.m.m.m.m.m.N.f.f.M.M.M.M.B.S.M.M.M.B.M.M.M.M.M.M.M.M.M.M.M.M.M.f.m.m.m.f.m.m.m.m.m.f.f.m.m.m.N.N.m.m.m.m.m.f.m.m.m.m.M.M.M.B.M.M.M.M.M.M.M.B.M.M.M.B.M.M.M.M.M.M.M.m.m.N.M.N.f.N.m.m.m.m.m.m.d.m.m.y.d.f.B.Z.B.v.n.z.x.}.z.z.z.k.n.z.k.x.z.x.x.x.j.k.x.x.j.c.k.j.x.k.x.k.x.k.x.k.x.x.j.k.c.x.k.x.x.>Xr.t.R W P W W W R R R W W W R R R R R $.R R R E E t.E E E E E R R E E E E E R R E R E R E E $.E E E a.t.R $.E $.t.t.a.a.E E R R R $.R R R R R R W W R R R R R R R W R R R R E E R R E E R e.E R E R R R R R R R R R R R R R R R R E R R E E R E $.R R R R E $.$.t.$.t.$.E E t.E E E a.a.E a.E t.t.E a.t.t.t.E r.a.a.a.t.t.t.t.E E R E R a.r.t.t.t.u.a.: 5 4 9 w w 5 5 9 9 q 5 3 3 ",
"z.x.z.n.n.x.x.x.x.x.x.z.x.x.x.z.x.x.k.c.z.x.k.x.x.j.x.z.z.z.j.z.z.z.z.z.j.z.j.z.z.z.n.j.j.z.z.z.z.z.z.z.].z.z.n.n.n.z.z.n.n.l.z.z.z.l.c.{.x.z.z.z.z.j.j.c.j.j.z.l.l.z.l.z.:X}.}. X X}. X{. X|.|.|. X{. X|. X}.;X|.}.}.}.:X}.c.}.{.{.c.[.{.}.}.}.}.}.{.}.|.{.}.}.{.}.}.}.{.{.{.x.{.{.{.{.{.{.}.{.{. X}.{.{.{.}.|.}.}.}.}.{.{.x.{.}.}.}.c.}.[.c.x.{.{.x.{.{.}.}.{.}.|.}.}.{.}.{.{.|.{.{.{.{.{.{.}.}.|.{.[.}.{.{.{.{.l.{.{.v.:Xn.].{.z.{.{.{.{.{.{.{.{.}.{.}.|.:X:X;X;X;X:X:X{.:X:X:X:X}.|.{.|.{.}.{.{.{.{.z.{.x.{.{.x.].z.l.{.{.z.{.{.:X{.{.:X:X|.:X:X|.{.{.{.{.{.].{.{.{.].j.].z.n.n.z.n.n.j.j.j.z.z.j.z.z.l.z.z.z.z.n.z.}.}.}.{.}.z.{.{.:X{.:Xz.{.{.{.:X:X}.:X}.}.}.{.{.:Xz.{.{.x.{.}.}.z.{.:X}.{.z.{.z.{.{.}.}.|.}.}.{.:X:X}.:X{.}.:X{.{.:X{.}.:X}.{.:X{.{.}.{.{.x.].z.z.].z.{.{.{.{.{.{.{.{.{.{.}.{.{.{.{.:X{.:X{.{.{.:X{.{.{.z.].{.{.{.{.{. X{.{.x.{.x.z.c.x.x.x.z.z.z.z.z.z.z.j.z.k.x.c.x.x.c.j.j.x.x.k.c.x.x.x.x.c.j.x.x.z.x.j.x.x.z.z.x.|.|. X|.|.+X|.|.+X+X+X+X>X>X,X>X>X+X>X+X>X+X>X+X|.|.|.+X X X X|.|. X|. X|.|. X<X|.+X|.|.>X>X>X,X+X>X>X>X>X1X>X>X>X+X+X+X>X>X+X>X>X|.+X X+X+X+X+X|.+X:X+X|.+X|.+X|.+X>X X+X+X|.|.+X|.|.+X|.|.+X|.|.|.+X>X+X>X>X>X>X>X+X>X;X+X>X>X;X+X>X;X+X+X|.|.|.|.+X]. X>X|. X X X|.{.|.|.|.|.;X].:X]. X|.|.]. X|.|. X|.+X+X1X X|.|.;X+X+X|.|.>X>X;X>X+X X X|.;X,X%X$ 5 * 2 5 5 3 2 5 3 3 3 3 3 ",
"x.n.z.n.z.n.z.x.x.x.x.c.k.x.x.x.j.c.c.x.k.x.k.x.x.j.z.z.j.x.j.z.z.z.z.j.z.z.z.z.z.z.k.n.z.z.z.z.].z.z.z.z.n.v.z.z.z.].j.j.z.z.z.l.z.z.x.x.z.x.x.l.x.l.z.c.j.j.j.c.z.z.z.x.k.k.z.x.x.n.z.x.x.x.x.z.z.x.:Xk.x.x.}.x.k.x.x.x.k.c.x.x.k.k.k.j.j.k.k.x.k.x.x.x.x.k.x.x.x.c.j.x.z.x.x.k.k.x.z.x.x.c.c.k.x.x.x.x.c.z.x.x.z.z.z.z.z.z.z.j.j.j.j.n.j.j.j.z.z.j.j.n.n.j.n.x.x.z.z.x.x.x.x.x.z.z.z.].z.z.{.z.z.{.z.{.z.l.z.z.z.l.l.v.j.z.z.z.l.j.z.z.j.z.l.l.z.l.x.z.z.z.z.z.z.z.x.x.x.c.x.z.z.z.z.z.z.l.z.j.j.j.j.l.j.z.z.j.c.x.x.x.j.z.z.j.j.j.j.z.x.c.x.x.x.x.x.x.c.c.x.k.k.k.z.k.j.c.z.x.c.k.k.x.c.x.x.k.c.k.j.c.k.j.j.c.x.z.k.j.j.x.z.l.z.z.z.c.j.x.x.x.x.x.x.x.x.x.z.k.x.x.x.j.k.j.j.j.j.j.k.x.k.x.x.z.z.z.z.z.x.x.x.x.x.}.x.}.}.z.{.x.x.{.x.}.x.}.x.x.x.z.z.x.x.x.c.k.x.j.x.x.x.x.x.x.x.z.x.z.x.z.}.k.x.x.{.z.{.z.{.z.{.{.l.z.{.x.n.j.z.z.z.z.z.j.j.z.j.j.j.z.x.x.{.x.x.{.x.k.z.z.z.z.z.z.z.k.x.k.x.x.j.c.x.x.x.k.z.x.j.c.x.x.x.k.j.j.j.x.k.x.x.x.x.c.x.z.z.x.}.x.x.}.x.x.x.}.x.}.x.z.z.{.x.x.x.z.z.j.j.j.j.j.j.j.j.j.j.j.j.j.z.z.z.x.x.x.}.z.z.z.z.x.x.x.}.x.}.x.x.z.z.{.x.x.{.x.x.}.x.}.x.z.x.x.}.x.x.x.}.x.}.x.x.}.}.{.z.z.j.j.k.x.x.l.z.z.z.z.z.z.z.x.{.l.x.x.x.}.x.z.x.}.x.x.x.z.z.z.x.x.x.z.z.x.x.x.}.x.x.x.n.x.}.}.n.n.}.n.x.x.x.x.c.x.x.k.c.c.c.x.k.k.c.x.c.x.x.c.x.c.x.x.x.x.x.}.}.x.k.x.n.x.OX> 0 + 3 3 3 3 3 3 3 3 7 3 3 ",
"n.x.n.z.z.x.z.x.x.x.k.x.k.x.k.x.x.k.j.k.x.x.c.j.j.x.x.z.z.j.z.z.j.n.z.z.j.z.z.z.k.z.z.z.z.z.z.z.z.n.v.z.z.z.n.n.n.v.z.z.z.z.z.z.{.z.z.z.x.x.x.x.x.x.z.z.x.j.c.k.x.j.j.z.z.x.k.x.k.k.k.k.x.x.x.k.k.z.k.k.k.k.k.k.k.k.k.x.x.x.k.k.j.k.k.k.k.k.k.x.c.k.x.x.j.x.c.j.j.k.k.x.k.k.x.j.z.k.x.x.x.z.k.k.j.k.k.c.z.z.x.z.z.j.j.j.j.z.z.j.j.j.j.j.j.j.j.n.j.j.j.j.j.v.j.n.x.k.z.x.x.c.z.c.l.l.z.z.k.j.z.z.z.z.z.z.z.z.x.x.x.{.z.z.j.j.j.z.z.z.z.z.z.z.l.z.z.z.l.z.j.j.j.j.k.k.j.z.x.z.j.k.j.j.z.z.z.z.j.j.l.j.j.l.k.k.j.j.j.k.k.k.k.c.x.z.l.c.z.c.z.z.j.j.z.j.k.j.k.k.k.j.k.k.k.x.k.k.k.j.z.x.j.j.k.k.k.x.x.x.j.z.j.c.z.z.j.z.x.k.j.j.x.z.k.z.z.j.j.z.z.z.x.x.c.x.x.x.z.z.z.j.z.z.z.c.j.k.j.j.j.k.k.k.k.k.z.k.k.k.j.x.x.x.x.x.k.z.k.x.k.k.x.x.z.x.x.x.x.k.x.x.x.x.x.x.x.x.x.k.c.x.x.x.x.c.c.x.x.x.}.x.x.z.z.z.z.z.z.z.z.z.z.z.x.z.z.z.z.z.j.j.j.z.z.z.j.n.v.:Xz.j.z.z.x.x.x.x.c.x.n.z.z.k.n.z.z.z.k.z.x.x.x.j.j.j.j.x.x.x.x.x.x.k.x.x.c.k.x.c.x.x.z.z.z.l.z.x.z.j.j.j.j.z.x.x.k.x.x.x.x.x.z.z.z.z.z.z.j.k.j.j.j.j.j.j.n.j.j.j.j.n.k.z.z.j.x.j.x.x.z.z.z.z.z.k.z.z.z.z.x.x.z.j.j.j.j.x.z.k.z.z.x.k.z.z.z.z.x.z.z.k.x.x.x.z.k.k.z.z.z.n.l.l.z.z.j.z.z.z.z.z.z.z.x.x.z.z.z.z.z.z.n.z.z.z.z.x.j.j.z.z.z.x.z.z.x.x.x.x.k.n.k.k.k.k.x.x.x.x.x.x.x.k.x.x.x.x.x.x.x.n.x.x.x.x.x.x.x.x.x.x.x.x.x.x.x.x.x.}.x.x.}.}.x.).$ 7 3 3 3 3 3 = = 0 3 = = 3 ",
"x.n.z.z.z.x.x.x.x.x.x.k.x.c.x.x.x.x.c.x.k.c.x.k.j.x.x.z.j.j.z.z.z.z.j.j.z.z.z.z.z.j.z.z.z.z.z.{.n.n.n.n.z.z.z.z.n.z.z.z.z.j.z.z.z.z.x.x.{.x.l.x.z.x.z.z.x.k.c.x.z.j.x.j.z.x.z.x.x.x.x.k.k.x.k.k.k.k.k.x.x.c.x.x.j.c.k.x.k.k.x.x.k.k.c.x.x.x.c.x.x.x.x.c.c.x.x.j.c.k.x.k.k.k.j.j.z.z.j.j.j.j.j.c.j.k.c.j.k.z.z.x.k.k.c.j.z.x.c.c.z.j.j.j.j.j.v.n.j.z.j.j.j.j.j.v.z.z.x.x.z.j.c.j.j.j.j.z.k.l.z.z.l.z.z.z.x.z.x.x.z.z.z.z.j.j.z.z.z.z.z.z.l.j.c.c.z.z.c.z.z.z.k.x.z.x.j.j.j.j.j.z.j.z.z.z.l.z.z.j.z.z.z.j.k.c.z.c.x.x.x.x.c.k.x.j.k.j.j.j.j.j.j.j.j.j.j.j.j.j.j.j.j.x.x.x.x.c.x.c.k.z.z.k.x.x.k.k.x.k.x.j.k.z.c.}.k.z.x.k.j.z.j.x.z.z.c.z.z.z.z.z.z.c.x.j.x.c.z.c.z.z.c.z.x.k.c.k.j.c.j.c.x.k.c.k.x.x.k.x.x.x.x.x.x.x.x.x.x.z.x.x.x.x.x.x.x.x.x.x.x.c.x.x.x.c.x.x.c.x.x.x.x.x.x.x.x.x.x.x.z.x.x.z.z.z.x.x.z.z.z.z.z.x.x.z.z.z.z.z.j.j.z.z.v.j.z.v.j.z.z.z.j.z.z.z.{.x.x.x.z.z.z.z.j.z.z.z.x.z.x.z.k.x.z.x.c.x.k.k.c.j.x.k.j.x.k.c.x.x.x.k.z.z.j.n.z.z.z.z.z.z.j.z.x.x.x.k.x.x.x.x.z.z.z.z.z.z.l.z.z.j.z.z.z.z.j.n.j.j.n.j.j.z.z.z.z.n.k.z.n.j.n.z.n.n.z.n.{.z.x.z.z.z.j.j.z.z.z.z.j.n.z.z.n.z.z.z.z.z.z.z.x.z.z.:Xz.z.z.z.z.z.z.z.z.z.j.c.z.z.z.z.z.z.z.z.l.z.z.z.z.z.z.z.z.z.z.z.z.n.z.n.l.k.k.j.k.k.k.k.k.k.z.n.x.x.x.n.x.x.x.x.x.x.x.x.x.x.x.n.n.x.x.x.x.}.x.x.x.x.x.z.k.x.x.x.x.x.x.x.}.x.}.c.}.XX$ 3 + 3 3 + 3 3 = 7 3 3 = 3 ",
"n.z.x.z.z.x.z.x.x.x.x.x.x.k.k.x.x.k.k.x.x.x.x.j.c.k.x.z.z.z.z.z.z.z.k.l.k.z.z.z.j.z.z.z.z.z.x.x.z.n.v.n.n.].z.z.z.z.z.z.z.].z.z.z.z.z.x.x.x.z.z.c.z.k.x.x.x.k.x.z.x.x.c.z.z.z.z.}.x.z.k.j.k.x.x.z.z.z.z.z.x.x.x.j.k.x.k.x.k.k.k.x.x.x.x.x.k.x.x.z.k.x.j.x.k.k.j.k.k.k.j.j.c.j.j.j.j.j.j.j.j.j.j.j.j.k.k.j.j.j.j.j.k.k.k.j.c.j.z.z.j.j.j.j.j.j.j.n.j.j.j.j.j.j.n.z.z.j.z.j.j.j.j.j.j.j.j.j.j.j.l.j.z.z.z.z.z.z.z.z.z.z.z.n.j.j.j.j.j.j.j.j.j.j.j.j.j.j.z.z.z.c.z.z.z.z.j.j.k.j.j.j.z.z.z.j.j.j.j.z.z.l.j.j.x.j.z.c.x.x.j.k.z.z.z.k.l.z.z.z.j.z.j.c.j.c.j.c.j.x.c.c.x.x.x.c.j.j.j.x.c.z.k.x.x.c.j.c.j.x.x.z.j.k.x.x.z.x.z.j.j.j.z.z.z.z.z.j.z.j.j.j.z.x.k.z.z.z.z.z.z.z.z.x.z.x.k.k.k.j.j.k.k.j.k.k.k.k.k.z.z.z.z.x.z.z.z.z.z.z.z.j.j.j.k.z.z.z.j.x.x.x.x.z.x.x.z.k.x.c.x.x.x.x.x.z.x.k.z.z.z.z.z.l.j.z.c.j.l.z.l.z.z.z.l.z.z.j.z.j.].z.z.n.j.z.z.j.j.].z.z.{.z.z.x.x.x.x.z.z.z.z.z.z.z.k.x.x.x.x.c.k.x.x.k.x.x.c.x.z.x.x.x.x.x.j.k.x.k.c.z.z.z.z.x.z.z.x.c.x.c.k.c.k.x.c.x.x.x.x.z.z.z.j.z.z.k.z.j.l.z.z.z.z.j.j.n.j.z.z.k.z.n.k.z.k.k.k.k.k.k.k.k.k.z.x.z.x.x.x.z.j.n.n.k.k.k.k.z.x.x.z.z.k.z.z.x.x.{.x.x.z.x.x.x.z.z.z.z.z.j.z.j.c.j.j.j.k.k.l.k.z.z.z.k.z.z.z.z.k.n.k.z.z.k.k.k.k.k.k.n.k.n.k.k.k.k.k.n.k.k.x.k.x.x.x.x.x.x.x.x.x.x.x.x.c.x.x.x.x.x.x.x.x.x.x.x.x.x.{.}.x.x.x.}.c.x.c.x.x.c.k.}.Q.v y 3 3 x 3 = x 3 3 = 3 3 3 ",
"x.n.z.z.n.n.z.k.x.x.x.x.x.x.x.x.x.x.z.k.x.z.x.j.c.k.x.k.c.x.j.x.z.z.z.z.x.x.{.x.z.x.x.x.x.x.c.x.z.z.z.z.z.z.n.z.z.z.z.z.z.j.l.z.x.x.z.l.z.x.x.c.z.z.k.z.c.j.j.j.j.z.j.z.z.z.z.z.z.z.z.z.x.x.k.k.x.j.j.c.x.x.c.k.c.x.k.x.x.x.z.x.x.k.k.k.k.k.k.x.c.k.x.k.x.j.k.c.c.x.x.j.c.z.j.c.z.j.z.j.j.z.j.z.j.n.z.j.j.k.z.k.j.k.x.z.k.c.c.j.z.z.v.j.z.z.j.z.j.z.z.j.j.z.v.j.j.z.j.z.j.z.z.j.j.z.z.j.j.j.z.n.z.z.z.z.z.z.n.z.z.z.j.z.z.j.z.j.j.z.z.z.j.j.c.j.j.j.j.z.c.k.z.k.c.k.j.x.x.x.j.z.l.z.z.z.z.z.z.z.x.j.k.j.x.j.k.c.k.z.x.x.x.x.x.k.k.z.j.z.z.z.c.z.z.c.z.z.c.z.z.z.x.x.j.c.j.k.j.x.j.c.c.j.x.x.c.z.x.x.x.z.k.x.x.c.j.c.c.x.j.j.x.j.z.z.j.z.j.c.k.c.x.x.x.x.x.c.z.l.x.x.z.x.k.x.x.x.x.c.x.k.c.k.x.z.x.x.x.x.c.k.x.k.x.k.x.k.x.x.k.x.j.c.x.x.x.k.k.x.x.x.x.}.x.x.}.x.x.c.x.x.z.x.x.x.x.x.x.c.z.{.z.z.z.z.z.z.z.].z.z.z.z.z.z.z.z.z.z.z.z.z.z.l.z.z.l.z.z.z.z.z.].z.z.z.z.z.z.z.z.z.j.j.x.j.x.x.x.k.x.c.k.x.k.j.x.k.x.k.k.c.j.k.x.k.z.j.x.k.x.x.k.x.c.z.z.k.x.z.z.z.{.z.z.l.{.x.z.z.x.z.z.n.z.z.j.z.z.j.j.n.j.j.j.j.j.j.j.j.n.k.k.z.z.z.z.z.z.z.n.n.k.z.z.z.n.z.z.z.z.n.j.z.k.z.z.n.z.z.z.z.z.z.z.z.n.z.z.x.x.x.n.z.z.x.n.z.z.z.z.k.z.z.z.z.j.z.z.z.z.z.n.j.k.z.n.z.n.z.z.z.z.n.z.z.z.z.z.z.z.x.x.x.x.k.x.n.k.k.k.k.k.k.k.k.k.k.k.k.x.x.k.x.k.k.k.k.k.}.x.x.x.x.}.x.x.x.c.x.x.x.x.x.k.x.c.c.k.x.x.c.x.}.+X> 0 = 3 = 3 3 3 3 = 3 3 3 = ",
"n.x.n.n.z.x.x.x.x.x.x.x.x.x.x.x.x.x.x.x.k.x.k.c.k.x.x.z.k.x.j.k.z.z.z.z.x.x.c.x.z.z.{.x.{.x.x.x.z.z.z.z.v.z.n.n.z.z.{.z.z.z.z.z.l.x.z.z.x.l.z.x.c.z.j.c.x.j.c.j.z.j.j.z.k.z.z.z.z.k.k.z.x.k.x.x.x.c.k.j.x.k.x.x.j.x.x.x.k.k.c.k.z.x.k.k.k.k.k.k.j.x.x.x.x.x.x.j.k.x.j.j.k.k.j.j.j.z.z.v.z.j.z.j.j.z.z.k.k.k.j.k.j.x.x.j.j.j.k.z.z.z.z.z.j.z.z.j.j.j.v.j.z.j.n.j.z.z.z.j.j.z.j.z.z.j.z.z.z.z.z.j.z.z.z.{.z.{.z.z.z.z.z.j.j.z.j.j.j.l.z.j.j.j.j.j.l.j.j.z.j.z.j.c.j.c.j.x.c.k.c.j.z.z.z.z.z.z.z.z.j.j.c.c.j.c.j.j.c.j.k.c.j.k.c.x.z.k.j.z.k.c.j.x.j.j.c.z.j.k.j.c.c.j.z.k.j.z.x.x.x.j.k.j.x.k.k.x.k.x.k.x.x.x.k.k.x.x.j.x.j.x.j.j.j.z.c.j.z.j.z.j.j.x.x.x.x.x.z.x.x.c.c.x.c.j.x.k.x.j.x.x.x.k.x.k.k.x.k.x.k.x.z.x.z.x.z.x.x.z.x.z.j.x.x.k.z.x.c.x.x.x.x.x.x.x.c.x.x.x.x.x.{.x.x.c.x.x.x.}.z.z.x.z.z.z.z.z.z.z.z.z.z.z.z.z.z.z.z.z.z.z.v.n.z.z.z.j.z.z.z.z.z.j.z.z.z.x.k.x.z.z.z.z.j.z.z.x.j.c.k.x.j.x.x.z.c.x.x.x.j.c.j.j.j.x.x.c.x.x.x.c.z.x.x.k.z.l.z.z.{.z.z.z.z.z.z.z.x.z.z.z.z.z.j.z.z.z.z.z.j.j.j.j.j.j.n.j.j.j.j.j.n.z.n.z.n.z.z.n.k.z.k.z.k.n.k.k.z.z.z.z.z.z.z.z.z.z.k.z.z.z.z.z.z.z.z.z.x.z.z.n.z.n.z.n.x.x.z.z.z.z.k.z.z.z.z.z.z.z.z.z.z.z.z.z.z.z.z.z.z.z.z.n.z.n.z.z.n.x.z.n.n.x.x.x.x.k.k.k.k.n.k.k.k.k.k.x.x.n.k.n.x.x.x.x.x.x.x.x.x.k.x.k.x.k.k.c.x.x.x.x.x.x.c.k.k.k.x.x.x.x.x.}. X+X, 7 2 = 3 3 3 = 3 = 3 = 3 = ",
"x.n.z.x.z.n.x.x.x.x.x.x.x.x.x.z.j.x.x.x.j.x.x.x.k.x.x.x.x.x.j.c.c.x.x.x.x.x.{.x.c.x.x.x.x.x.x.z.<Xj.z.z.n.v.n.n.z.{.{.z.z.z.z.l.z.z.x.x.z.l.x.x.x.z.j.k.j.j.x.j.j.z.z.z.k.z.z.z.z.z.z.z.k.x.x.x.k.x.x.x.x.c.k.x.j.x.k.x.x.x.z.x.x.k.k.k.k.k.k.x.x.x.x.x.j.c.x.x.x.x.j.c.c.j.z.z.z.j.j.z.z.j.z.z.z.j.z.j.z.k.j.z.j.j.x.k.z.x.c.j.z.z.z.j.z.j.j.z.j.z.n.j.j.z.j.j.j.z.j.z.z.z.z.z.z.j.z.j.j.z.z.z.z.z.n.z.z.z.z.z.z.z.z.z.z.z.j.j.z.j.z.j.z.z.j.k.z.j.z.z.k.j.j.c.k.z.j.x.x.x.k.j.z.z.z.z.z.z.z.z.c.j.j.j.x.j.x.j.x.j.j.j.j.x.x.x.z.z.z.j.j.j.j.k.z.k.k.j.j.c.j.j.k.j.k.j.c.j.x.k.x.x.x.x.c.x.x.x.c.k.x.k.x.x.x.x.k.k.c.j.c.j.j.c.x.z.k.j.c.j.j.z.z.x.c.x.x.x.z.z.x.x.z.x.x.x.x.x.x.x.k.x.x.x.c.k.x.j.c.x.x.x.k.x.x.j.k.c.j.x.k.x.x.z.x.k.x.k.k.z.}.x.x.x.c.}.x.x.x.x.x.x.c.x.x.z.x.x.x.x.z.z.z.z.z.z.z.z.l.z.z.z.z.z.l.z.z.z.z.l.z.z.n.n.z.z.j.z.z.j.z.z.z.z.z.z.z.x.z.z.z.z.z.k.z.z.z.x.x.x.x.x.c.k.x.x.x.k.x.k.x.x.z.c.c.x.z.j.x.j.x.k.x.k.x.j.z.l.z.z.z.z.z.z.z.z.z.z.z.z.z.z.z.z.z.j.n.z.n.j.j.j.j.j.j.n.j.n.j.j.n.j.k.z.z.z.z.z.z.k.z.n.k.k.z.k.z.z.z.z.n.z.z.z.z.z.z.z.z.n.z.z.z.k.n.z.z.z.z.n.z.n.x.z.z.n.n.x.z.z.z.z.z.z.n.j.z.j.j.n.k.z.z.z.z.z.z.k.k.z.z.n.z.k.z.n.z.k.z.z.k.x.x.x.x.x.x.k.k.n.k.x.n.k.k.x.k.x.x.x.x.x.x.x.x.x.x.x.x.x.x.x.x.x.x.x.x.x.x.x.c.x.x.x.x.k.k.c.c.x.c.k.x.}.}.OX> 0 + 3 3 = = 3 = 3 3 3 = x ",
":Xz.n.x.z.x.z.k.x.x.k.x.x.x.x.x.x.c.k.x.c.x.k.x.x.c.j.z.k.x.j.c.z.x.x.x.c.x.x.x.x.x.x.x.x.x.x.z.j.j.z.z.n.n.n.v.z.z.z.z.z.z.z.z.x.l.x.x.z.z.c.x.x.z.c.j.c.k.x.x.z.z.z.z.z.n.z.z.z.z.n.z.c.k.c.x.x.j.j.x.k.k.z.x.x.x.x.c.k.z.x.x.z.x.k.k.k.k.k.k.k.x.x.x.k.x.x.j.x.k.x.k.x.x.k.x.z.j.z.j.z.z.j.z.z.z.z.z.j.z.z.z.x.j.c.c.j.j.j.j.z.z.z.z.j.z.z.z.z.j.j.n.n.z.z.z.z.z.z.z.z.z.j.z.j.z.j.z.z.j.z.z.z.z.z.z.{.z.z.z.z.z.k.z.z.j.z.l.j.z.z.z.k.j.c.c.j.x.z.z.c.j.z.j.j.j.j.c.j.k.j.c.v.z.z.z.z.z.z.l.c.j.j.c.j.j.c.x.k.x.c.c.j.x.j.j.j.j.j.c.x.j.c.c.j.j.c.z.k.c.j.k.k.c.z.c.k.x.x.c.x.j.x.k.j.z.x.k.x.j.x.x.c.k.k.x.x.x.k.z.j.x.c.k.j.j.k.c.j.z.z.j.c.c.x.x.z.c.x.z.z.c.z.j.k.x.x.k.c.j.x.x.x.k.x.x.z.x.x.k.z.x.c.k.x.c.x.x.x.x.k.c.x.k.x.c.z.x.x.x.x.x.}.x.x.x.x.x.x.c.x.}.x.x.x.{.x.c.x.x.{.z.z.z.z.z.z.z.k.z.z.z.z.z.{.z.z.z.z.z.z.z.z.v.z.z.z.z.z.j.l.n.z.n.z.z.z.z.z.z.k.k.z.z.j.z.z.j.x.j.k.c.x.j.j.k.c.k.c.j.x.k.x.k.x.k.x.k.x.c.x.x.j.c.j.z.z.z.z.z.z.z.z.z.z.z.x.x.z.z.k.k.j.z.n.z.z.z.z.z.z.j.j.n.j.j.j.j.j.j.n.j.n.z.z.n.z.n.k.z.z.z.z.n.z.n.z.n.k.z.n.z.z.j.n.z.z.j.z.z.n.z.n.z.k.z.z.n.x.z.x.z.z.n.z.x.z.z.z.n.n.z.z.z.j.z.z.z.z.z.z.z.z.j.n.z.z.z.n.z.k.z.z.n.z.k.z.n.x.x.n.x.x.x.x.x.k.k.k.x.k.k.k.k.k.k.k.x.x.x.k.x.x.x.x.x.x.x.x.k.k.c.x.x.x.k.x.x.x.x.x.x.c.x.x.c.k.x.x.x.x.k.x.x.l.OX< 3 2 3 3 = 3 = 3 3 = 3 3 3 ",
"k.x.x.n.n.z.z.z.k.z.k.x.k.x.x.k.k.k.x.x.x.z.x.x.x.x.x.k.x.x.z.k.z.x.}.c.x.x.x.x.x.x.x.x.x.x.z.z.l.z.z.z.z.z.z.z.z.z.z.z.z.z.z.l.x.x.x.c.x.x.x.x.k.z.z.z.z.z.k.k.j.z.x.k.x.x.z.z.x.x.k.x.k.x.x.k.c.j.z.x.x.k.x.x.x.k.x.x.z.k.x.x.k.x.k.k.k.k.k.j.z.z.z.z.z.x.x.j.z.c.x.k.z.z.j.x.x.j.c.j.j.j.z.z.z.z.z.j.z.z.z.j.z.z.j.z.z.j.z.x.j.l.z.z.j.z.z.z.j.j.j.j.j.j.z.z.z.j.z.j.n.z.z.z.z.z.j.z.z.j.z.z.j.j.j.j.j.j.k.z.z.z.j.z.z.j.z.j.z.j.n.j.z.j.z.j.z.z.z.z.z.j.j.z.c.c.j.x.j.c.j.j.c.z.z.z.z.z.z.z.k.j.j.c.x.c.k.x.x.c.k.x.j.c.k.c.c.j.z.j.j.k.j.j.j.j.k.k.k.k.j.j.k.j.c.j.z.x.x.k.x.j.z.z.x.c.k.x.x.j.c.k.c.x.x.x.k.c.x.x.c.j.k.c.j.c.c.k.z.k.j.z.j.j.j.c.l.z.z.z.c.z.z.z.c.z.x.x.x.x.x.x.k.x.k.x.x.x.x.x.k.z.z.z.k.x.x.x.x.x.x.k.z.z.z.k.z.x.c.k.x.x.x.c.x.{.x.x.x.x.{.x.x.x.c.x.z.z.z.z.{.x.z.{.z.z.z.z.l.].z.z.z.z.z.z.z.z.z.z.z.z.z.z.z.z.z.z.z.z.z.z.z.z.z.k.z.x.z.z.z.z.z.z.z.z.z.z.x.z.x.x.k.x.k.j.j.c.k.k.x.z.x.x.x.x.z.z.k.x.k.j.z.z.z.j.c.x.c.z.z.z.z.z.z.z.z.z.z.z.z.z.j.z.z.z.z.z.z.z.z.n.z.z.z.j.j.j.k.j.z.n.j.z.z.z.n.z.x.z.z.z.z.n.z.n.x.n.z.x.z.z.z.z.z.z.k.z.z.z.z.n.n.z.z.n.n.z.n.z.z.n.z.n.z.z.z.n.z.z.z.z.z.z.z.z.z.z.n.j.z.z.z.n.j.z.k.z.z.z.n.x.n.z.k.z.z.n.z.z.z.z.z.k.k.x.x.k.n.k.k.j.j.j.k.k.k.k.n.k.k.k.k.k.k.k.k.k.k.k.k.k.z.k.j.n.j.j.x.x.c.x.x.x.x.c.c.x.x.x.}.k.k.c.x.XX; 5 = 3 4 2 = 3 3 3 = 3 3 = ",
"n.k.x.z.x.x.z.x.x.x.z.x.x.x.x.x.x.x.k.c.x.z.x.x.x.x.x.x.x.z.z.x.z.x.x.x.x.}.x.x.c.x.x.c.x.c.x.z.l.x.z.z.z.z.z.z.z.z.z.z.l.z.z.z.c.x.x.x.{.x.x.}.x.z.z.z.k.k.l.k.z.z.k.k.z.z.z.z.x.k.x.x.k.x.x.x.x.j.j.x.x.x.x.x.x.x.x.x.z.z.x.z.x.k.k.k.j.k.k.k.z.k.z.k.x.x.k.c.x.k.x.x.z.j.z.j.j.z.k.x.j.j.j.z.z.z.z.z.z.z.z.n.z.j.z.z.j.c.z.x.z.z.z.j.z.z.z.n.n.n.n.j.n.j.z.z.z.z.n.z.z.z.z.z.z.j.z.k.j.z.z.z.j.n.j.n.z.n.k.k.z.z.z.j.z.z.z.z.z.z.z.z.z.z.z.z.z.k.z.k.j.x.j.c.j.j.j.j.x.j.k.z.j.z.z.z.z.z.z.{.x.x.x.k.x.x.x.k.z.j.k.x.x.x.x.k.j.x.j.z.j.j.j.k.k.j.k.k.k.k.k.j.j.x.k.z.x.x.x.x.x.c.x.x.x.k.x.x.x.k.x.x.x.k.k.x.x.j.j.x.j.x.j.j.c.k.k.k.j.c.c.j.j.j.c.j.l.j.z.l.c.z.z.z.j.z.x.z.x.x.x.x.j.x.x.x.x.x.x.x.x.k.z.z.x.x.x.k.x.x.c.x.z.z.z.z.x.x.x.x.x.x.x.x.x.x.x.x.}.x.x.x.x.x.x.x.z.j.z.z.z.z.z.x.z.z.z.z.k.z.z.z.].z.z.z.z.z.].z.z.z.z.z.z.z.z.j.z.z.z.z.z.z.z.k.j.z.z.z.z.z.z.z.z.z.z.x.z.x.j.x.c.x.x.x.k.x.c.x.x.k.x.x.x.z.c.z.x.x.j.c.z.z.z.z.x.j.z.z.z.z.z.z.z.z.z.z.z.z.z.z.z.z.j.n.j.z.z.j.z.z.z.z.z.n.z.j.k.k.k.k.j.n.n.z.z.z.n.z.z.n.z.z.z.z.z.z.z.z.z.n.k.n.z.z.z.k.j.z.z.x.z.z.z.x.z.k.n.z.z.n.x.x.z.n.z.n.x.n.n.z.z.n.z.n.z.z.z.z.z.z.z.z.z.z.n.z.z.z.z.z.z.z.z.z.z.z.z.z.z.z.k.x.x.x.x.k.k.k.n.j.n.j.k.k.k.k.k.k.k.k.k.k.n.k.k.k.k.k.k.k.n.k.j.j.j.j.k.x.x.x.x.x.x.x.k.x.x.x.}.x.x.x.{.XX# 5 * 4 2 = x 3 = = 3 = 3 3 ",
"n.x.n.z.n.z.z.x.x.z.x.x.k.x.x.k.k.k.k.k.z.j.x.z.x.x.x.x.z.z.z.z.x.x.x.x.x.x.x.x.x.z.k.j.z.x.l.k.z.z.z.z.x.z.z.k.z.l.z.z.z.z.z.z.z.x.x.z.z.x.x.x.x.z.l.k.z.z.n.j.j.j.k.x.z.x.x.z.x.c.x.k.x.k.c.x.x.c.x.x.k.k.k.j.z.x.x.x.n.z.z.n.z.z.z.x.k.n.j.k.z.k.x.x.x.x.k.z.z.z.j.c.k.j.k.k.k.k.x.c.j.j.z.z.z.z.z.z.z.z.z.z.z.z.j.j.z.z.j.z.z.z.z.j.j.z.j.z.n.n.n.n.j.z.z.j.z.z.z.z.z.z.z.z.j.z.z.z.z.n.n.j.n.j.n.n.z.k.z.n.k.z.z.z.z.z.z.z.z.z.z.z.z.j.z.z.l.j.x.x.z.z.j.j.j.j.c.x.j.k.j.z.x.x.c.z.k.z.x.x.k.z.k.x.x.x.x.x.x.j.c.x.k.x.z.j.z.z.c.k.k.k.j.j.k.n.k.k.k.j.k.j.k.k.k.x.x.k.x.x.x.j.k.z.z.z.x.j.k.x.n.z.x.x.k.x.k.x.j.z.k.c.j.z.j.j.j.c.x.k.j.j.n.j.j.z.z.z.v.z.z.z.z.z.z.k.j.z.k.x.x.x.c.k.x.x.x.x.x.x.k.}.l.z.c.x.x.k.x.k.x.x.z.z.k.z.x.z.x.x.x.x.z.x.c.x.x.x.c.x.x.x.x.x.x.x.n.j.j.j.z.j.k.x.z.{.z.z.z.z.z.z.z.z.z.{.z.l.j.j.l.z.z.l.z.z.z.j.z.z.n.z.z.z.z.z.z.z.z.z.z.z.x.z.z.j.z.z.x.x.x.k.k.j.x.x.c.x.x.k.j.j.c.k.z.x.x.x.x.k.x.z.z.x.z.n.x.x.c.j.l.j.j.k.j.j.z.v.j.j.j.j.z.z.z.z.z.n.z.z.z.z.z.z.z.z.z.n.n.z.z.z.j.k.z.z.x.x.n.z.z.n.z.}.n.n.z.z.z.z.z.z.z.z.z.z.z.j.z.z.x.n.x.n.x.n.n.k.z.x.z.x.z.z.}.n.k.x.z.n.z.z.k.z.n.z.n.z.z.z.z.z.z.z.z.n.z.z.z.k.z.n.n.z.z.z.z.z.z.z.n.z.x.x.x.x.x.n.k.k.k.k.n.j.x.k.k.k.k.k.n.k.k.k.n.n.k.k.k.k.n.k.k.k.j.j.n.n.k.c.x.x.x.x.x.x.c.x.x.x.x.x.x.k.z.F.& 3 4 5 4 2 3 3 = 3 3 = 3 3 ",
"z.n.z.x.z.n.z.z.z.z.x.k.k.k.}.}.|.|.;X|.;X>X;X>X;X|.}.|.{.x.z.z.x.c.x.x.x.x.x.{.x.j.j.}.|.+X:X<X|.|.+X|.|.].|.].].{.n.j.z.z.z.l.c.z.x.z.z.z.c.|.+X|.|.|.;X;X>X;X>X;X;X+X Xx.x.z.k.k.c.x.x.x.x.x.z.x.x.z.|.|.+X<X|.|.|.|.|.].|.].|.>Xz.x.l.j.k.x.x.x.x.x.z.x.z.{.:X|.|.;X{.:X:X:X{.].{.|.:X].{.z.j.k.z.z.j.n.z.z.z.n.j.z.{.>X:X{.<Xz.:X:X:X:X:X:X:X].v.n.j.j.z.n.z.z.z.j.n.j.z.z.z.].].<X:X:X:X:X:X:X:X:X<X|.].n.j.j.k.k.z.k.j.j.j.z.z.z.z.{.|.<X>X|.+X].|.|.>X>X>X>X>X;X+X>X|.|.<X].|.].].].+X|.].|.l.k.c.x.x.x.x.x.x.k.x.k.x.z.|.|.+X{.>X+X|.|.>X>X>X>X<X:X}.k.c.k.k.x.j.k.k.k.k.k.k.z.{.+X X|.:X;X<X:X|.|.;X X|.|.{.k.k.j.c.j.j.x.k.j.x.k.c.c.l.|.<X;X|.|.>X].+X:X|.{.|.:X:Xl.k.c.x.z.x.x.x.x.x.x.k.k.k.{.:X;X|.;X|.|.;X;X|.|.:X{. X{.j.z.x.x.z.c.x.x.x.x.z.z.c.:X;X;X:X:X}.|.:X].:Xn.|.{.;X{.z.x.l.z.z.l.z.l.l.z.z.z.z.x.|.+X>X].|.|.].:X:X<X{.+X:X].{.n.z.z.z.z.z.z.z.z.x.x.x.j.|.{.|.;X|.{.;X}.|.:X}.|.}.;X}.c.x.j.x.x.x.z.z.x.z.z.z.n.z.:X{.|.;X{.:X{.|.:X].|.].OX].n.z.j.j.j.j.z.z.z.j.n.j.z.n.j.z.z.z.j.k.z.z.z.z.n.z.n.z.n.x.n.x.z.n.z.z.k.z.n.n.z.n.z.z.z.z.z.z.z.z.n.z.z.x.z.n.z.k.:Xn.x.n.z.x.n.z.z.{.n.z.}.z.z.z.z.z.z.z.j.k.k.z.z.z.z.k.z.z.z.z.z.x.x.z.z.k.z.z.x.k.k.k.z.x.c.k.x.k.k.k.k.k.k.j.n.[.|.:X|.:X:X|.:X<X{.:X;X|.:X|.:Xz.:Xn.:X:Xn.:Xn.}.}.x.x.n.c.c.x.x.}.c.x.}.}.x.c.{.).& q * * - 3 3 = 3 3 = 3 = 3 ",
"n.x.n.z.z.n.z.z.x.x.z.n.z.z.D.Y R T E E a.t.t.t.E R T e.i.].x.x.x.x.c.x.c.x.x.x.x.x.{.g.T t.t.t.t.t.t.t.t.E t.a.T D.z.z.z.x.x.z.z.z.c.{.z.z.z.f.G T W R R W E E E E T T I h.n.n.x.x.x.x.k.k.k.}.j.z.z.D.Y W R R W T E T W R R E E t.^.j.n.j.z.k.x.x.x.x.k.x.x.{.g.T t.E m.t.d.t.m.t.t.t.t.T h.n.z.j.j.z.j.z.z.z.z.j.n.z.h.t.d.m.t.t.t.t.E t.E t.E t.d.v.n.z.z.z.j.z.j.z.{.n.j.z.^.T E T E E t.E E d.E E E I Q ].z.n.j.j.n.j.k.k.k.k.x.k.:Xd.T T T W G G I T I I G I I I I T I I T T I G I I R I W e.^.n.j.j.x.x.x.k.x.x.x.k.c._.i.I R I I W R W R R W T T C D.{.j.k.k.k.n.k.k.k.k.k.k.{.g.G R e.E E E i.E E t.E E E g.n.k.x.z.j.j.j.k.k.x.z.c.}.C.I R R R R W W I T t.d.E t.i.v.x.x.x.k.x.c.k.x.x.x.x.x.].d.T t.d.t.t.t.a.d.t.d.t.E T C.{.x.x.z.x.x.x.x.x.x.k.k.n.g.d.d.t.d.m.m.d.t.E E E E i.g.{.z.x.x.z.l.z.z.z.x.z.x.j.|.E T R $.t.E t.E a.t.E a.t.E B.n.z.n.z.k.z.z.x.z.z.x.z.{.g.T t.m.t.m.m.t.m.f.f.N.m.f.h.{.k.z.x.x.x.z.z.z.z.z.z.z.b.i.t.a.t.m.E E E T R W I T i.:Xj.j.j.j.z.z.z.z.z.z.z.z.k.z.z.z.z.z.z.n.z.z.x.z.k.z.n.x.n.z.z.n.z.z.x.x.n.z.z.n.z.z.z.n.z.z.z.z.z.z.z.z.n.z.n.z.x.x.z.n.n.x.n.:Xk.x.z.{.x.x.z.z.z.z.z.z.z.z.z.n.z.z.n.z.z.z.z.z.z.n.n.z.z.n.z.z.z.x.x.x.x.k.x.x.x.k.k.x.k.k.z.z.n.].Z.I.I.U.U.I.U.I.I.U.I.U.U.I.I.I.F.F.I.F.I.<XI.$X*XOX<X|.x.x.x.x.x.x.x.x.c.x.x.c. X/.O 9 3 = = x + 7 = = 7 x + 7 ",
"x.n.x.z.x.z.z.z.n.x.x.z.z.{.B.O = 4 e r r e : y e , : 0 < +Xx.k.x.x.x.x.x.}.x.x.x.x.+XN r f t t g r r t r t r e $ B.].[.x.x.x.c.x.z.x.z.{.z.{.d.: t t m t m m y t t m m , T |.z.x.x.k.x.x.k.x.x.k.j.z.B.= r h r t h m t g t g t t , D.n.j.n.z.n.x.j.x.x.x.x.}.+Xv t t h h r r e t t r t e ; t.{.z.j.j.z.j.z.z.z.z.z.j.:XT , t y e y y y y y y t y 0 M :Xz.n.z.z.n.z.z.z.z.z.j.z.F.# e t w t y t y y m , y m < F.z.j.j.n.k.k.k.k.n.k.x.n.;XC 0 r t t t t e h t t t t t y t h n t h h t n t h t y t v F.z.k.j.z.x.k.c.x.x.k.k.j.+XZ e n g h t t y y y r r h , d.z.n.k.k.k.k.k.k.k.k.x.x.|.E 0 r r r r e y t t , y t y Q :Xk.x.x.z.c.x.x.x.k.k.k.}.g.; y t g r y q t m w y r : M F.{.x.x.z.x.x.x.x.x.x.x.j./.M Z , , e y e y y e r e e > i.|.x.k.z.x.x.x.x.k.k.n.x.:XB - e t t y r m r m m m m , I <Xz.l.{.{.z.z.{.{.x.c.j.j.OX< e y r t t t e e t t h m , f.z.k.z.z.z.z.z.x.x.x.{.c.;XT b t y y y y e y y t e e > T }.z.z.x.k.x.z.j.z.z.k.z.{.M.< y y r t y t t m m y e m B <Xj.n.z.n.z.z.z.n.z.z.z.z.z.n.n.j.z.j.z.z.k.n.n.z.n.n.z.z.n.x.x.z.x.n.n.n.x.n.k.x.z.n.z.x.n.z.z.z.x.n.z.z.n.x.z.x.n.z.x.z.z.z.z.z.n.x.n.x.n.z.z.z.z.z.z.k.z.z.z.k.n.z.z.z.n.z.z.z.z.n.n.z.z.z.z.z.z.k.x.z.c.j.x.k.x.c.k.x.k.j.j.j.z.I.J.7X7X7X9X8X8X8X8X9X0X8X8X8XJ.J.9X9X9XbXJ.J.U.9XP.J.K.OXc.k.x.}.x.}.x.c.x.x.x.}.}.`.e.P P P P 5.P P P J P $.P P ",
"n.n.z.n.x.z.n.n.z.n.z.n.n.z.B.+ 7 7 8 8 5 w 9 9 9 7 9 9 < OXk.}.z.x.x.x.x.x.x.c.}.x.,XN g a w i a a s a a s s r ; B.z.x.z.z.z.x.x.l.x.x.x.}.:XE y g g j g g g s g g g s y T :Xl.k.x.x.x.x.k.k.}.k.k.].B.- g a a a s r s a s s r r e G.:Xn.j.k.z.x.k.x.k.x.x.j.+Xc k s j j j g g s f f g s e m.z.z.z.z.z.z.z.j.z.z.l.z.<XE r a s g f s s g s a w r r M +Xz.z.z.z.z.z.z.z.n.z.z.z.].; s f s s r s s r g w w m Z F.z.j.n.j.n.k.k.k.z.z.k.k.,XG h j f f j z j f f t f f f g f f f f f f f f j f j f f y OX{.k.k.z.k.x.x.x.x.x.x.x.OXZ r a f f f p j f f f a a e g.:Xk.k.k.n.n.k.x.k.k.k.k.{.E g j f a g a g s g r d a e T >Xx.c.j.j.x.k.x.x.k.k.k.{.M.0 j j s f j j s s s s d g M <Xx.x.k.x.x.k.x.x.x.x.c.z.OXM r a f j f f f g f f r j : M.|.x.x.}.x.x.x.x.n.z.n.l.:XS g a s f f s w m d m m w m C >Xj.z.z.l.z.z.l.l.z.z.j.].2X< s s j f s s g s g s s w e g.:Xz.z.z.n.k.z.x.x.x.x.z.|.W f f j j a j j j s j j a g W ].z.{.x.k.z.z.z.z.z.z.z.}.B.e j j g g s s g s s s s w D >Xn.j.z.z.z.z.z.z.z.z.z.n.z.z.z.z.z.n.z.n.z.n.z.z.z.z.n.z.z.z.z.n.z.n.z.x.x.z.z.n.z.n.z.z.z.z.n.z.z.z.n.z.z.z.n.z.x.z.x.n.z.n.n.x.{.x.n.x.z.}.n.z.z.n.z.z.n.z.z.z.n.n.n.n.z.z.n.z.k.z.z.n.z.n.n.z.k.z.x.x.x.x.x.j.j.j.k.j.j.j.l.j.n.F.J.6X0X0X0X0X0X0XqX0X0X0X0X0X0XeX0X0X0X0X0X0X0X0XqX6XJ.OXk.k.x.x.}.c.x.}.x.x.}.n.c.-X=X=X=X=X=X=X=X=X=X=X=X=X&X&X",
"x.z.x.z.n.z.z.x.z.x.z.z.z.:XD.& u 9 9 9 9 9 9 u 9 9 9 9 c +Xk.n.x.x.{.x.x.x.x.}.x.{.,XN s s a a a s a s s s g s w B.[.}.x.c.{.x.x.x.c.x.x.c.:XE e s s g s r g g g f s s m E |.k.x.k.c.x.k.x.n.x.k.k.{.M.5 s s s s a s w a a r s r w H.n.j.j.k.k.x.x.x.c.x.x.c.2X, k s f s f s j j s j j s y m.{.z.j.j.z.z.z.z.j.z.j.z.,XR r a i a a a a a a a a s a Z <Xl.z.z.z.n.z.z.n.z.z.z.z.OX, g w g s r r r s s d w w , F.n.n.k.j.k.k.n.k.z.k.k.n.>XD h t f f f f f j j f j g f j f f t z z f y f f y z r g M F.n.k.n.k.k.x.x.x.x.x.x.x.].Z g p f p p f p f a f j f t f.}.n.k.k.k.k.k.n.x.x.x.z.|.E g s a a a s s g s a a a t T 1Xx.j.c.x.x.x.z.z.z.z.k.z.M.- u u p a u u s w w s w m N OXz.k.x.z.x.k.x.x.x.x.k.x.].D g f f a f w f r f r f g t f.}.x.x.x.x.k.x.x.z.z.z.z.>XN k f a s f s s w d w d d w I >Xz.l.z.z.{.z.z.{.z.l.z.z.<X$ g a k s s k k k g g d s e M.:Xz.z.z.z.z.z.x.z.x.x.z.|.R w g j s a s a a j a a f t W >Xz.z.x.k.z.z.x.z.z.j.z.{.M.r s g s s s j s s s w s r D <Xn.n.z.n.z.n.n.z.z.z.z.j.z.z.z.n.z.j.z.z.z.z.z.x.z.z.z.z.z.z.z.n.x.z.z.n.z.n.z.x.x.z.n.k.z.n.z.z.n.k.z.z.z.z.z.z.n.n.z.z.z.z.z.z.n.x.{.z.n.z.n.k.z.n.n.z.z.z.z.z.z.z.z.z.z.n.z.z.z.z.z.x.x.z.z.z.z.k.x.z.x.z.x.j.j.j.k.k.j.k.j.j.n.I.J.0X0X0XtX0X0X0X0X0X0X0X0X0X0XeX0X0X0X0X0X0X0XqX0X0XJ.$X*X}.x.}.x.x.x.x.}.c.x.x.c.*X=X&X=X&X&X=X=X=X&X=X&X&X&X&X",
"n.x.z.n.x.z.z.n.n.z.z.n.z.:XD.> u i 9 u 9 9 9 u a 9 9 9 , <X}.x.x.x.x.}.x.x.x.x.z.z.,XN g f f w a a s g g s f f , Z.{.n.z.x.z.{.z.x.c.x.c.z.:XE y g j g j g j g g j f g r E :Xn.x.k.x.x.x.x.k.x.k.x.{.M.r f s g s f j f s j f j f , H.l.x.x.x.x.x.x.x.x.x.z.z.+X, a j p j s a j j j s j s y m.{.j.z.j.z.z.z.j.j.j.j.j.>XR z a a a a u s s j j a s g N <Xz.z.n.z.{.z.z.z.x.}.k.z.OX, g a a s g a g w r f f g M OXl.j.n.j.k.k.k.k.z.x.k.k.>XB g g f j j z p f f j f f j f f f f f f f f f t f y f g M XXn.k.x.}.x.n.x.x.x.x.x.x.].M k f f f f f j a p p p p b f. Xk.k.k.k.k.n.k.k.n.k.k.:XW h g a a s r s s g a a g t T >Xn.j.j.l.k.x.x.k.x.z.z.|.Z.: f g s a a j f f a f a t S <Xz.z.x.{.z.z.k.x.x.x.x.x.+XA r f f f r r f p f y f z y M.:Xx.k.k.x.k.x.x.x.x.x.x.,XN g k s s s j s a j j f s r T >Xx.j.z.z.z.{.l.].z.z.j.z.<X< l j s f f j s j f j j f e M.{.x.z.x.k.c.x.x.k.}.}.k.}.e.r f s j f s f f s f g w m T :Xx.j.k.k.z.x.z.z.z.z.j.z.d.m f j f s a g g s s g s r D >Xj.j.n.z.n.z.x.z.k.z.z.n.z.n.z.z.z.z.n.z.z.z.z.n.z.n.k.z.z.z.n.z.z.z.n.z.n.z.z.x.z.n.n.z.x.z.z.z.x.n.z.n.z.z.n.z.k.k.n.z.z.z.n.n.z.{.z.z.z.z.z.z.z.k.z.z.z.z.z.z.n.z.x.z.z.z.n.k.z.z.z.n.z.n.z.z.z.x.x.x.z.x.x.x.k.k.k.k.k.j.j.k.j.OXJ.6XtXtXqX0X0X0XqXqX0X0X0X0X0X0XqX0XtX0X0X0XqX0X0X0XJ.OX}.x.x.}.x.}.x.x.x.x.}.x.}.*X*X&X&X&X&X&X&X&X&X&X&X&X&X&X",
"x.n.z.x.n.n.z.x.z.z.z.k.z.z.H.> 9 9 9 6 9 u 9 9 9 9 9 q c +Xz.x.x.x.x.x.x.x.x.}.k.k.,XD t a s a s f a a s f s f y Z.{.z.z.z.x.x.{.x.z.x.z.z.{.d.y g j j g s g s g s g g m T :Xn.x.x.x.x.x.x.k.x.x.x.z.B.y f a f f f s f f f f f j e H.z.x.x.k.x.x.k.k.k.x.z.z.2X, f j j a j k k j j z g s e m.:Xl.j.z.j.z.l.j.j.j.j.j.{.R y j p j s s j p a a u j w D >Xz.z.z.z.z.n.z.}.z.x.x.z.XX, s r g a s r s r s s a g y OXj.n.n.j.k.n.k.x.}.x.k.j.1XN r z t j p z f z z f t f z z t z f z z t f t j f j f z M /.k.k.x.x.x.x.x.x.x.x.x.{.OXZ w f a a p p a p j j p j y f.;Xk.k.n.k.k.k.n.k.k.k.k.|.T t a a a s r s f s a a a h W :Xn.j.z.j.x.c.z.x.z.c.c.}.B.- a a s j j p a a a a s g D ].k.z.x.x.k.x.x.k.k.x.k.x.].S h r f p f u p q f p p f y h.}.k.k.k.x.x.x.x.x.x.x.z.>XB g s f f a j j j s j a g m T ;Xz.l.z.z.z.z.z.z.z.z.l.v.2X, f s f s j a j f j j a j y B.}.x.x.x.k.k.x.x.k.c.x.k. XE r a a s s f s f s s s w t t.|.}.k.k.x.z.z.z.z.z.z.z.:Xf.t j a s a s s a a s s s g G <Xj.n.z.x.z.z.n.n.z.n.z.z.z.j.z.n.n.z.z.k.z.z.z.k.z.k.z.z.z.n.z.z.n.z.z.k.x.z.n.z.x.z.z.z.x.n.z.n.z.n.z.z.z.z.z.z.n.z.n.z.z.z.z.k.n.k.n.z.x.n.z.z.n.z.z.z.n.n.z.z.z.k.n.n.z.z.z.z.z.z.z.z.z.z.k.z.z.x.x.x.k.k.k.j.c.k.k.j.j.k.j.k.z.$XJ.0X0X0X0X0XqX6X6XqXqX0XqX0X0XeX0X0XqX0X0X0X0X0X0X0X9XOX}.x.}.n.x.x.x.x.}.x.c.x.}.}.*X&X&X&X&X&X&X&X&X&X&X&X&X&X",
"n.x.n.z.z.z.z.x.x.n.z.k.k.:XH.> q 9 7 u u 9 u 6 9 u 9 q c <X{.k.x.}.x.}.x.x.x.x.k.:X;XD g a s a s a s s s f s g , B.z.z.z.z.z.z.x.z.x.x.c.x. Xt.t s g g g g g g g s g g m i.:Xk.k.n.x.x.x.x.k.x.x.n.{.g.y g j s j s s f s f g a f e Z.z.x.k.x.x.k.k.n.k.z.z.z.,X< g j j j j f z j j j k g y d.:Xz.j.j.j.z.z.z.j.j.v.x.{.T y a s f s p p j a j a g g S |.l.z.n.z.z.k.z.z.z.x.j.{.F., r g s a g s a s f f g f c OXk.n.j.k.k.k.x.x.k.x.x.k.,XN r g z f z p z t f z j f f f f f f j j f f f f t f j h c (.n.k.n.x.x.x.n.x.x.x.}.x.OXb h j f a j a p a p p p j y g.:Xk.n.k.k.x.k.k.k.k.k.k.}.E t a a s s s s s f j f a g T {.k.z.z.z.x.k.x.x.z.j.j.{.B.: a f p p u p a a s w a r Z ].j.x.z.x.x.x.x.x.j.x.k.x.].N z f f r p f p z q f f s : B.:Xj.x.k.x.c.x.x.k.x.x.z.;XD k f s j a s s a p a a s y T {.j.j.z.{.z.z.z.z.z.z.j.z.<X, g s f f g j j j p s j j : M.{.x.x.c.k.x.x.k.k.x.x.l.|.E e a j f s j f j f s f s t E :Xj.n.k.x.x.x.z.z.z.z.z.].d.r g a s g s g g s r s a r I :Xz.j.z.z.k.n.z.z.z.z.z.z.z.n.z.n.z.z.z.z.n.z.z.z.z.z.z.z.z.z.z.n.z.z.n.k.z.z.n.x.n.z.k.n.x.z.x.z.n.z.z.z.z.k.z.z.n.k.z.n.z.z.z.x.x.x.z.z.n.z.n.z.z.z.z.n.z.z.z.z.z.z.z.x.x.n.z.z.z.n.z.z.z.z.x.x.k.z.z.x.k.k.k.j.k.x.k.k.j.k.j.z.{.$XJ.tX0X0XtX0XqX0XtXqX0X0X0XqX0XwX0X0X0X0X0X0XqX0X0X0XJ.$X}.x.n.x.x.x.x.x.x.x.}.c.}.}.*X&X&X&X&X&X&X&X&X&X&X&X&X&X",
"x.n.z.z.n.x.n.z.z.z.k.k.n.:XD.> 9 u u 9 9 u 7 u 9 9 u 9 Z +Xz.n.x.x.n.x.x.x.x.}.z.z.>XG w s s f s a a g g s g s e B.v.z.z.z.x.{.{.l.x.x.c.x.{.d.y j k k j g j s j g j k m T :Xn.k.x.x.x.x.n.k.}.x.n.{.B.- g s a a a f g s f s g s e C.x.k.x.x.x.k.k.k.k.k.z.z.2X< f j j k j j j j k j g g y d.:Xz.j.j.j.z.j.j.z.j.j.j.{.T r a u u j p j s j j a s r D :Xz.z.{.x.z.z.z.:Xz.z.z.x.D.> s s g g s g g g f s g g , OXj.k.k.k.k.n.x.x.x.n.k.k.>XN g f f p z z f f f f t f z f f z t f f z z f f f t f f c '.k.k.x.x.x.x.x.x.x.x.x.}.].Z r j f f a j j j j j p f e B.n.k.k.n.k.n.k.n.k.k.k.k.:Xt.y g s a r s s a f a a r r T {.x.k.z.z.z.x.k.j.x.k.c.x.B.5 r a a a s s a a s a s r M OXz.z.x.x.x.x.x.z.x.x.k.x.].S r j p f p p f f f f f a ; h.}.j.j.k.k.x.k.x.x.c.x.j.;XB f s a a j a j j a a d w m E ].n.z.x.z.z.z.z.z.z.z.z.z.OXM s f s j s p j p j j p k 5 Z.c.z.x.x.x.k.x.x.x.x.x.n.{.E r f j s a f s s s g s a e i.:Xj.k.c.x.x.x.:Xz.z.z.j.{.d.y k r s s a a s a r s d g D :Xj.n.z.k.z.n.z.z.z.z.j.z.z.z.z.z.z.n.z.z.z.z.n.z.z.z.z.z.k.n.z.n.z.z.z.z.n.z.z.z.n.z.z.z.n.k.n.z.z.x.n.z.n.z.z.z.z.z.x.z.z.z.z.z.z.n.n.z.z.z.z.z.z.z.z.k.z.z.k.n.z.z.z.n.k.z.n.z.z.n.z.n.z.z.z.n.n.x.x.x.k.k.k.x.x.x.k.k.k.k.j.l.z.$XJ.0X0XtX0X0XqX0X0X0X0XqX0X0X0X0X0XqX0X0X0XeX0X0X0XtXJ.OX}.k.}.x.}.x.x.}.x.x.x.}.n.*X*X&X*X&X&X&X&X&X&X&X&X&X&X&X",
"n.x.n.z.z.n.z.z.n.x.z.n.n.:XD., q 7 9 u u 9 9 9 u 9 u 9 , OXn.x.x.n.}.x.}.}.x.x.x.k.>XG r s s w a a s r s g s g e B.z.z.z.l.z.z.x.z.z.{.}.k.:Xi.e m g k s g s g z g j g y T ;Xn.k.n.x.x.x.n.x.x.x.x.}.B.: g k s s a f j f f g s g 0 B.n.k.x.x.x.x.x.k.x.x.x.}.,X, z k s j j j j f j k z g , N.{.z.j.j.l.z.j.z.z.j.z.v.:XW r a a j a p p p j u u a g S <Xz.x.x.}.}.z.z.z.z.z.z.x.OX, g g g g a g s g f f f g , ].l.n.k.x.n.k.x.x.x.x.k.k.>XN g g f f f p f z f t f f z f f f f f t z f f f f t j h c F.z.k.x.x.x.x.x.x.n.x.}.x.OXZ r f j u f f f j p p p f , C.{.n.k.k.n.k.n.k.n.k.k.k.;Xt.t s s r s g a s a a j a r T ].x.x.x.x.x.z.x.x.z.k.z.z.B.e a a a a s u a a a a s f M OXj.x.z.x.x.}.x.c.x.x.x.x.|.N p p f f f p f f f f f f : h.{.k.j.k.k.x.x.x.x.k.x.j.<XD g a a a s a s s j s i a e E :Xx.z.z.z.z.z.z.z.z.z.z.z.2XM g f s k s j j j j s j f - Z.l.z.z.x.x.x.x.x.x.x.x.j.:XE e s s g a s j s a s s f - i.{.z.k.x.x.z.x.z.z.z.z.j.{.d.e s s s s g s a s s r s g D :Xn.j.z.x.x.z.x.n.z.z.z.n.z.z.z.z.z.n.z.z.z.n.z.n.z.z.z.z.z.z.n.z.n.k.z.z.z.z.z.n.z.z.z.n.z.n.z.n.z.z.z.z.z.z.z.z.z.n.z.n.z.z.n.n.z.x.z.z.k.z.z.z.z.k.z.z.z.z.n.k.z.z.z.z.x.n.z.x.n.z.k.z.x.x.x.n.x.x.x.x.k.k.k.x.x.x.k.k.k.k.j.j.n.$XJ.tX0X0XtX0X0X0X0X0X0X0XqXqX0X0X0X0XqX0XqX0X0XqX0X0XJ.OX}.x.}.x.x.}.x.c.x.x.c.x.x. X*X&X&X&X&X&X&X&X&X&X&X&X&X&X",
"z.z.x.z.z.x.x.n.z.x.z.z.z.:XB.$ r u u 6 6 u u 6 9 9 7 q Z OXn.x.x.n.x.x.x.x.}.x.k.:X>XP w a a d a s a a s s g g y B.}.z.z.{.z.z.{.x.{.c.}.z.{.f.e s g g g g g j k g g g y T ;Xn.n.k.x.x.x.x.x.x.x.k.{.C.- s k a f j f s s f s g f : B.{.n.x.x.x.z.x.x.x.x.n.x.2X, h j j j j j j z j j j g y M.:Xj.j.z.z.z.j.j.j.j.z.n.].R r a f p f / p j p a j a t D >Xj.z.n.x.n.z.:Xx.z.k.z.x.F., a s a s s a a g r f f j , OXj.j.k.x.x.x.x.x.k.x.n.n.>XM g f r f f z f f f f f f z f z f z z j f j t h f z j f c D.x.x.}.x.x.x.x.x.x.x.x.}.OXZ r f j a f f a u f j j f e Z.z.k.k.k.k.k.k.k.k.x.k.k.}.f.y r a s s a s g a f j s r T  Xx.x.x.x.x.x.x.x.x.k.k.z.B.e g a a a s s f a a u a f c OXc.x.z.[.x.x.x.x.x.x.x.}.+XS z z p r p f f f p p f f , M.}.k.x.z.c.x.k.x.x.x.k.x.:XW g a a a j a a p p a s j w E :Xz.x.z.z.z.z.{.{.z.z.z.x.,X, s s f a a a s p j j z s - Z.c.x.z.x.x.x.x.x.n.}.x.z.{.E r j r s a a j j j a f f r g.:Xk.k.x.z.z.x.z.n.z.z.j.:Xd.r j r s g s a s g s s s r I <Xk.k.z.z.z.n.z.n.z.z.z.z.z.n.k.n.k.z.n.z.z.z.z.z.z.z.z.z.k.z.n.z.z.z.z.z.n.z.z.z.z.z.z.z.z.z.z.z.z.n.x.z.z.n.z.z.z.z.x.z.k.n.z.z.n.z.z.n.z.n.n.z.z.z.z.n.z.k.z.z.z.n.n.z.z.z.z.z.z.z.z.n.z.n.x.x.x.x.x.x.k.k.k.x.x.x.k.k.j.k.j.j.z.$XJ.0X0X0X0X0X0X0X0XqX0X0XqX0X0X0X0X0X0X0X0X0X0X0X0X0XJ.$X}.x.x.}.x.n.}.x.}.x.}.x.}.}.*X&X&X&X&X&X&X&X&X&X&X&X&X&X",
"z.n.n.z.z.n.n.z.n.k.z.n.z.{.D.> 9 9 9 9 6 7 u 9 9 9 u 9 M +X}.{.x.}.}.x.x.x.x.x.k.n.>XG g s a a a s a s s f g g y B.x.z.z.z.z.{.{.l.x.c.x.x.}.t.e w s s k g k g j k g l m E ;Xn.n.n.x.}.n.}.x.}.n.k.z.Z.: g j s a j f s j s s a j e C.z.x.x.x.x.z.x.z.x.x.x.z.2X, z j j j j f j j k z j g y m.:Xz.j.z.j.j.z.z.j.j.z.z.|.R r u g p p p j a s a a a g D +Xx.x.z.z.z.{.x.z.n.x.z.x.OX, r s g s g a g s g f f z , OXl.z.k.x.x.x.x.k.x.x.x.x.>Xc f f f f p z z r f f f r r f f t f z f t f z z f z f t , F.x.n.n.n.n.n.}.}.x.x.}.}.OX, g f a j a j f j u f f s e B.n.k.k.k.k.x.n.k.k.x.k.k.|.m.y a a a a a s s f f f a r T  X{.x.x.x.x.x.x.x.x.x.x.{.B.e s a a a a a a a s a a j Z OXc.x.x.x.x.x.x.x.x.x.x.x.OXN r p f p f f p f q f r j e B.|.k.k.z.x.k.k.x.x.x.x.j.;XI j a j a a f a a a s p j 9 E <Xk.x.x.z.z.z.z.z.z.{.k.{.,XM g f s j a j s a j j f z e Z.{.k.k.x.x.x.x.n.x.x.x.z.:XE e s s a s a f a a f j f t t.:Xx.k.x.x.z.{.z.z.{.n.n.].d.y j f f f g s s d s s s r D >Xz.n.z.z.z.z.z.z.n.z.x.z.z.x.z.z.n.z.z.z.z.z.z.z.z.z.z.z.z.z.z.n.z.z.z.z.z.z.z.z.k.z.z.n.z.n.z.k.z.x.n.z.z.z.z.z.z.n.n.z.z.z.z.n.z.z.z.z.z.z.k.z.z.z.k.n.z.z.z.z.z.z.z.z.z.z.z.n.n.z.z.z.z.n.n.k.x.x.x.x.k.x.k.x.x.x.k.j.k.j.j.k.z.$XJ.tX0X0X0X0X0X0X0X0X0XqX0X0X0X8X0X0X0X0X0X0X0X0X0XwXJ.+X}.x.}.x.}.x.}.x.x.x.}.}.x.*X*X&X&X&X&X&X&X&X&X&X&X&X&X&X",
"x.z.z.z.z.z.z.z.z.z.z.z.z.z.D.# 9 u 9 u u 9 6 7 u u 7 9 , +Xx.z.x.x.x.x.x.}.n.x.n.n.>XD t a d w a a s g f s a s e B.:Xl.{.z.z.x.z.x.x.x.}.x.|.d.m m m g j g g j h k g m , i.;Xn.n.x.}.n.n.n.n.}.k.n.z.H.- f j a j s f f f f f j j , Z.{.c.x.x.c.x.x.x.x.z.x.z.2X, k j f z j j j j z j j r m m.}.z.j.z.z.z.z.j.z.j.l.z.|.T 9 u a p ^ f j a j a j f f D +Xj.x.z.z.z.z.z.n.z.x.k.{.OX: f a g g f f f f a f r g y OXz.z.k.z.x.x.k.x.x.x.}.}.,Xc y j f f f f z f f f f f f z f z f f z j z f z f g f w , F.}.}.x.n.}.x.x.n.}.n.}.}.+XF t f a a j f a p j f f a , B.n.n.k.k.n.x.k.k.z.x.k.k.;Xd.t g a a a r s f s j s s 5 W |.x.x.x.x.x.x.}.x.x.x.z.}.H.; w a u i u a a a i a a z , ].}.x.x.x.c.{.c.x.x.x.x.c.+XM z p s p p f f f f f f j y g.{.x.x.}.x.x.x.x.x.x.x.x.;XW g a a a a a j s a p a j r t.;Xn.x.z.{.z.{.z.x.x.z.x.|.+Xc j f a a j a j f j j j f e Z.}.x.x.n.x.x.x.n.n.n.k.z.>XE 5 f s g a p f j j a f f t f.;Xk.k.x.x.z.x.n.:Xz.z.n.].d.t j f s f s g s d r w d m G >Xz.z.z.z.n.x.n.x.z.z.z.n.z.z.n.n.x.z.k.z.n.z.n.k.z.n.n.k.n.z.z.z.z.z.z.n.n.k.z.n.z.z.z.z.z.z.z.z.z.n.z.z.z.z.n.k.z.z.n.z.n.x.z.x.z.n.z.z.n.z.n.z.n.z.z.z.z.z.k.z.z.n.z.z.z.z.z.x.z.z.z.n.x.z.x.k.x.x.x.k.k.n.k.k.x.x.k.n.j.k.j.k.n.$XJ.tXqX0X0X0X0X0X0X0X0X0X0X0X0X0X0X0X0X0X0X0X0X0X0X8XJ.*X}.x.}.x.x.}.}.x.x.x.}.c.c.}.*X*X&X&X&X&X&X&X&X&X&X&X&X&X",
"n.n.z.z.z.z.k.x.x.x.k.x.n.x.D.; 9 9 0 9 9 q 9 p q q 7 0 c +X{.z.}.x.x.x.z.n.z.k.n.n.1XG g s a s u a j k j j g l e M.[.j.j.x.[.x.x.c.x.c.x.c.:Xd.m r g m g g g t l z l t y E ;Xn.n.n.n.n.n.}.n.x.n.z.z.H.e h j j z j f f j j f z k y G.[.x.x.l.z.c.x.x.c.x.{.:X,X, h f f f j j t z z f j z y m.].l.z.n.:Xn.z.z.l.z.j.z.OXW u a g j a p f z p p z p z S  Xj.k.j.z.k.z.z.z.l.z.k.n.F.t h g h r r f f g w g g g , F.n.n.j.n.:Xn.k.k.c.x.[.{.,XN t z z z f r f f y z y f h r h f r h z h g g g h f h h M F.{.{.{.}.z.x.x.z.x.}.:X}.+XA z z f f z f f j j j r k 0 B.k.z.z.z.z.}.z.z.z.n.n.j.n.f.t g w g r s j s g f s g e I :X{.x.}.x.n.n.}.z.l.z.z.}.Z.0 g a w a a g f s f s a g , OX|.z.k.x.x.:Xk.x.n.x.x.:X].S y p p p f p f r r w f f 0 f.{.x.z.z.x.z.n.z.j.k.j.k.;XR r s r g g s f s g f r s a E :Xn.z.k.:Xn.k.z.z.z.z.x.:X<X, g f f u j z p z j j f f 5 B.}.n.k.n.:Xn.}.:Xn.z.k.}.,XE e r a s a j f f f j j r t f.:Xz.:X}.z.z.x.{.l.n.z.z.].d.t k g s g g r m w s g g t D <Xn.k.z.z.n.n.z.z.z.z.z.z.z.k.n.z.z.z.z.n.z.k.n.z.z.z.z.n.n.z.z.z.j.n.z.z.z.z.n.n.z.z.z.z.n.n.z.z.z.z.z.n.z.z.z.z.z.n.z.n.z.z.z.z.z.z.z.z.k.n.z.z.z.z.z.z.z.z.n.z.z.z.z.n.z.z.z.z.x.n.z.x.n.z.z.z.z.n.k.}.n.k.k.x.k.k.k.z.z.z.j.n.n.$XJ.8XtX0X8X0XtX0XqX0X0X0XqXeXtXwX0X0X0X0XqX0X0X0X0X0XJ.OXn.n.x.}.x.x.}.x.x.x.}.x.x.}.&X&X&X*X&X&X&X&X&X&X&X&X&X&X",
"n.x.z.n.n.z.n.x.x.x.x.x.k.:XC.O - ; & & : : ; : & > = : c %X>X:X>X;X;X+X>X;X>X;X;X;X,XD e y e y t e e e e e e q ; M.3X|.>X|.,X>X|.+X>X>X;X+X3XN.< m e e e : : m - y , y ; $.3X>X>X>X>X>X+X>X>X;X>X1X,XD.> e y e e : e t y y y r 0 $ XX+X}. X,X>X>X>X,X+X>X>X,X3X$ : : - > , e , , y , b , $ a.$XF.OX<X3X2X,X,X,X,X,X,X2XW * 5 5 - 0 e e 0 c : > 3 , G 3X3X,X,X,X,X<X,X,X>X>X>X,X$X# > > , , c , , , < : > $ < $X2X2X,X>X,X1X3X>X1X>X,X,X3XM > , $ $ > < b , c , , , , ; , , , < < , , < , , , , < M $X,X,X<X+X2X2X,X<X2X>X,X3X2XG c e : : : : , , , e , : $ B.;X|.>X,X,X2X1X,X>X;X>X,X3Xm.; , y y t t , ; & & - : ; T $X<X$X+X2X$X<X2X+XOX,X2X2XH.$ : : : > : : , : ; 0 - # M OX2X+X+X>X,X,X+X>X|.>X>X,X2Xc e 0 e y y y e e y , e e ; d.<X>X>X,X,X,X>X>X>X>X>X;X3XR , y e : e e e , e , ; e ; E 2X1X>X,X,X,X,X,X,X,X,X,X2X3X< e y y y b y y 0 y e e e $ H.<X>X>X,X,X1X,X1X,X,X,X3X3XE , e e 0 , e y e e e : : > f.3X,X,X,X,X,X,X<X>X,X<X<X2Xm.# : - ; , ; , : , , , , , C ,Xk.k.x.z.z.z.z.n.x.z.n.z.z.x.x.z.z.z.z.z.z.n.x.z.x.z.z.z.z.z.n.z.z.z.z.z.z.z.k.z.z.z.z.n.z.z.k.k.z.z.z.}.z.z.z.{.z.x.x.x.n.z.n.z.z.n.n.z.z.z.z.z.z.k.z.z.z.z.j.z.j.z.z.z.z.z.z.z.z.n.z.n.z.z.z.x.z.k.}.|.|.|.+X+X+X|.|.+X|.>X<X:X<X$XJ.8X8X8X9X8X9X9X9X8X9XJ.9X8XeX0X0X0X0X0X0X0X0X0X0X0XJ.OX:Xz.x.x.x.}.x.x.x.c.x.x.}.*X*X&X&X&X&X&X&X&X&X&X&X&X&X&X",
"x.k.n.x.z.n.x.x.x.x.x.x.k.:X|.).G.H.G.H.B.Z.Z.D.h.M.C.B.B.G A B G G K G I C C G I I T S.m.f.f.M.f.M.M.g.f.M.M.f.M.T G D G T W K W T G G K I K t.B.g.M.B.B.B.M.M.g.M.M.B.H.N.S D D N G R G T G C C N C E S.M.g.g.f.f.f.y.d.t.f.d.t.H.W D I K I G G G G G G N N B Z.F.G.#XXXD.G.D.G.XXXXoXOXI.N O o $ < v M v M c < v M , I m.m.M.M.M.M.g.p.S.p.p.S.M.M.N S M M M S N N N M N N S G $X<X$XF.OXOXF.F.OXOXOXOXOXI.M < v M N N N M M M M M M M B.I.2XOXOX$X+XOX+XOXOX+XOX+X$X$XOXOX$X$X$XOXOXOXOX$X+XOXH.> $ $ $ $ $ $ $ $ < $ < < v S.H.A.D.D.D.G.H.C.Z.C.B.B.Z.R G B B N N N N M N B N B N N.G.Z.C.h.B.B.H.G.F.G.G.F.H.R $ $ $ $ < v < < v v v < v E $XOXF.OXF.F.F.F.F.F.F.$XF.H.< , v c M S B G G N N S B I E f.g.g.f.g.g.f.f.g.g.f.h.Z.W S N B B G G W I I I T E t.g.B.B.B.B.B.B.B.B.B.B.H.Z.Z.m.M B B M N M M N D D D B M M N.B.M.g.M.g.g.f.g.M.M.g.B.f.W M Z M N N N N D D N B M M E Z.B.M.M.B.M.g.B.g.B.M.B.Z.I c c N M N N c M v < < M M E $XF.F.F.OXF.F.F.OXOXOX$XOX].:Xn.k.x.n.z.z.n.:Xk.n.x.z.z.n.z.n.z.z.z.z.z.z.k.n.n.z.z.z.j.z.z.z.j.z.z.n.z.z.z.z.n.z.z.z.z.n.z.z.n.n.:Xk.{.n.z.}.n.z.z.n.z.x.x.z.z.z.n.z.z.z.z.z.z.z.k.n.j.z.z.z.n.z.z.n.z.z.z.z.n.k.z.z.n.n.n.z.k.n.|.Z.P.K.K.K.K.K.K.K.K.K.K.U.K.U.U.I.I.$XI.$X#XI.I.F.I.#XI.U.9XwX0X0X0X0XpX0X0X0X0X0XJ.+Xx.x.:Xn.}.n.x.x.}.k.x.}.k.*X*X&X&X&X&X&X&X&X&X&X&X&X&X&X",
"x.:Xk.x.x.x.z.k.x.x.x.x.x.x.n.n.x.x.c.z.x.}.}.}.n.:X:X;X$X> 3 5 - 0 5 e 5 e 5 5 @ ; # $X|.}.}.{.{.x.z.{.z.:X|.{.,XG = 4 0 - 4 5 = - - = 0 5 # T <X:X].l.l.v.z.].}.n.:Xn.|.E ; = * % * * 4 4 5 = - - & G 1X|.}.}.}. X}.}.}.[.x.l.v.].c 3 = = 5 - 3 0 0 q 5 * @ # XX X X X_._.l._.v.[.l._.[.+XS % 4 4 4 0 e e 5 5 0 0 = - $.+X[. Xc._.v.[.c.c.c.!.`.`.XX$ 9 u q r r r e 5 e w r e N >X{.x.l.c.c.c.l.z.v.j.{.l.|.$ % * 5 5 ; : 0 - ; * * - o F.:Xz.n.j.l.c.j.c.x.c.c.c.z.z.z.c.c.z.x.c.}.x.x.x.x.}.|.F.: 5 2 6 8 9 8 w 5 9 4 4 4 < F.|.{.x.j.c.j.z.{.}.{.{.k.:XD @ - 5 r r r q r r w w w = M.:X{.z.j.v.v.l.x.{.z.j.z.{.m.@ = * 4 5 5 q 0 5 q 3 : : G +X{.z.z.v.c.j.z.z.{.z.{.{.F.; 3 3 5 - 5 4 - 4 5 * - 4 $ OX>X:Xn.n.n.:Xn.n.n.n.n.n.,XD - 8 5 5 r w 0 0 - - ; - < B.:X:X:Xz.z.z.k.:X:X{.n.n.|.m.@ * - r w w w w w 4 4 9 4 # 2Xz.:X}.{.c.}.}.}.}.:X:X:X>XG * = 5 5 5 0 e 0 5 - ; - > M.;X{.{.{.c.z.c.].z.[.{.{.|.G # 5 5 ; 5 5 r 9 5 5 5 4 ; E OX:Xn.z.{.:Xn.:Xn.n.{.z.z.k.k.k.k.x.x.n.n.x.x.k.k.n.z.n.z.z.n.x.n.n.z.z.z.z.z.z.z.n.z.n.z.z.z.z.z.k.z.z.z.z.z.z.z.z.z.z.z.n.z.z.x.z.z.z.z.z.n.z.z.z.z.z.n.x.z.n.n.z.z.z.z.n.z.z.z.z.z.z.z.n.z.z.z.z.z.n.x.n.k.z.z.z.z.z.k.z.z.z.n.|.K.J.8X8X8X8XeX0X8X8X0X0X0X8X7XI.+X}.{.|.}.{.}.{.{.}.}.}.$XJ.8X0X0X0XqX0X0X0X0X0X0XJ.OX{.k.n.x.}.x.x.}.x.c.c.x.c.c.*X&X&X&X&X&X&X&X&X&X&X&X&X&X",
":Xx.n.x.z.x.n.x.x.x.k.x.z.k.j.n.n.k.n.n.k.k.k.n.x.x.n.n.OX> 3 3 8 8 8 9 u u 9 9 4 4 < +Xz.{.z.z.x.x.c.x.c.k.z.x.>XD 7 2 4 2 2 6 6 2 6 7 4 1 % R ].j.z.c.z.l.l.z.z.z.l.j.|.W - 8 9 5 3 2 2 2 6 2 2 2 - G |.[.c.k.k.c.c.k.c.k.c.c.c.OXv 3 8 2 9 = = 2 3 + 3 3 + O oX Xc.c.l.l.l.l.c.[.c.[._.+Xb x x 7 6 6 6 6 2 2 2 2 * & q.[.v.c.c.c.v.v.c.v.v.v.c.v.H.# 3 3 9 9 9 9 2 2 3 9 4 w N <Xj.z.j.z.z.z.j.j.k.j.j.j.].> 5 5 3 3 2 4 2 3 4 4 2 3 O G.z.n.n.n.n.k.x.x.x.z.z.{.z.x.k.z.z.z.z.x.x.x.x.c.x.x.j.F.; 1 1 1 6 6 2 2 4 2 4 5 5 , D.j.j.j.k.k.k.j.j.j.j.j.j.:XD 4 9 5 5 5 5 5 5 4 4 5 5 ; M.z.n.k.j.j.j.j.k.k.k.k.k.n.t.o 4 4 8 4 5 4 4 2 3 2 4 - I :Xk.z.z.z.k.n.j.k.z.z.j.j.D.; 6 6 2 2 4 6 6 2 2 2 6 5 > F.j.k.x.k.k.j.n.j.j.j.k.n.:XD = 4 5 5 8 9 9 9 9 w 5 e , D.j.j.k.j.c.z.k.x.x.k.k.k.z.t.# 4 4 4 8 8 6 2 4 1 2 6 @ # $Xn.k.k.k.k.j.j.k.c.c.k.c.;XD + 2 3 3 2 2 2 2 2 2 2 3 : f.z.z.c.j.j.k.z.j.j.c.z.x.|.G - 8 2 2 4 4 3 4 4 4 w 4 - E :Xn.k.k.k.x.x.x.k.x.x.k.k.z.k.z.z.x.n.x.x.n.z.n.z.z.z.z.x.z.n.z.x.z.n.x.n.z.z.n.z.k.z.z.z.z.n.j.z.z.z.n.z.k.k.z.z.z.z.z.z.z.n.n.x.x.{.n.z.z.n.z.z.x.n.z.z.x.z.z.z.z.z.n.z.z.z.k.z.k.n.z.z.j.z.n.z.z.n.z.x.n.x.n.x.z.z.z.z.z.z.z.k.+XK.8XtX0X0X0X0X0X0XtX0X0XtXtXJ.I. X}.c.x.x.}.c.z.{.x.}.[.$XJ.wX0X0XtX0X0X0X0X0X0X0XJ.OX}.}.x.x.x.x.x.x.x.x.x.x.k.*X*X*X&X&X&X&X&X&X&X&X&X&X&X&X",
"k.n.z.z.n.z.z.x.x.x.x.x.z.j.n.n.z.z.k.k.k.k.k.k.k.n.k.n.].> 5 5 8 4 8 8 6 8 9 9 8 w , <Xj.z.l.z.z.z.z.z.z.x.k.x.>XK 9 6 6 6 6 6 6 7 6 2 8 4 * R <Xj.j.c.l.z.z.z.].{.c.c.|.W o 9 7 9 6 2 * 3 2 6 2 2 = C >Xl.x.c.c.c.x.c.c.c.c.x.k. XB : 4 * 3 3 3 3 6 6 3 7 + O oX_.c.v.l.l._.l._.v.v.v.c.`.B + x x 6 x 2 6 6 2 2 2 2 : u.l.v.c.l.l.c.v.v.c.c.c.l.v.C.> 5 4 4 5 9 4 7 9 9 9 8 0 B :Xj.j.j.j.j.j.j.l.j.j.k.j.OX< 5 9 2 3 5 5 5 3 = 4 3 0 O XXj.n.n.{.n.k.z.x.z.c.z.z.z.x.x.z.x.x.z.z.z.c.z.x.x.z.j.D.; 6 6 6 8 6 6 6 6 2 4 5 5 < D.j.j.j.k.x.k.j.j.j.j.j.n.:XD 4 9 5 5 5 9 5 5 w 8 5 4 ; M.{.j.k.j.j.j.j.j.k.k.j.k.z.N.o 2 9 3 9 5 3 5 5 4 8 2 - I n.j.k.j.j.z.z.l.j.z.x.j.n.F.; q 3 2 2 - 3 2 3 4 4 5 5 , OXj.j.x.k.j.j.j.n.j.j.j.z.|.I 5 8 9 5 9 9 9 9 5 5 5 5 y B.z.k.k.j.j.z.k.k.z.k.k.k.:Xt.; @ 8 4 9 9 9 9 4 4 6 8 - $ +Xz.k.k.j.j.k.k.j.j.k.k.n.|.D 3 9 9 5 3 3 3 3 = 3 2 = > f.:Xz.j.j.j.j.j.j.j.j.j.j.}.G : 2 1 2 2 2 2 4 4 4 w 5 ; E n.z.k.n.j.z.z.k.n.n.k.}.x.x.z.k.z.}.z.z.n.z.x.z.z.z.n.n.z.z.z.n.z.k.z.z.z.z.n.z.z.z.z.z.z.z.k.z.z.z.z.j.z.z.n.z.z.z.n.z.z.x.z.z.z.z.z.x.x.x.{.z.z.z.z.n.z.n.z.z.z.z.n.z.z.z.z.z.z.z.z.z.n.z.j.z.z.z.z.n.z.z.z.z.z.z.z.n.n.n.z.x.x.>XK.0X0X0X0XtX0X0X0X0X0X0X0XtX7XI.|.x.x.x.}.x.c.x.{.x.c.}.+XJ.8X0XwXwX0X0X0X0X0XwX0XJ.OX}.x.x.x.x.x.}.x.x.x.x.x.x.}.*X&X&X&X&X&X&X&X&X&X&X&X&X&X",
"n.x.n.z.x.z.x.x.x.x.x.k.z.k.x.x.k.k.k.k.k.n.k.k.k.k.k.k.,X, 9 9 8 8 4 9 9 8 5 4 4 9 < +Xj.z.c.z.x.c.x.c.x.c.x.x.1XY - 2 x 2 2 2 2 2 2 4 6 2 = E ;Xz.l.z.x.z.z.x.j.z.z.j.>X$.: 9 7 2 2 2 2 4 2 2 @ 4 0 G +X}.c.c.c.x.c.c.c.c.l.l.v.>XD e 5 2 2 2 * 2 3 3 3 x 3 O @X Xc.c.c.[.c.[.l.l.l.l.v. XD = 6 2 2 2 2 2 2 2 2 4 2 & a.|.l.[._.l.v.l.c.c.v._.c.l.A.: 5 9 9 8 9 8 9 u 8 8 4 e N ,Xz.j.j.k.j.c.j.c.k.j.j.x.OX$ 4 2 2 6 6 6 6 9 4 2 4 5 O F.j.j.n.x.k.k.x.c.z.z.z.z.x.x.z.{.x.z.z.c.c.j.c.j.k.j.j.D.> 2 1 1 6 6 8 6 6 8 4 6 9 c D.v.k.z.x.c.c.j.j.j.x.z.z.>XG 4 5 5 5 9 9 9 4 5 4 - 5 e M.x.j.k.j.j.j.j.j.j.j.j.z.x.M.& 3 3 3 3 3 3 - 3 4 4 4 - I ;Xk.k.z.z.z.z.k.k.x.x.j.n.OX, q 2 2 6 2 6 2 4 4 4 4 5 c ].k.k.k.k.j.n.n.j.j.j.n.k.>XW - 8 4 5 4 5 5 5 5 5 5 5 , B.x.k.x.x.x.x.c.x.x.x.x.x.{.m.; 9 4 8 9 8 8 7 4 4 4 8 4 < <Xz.x.c.j.j.c.x.c.j.k.k.j.;XG 0 3 3 2 3 5 2 2 * 6 2 5 : d.z.z.z.j.z.j.z.j.j.j.z.z.;XG ; @ 2 2 * 4 4 4 4 4 4 4 - E n.x.n.n.z.k.z.k.x.k.x.k.z.k.k.k.z.z.n.x.z.x.n.x.n.z.z.z.x.z.k.x.z.x.z.n.n.x.z.z.z.z.j.z.n.z.z.z.z.j.z.z.z.z.z.z.z.z.z.n.z.z.n.x.n.z.{.}.n.x.z.z.k.x.k.x.n.z.z.n.z.z.k.n.z.z.z.z.k.z.z.z.z.n.z.z.z.z.z.z.n.z.n.z.n.n.z.x.x.n.z.z.z.+XK.tX0X0XtX0X0X0X0X0X0XtX0XtXJ.I.}.x.}.}.}.}.}.}.c.c.x.c.%X9XwX0X0X0X0X0X0XpXwX0X0XP. Xn.x.x.x.x.x.x.n.x.x.x.}.x.}.*X&X&X&X&X&X&X&X&X&X&X&X&X&X",
"x.n.z.n.x.n.x.x.x.x.x.x.x.x.x.k.x.x.x.x.k.k.k.k.x.k.k.x.,Xc 5 7 4 4 9 9 9 8 8 3 8 w < +Xj.c.z.z.x.x.x.z.x.x.x.n.>XI 3 2 2 2 2 2 2 2 2 2 6 3 ; R ;Xl.z.l.l.z.x.l.j.l.z.{.,XE - 9 2 2 2 2 2 2 3 2 2 5 7 C 1Xc.c.x.k.c.c.c.c.k.c.c.[.1XN 5 5 2 3 2 3 2 = = 3 3 0 O XX X_.l.l.c.[.c.l.l.l.v._.OXA 3 2 7 6 2 2 2 2 2 2 2 4 , a.|.l.l.l.v._.c.v._.v.c.v._.C.> 5 9 9 8 6 9 9 9 4 4 4 w Z ,Xv.j.j.k.l.j.z.z.x.j.k.}.OX< 5 8 2 6 2 6 2 3 4 4 4 5 # OXz.j.x.:Xk.}.x.x.x.x.x.x.z.z.z.z.z.z.z.z.j.j.z.z.k.z.n.D.: 6 8 6 6 6 6 7 2 2 2 2 5 c D.j.k.z.x.z.x.j.j.j.z.x.x.>XI 5 w 8 9 5 9 5 4 4 4 4 w : f.}.k.k.j.j.j.j.k.k.k.k.x.:XM.: 5 5 3 5 3 3 3 3 3 3 ; 0 I :Xl.j.z.n.z.j.k.x.k.x.n.:XXX, q * 6 2 2 2 6 2 4 4 4 5 , F.j.k.k.k.j.j.j.j.n.n.k.z.,XR - 5 8 9 8 9 9 5 5 5 5 5 , B.}.j.k.x.z.x.x.x.x.x.x.k.|.M.0 4 4 8 8 9 9 8 4 8 4 4 4 < <Xz.j.j.c.j.x.k.c.k.k.c.j.;XG q 9 5 5 5 2 3 = 4 4 4 - , f.:Xz.z.c.j.l.z.j.j.c.j.z.+XD - 2 2 2 * 2 2 4 4 4 4 4 e E :Xz.z.x.x.z.n.x.n.x.x.z.z.n.z.n.z.z.n.x.n.z.z.z.n.x.n.n.z.n.z.n.z.n.z.z.x.n.z.z.z.z.z.z.k.n.z.z.n.z.z.k.z.z.k.n.z.z.x.z.x.x.{.z.z.n.z.z.z.z.z.z.:X:Xk.z.z.z.z.z.z.k.z.z.z.n.z.:Xk.n.z.z.z.z.z.z.n.n.x.k.z.z.z.z.n.x.x.z.n.z.z.x.z.+XP.8X0X0X0X0X0X0XtX0XtX0X0X0X8XI. X}.c.c.x.x.x.x.x.x.c.[.@X9XwX0X0X0X0X0X0X0X0XwXwX9X*X}.x.}.x.x.x.x.x.n.x.x.x.c.*X*X&X&X*X&X&X&X&X&X&X&X&X&X&X",
":Xx.n.x.z.x.z.x.x.n.x.x.x.x.x.k.x.k.x.x.k.k.k.k.k.k.k.x.$Xv q 9 5 8 8 9 9 9 9 6 8 5 $ OXc.{.z.l.x.x.x.z.x.z.z.}.,XT - 2 3 2 6 6 6 2 2 2 3 2 = E |.c.z.c.z.z.x.z.c.z.x.{.,XE - 9 7 6 x 3 3 3 3 3 2 4 : G 1X[.c.c.c.c.c.c.c.j.l.c.}.*XN 0 4 4 6 2 * = 2 2 3 3 0 O $X X[.l.l._.c.l.l._.l.v.l.+Xb 0 3 7 x x 6 7 6 2 2 x 6 & a.`.v.[.!.c.c.!._.c.v.c.l.[.Z., 9 6 9 8 8 9 9 9 5 2 4 w M ,Xz.z.j.j.z.z.z.z.x.k.z.:X<X, 5 5 4 6 2 8 2 2 3 4 4 9 ; OXn.k.n.x.z.x.z.x.c.x.x.x.x.x.x.z.x.z.z.z.j.k.c.j.j.c.:XXX< 9 9 8 6 6 6 6 2 2 2 2 5 , D.n.z.z.z.z.z.z.j.j.j.z.{.,XI - 9 8 5 9 9 9 5 9 4 - 5 : m.{.k.k.j.j.j.k.j.k.j.j.x.}.t.: 5 5 4 3 3 2 3 3 3 2 = - I ;Xk.z.x.z.z.z.k.x.k.x.x.:XOX< q 2 2 2 2 6 6 2 8 2 5 5 , F.j.n.j.k.j.j.k.j.n.j.n.n.<XW e 5 4 8 9 9 4 5 5 9 5 5 , B.n.j.k.k.k.z.z.x.x.k.j.x.}.Z.- 9 9 6 6 8 9 2 2 9 4 2 5 $ OXx.k.j.c.k.c.j.x.c.k.j.x.1XG q 5 5 3 4 3 3 * 4 3 2 * , m.;Xz.x.z.z.x.c.k.x.c.x.x.1XD - @ 2 2 4 2 2 4 4 4 4 5 e t.;Xn.n.x.x.x.x.x.n.n.z.z.z.x.n.x.n.z.z.z.n.n.z.z.z.z.z.z.z.z.x.z.z.n.k.n.z.z.z.z.z.z.j.z.z.j.z.z.z.z.z.z.z.z.z.z.n.z.z.:Xz.z.z.z.:Xz.z.z.z.z.x.z.z.z.z.z.z.z.z.z.z.n.z.z.n.z.n.z.z.z.z.z.z.n.z.z.x.x.n.x.z.z.z.n.z.z.z.n.z.n.z.z.x.+XK.eX0X0X0X0X0XtX0X0XtX8X0X8X8XI. X}.x.x.{.x.{.x.x.x.}.c.$XJ.wX0X0X0X0X0X0X0X8X0X0XJ.OX:Xn.x.x.x.}.}.x.x.x.x.x.c. X*X&X&X&X&X&X=X&X&X&X&X&X&X&X",
"k.x.n.x.n.x.x.x.x.x.x.k.x.x.x.x.c.j.x.k.k.x.k.k.j.k.k.}.+Xc 5 9 9 2 9 9 9 9 9 9 8 w > +Xj.x.z.x.l.z.z.l.c.x.x.x.1XT 5 6 2 2 x 6 6 3 2 2 3 3 = e.+Xc.x.z.z.z.x.x.z.{.x.c.,XT % 9 x 3 6 6 3 7 x 3 * 2 0 B ,Xx.c.c.c.c.c.c.j.l.v.l.l.1XM e 4 2 2 2 3 2 * 3 3 x q $ #X{.l.c.l.l.l.l.l.l.l.c.v.oXS & x 7 6 3 x 3 2 2 2 6 2 : a.`.v.v.c.c.c.c.c.c.v._.[.[.C.: w 6 9 9 7 9 9 8 4 4 9 0 N 3Xz.j.z.z.z.z.z.z.c.k.k.j.OX< 5 9 8 6 2 5 9 2 2 4 5 r ; F.:Xk.x.x.k.z.x.x.x.x.x.x.x.x.z.j.z.z.z.z.c.j.j.x.z.k.:XF., 9 8 6 7 8 9 4 2 6 2 4 5 < D.j.v.z.z.z.z.z.l.j.j.z.z.>XI 5 9 5 5 9 5 5 5 5 5 5 w : d.;Xz.k.j.j.j.j.k.k.k.j.k.:Xd.: 5 4 2 2 3 * 2 3 = 3 = 5 G ;Xx.x.n.z.z.z.k.x.x.x.z.:XXX, q 2 6 2 2 6 6 2 2 8 5 9 , OXj.j.j.k.j.j.k.j.j.n.k.n.,XE 0 5 4 4 5 8 6 5 2 4 4 w , B.:Xn.k.k.x.k.x.k.k.c.j.x. XZ.& 9 9 8 9 9 6 9 4 9 2 4 5 > +Xx.c.k.k.x.x.j.z.z.k.c.x.1XC e 5 5 3 4 - 2 2 = 3 = * , N.|.z.x.l.z.x.x.x.k.x.x.{.,XD = * 2 2 * 2 4 4 4 4 9 8 y d.:Xz.z.x.x.n.x.x.x.x.x.z.n.z.z.z.z.x.n.x.z.x.x.n.x.n.n.x.n.n.z.n.z.z.z.z.z.z.z.n.z.z.n.z.z.z.z.z.n.z.z.j.n.z.z.z.j.z.z.z.z.z.z.z.z.z.z.z.z.{.z.z.z.z.z.z.:X:Xz.n.z.z.z.k.z.z.{.z.x.z.:Xn.z.k.z.n.z.z.z.z.z.z.n.z.x.n.x.z.x.z.z.z.x.<XK.0XqX0X0X0X0X0X0X0X0X0X0XtX8XI.[.}.x.x.x.c.c.[.x.x.c.}.$XJ.wX0X0X0X0X0X0X0X0X0XqXJ.OX}.k.x.x.n.n.x.x.x.x.x.}.c.[.*X&X&X%X&X&X&X&X&X&X&X&X=X&X",
"{.n.z.x.k.x.n.x.x.x.k.x.x.x.x.x.x.x.k.x.k.k.k.k.k.k.k.}.2Xc q 7 2 4 6 9 9 8 8 9 8 w < $Xl.z.z.x.x.c.x.x.x.x.x.x.>XT 0 6 7 3 6 6 3 3 7 x 3 3 3 R +Xz.c.x.l.z.l.z.z.z.x.x.+XR - 4 7 6 7 6 x 7 7 x 2 3 = G *X{.x.c.c.k.c.v.v.j.j.l.l.*Xb y 2 2 2 x 2 3 3 3 3 3 q O H.v.l.l.[.l.l.[.l.c._._.l.oXB + 3 x 3 7 7 6 x 6 2 2 2 = e.+Xl._.c.c._.c.v.v._.c.v._.C.> w 9 3 9 6 9 9 6 8 4 5 e N ,Xn.z.j.z.z.j.z.z.x.j.k.l.OX< 5 2 2 6 2 6 6 3 7 2 4 0 # OXz.z.x.:Xk.x.x.x.x.k.z.z.l.z.x.z.z.z.z.z.z.z.j.x.j.x.:XF., 4 4 6 6 8 9 2 4 2 2 2 * , D.z.z.z.z.z.z.l.z.j.l.x.x.>XI 5 9 9 9 5 5 9 9 5 5 5 w 0 T ;Xn.k.k.j.j.j.j.k.k.j.x.|.d.- 4 3 3 3 4 3 * - 3 3 3 0 G 1Xx.x.x.z.n.z.j.x.k.x.z.z.F., q 8 6 2 4 6 6 8 7 2 9 9 , F.z.j.j.k.j.j.j.k.k.j.k.n.>XE ; w 9 4 4 9 5 5 5 9 3 0 , d.;Xn.k.z.x.z.k.x.j.x.j.x.{.M.- 5 3 9 2 6 5 4 2 9 2 8 e ; $Xz.k.k.c.x.x.j.z.x.k.z.x.1XG e 5 5 - 3 3 - 4 - 3 3 = e N. Xz.z.z.z.x.x.c.k.x.x.x.,XA = * 2 * 1 2 2 4 5 4 4 w , t.;Xn.z.x.x.n.x.n.x.n.z.x.z.x.z.n.n.z.z.z.n.n.z.x.x.z.z.z.x.z.x.n.z.z.n.n.z.n.z.n.z.z.z.z.z.j.n.z.z.n.z.z.z.z.j.z.n.n.z.z.z.{.z.n.{.n.x.:Xz.z.x.{.z.z.}.z.z.z.z.z.z.z.x.n.z.z.z.{.n.n.z.z.z.n.z.x.z.n.x.n.n.n.z.n.z.z.x.n.x.k.z.x.}.<XK.8X0X0X0XqX0X0XqX0X0X0XtXtX8XI.x.c.}.}.x.x.x.x.x.{.c.}.$XJ.wXqX0X0X0X0X0X8X0X0X0XJ.OX:Xk.x.n.x.x.x.x.x.x.x.}.}. X&X&X&X&X&X&X&X&X&X&X&X&X&X&X",
"n.}.n.x.n.x.x.x.x.x.x.x.x.x.x.x.x.x.x.x.k.k.x.k.k.k.x.{.+X< 5 7 2 6 9 2 9 9 9 9 4 w ; OXc.z.x.x.z.z.x.x.x.x.z.k.>XT : 7 7 3 x 3 2 7 7 7 6 3 = e.+Xz.l.x.z.z.z.l.z.v.x.z. XR * 9 7 3 7 x 7 x 7 x * 2 * N 1Xl.c.c.c.c.c.c.j.c.v.l.l.>XN e 2 2 2 2 * * 2 2 = 3 3 # G.v.l.c.l.[.l.l._.c.c.c.l.+XA + 3 x 3 x 6 6 6 x 2 2 3 & e.`.v.l.v.c.c.c._.c.c.c.c.[.B.; 9 6 8 5 8 3 8 9 5 4 4 5 Z 3Xn.j.z.j.z.z.c.x.x.j.j.z.<X, 4 8 2 6 2 2 8 3 7 2 5 9 ; F.:Xz.n.k.k.z.k.z.x.k.z.z.z.z.z.z.z.z.k.z.z.x.c.j.c.x.:XG.< w 2 6 6 6 2 8 2 6 2 5 * , D.z.z.z.z.z.z.z.j.z.z.x.}.,XG 5 9 9 9 9 4 9 5 5 4 5 w - E ;Xz.k.k.k.j.j.j.j.j.k.x.}.d.- 5 4 3 = 3 2 4 3 3 2 3 = D >Xc.x.x.l.j.z.z.x.x.x.l.:XF., f 6 6 6 2 8 6 2 9 2 2 9 , G.z.n.c.k.k.k.j.k.k.j.n.j.>XW - w 9 9 8 9 9 5 5 4 9 5 0 d.:Xn.x.x.x.x.c.x.x.x.z.z.{.N.- 9 6 8 9 2 6 5 2 5 4 4 0 $ OXx.x.c.k.k.x.k.c.x.k.c.x.>XG 0 3 - 4 4 3 3 4 4 3 4 3 , t.|.z.x.k.k.x.x.k.k.x.x.{.1XD = 2 1 2 2 2 2 4 4 4 w w > E 1Xz.z.x.x.z.x.z.n.n.x.x.n.n.z.z.x.n.n.x.z.z.z.n.z.n.x.n.z.z.n.k.z.z.z.x.k.z.n.z.z.z.j.n.z.z.z.z.z.j.z.j.z.z.z.z.z.z.z.z.z.z.z.z.z.z.z.z.z.z.z.x.z.n.z.z.z.z.z.z.z.z.n.z.z.z.}.z.z.x.z.z.z.z.z.z.n.z.z.z.z.x.z.n.x.n.z.z.z.n.z.n.z.+XK.0X0XwX0X0X0X0X0X0X0X8X0X6XJ.I.[.c.x.{.x.}.x.}.c.}.x.{.$XJ.0X0X0XwX0X0X0X0X0XtX0XJ.OXk.x.}.n.}.x.}.x.x.x.x.}.k.*X-X&X&X&X&X&X&X&X&X&X&X&X&X&X",
"x.x.n.x.x.z.x.x.x.x.k.x.x.x.x.x.x.x.k.k.k.k.k.k.k.k.x.x.OX> 3 3 3 3 2 9 9 9 9 9 4 w < $Xl.x.x.z.z.l.x.x.x.x.x.k.>XY + 3 2 3 6 2 3 3 3 7 7 3 = R +Xc.l.z.z.z.l.z.{.{.z.z.].R = 2 3 7 6 x 3 3 3 3 2 2 = b +X}.c.l.c.c.l.c.l.v.j.l._.>Xc 3 2 3 7 x 2 2 3 3 3 6 0 # G.v.l.c.[.v.l.[.v.}.[.l.l.`.P - 3 3 x 3 7 7 3 3 6 2 3 & t.`.l.l.c.c.c.c.c.c.c.c.[._.C., 9 9 9 5 5 6 5 9 5 2 5 4 c <Xj.v.z.j.z.z.j.z.x.j.x.x.+X< 4 3 6 6 6 2 2 5 3 2 4 5 # F.z.z.x.k.k.k.z.x.x.x.j.j.j.z.j.z.j.j.j.c.x.j.j.j.x.c.:XD.; 5 2 6 6 4 6 9 2 2 2 6 5 $ D.].j.z.z.z.z.z.j.l.j.z.n.,XD - 9 8 4 5 5 w 4 4 5 5 w 0 I ;Xz.k.k.k.j.j.k.k.k.j.k.{.m.% 3 3 3 3 * 3 3 3 3 3 3 = N >Xj.x.z.z.z.z.z.x.k.}.k.:XF.; p 7 7 7 4 8 6 5 4 w 4 5 ; F.n.j.k.k.j.j.k.j.j.k.n.n.,XW - 9 9 9 9 9 5 5 5 4 5 0 ; t.:Xl.k.j.x.x.x.x.x.x.z.z.:Xa.; 4 5 8 2 7 9 8 2 5 2 9 0 $ OXz.x.x.c.k.x.j.k.k.x.x.}.;XC e 4 4 3 3 5 4 5 4 5 5 = ; e.|.z.x.z.z.x.x.x.x.x.x.{.3XZ = + 6 2 @ 2 2 5 4 5 4 w 0 T ;Xx.k.x.x.z.n.z.n.n.x.x.x.k.n.x.n.x.n.k.n.x.n.x.n.z.z.n.z.z.n.z.z.z.z.z.z.z.k.k.z.k.z.z.j.z.j.j.j.z.z.z.z.z.j.z.z.z.z.z.z.z.z.z.z.z.{.z.{.z.n.z.z.z.z.{.z.z.z.z.z.z.z.z.n.z.z.n.n.{.k.z.z.z.z.z.z.k.z.n.z.z.n.x.z.z.n.z.n.n.z.x.}.>XK.0XeX0X0XqX0XqX0X0X0X0XtX0XJ.F.}.x.x.{.x.x.{.c.x.x.}.}.$XJ.0X0X0X0X0X0X0X0X0X0X0XJ.OX}.x.x.x.x.}.}.x.x.x.x.x.k.x.*X&X&X&X&X&X&X&X&X&X&X&X&X&X",
"x.n.x.x.x.x.x.x.x.x.x.x.x.x.x.x.x.x.c.x.x.k.c.k.z.k.x.c.OX< 3 3 4 2 9 9 5 9 9 5 9 9 $ OXj.x.l.z.x.x.x.z.c.{.x.x.;XJ + 3 2 7 7 3 3 2 3 x 2 3 + W +Xl.z.z.z.l.z.z.x.z.z.j.{.R % 5 3 x 6 7 x 3 3 x 2 2 = b  Xl.c.c.c.c.c.c.l.l.l.l.l.+Xv + x x 3 x 2 2 3 3 3 x q & A._.l.l.l.[.l.[.[.[.l.l.[.+XJ q 3 x 3 3 x 7 x 7 2 2 3 = a. Xv.l.!.c.c.!._.c._.c.}.[.A.O 5 9 4 4 5 5 5 5 2 9 4 2 , >Xj.j.j.j.z.z.x.x.z.j.z.x.OX< 5 2 6 6 7 2 5 9 2 5 2 3 # F.z.n.k.k.k.k.x.k.j.c.z.x.k.c.z.z.x.z.z.k.x.x.k.z.x.x.:XH.# 4 6 2 2 4 2 2 4 4 2 2 2 # h.j.j.z.z.z.z.z.z.j.j.z.n.,XD = 5 0 5 5 5 5 5 5 5 5 0 - T {.z.k.k.c.j.j.j.k.k.c.z.[.m.* 5 3 3 3 3 6 = 3 = 3 2 = N >Xj.x.n.z.z.z.z.x.z.x.z.:XD.; 9 7 9 6 9 3 2 2 4 4 5 5 > D.l.j.j.j.j.k.k.j.k.k.j.n.>XT ; a 9 9 9 5 5 5 5 5 8 4 # d.z.j.z.z.j.x.z.x.x.z.z.z.z.N.- 4 3 2 9 5 3 5 9 5 4 4 0 $ OXk.j.j.k.j.j.k.k.k.z.c.x.>XB e 4 = 0 3 5 = 0 - 5 w 2 - t.}.z.z.k.k.z.x.k.k.z.z.{.,X< = + 2 2 2 2 2 4 5 5 4 5 % r.}.}.x.k.k.x.x.x.x.k.k.x.n.k.:Xx.x.x.z.n.k.n.x.n.x.n.z.z.n.n.z.z.z.x.x.x.k.z.z.z.n.n.j.z.z.j.j.n.l.z.n.z.z.n.n.z.j.z.z.z.n.n.z.n.z.n.z.z.z.z.z.z.z.z.z.z.n.z.z.z.n.z.z.z.z.l.z.{.z.z.z.z.z.n.z.k.z.n.z.z.z.z.z.z.n.z.z.z.x.z.x.x.x.:XJ.0XeX0X0X0X0X0X0X0X0X0X0X0X8XI.}.}.x.x.z.x.x.x.x.x.x.x.$XJ.wXeXrX0X0X8XwX0X0X0X0XJ.$X}.x.}.}.x.x.c.x.x.}.}.x.n.*X*X&X&X&X&X&X&X&X&X&X&X&X&X&X",
"x.x.x.x.x.x.x.x.x.x.x.x.x.x.k.x.k.x.x.c.x.k.x.x.x.z.j.c.OX> 0 6 5 5 9 9 9 9 9 5 5 % O OXc.z.j.c.z.x.z.l.z.x.z.x.;XW O 7 3 3 7 7 7 3 q 3 2 3 # W ].l.z.{.z.z.z.x.z.{.x.c. X$.+ 3 3 3 x 3 3 7 7 7 2 2 + M +X[.}.l.c.c.c.l.v.c.v.l.v.+Xc + x x 3 3 2 3 3 7 7 3 q # F._.c.l._.[.v.[.[.[.[.[.[.*XW 3 7 3 3 x 7 x 7 7 x x x & a.`.l.l.c.c.c.c._.c.l.[.[.v.S.# 9 9 q q 9 9 9 9 5 9 4 - c ,Xj.j.z.j.z.z.x.k.z.z.z.j.OX$ 5 7 6 7 6 2 2 5 4 = 2 - # D.}.z.k.k.k.n.x.x.x.j.j.k.x.x.x.c.x.x.j.x.c.j.c.j.k.x.n.H.# 4 6 6 4 8 6 9 9 9 8 4 4 $ g.j.j.l.z.j.z.z.z.z.z.l.n.;XI ; 0 5 5 5 5 5 5 0 5 w * % E z.k.x.x.j.k.k.j.k.c.x.x.{.f.; 5 5 3 3 3 3 9 5 = 7 2 * v >Xk.z.z.z.z.z.z.x.x.x.k.:XD.; 9 7 4 9 9 5 5 5 9 9 5 4 # H.n.j.k.c.j.x.x.j.k.k.j.k.>XT ; 9 8 w 5 9 w 9 9 5 4 4 # d.c.j.j.z.x.x.k.k.z.z.z.k.z.Z.: 5 3 2 3 5 5 3 3 3 3 * * $ ].l.j.k.k.j.k.k.x.c.z.z.x.>XC - 5 5 3 3 0 3 3 : - 5 = & R }.{.z.k.k.x.x.k.k.z.z.{.>X$ x 2 2 2 2 2 2 4 5 9 5 w - E :Xx.n.k.k.k.x.k.k.k.n.k.k.x.x.n.x.}.k.n.n.z.k.n.k.x.k.z.n.z.k.k.z.n.z.n.z.z.n.x.x.z.z.z.{.n.z.z.x.n.z.z.n.j.n.n.j.k.j.z.z.z.z.z.z.z.z.z.z.n.z.z.{.x.x.z.{.z.z.z.n.x.x.}.x.z.x.x.z.x.z.z.n.z.z.z.n.z.z.z.z.z.z.z.n.z.n.x.z.x.n.x.x.+XU.9XwXqX0X0X0X0X0X0X0XtX8X8X9XI.{.k.}.}.}.{.{.[.}.x.x.x.2XJ.wX0X0XtX8X0X8X0X0X0X0XJ.OX}.n.x.x.x.n.x.}.c.x.}.x.n.}.*X*X&X&X&X&X&X&X&X&X=X&X&X&X",
"x.n.x.x.x.x.x.x.x.x.x.x.x.x.x.x.x.x.k.k.x.x.k.x.x.x.k.j.+X> > & : , : : : : > : = # $ OXc.x.j.z.z.l.x.z.z.z.j.c.>XJ # O & # $ > c $ > > $ # # U  Xz.v.z.].l.z.z.c.z.z.x. Xe.O & O + : 3 = : 3 p & + O c -X X[. X[._.[.v._.l._.[.l.%Xc & O + & q & : & & : > & O %X`. X_._.[.`.[.[._._._. XoXJ > + : = + + = & = = O O O r.+X Xl.c.c.!.c.[.c._.l.l._.h.# - & : : : : : 0 > & = O v <Xj.z.j.z.l.z.z.z.z.x.k.j.].$ # & & % & & ; > # # ; ; o OXz.k.k.k.x.x.k.c.x.x.c.x.x.j.j.j.x.j.j.x.x.k.j.j.x.x.n.D.$ & * : : : : ; - - ; % % # g.z.j.k.z.l.l.z.j.k.z.z.z.>XD > ; : 0 , , : : ; % ; ; # T j.k.c.k.c.x.c.x.x.x.x.x.x.C.$ > , > > > > > > > + + & B :Xz.n.z.z.z.z.k.k.k.k.k.n.h.$ & & ; > > > : > e ; % @ # h.j.n.j.j.k.x.j.j.k.k.j.j.;XT > & : e ; ; ; > ; # & & O d.{.c.j.x.x.j.z.k.z.z.z.k.{.B.$ & & : : > ; > > : : : O v <Xz.c.k.k.k.j.k.j.j.z.j.j.|.N O ; > : > , > > , > O & # e.:Xx.x.z.z.x.c.j.k.k.k.x.|.v + o O # # # # # & ; & - # T :Xk.}.:Xx.x.x.n.n.n.x.n.k.n.k.x.n.:Xk.x.}.}.:Xx.}.}.}.x.{.}.x.}.{.z.}.z.}.}.}.x.x.z.z.z.z.z.z.z.{.z.z.z.z.z.{.z.z.{.{.z.{.z.{.x.x.{.}.{.}.{.{.{.x.}.{.x.{.}.}.}.}.}.}.}.}.x.{.z.z.z.n.z.x.n.z.z.z.z.n.z.z.n.z.x.z.z.n.x.n.z.z.x.x.OXU.9X9X9X9X8X9XwX9X8X8X9X9X9X9XI.2X<X$X$X<X$X2X$X$X%X$X%X%XJ.J.J.J.J.J.J.J.J.J.J.K.P.*Xn.x.}.x.x.}.x.x.x.x.}.x.n.}.&X&X=X&X=X=X&X=X=X=X&X&X&X&X",
"x.x.x.x.x.x.x.x.x.x.x.x.x.x.k.x.k.c.x.x.k.x.k.x.x.x.x.x.;Xi.t.y.t.u.y.M.M.M.f.t.e.t.i.|.k.x.j.k.k.c.j.x.c.z.x.c.{.D.G.D.G.F.F.G.F.F.G.G.G.H.B.D.z.l.j.l.l.z.].z.z.z.z.l.{.F.S.K.a.a.a.a.a.P.a.a.a.a.a.a./.R.~.~.~.T.~.~.R.~.~.^.b.`.S.a.a.a.a.S.P.S.S.a.a.S.S.a.XX'.T.!.!.R.R.T.(.~.T.T.R.'.Q.S.P.a.a.a.a.a.a.P.a.a.a.a.@X).^.^.!.!.b.!.v.~.!.v._._./.e.a.N.a.a.m.a.a.N.N.a.a.E t.:Xj.z.z.z.z.x.k.z.z.z.x.k.|.i.f.t.B.M.M.M.B.f.B.M.d.f.f.].z.l.j.k.k.z.z.z.k.j.j.x.k.c.z.j.z.j.c.j.j.x.j.k.z.x.z.].T d.t.d.d.t.t.d.d.d.t.E E T D.j.j.j.z.z.z.z.j.j.j.z.j.{.g.E t.t.m.M.m.m.M.S.M.M.m.m.g.z.k.j.x.k.x.z.x.k.x.x.j.k.^.B.B.f.M.B.B.B.Z.Z.M.B.S.m.h.n.k.n.z.z.z.z.k.k.x.n.n.k.].u.t.f.g.g.g.f.y.f.t.d.t.U T v.j.j.j.j.j.j.j.j.k.k.j.k.k.h.e.d.t.t.B.B.S.M.M.M.f.a.f.).z.l.z.z.z.z.z.j.j.z.z.z.{.OXB.B.d.t.f.f.B.B.M.t.M.f.f.V.l.j.x.x.x.c.j.z.k.z.z.j.c.{.g.E t.M.B.B.B.B.S.S.Z.N.t.y.D.x.k.k.k.x.x.x.x.x.c.k.k.}.g.R a.Z.B.Z.Z.B.B.M.m.y.M.a.D.[.}. X[.c.}.c.}. X{.{.}.}.}.[.[.`.[.[. X[.[.[. X`.`. X`. X`.`. X].`. X`. X_.`.[._._.[._.[._.[.[._.[.].[.[._.[._.`.`.`._._._._._._.`.[.[._.)._._._.)._.^.^.^.^.b.^._.)._.v.v.c.z.z.n.x.x.z.x.x.x.k.z.z.n.z.z.n.z.z.x.x.x.x.n.x.n.x.-XL.bXbXa.bXbXbXP.P.P.P.bXP.bXa.J.J.J.J.J.J.U.J.J.U.U.9XbXU.I.$X@XOXOXOXOX%XOXOX*X`.+X Xc.n.}.x.x.c.x.x.x.k.}.x.}.*Xa.a.S.P.a.p.S.a.P.P.p.L.P.L.",
"x.x.x.x.x.k.n.x.x.x.k.x.x.x.x.x.x.x.k.x.x.x.x.c.x.x.x.k.x.:Xx.x.:X{.}.|.|.}.;X}.[.}.:Xk.x.c.z.c.j.j.z.j.z.z.x.c.k.z.z.c.{.{.|.|.{.}.|.}.z.x.l.c.l.z.z.].j.l.z.z.{.z.{.z.z./.Q.Q.Q.W.=X@X@X@X@X@XL.E.Q.W./.T.T.W.W.R.T.T.R.R.T.T.(.T..XXX@XoXW.Q.W.Q.oXE.@XoXQ.E.W.T.T.W.R.T.!.!.T.T.E.T.R.T.E.@XW.T.oXoX!.@X!.Q.oXQ.oXT.T.T.R.Y.!.!.!.R.!.R.b.!.(.T.~.+X+X`. X`.`.`. X`.OX).).].`.x.j.j.j.z.x.j.x.x.x.x.z.}.n.}.}.{.{.x.n.{.{.{.z.:X{.z.z.z.z.z.j.k.z.z.z.j.c.j.c.z.j.j.z.z.z.z.k.z.j.c.c.j.c.j.j.].{.:Xn.:Xn.n.n.:X:X:Xn.:Xn.z.n.j.l.z.l.z.z.j.z.c.j.z.j.l.:X:X:Xn.:X:X}.{.}.}.{.z.z.].x.c.k.x.x.x.j.j.x.x.c.x.c.k.z.{.{.x.x.}.}.}.}.x.{.z.z.].k.j.z.z.z.j.k.z.z.k.z.k.k.k.k.x.;X:X:X;Xn.:X;X:X;X:X{.z.{.c.l.n.j.j.j.l.j.k.j.j.n.k.n.:X:X{.:X:Xz.].{.z.{.{.}.}.x.c.j.j.z.z.z.j.v.n.z.z.z.j.n.k.x.c.c.x.:X}.}.}.}.{.:Xk.n.n.j.z.c.j.x.z.x.x.z.z.z.c.x.j.z.{.}.}.}.}.}.}.{.{.:X}.}.c.j.j.x.x.c.j.x.k.x.x.z.x.x.{.{. X}.}. X{.}.}.}.}.[. X X|.].v.^.^.~.v._._.^.v.^.^.~.~.~.R./.T.T.T.T.(.T.T.T.W./.(.(.T.(.(.T.!.!.!.(.T.T.(.(.T.(.T.(.(.(.T.T.T.(.T.(.(.(.(.(.T.W.W.T.(.~.(.T.T./.T.T.(.(.(.(.T.T.T..XT.(.T.(.(.W.W.T.T.b.[.x.n.:Xk.n.n.n.n.x.x.n.k.z.n.z.z.z.}.x.n.n.k.x.n.x.x. X@XL.L.#XL.L.L.L.L.L.P.L.L.L.bXU.eXqXqXqXqXqXqXpXqXqXpXqXU.<X{.x.x.x.x.x.x.k.{.x.k.}.x.x.x.}.n.x.}.x.x.x.n.n.x.}.C.O % x + 3 7 + = & + + x + O ",
"x.x.x.x.x.x.x.c.x.x.x.c.k.x.k.c.k.x.c.x.x.x.x.k.c.k.x.c.k.n.n.n.k.x.n.x.x.n.n.x.x.x.k.k.x.z.x.x.c.k.j.c.k.z.j.j.x.z.x.k.k.k.k.k.k.k.c.j.x.x.x.[.v.z.v.z.l.z.l.z.l.l.z.z.c.b.E.E.T.E.!.E.@X!.!.!.T.T.W.W..XW.W.W.W..X(.W.E.W.T.E.E.W.Q.W.oXoXoXW.W.W.W.W.W.oXW.!.!.W.E.W.!.!.E.E.W.W.W.T.E.T.W.W.T.T.T.W.!.E.W.E.oXW.T.T.T.E.E.T.!.!.!.T.T.!.!.!./.T.).`._._._.[.[._.[.[. X[.[._. Xl.z.k.x.k.c.k.x.z.x.z.k.z.j.j.x.x.k.k.n.k.z.z.k.z.x.k.{.z.z.z.z.l.z.j.j.z.c.x.k.j.j.z.z.x.j.j.c.x.j.k.j.x.j.k.z.z.j.j.k.k.k.k.j.j.z.z.z.z.j.v.l.z.j.z.z.z.k.l.j.c.c.j.z.z.z.v.j.k.k.k.z.x.x.z.x.k.n.j.x.x.j.k.k.x.c.k.x.k.k.k.x.z.j.x.c.k.x.j.z.j.k.x.z.z.x.x.z.z.k.k.k.j.k.j.x.x.z.z.k.k.k.c.k.k.k.x.k.k.x.x.x.z.z.z.k.j.j.z.j.z.z.j.c.j.j.j.j.j.k.j.c.j.j.c.x.x.z.z.c.x.k.j.z.j.j.j.j.z.n.v.j.z.z.z.n.k.k.z.x.c.x.c.c.x.x.x.x.x.x.x.j.j.x.z.j.j.x.x.c.k.j.j.c.k.c.j.x.c.x.x.j.c.x.x.k.k.z.z.k.k.k.j.k.x.z.x.k.k.x.}.k.k.x.x.x.}.x.x.x.x.x.k.x.x.x.c.x.c.l._._.'._._.'._.'.'.'.`.'.).(.(.W.W.(.(..X.XW.!.W.oX.XoXW..XW.W.W.W..XW.W.W..XW.W.W.W.W.W.W.T.T.W.W.W.W.T.W.W.W.T.W.W.W.W.W.W.W.W.W.W.W.W.T.W.W.W.oX.X.X.X.X.X.X.X.XW..XW.W.'. Xk.k.z.k.k.k.x.x.n.x.z.x.}.z.z.z.n.z.x.x.x.x.x.z.z.x. X!.#XL.#XL.L.L.L.L.L.L.L.L.L.L.U.qXqXqXqXqXqXqX6XhXpXpXqXU.+Xz.x.x.k.x.k.k.x.x.k.k.x.n.x.x.x.n.x.x.x.}.x.x.k.}.}.OX& 2 7 7 3 3 * 5 5 * 7 3 3 3 ",
"x.x.x.k.x.x.k.x.x.k.x.k.x.x.k.x.x.x.k.k.x.x.x.x.x.x.x.n.x.x.k.x.k.k.k.k.x.x.x.x.j.x.k.j.[.x.k.x.z.j.z.j.c.j.k.k.j.j.j.z.k.k.x.k.x.k.x.j.x.}.x.c.l.z.z.z.z.z.z.x.l.z.z.z.c.~.T.T.T.!.W.W.!.!.!.Q.T.T.Q.W..X/.W.W.W..X.X.X.XW.W.W.XX.X.X.XW.E.E.W.W.W.W.W.W.W.T.W.W.W.E.E.T.T.!.E.W.W.T.T.T.T.T.W.T.E.T.W.oXoX!.W.W.W..XT..X/.~.T.!.b.R.!.T.T.!.R.T.W.~.`._._.[._.`.[._.[._._._.[.[.z.z.l.z.x.x.x.z.k.z.z.z.z.z.x.x.x.x.x.k.x.z.j.j.j.l.j.l.z.z.z.z.z.j.j.z.j.j.j.j.c.j.c.k.x.n.l.j.j.c.j.c.j.j.c.j.j.j.z.k.j.j.j.j.j.l.z.z.l.z.j.j.l.z.j.z.z.z.j.k.j.k.j.z.z.z.z.x.z.k.k.z.z.c.x.x.z.j.j.x.c.k.c.x.x.j.c.k.c.k.c.k.z.k.k.k.x.k.k.j.k.z.k.z.x.x.k.z.z.k.z.k.j.j.j.x.x.{.z.k.x.k.x.k.k.k.k.k.k.k.x.k.z.z.z.x.c.j.j.c.z.j.z.j.j.j.j.j.j.j.k.x.k.j.x.z.j.k.z.j.j.j.j.z.z.j.j.j.z.j.z.z.z.z.z.z.z.l.z.j.j.j.z.k.j.k.c.j.j.x.c.z.z.l.j.z.x.x.x.x.x.z.c.j.k.k.x.k.k.k.x.j.j.j.j.n.k.z.z.k.k.j.j.k.c.x.k.x.k.x.c.k.k.x.k.j.k.k.c.z.j.x.x.x.x.x.x.x.x.l.^._.'.'._.'._.'.!.(.'.'.'.(.W..X.X.X.X!.W.oXW.W.oXW.W.!.W.!.oXW.W.W..X.X/..XW.oXW..XW.W..XT.W.W.W.W.W.W.T.T.T.W.W.W.!.W.!.W.W.W.T.W..X!.T.W.(.T.oXW.W.W.W.W.W..X.X.XW.!.W.'.}.j.x.z.z.n.x.z.n.x.x.n.z.z.z.z.x.n.{.x.x.x.n.n.x.n.{.}.oXL.L.L.L.L.L.L.L.L.L.L.L.L.L.U.qXqXqXqXqXqXpXaX6XqXpXqXU.<X}.c.x.c.k.c.x.k.k.x.x.}.x.}.x.x.x.x.}.x.n.x.x.n.}.x./.# 3 x x 7 3 3 4 4 2 7 x 3 + ",
"n.x.x.x.x.k.x.x.x.x.x.x.x.x.x.x.x.x.x.x.c.x.k.x.x.x.x.k.k.k.n.k.k.k.x.x.x.x.k.x.j.c.k.x.x.x.c.j.j.z.j.c.j.c.k.j.c.k.x.k.x.x.x.x.x.x.x.x.z.{.c.{.z.z.z.v.l.z.l.c.x.x.}.x.}.^.T.T.E.!.W.!.W.!.W.!.E.W.!.W.W.W.E.W.W.W.W.W.W.W..XE.W.W..XE.E.T.T.T.W.W.W.W.T.W.W.T.T.!.T.W.E.!.!.T.E.W.E.!.T.T.T.T.T.T.W.!.!.T.!.T.W.W.W.T.T.T.E.W.T.T.E.T.T.T.T.R.T./.(.`.`.[._._._.[._._._._.[.[._.x.z.z.z.k.z.z.z.z.z.k.z.j.z.z.x.c.z.z.j.l.j.z.z.z.j.j.j.j.z.j.z.z.z.x.c.z.c.j.x.c.k.z.j.z.j.j.j.z.z.z.z.j.z.j.j.j.l.z.z.z.z.z.j.j.z.z.z.z.z.z.z.z.c.z.z.j.j.z.z.j.j.j.j.z.z.j.z.x.z.z.z.c.z.x.x.x.x.j.x.k.j.j.j.c.x.k.x.j.j.j.k.j.k.k.z.x.k.x.x.x.x.j.z.z.z.z.z.z.z.x.k.x.k.x.z.x.x.x.x.x.k.j.k.k.k.k.k.k.x.k.z.k.z.x.x.x.k.z.l.j.j.l.k.j.z.j.k.j.k.x.x.c.c.j.z.c.j.c.k.z.j.j.j.j.j.j.j.j.z.z.z.z.z.z.z.z.k.j.z.j.j.c.k.c.k.k.j.c.j.j.z.j.z.j.x.k.x.x.x.j.x.j.c.j.x.x.x.x.k.x.k.x.j.j.j.j.z.k.k.z.z.x.z.c.k.x.c.k.x.x.x.x.x.k.x.x.k.j.z.x.x.x.x.x.x.x.x.[.c.^.'.'.'._.~.'._.'.).(.'.(..X.XT..X.XW..XW.W.!.oXW.W.oX!.W.W.W.W.W..XE..X.XE..X.X.XW..XW.T.W.!.W.!.W.W.W.W.W.W..XW.W.!.W.W.W.!.W.W.oX!.W.W..XW..XW..XE.W..X.XW..XW..X.X.X(.'.}.x.z.n.x.x.n.x.:Xk.x.x.n.x.n.:Xz.z.z.n.x.x.x.x.x.x.x. XXXA.L.L.L.L.L.L.L.L.L.L.L.L.L.bXyXqXqXqXqXqXqXpXpXpXpXqXJ.+Xk.k.k.k.c.k.k.x.x.x.}.x.c.n.x.}.x.x.n.x.}.x.x.x.k.}.G.O 0 3 3 3 3 2 2 2 3 4 * 4 2 ",
"x.x.x.x.x.x.x.x.x.x.x.x.c.k.k.x.x.x.k.x.x.x.x.x.k.x.x.k.k.k.k.k.k.k.c.k.x.x.c.x.x.x.x.x.k.x.k.x.c.k.j.k.j.c.k.c.k.x.x.c.x.x.x.x.k.x.x.x.z.x.x.z.z.v.l.{.x.l.z.{.x.[.c.x.c.'.T.T.!.E.W.W.W.W.W.W.W.W.!.W.W.W.Q.W.W.W.Q.W.W.W..X.X.XW.W..X/..X.X.XW.W.W.W.W.E.E.T.W.W.T.W.!.E.E.!.!.W.!.E.T.T.T.T.T.T.T.W.W.W.W.W.!.W.W.T.T././.W.E.T.T.Y.T.T.T.E.T.T.~.)._.v._._.[._.[._.[.v.[.^.[.c.z.z.z.z.z.z.z.z.z.z.z.z.j.j.z.x.c.j.z.z.j.z.z.z.j.z.j.z.z.z.j.z.z.z.j.k.j.k.j.j.z.j.z.j.z.z.z.z.z.k.z.j.z.z.j.j.z.z.j.z.z.z.j.z.z.j.z.z.z.z.k.z.z.z.j.z.z.j.j.z.l.j.j.z.j.z.j.c.c.z.z.z.c.x.c.j.j.c.k.j.j.j.j.j.c.j.z.j.j.j.k.k.k.k.c.x.x.c.j.x.x.z.j.x.z.z.z.k.j.z.x.x.c.x.j.z.k.x.c.k.x.z.k.k.k.k.k.x.x.k.x.x.x.x.c.j.j.c.z.j.j.j.j.j.j.j.j.j.k.c.x.k.z.k.z.j.z.j.c.j.c.z.j.j.n.v.j.z.z.z.z.z.z.z.z.z.l.k.j.c.k.j.c.k.k.c.x.j.k.c.j.k.c.j.x.c.z.k.k.c.x.x.j.j.k.k.c.k.x.x.x.k.c.j.x.c.k.c.k.z.c.x.k.x.x.x.x.x.x.x.x.c.x.x.k.x.x.x.x.x.x.}.x.x.}.x.z.{.{._._.^._.'._.'.'.'.'.(.).oX(..X.X.X.XW..XW..X!.W.W.!.W.W.oX.X!.W..XW..X.X.X.X.XW.W..XE.(.E.W.W.W.W.W.W.!.W.W.!.!.W.W.W.oXW..XW.W.!.T.T.!.T.T.W.T..X.X.X.XW..XW..XE.T..X(..X'.|.x.}.z.x.k.x.x.x.k.k.x.x.x.}.k.x.k.:Xx.x.x.x.x.x.}.}.}..X#XL.L.L.L.L.L.L.L.L.L.L.L.P.U.qXqXqXpXpXpXpXpXpXhX6XrXJ.+Xx.k.k.k.k.c.x.k.x.x.x.x.x.x.x.x.x.x.x.x.x.x.x.x.n.c.G.O 7 = 3 3 3 4 2 4 2 4 2 2 2 ",
"n.x.x.x.x.x.x.x.x.x.x.x.x.k.x.x.x.x.k.x.x.k.x.x.x.x.x.k.n.k.k.k.k.c.x.x.k.x.k.x.k.x.x.c.x.x.k.x.x.x.z.j.j.j.k.c.k.x.x.j.k.x.k.c.c.k.x.x.x.x.z.z.z.z.l.z.l.z.x.[.{.c.}.x.c.~.T.T.E.!.E.!.W.W.W.W.!.W.W.W.W.W.W.W.W.Q.W..X.XW.E..X.X/.T.T.W.W.(.E.E.W.W.W.W.W.T.T.!.W.W.T.E.!.W.W.!.W.W.W.W.T.T.E.T.T.T.T.W.T.W.T.T.T.T.T.T.E./.T.T.T.T.T.T.T.T.T.T.T.~.'._._._.[._.[.[._.[._.[.^.[.z.z.z.z.z.j.z.z.z.z.z.z.z.j.z.j.x.k.z.z.j.z.z.z.z.z.j.z.z.j.z.z.z.z.z.j.x.j.c.k.j.j.z.z.z.j.z.j.z.k.z.z.z.j.z.j.j.z.j.z.z.z.z.z.j.j.z.l.z.j.z.z.z.z.z.l.j.z.z.z.z.j.c.z.z.j.z.j.z.z.z.x.x.x.x.z.j.c.j.j.j.j.c.x.j.k.c.j.j.j.j.j.k.k.k.k.x.j.j.x.x.x.z.z.z.z.k.z.k.z.z.j.c.x.x.c.j.x.c.k.x.x.k.c.x.k.k.k.k.j.x.z.z.x.x.x.j.c.k.j.k.j.k.z.j.c.c.j.c.j.k.k.k.z.j.j.c.j.c.k.j.j.j.j.z.z.z.z.j.z.z.z.z.{.z.z.j.j.z.x.j.j.z.k.k.k.x.c.j.c.j.c.x.c.k.x.x.x.x.x.x.k.x.j.c.c.x.x.k.k.x.x.c.j.j.j.j.j.x.x.c.j.x.x.x.c.x.k.x.x.x.x.k.k.x.j.c.k.x.c.x.x.x.x.z.c.x.z.x.l._.'._.'.^.(.'.'.'.'.oX).(..X(.W..XW.W.W.oXW.W.!..XW.W.W.W..XW.W.W.W.W..X.X.X.X.X/.W./.E..X!.W.W.!.!.W.!.W.W.!.W.W.W.oX.X!..XW.W..XW.!.T.W.T.W..X.X.X.X.X/..X.X.X/.W.W.T.T.^.}.x.x.x.x.x.x.x.x.x.x.z.x.n.x.x.n.x.x.x.x.x.x.x.n.}.x.}.XXL.L.#XL.p.L.L.L.L.L.L.L.L.L.U.pXqXpXqXpXqXpXpXpXqXpXpXJ.>Xk.k.k.k.c.k.x.c.x.x.x.x.x.x.x.x.x.}.x.x.x.x.x.x.z.x.#X+ 3 + 3 3 x 4 2 4 2 2 2 4 2 ",
"x.x.x.x.x.x.k.x.x.x.x.x.x.x.x.x.x.x.x.x.x.x.x.x.k.k.x.x.x.x.x.x.x.k.k.x.c.x.x.k.x.x.k.j.x.z.c.x.j.x.k.c.x.x.x.j.j.x.x.x.x.x.k.x.x.x.z.z.x.c.{.z.v.v.z.z.{.z.l.x.c.x.c.x.c.b.T.T.!.E.!.E.!.E.W.W.W.W.W.W.W.Q.oXW.W.W.Q.W.W./.T..XW.W./..X.XE.E.T.T.T.E.W.W.E.T.T.T.W.W.W.W.!.E.!.W.W.W.W.W.T.T.!.T.W.!.W.W.!.W.T.T.E.T.T.T.T.E.T.T.T.T.T.T.T.T.T.T.W.~._._._._.[._._.v._._._.[.[.].v.z.j.j.j.z.j.z.j.z.j.z.j.j.x.c.x.x.j.j.z.j.z.z.z.j.z.j.j.z.j.j.z.z.z.k.x.z.x.x.c.j.z.z.j.z.z.j.z.l.z.j.j.z.j.z.j.z.j.z.j.j.z.j.z.z.j.j.j.j.j.z.z.z.c.k.z.z.j.z.j.z.j.j.z.z.j.z.z.c.z.c.z.c.z.z.z.j.j.j.j.j.j.j.c.j.j.j.j.j.j.j.k.j.j.x.x.z.x.c.k.k.z.z.k.z.z.z.z.z.z.x.j.k.j.j.x.x.j.z.j.j.c.k.x.k.k.k.x.c.x.x.k.x.z.k.x.k.z.l.k.j.l.j.z.j.j.j.j.j.c.c.j.j.c.z.j.k.j.j.c.x.j.j.l.j.j.v.n.n.z.z.z.z.z.l.l.z.z.k.c.k.c.x.x.c.j.k.j.x.x.j.k.x.x.k.k.c.j.k.x.x.c.k.k.j.x.x.x.k.c.x.j.c.z.k.c.x.j.j.j.k.x.k.x.k.x.k.x.x.k.x.x.c.x.x.z.x.x.x.k.x.x.x.c.z.z.z.l.l._._.'._.'.'.'.'.'.)..X(.(.(..X.X.X.XW.!.W..XW..XW..X.X!.W.W.W..XW./.W.W.W./.T.W..XW..XE.T.W.W.W.W.W.W.W.W.W.W.W.oXW.!.W.W.W.W.W.!.T.T.T.W..XT.T..X.XE..X.XW..XW..X(..XW.T.'.}.z.{.n.n.x.x.x.x.x.x.x.x.x.}.x.x.}.x.k.x.k.x.x.x.x.x. XXX#XL.L.L.L.L.L.L.L.L.L.L.L.P.U.eXpXqXpXpXpXpXpXpXpXpXpXP.+Xc.k.k.k.k.x.x.k.c.x.x.c.x.x.x.x.x.x.x.x.n.n.n.}.n.z.XX+ 3 3 3 3 3 2 4 * 2 2 4 2 2 ",
"x.n.x.x.x.x.x.x.x.x.x.x.x.x.x.x.x.x.x.x.x.k.x.x.x.k.x.x.x.k.k.c.x.x.x.j.c.x.x.x.k.c.k.x.z.x.c.x.k.x.c.k.x.j.x.x.x.x.x.k.x.x.x.x.k.j.c.k.x.x.{.c.l.z.l.z.z.{.l.l.z.l.z.l.z.~.T.W.W.W.T.W.T.E.!.E.!.T.!.W.W.W.W.W.W.W.W.W.W.W.(.W.W.W.W.W.W.W.E.E.(.E./.W.W.T.T.W.W.W.W.W.W.!.W.!.W.W.!.W.W.W.T.!.T.T.W.T.!.W.T.T.T.T.W.T.T.Y.T./.W.T.Y.E.T.W.T.T.T.T.~.`._.`.[._._.[._._.v._.[.[.[.z.z.j.j.z.j.z.z.j.j.j.z.j.z.z.j.z.z.l.j.j.z.z.z.z.k.j.z.j.z.z.j.z.z.z.z.z.z.j.z.k.k.j.z.j.z.j.z.z.j.z.j.l.z.z.j.z.z.z.j.z.j.z.j.z.j.j.j.j.j.j.z.z.n.n.z.z.z.j.j.n.j.z.z.z.z.j.z.l.x.z.l.x.c.x.z.z.j.k.k.j.j.k.j.k.c.j.c.j.j.c.j.k.k.j.x.k.j.x.k.x.x.z.z.j.k.z.z.x.x.x.c.j.z.z.j.x.c.j.j.j.j.x.x.x.k.k.k.x.x.k.k.x.x.k.k.x.x.j.k.c.c.j.j.c.j.c.c.k.j.x.j.c.c.j.j.j.j.c.c.k.z.j.j.j.j.j.l.x.x.z.x.x.z.z.c.j.k.c.z.j.k.x.x.c.x.k.c.x.k.j.k.x.x.k.x.k.c.k.x.x.k.j.j.z.x.k.x.c.j.x.x.j.j.k.j.x.c.j.z.z.x.x.j.x.x.x.k.x.k.x.x.x.x.c.c.x.k.j.x.x.x.x.z.z.z.c.x.c.[._.)._._.'.'.'.'.'.'..X'.)..X.XW..X.XW..XW.W.oXW.!.!.W.W.W.W.W.W.W.W.W.W.W.W.W.W.W.W.W.W.W.W.W.oX!.W.W.W.W.W.W.W.!.W.!.W.W.W.W.W.W.W.W.W.!.E.T.!.W.W.W..X.X.X.X.X.X.X.XT.~.~.[.x.:Xk.z.z.z.x.x.n.x.x.x.n.x.x.x.}.x.x.x.x.x.x.x.}.c.}.!.W.L.L.L.L.L.L.L.L.L.L.L.p.bXU.rXqXpXpXpXqXaXqXqXaXqXpXJ.<Xj.z.k.k.x.x.c.x.x.x.x.x.x.x.x.}.n.x.x.x.x.n.}.}.n.x.oX& 3 2 2 2 3 2 2 2 2 2 2 2 2 ",
"x.x.x.x.k.x.k.x.x.x.k.x.k.x.x.k.x.x.x.x.x.x.x.x.k.k.x.x.x.k.x.x.x.x.x.x.x.k.k.c.x.x.k.x.k.x.k.x.x.z.j.x.x.x.c.j.k.x.j.c.x.x.x.k.x.x.x.z.x.x.x.l.l.z.l.z.l.z.z.l.c.x.{.c.l.~.R.T.T.W.W.T.!.E.E.!.!.E.E.!.W.W.Q.W.W.W.Q.W.W.W.E..X/.W..XE./..X.XT.T..XT.W.E..XT.T.W.W.!.W.T.T.W.W.W.W.W.W.W.W.W.T.W.T.T.W.W.T.!.T.T.W.T.T.E.T.T.E.T.T.T.T.T.T.T.T.W.R..X`._._._.[._._._.[._.[._.[.^.l.z.j.z.j.z.j.z.z.z.z.z.z.z.j.z.z.z.j.j.z.k.z.z.z.j.z.j.z.z.j.z.j.j.l.z.z.z.z.k.l.z.z.z.z.j.z.z.j.z.j.j.j.z.z.z.j.j.z.z.z.z.j.j.j.].n.j.j.j.j.j.z.z.v.z.z.n.z.j.v.z.z.j.j.z.j.z.x.l.z.x.z.x.x.c.k.c.c.j.j.k.c.k.j.c.c.j.j.j.k.j.j.j.j.x.x.c.j.c.x.j.z.z.z.z.z.z.z.k.j.x.k.z.x.j.j.x.x.c.x.x.z.j.j.j.j.j.k.z.x.c.z.x.x.c.x.x.j.j.j.k.z.k.j.j.j.j.c.j.j.j.k.j.x.j.c.j.j.j.j.c.z.z.j.l.z.j.x.x.z.z.x.z.z.k.z.j.j.k.c.j.c.k.z.x.x.j.z.j.c.j.x.x.k.x.z.j.x.x.j.c.x.c.x.x.k.x.j.x.k.x.x.x.c.c.j.j.z.j.x.c.j.x.x.k.c.z.x.x.x.k.z.x.k.x.z.x.x.j.x.x.c.c.z.x.z.z.x.[.)._.)._.~.'.~.'.'.'.'.'..X.X/..XW..XW.W..XW.oX!.Q.!.W.!.W.!.W.W.W.Q.!.W.W.W.W.W.!.W.W.W.W.W.!.W.oX!.oX!.!.W.!.!.Q.W.oXoXW.W.!.!.W.W.W.!.W.W.W.T.W..XW.W..X.XE.W./.W./..XT.(.}.x.{.n.z.n.x.x.x.x.x.x.x.x.}.}.x.}.n.x.x.x.x.x.n.x.x.*X_.Q.L.A.L.L.L.L.L.L.L.L.L.L.L.9XrXpXqXqXpXpXqXqXqXqXpXpXU.OXn.k.k.k.x.x.x.c.x.x.k.x.x.x.x.x.x.x.x.x.x.x.}.x.x.:XXX; 5 3 2 * 2 2 2 2 2 2 2 2 2 ",
"n.x.k.x.x.x.x.x.x.x.x.x.c.k.x.x.x.x.x.x.x.x.x.x.k.x.x.c.k.x.x.x.x.x.x.x.k.j.c.k.k.c.x.x.k.x.x.k.k.k.x.x.k.x.x.k.x.x.k.x.x.x.x.c.k.x.k.j.x.c.x.c.z.l.z.{.z.l.z.z.z.c.c.x.l.~.R.W.T.W.W.W.E.!.!.T.E.E.E.E.W.W.!.W.Q.W.W.W.W.W.W.W..XE.T.T.Y.E..XE./.W.W.W.E.T.T.W.W.W.E.W.T.W.!.W.E.!.E.!.T.T.E.W.T.W.T.T.W.T.W.T.T.T.T.T.T.T.T.W.T.T.T./.W.W.T.W./.T.~.`.^._._._._.[._._._.[._._.].z.z.z.z.z.z.j.j.z.z.z.z.j.j.z.z.z.z.z.z.k.z.z.z.z.z.z.z.j.l.z.z.j.z.j.x.x.x.x.z.k.z.z.z.z.z.j.z.j.z.j.j.j.z.j.j.z.z.z.z.z.z.z.j.j.z.j.j.j.v.j.j.j.z.z.z.j.z.z.n.j.z.j.z.j.j.j.j.z.l.z.z.z.x.x.z.k.x.j.j.j.j.j.j.j.j.j.j.j.k.k.j.j.j.k.c.k.j.x.j.j.j.z.j.z.k.z.z.k.z.c.j.j.k.k.c.x.x.k.x.x.x.z.c.k.j.k.j.j.k.x.k.x.c.k.x.k.k.c.z.c.z.j.c.j.j.x.j.x.j.c.j.c.j.j.j.c.j.j.j.j.j.z.z.j.z.j.z.z.z.j.z.x.c.x.j.c.z.z.z.x.j.x.x.x.k.c.k.j.j.c.c.x.k.c.k.x.c.k.x.x.x.x.k.x.x.c.x.k.z.x.x.x.c.k.j.j.c.j.z.z.x.k.k.x.z.x.k.x.c.x.x.x.x.k.x.x.x.x.c.k.x.z.z.z.c.z.x.[.c._.'.'.^.'.'.'.'.'.'.'.'.oX.X.X.XQ..XW.W..XoXW.W.!.Q.W.!.oXW.W.W.W.E.!.E.!.W.W.W.Q.W.W.W.W.W.W.W.W.W.!.W.!.W.W.W.W..X.XW.W.W.W.W.!.T.!.T.T.W.T.W.W.T.W..X.X.X.XW.(.W.T.T./.).{.x.z.:Xz.z.z.x.x.x.x.n.x.n.x.x.x.x.n.x.x.x.x.x.n.x.x. XoXL.L.L.L.L.L.L.L.L.L.L.L.L.P.J.eXqXqXiXpXpXpXpXpXpXqXpXU.<Xj.k.n.k.x.x.k.x.x.k.k.j.j.x.x.x.x.x.x.x.x.x.x.x.n.n.XX& 9 3 2 3 2 2 2 2 2 2 2 2 2 ",
"x.x.x.x.k.x.k.x.x.x.k.k.x.x.x.x.x.x.x.x.x.x.x.x.c.x.k.k.k.x.x.x.x.k.x.x.x.x.x.k.x.x.x.j.x.c.j.x.c.x.j.x.x.x.x.x.x.k.c.x.x.k.k.x.x.x.j.c.x.x.x.x.l.z.v.z.z.{.z.l.c.x.x.c.[.~.T.W.W.W.W.W.T.E.T.T.!.E.!.!.W.W.!.Q.oXQ.W.W.oXQ..X.X(..X/.E.T.T.T.T.E.W.E.E.W.E.W.E.T.W.W.!.E.W.T.E.W.W.E.W.W.W.W.W.W.W.W.W.W.W.W.W.W.W.W.T.T.W./.W.E.E.W.W.W.W.W.W.E.(.(.'._.[.).[._.[.[.[.[.[.[.[.v.z.l.j.z.j.z.z.z.z.j.z.j.z.z.z.z.z.z.j.z.z.z.z.z.j.z.j.j.j.k.j.j.z.j.z.z.z.z.j.j.n.z.z.z.z.j.z.z.z.z.z.z.j.z.z.z.j.j.z.z.z.z.j.n.v.z.z.j.j.n.j.l.j.j.z.z.z.z.j.j.j.j.z.z.j.n.v.z.z.z.z.z.z.z.z.j.z.j.x.k.c.z.x.c.k.j.j.c.j.k.j.j.j.j.j.k.x.k.c.x.z.j.x.x.x.c.x.x.z.z.z.j.z.z.z.z.j.z.z.z.k.z.x.z.j.c.j.k.c.c.j.j.x.x.x.z.j.x.x.x.k.k.c.k.z.j.c.c.j.z.j.x.k.x.c.c.j.x.j.j.c.j.x.j.z.k.j.k.l.c.j.l.x.j.z.z.x.x.c.z.c.x.z.j.z.j.j.c.j.j.j.j.x.x.z.z.x.z.x.k.c.j.k.x.k.x.j.j.x.k.c.k.x.x.x.j.z.j.z.j.z.z.j.c.k.x.x.x.x.x.k.k.x.x.x.x.z.x.x.k.k.z.z.z.z.x.z.x.x.[.'.^.'.'.~.^.'.'.'.'.'.'.!..XoXoXoX.X.XoXW.W.W.oXoXoXW.Q.W.W.oXW.W.!.Q.!.E.W.W.!.W.!.W.W.W.W.W.!.!.oXQ.W.Q.oXW.oXW..XW.!.!.oX!.oXQ.T.T.!.W.oX!.W.W.T.T..XW.T.T.T.E.T.W.T.T.~.}.z.k.z.z.n.z.x.n.}.x.}.k.x.n.x.x.x.x.x.x.x.x.x.x.x.x.|.W.L.#XL.L.A.L.L.A.L.S.L.L.L.L.9XyXaXpXqXqXpXpXpXpXpXqXqXJ.OXj.k.k.k.x.x.k.k.x.k.k.j.j.x.x.x.x.n.n.n.n.n.x.n.k.x.OXO 9 6 2 2 2 2 2 2 2 2 2 2 2 ",
"n.x.n.x.x.x.x.x.x.x.k.c.x.x.x.x.x.x.x.x.x.x.x.x.k.k.x.k.c.x.x.x.x.x.k.x.x.k.x.k.x.k.c.k.x.j.j.c.k.c.x.x.x.x.k.x.x.x.x.x.k.x.x.x.x.x.x.j.k.x.x.c.c.c.x.c.l.l.z.z.c.c.c.c._.b.R.T.T.T.T.T.!.T.T.T.W.W.W..XW.W.W.W.W.W.W.W.W.W.W.W.E.T.E.E.E.E.W.E.W.E.E.E.E.E.E.T.E.T.Y.R.Y.Y.E.T.T.T.T.T.T.E.T.T.E.E.W.W.W.W.W.W.T.W.W.W.W..XW.T.T.T.W.W.E.E.T.W.W.T.T.oX).].`._._._.[._.[._._.!.^.l.j.j.c.j.z.z.z.z.z.z.z.j.z.j.z.j.z.n.z.j.z.z.j.l.z.z.j.z.k.z.z.k.z.z.k.z.z.z.j.z.z.z.z.z.z.k.j.z.z.z.z.j.z.j.z.j.j.z.z.j.z.j.j.j.j.z.j.n.j.z.z.n.z.z.j.z.z.z.j.z.j.z.z.j.z.j.j.z.z.z.z.z.z.z.c.k.x.j.c.k.x.k.j.k.c.c.j.j.j.j.j.j.j.j.x.x.x.x.x.k.j.x.x.k.x.k.x.z.z.j.j.z.z.z.k.z.z.k.k.z.z.x.z.k.j.c.c.k.j.x.c.k.x.x.c.j.z.k.j.c.k.j.c.j.j.j.j.j.c.x.x.j.x.k.j.j.x.j.j.c.k.j.l.j.z.j.c.j.j.j.z.z.z.z.z.x.c.z.c.z.j.c.j.c.j.c.c.j.j.z.j.x.c.k.j.c.c.k.x.j.j.x.k.c.x.x.x.k.x.x.x.x.x.x.z.j.z.z.j.z.z.x.x.k.x.k.x.x.x.x.c.x.x.j.x.x.}.c.k.c.c.x.x.j.j.j.c.c.[.`.'.(.'.!.(.'.'..X'.oX'.'.!.!.oX!.oXT.W.W.W.W.!.!.oXoX!.!.W..X!..X!.!.!.!.W.W.W.W.W.W.!.!.!.W.W.W.W.W.W.W.W.Q.!.!.!.!.W.!.W.W.!.!.E.T.!.!.W.W.oXW.W.W.W..XW.(.T.W.T..XT.W.~.;Xk.c.}.x.n.x.x.}.x.x.x.x.}.x.x.}.x.x.x.}.x.x.x.c.x.x. XQ.L.#XL.L.L.L.L.Q.L.L.L.L.L.L.bXaXqXpXpXpXpXqXqXqXqXqXqXbX<Xn.k.k.x.k.x.k.k.k.j.j.j.n.n.n.n.n.x.x.n.n.n.k.n.n.}.XX& 7 2 + 7 7 2 6 2 6 2 2 2 2 ",
"x.x.x.k.x.k.x.k.k.x.x.x.x.x.x.x.x.x.x.x.x.x.x.x.c.k.x.x.x.x.x.x.x.x.k.x.x.x.z.x.x.z.z.x.x.k.j.x.x.x.k.x.j.c.x.x.x.x.x.k.x.c.j.x.x.j.x.x.z.k.x.x. X[. X[. X X X X Xc. X}.c.!.!.T.!.W.T.T.T.T.T.T.W.!.W.W.@X@X@XQ.@XQ.Q.@X#X%X@X@X@X@X@X@X@XXXQ.XXQ.XXXXQ.XXE.A.Q.Q.Q.Q.Q.Q.Q.Q.Q.Q.Q.@XQ.Q.E.@XQ.Q.XX@X#X@X@X%X#X%X#X#X%X%X@X#X@X#X@X@XXXQ.Q.XX%X%X%X%X+X[.`.`.`.'.!.`.`.-X_.'.!.].z.j.j.j.l.z.z.z.j.n.z.z.z.j.z.z.z.z.z.z.n.z.z.j.j.j.z.z.j.j.j.z.k.k.z.z.z.z.z.n.z.k.z.z.z.j.k.z.z.z.z.z.z.j.j.j.z.z.z.z.n.z.z.j.j.j.j.j.v.z.z.z.z.z.j.n.z.z.j.z.j.z.z.z.j.j.z.z.j.z.z.j.z.z.z.x.x.k.c.j.x.z.x.j.k.j.j.c.k.k.k.j.j.j.j.k.x.k.z.j.c.j.x.c.j.x.x.x.j.x.z.z.j.z.z.z.z.z.z.z.z.z.k.j.c.j.k.j.j.c.j.j.x.x.z.j.j.j.c.z.j.c.x.j.j.c.k.k.z.x.k.x.k.x.x.c.k.j.c.z.j.j.c.j.j.z.z.z.j.x.x.z.z.z.j.c.j.j.z.j.k.c.j.j.j.j.j.j.z.c.k.c.j.j.j.j.k.j.x.x.z.c.z.x.k.x.x.x.c.x.j.x.x.x.j.z.z.z.j.z.z.z.j.c.x.k.c.k.x.x.x.x.k.x.x.x.[. X}.}.[.}.}. X}.}.c.}. X_.'.'.'.'.'.'.'.!.'.'.'.'..XoX%X%X@X%X%X%X@X%X%X%X@X%X%X%X@X%X@X%X@X@X@X@X@X@XQ.@XQ.@X@X@X@X@X@X@X@X@X@X%X&X%X%X#X%X%X@X@X%X%X%X%X%X@X@X%X%X&X%XoXoXW.W.'..X.XE.E..X.X.X.X/.'. X X X X|. X X}.|. X X X X Xc.}.c.c.x.}.c.}.c.}.}.}.}. X~.E.A.A.A.A.A.A.S.A.A.A.p.L.L.U.9XeX9X9X9X9X9X9X9X9X9X9XK.F.z.x.k.x.x.k.k.k.c.n.n.j.j.].<X:X<X}.*X:X>X>X<X<X,X$XI.& q 3 6 2 6 6 2 2 2 2 6 2 6 ",
"n.x.x.x.x.x.x.x.x.x.x.k.k.x.x.x.x.x.n.x.x.x.x.x.x.x.x.x.x.x.x.x.c.x.x.k.x.c.k.x.x.x.j.x.c.x.x.x.x.k.x.x.x.x.k.x.k.x.x.x.x.x.x.k.c.k.z.c.k.j.x.v.v.!.b.^.^.b.~.T.b.~.~.~.!.!.T.T.T.T.T.T.E.!.E.T.T.!..XS.e.P P P G A P A L P P P L G L G A L L L L L L L L L L P P L L L L P L L P P A P L P L A L A A A A A S Z S S S A S S A Z A L S Z b b A L G L J XXY.Y.W.T.T.R.R.R.!.R.R.R.b.{.z.z.j.z.z.j.z.z.z.z.n.z.z.z.z.z.z.n.z.z.z.j.j.z.z.j.z.z.z.l.x.x.z.z.z.k.k.z.z.z.z.j.z.z.z.z.z.j.j.j.j.z.z.n.z.z.n.j.z.z.j.z.j.j.j.].j.j.j.j.z.j.z.z.z.z.j.n.j.j.z.j.j.z.z.j.z.j.j.z.z.z.z.x.c.k.x.j.z.x.k.z.j.j.j.j.k.k.k.k.k.k.j.k.c.j.j.z.k.c.c.k.j.x.c.j.j.x.z.z.z.z.z.z.z.z.z.z.z.j.j.x.c.j.x.x.x.z.c.k.j.x.k.x.k.x.c.z.x.x.k.x.x.x.x.x.x.j.j.x.c.x.k.x.c.j.k.c.k.x.x.k.j.c.j.z.x.k.x.x.x.k.x.x.j.x.x.c.x.x.j.j.j.k.j.c.j.k.c.j.j.k.j.c.x.c.k.j.x.x.k.k.x.x.k.x.x.k.x.x.x.x.x.x.z.k.x.j.z.j.z.x.x.x.k.x.x.x.x.x.x.x.j.x.l.v.~.^._.~.^.~.~.~.^.~.'.R.'.(.W.T.T.'.'.T.T.T.'.T..XW.Q.S n S S S S S b b A A F A b b b b S b S S S S A A b A S S S b S S S S b b b b b b b b b A A A b b c b b S A P A P r.@XW.T.W.T.W./.(.E.T.E.W.T.!.T.R.T.~.~.~.R.(.~.(.~.'.!._. Xc.}.}.c.c. X}.c.c.}.k.c.c.`.`.`. X`.`.`.'.'._.`.`.`.!.'.OXI.$XF.<XI.$X$X<X$X$X$XF.OXn.n.k.k.x.x.x.k.x.x.n.n.:XI.I.I.I.uX%XuXuXI.uXuXuXuXuXuX3 7 6 7 7 x 6 2 2 2 2 2 2 2 ",
"n.x.x.x.x.x.x.x.x.x.x.x.x.x.x.x.x.x.x.x.x.x.n.x.x.x.x.x.x.x.x.x.j.z.x.x.x.k.c.x.k.c.x.k.x.k.j.x.z.x.k.x.x.x.k.c.x.c.j.x.x.k.c.j.k.x.x.x.z.z.[.b.R.T.T.!.T.~.T.T.!.!.!.b.!.b.R.!.T.T.T.T.!.T.T.T.T.T.oXa.3 e q 3 7 0 q q 9 3 2 2 4 = 9 a 9 q 5 9 9 9 r r 9 w r g z q p r q p p r q p p q p q q q z r r q q q z q 9 q r r 9 q 9 r j f g f y p z h z h S #XE.E.E.E.E.T.E.E.T.!.E.E.R.[.z.z.j.z.j.z.n.j.z.z.j.z.z.z.j.j.z.j.z.z.z.z.z.j.j.z.j.z.z.z.x.z.k.k.l.z.k.z.z.z.z.n.z.z.z.z.z.z.z.z.z.z.z.z.z.z.z.z.z.j.z.z.j.j.j.j.n.j.j.n.z.n.z.z.z.j.j.j.j.j.n.].z.j.z.z.j.z.j.z.j.z.z.j.x.x.x.z.z.x.x.z.c.j.j.c.j.j.k.k.k.k.j.j.z.j.z.j.j.x.x.j.x.x.j.x.j.z.z.z.z.x.j.z.k.z.z.k.j.c.j.x.j.j.x.x.x.k.x.x.x.x.k.c.x.x.k.x.k.j.x.x.x.k.z.k.k.c.j.x.x.j.x.x.j.x.j.j.c.k.x.x.z.j.z.j.c.k.x.j.x.c.x.k.x.x.k.j.c.k.x.c.j.c.j.j.c.j.k.x.x.z.x.j.x.x.x.x.k.c.x.x.x.j.x.x.x.c.z.k.x.x.x.x.k.z.z.z.z.z.x.x.k.x.x.z.x.x.x.x.x.k.c.x._.~.!.~.!.!..X!.!.!.!.oX!.'.!.T..XT.W.!.W.(.T.!.W.W.oXW.A.& q p 5 q q p n q q q 3 3 n q b q q y q 7 p q p p p p p q p p u q p p 7 b 7 7 b q q q 7 + + & 0 0 5 3 = 0 0 0 q : P @XW.T.T.W.W.E.T..XW.T.W.T.W.T.E.T.W.T.Y.T.T.T.T.T.T.T.`.}.c.[.}.}.}.}.c.c.}.c.c.c.x.}. X}.[. X X}.[.[. X[. X}.c.[.|.:X:X:Xn.n.{.n.:X{.|.{.:Xn.n.n.k.x.k.x.c.k.x.}.n.n.<XI.uXhXlXlXkXlXlXlXlXuXuXlXlXuX9 x 2 x 7 7 1 6 2 6 2 6 2 2 ",
"x.x.x.x.n.x.x.k.x.k.x.x.k.x.k.x.k.n.x.x.x.x.x.k.x.x.x.x.x.n.k.x.c.k.j.j.j.c.k.z.x.k.k.x.c.x.x.c.x.x.k.x.k.x.x.c.x.x.x.k.x.x.k.j.j.c.x.c.k.x.c.~.!.!.T.!.T.!.T.T.T.!.E.T.T.T.T.R.T.!.R.T.!.T.R.T.W.!.E.a.z p p p p p p p p i u u i 8 a a j j j j z j j j a a a f j u j u j j a j a j a a k a a u p f f a a s u 9 s a s a a i u a u u p j u j u f a j F %XE.E.E.E.E.E.E.E.E.E.E.E.V.{.z.j.n.z.j.k.z.z.z.z.z.z.n.z.j.z.z.z.z.n.j.j.k.k.z.z.z.x.z.z.x.x.x.j.z.j.j.z.z.z.z.k.z.z.z.n.n.z.z.z.z.z.z.n.z.z.z.z.j.z.j.z.z.j.z.j.z.j.z.z.z.z.z.z.z.j.z.z.z.z.z.z.j.z.j.j.z.j.z.z.j.z.z.z.z.z.z.z.j.z.k.k.j.k.x.j.z.k.k.k.k.k.j.k.c.j.z.z.z.x.x.j.x.k.x.x.x.z.z.z.z.z.z.x.z.n.z.z.z.z.k.z.j.c.k.x.x.c.j.x.x.x.k.x.c.x.x.z.x.x.c.x.x.x.z.c.x.j.j.x.x.c.j.x.j.c.j.k.z.j.c.x.j.c.j.c.k.x.j.x.k.k.x.x.z.k.x.j.j.x.x.j.k.z.z.z.z.j.z.z.z.z.j.x.k.x.x.x.x.x.x.k.x.k.x.x.k.k.x.x.x.x.k.x.z.z.z.z.x.x.x.x.x.x.k.x.x.n.x.x.x.x.x.}._.'.!.!.oXoX!.oX.X!.oX!.!.oX.X.X!.W.oXW.W.!..X!.oXW.oXW.L.0 6 9 7 u 9 9 9 9 9 6 q 7 7 p 7 p p p u u p u p p p p p p u u a u u u p p p p u 9 9 9 . 2 1 2 2 4 6 8 7 3 9 7 3 0 P @XW.W.T.W.E.W.W.W.W.W.W.W.W.T.E.T.E.E.E.E.!.E.!.E.T.T.`.}.c.}.}.c.}.c.}.c.}.}.*Xc.c.c. Xc.c.c. X_.l.}.[.[.c.c.c.c.c.c.k.k.k.z.k.z.k.n.x.n.k.z.n.x.k.k.k.x.c.k.k.x.j.n.].uXvXkXkXkXkXkXuXdXhXuXdXkXdXyX4 * 2 2 2 3 6 2 2 2 6 2 2 6 ",
"n.x.x.x.x.x.k.x.x.x.x.x.x.n.x.x.x.x.x.x.n.x.x.x.x.x.x.x.x.x.x.k.x.x.x.x.x.x.x.x.x.x.x.c.k.k.x.j.k.c.j.x.x.x.x.j.k.x.x.x.x.x.x.x.j.k.j.k.x.c.}.'.T.T.W.T.W.T.W.T.!.E.!.E.T.T.T.T.T.R.!.!.T.!.T.T.W.!.E.a.q p q p 9 u 9 p 7 u u 9 9 u j f j f j f f j j f j j f j a j j p a p p j j u j j a a j j p p u a u j a f f f a f j u u a j f a a u j u f f f S #XE.E.E.E.E.E.E.E.E.E.E.E.R.{.j.j.j.z.z.z.z.z.n.j.z.z.j.z.z.z.z.z.z.z.z.z.z.z.z.z.z.k.j.z.z.z.z.z.z.c.z.x.k.k.z.z.x.z.z.z.j.z.j.z.z.j.z.j.j.z.j.n.j.n.z.z.z.z.z.z.z.z.z.z.z.j.j.z.z.n.z.z.z.j.j.z.z.z.z.z.z.z.z.j.z.z.j.z.z.z.z.k.z.z.z.z.k.c.z.z.z.k.k.x.k.x.j.j.z.x.z.z.x.z.z.j.j.c.k.x.j.x.x.k.x.j.z.j.z.z.z.z.z.z.z.k.x.k.z.j.j.k.x.x.c.k.x.z.j.k.c.j.j.k.j.k.z.j.z.j.j.c.x.x.k.j.c.j.x.j.j.c.k.c.j.z.j.j.x.k.x.z.c.j.k.z.z.z.x.x.z.j.j.z.j.z.z.z.k.z.k.z.x.x.z.k.z.z.c.x.k.x.x.x.x.x.x.c.x.x.c.x.k.z.k.c.x.j.x.x.x.z.k.k.x.k.x.x.k.x.x.x.x.x.x.x.x.x. X!.!.!.(..X.X!.oX!.W.W.oX!..X!..XW.W.W.oXW.W.W.!.W.W.W.L.: u 7 u 9 9 9 9 9 9 9 7 7 p p u p p p u u u p p p 6 p u u p p p p i u p p p 7 u u u u 2 8 2 6 2 8 9 2 3 3 7 7 x 0 P @X.XW.T.W.W.W.E.W.W.W.W.E.T.W.W.T.!.E.!.!.E.!.E.!.T.T.'.}.}.}.}.c.c.}.c.}.}.c.}.c.c.c. X X*X Xc.c.l.[.c.c._. X_.c.}.}.k.k.x.k.n.z.k.k.x.z.z.n.k.k.x.x.x.x.x.k.x.x.n.n.].I.vXkXkXlXkXkXhXvXkXdXvXdXkXyX1 2 * 3 2 2 2 3 2 6 2 6 6 2 ",
"x.x.x.x.x.x.x.x.x.k.x.x.x.x.x.x.x.x.x.x.x.k.x.x.x.x.x.x.x.x.x.k.x.k.c.j.k.k.c.x.c.k.x.j.x.x.x.j.k.x.x.x.x.x.x.x.x.x.j.c.c.k.x.x.x.z.z.x.x.k.[.~.T.!.T.!.W.W.!.T.T.!.!.E.T.T.T.T.R.T.!.T.T.R.T.T.T.T.E.a.7 q u 7 u p u p 9 u u p u u f j s f j s s s f s f s a j f u j u j u j p p j j p j u p u u j f f j u u u j f f f a u u p u a u u p j u p f a F @XE.E.E.E.E.E.E.E.E.E.E.E.R.{.z.j.j.j.z.z.z.z.z.z.z.z.j.z.z.z.n.j.z.z.z.z.z.z.z.j.z.z.z.z.z.z.j.z.x.k.x.k.k.z.z.z.z.z.z.z.z.z.z.z.z.n.z.z.j.z.z.z.z.z.z.z.n.z.z.z.z.z.z.z.z.z.j.j.z.z.z.j.j.z.j.z.z.n.j.z.z.z.z.z.j.z.z.z.z.z.z.z.z.z.z.k.x.k.z.z.z.x.j.k.c.j.c.j.j.j.l.z.j.x.z.c.z.j.x.x.k.x.c.z.x.k.z.k.z.z.z.n.z.z.z.k.x.x.j.k.z.k.c.x.k.z.j.k.j.z.j.k.j.c.j.z.j.z.j.z.z.x.x.c.c.j.k.j.x.x.c.j.j.j.x.j.z.k.x.x.x.x.j.j.z.z.z.k.k.x.z.c.x.j.c.x.z.z.j.k.j.j.k.z.z.z.z.z.x.k.x.x.x.x.x.x.x.x.x.k.j.x.x.x.x.x.x.z.x.k.c.k.c.k.c.x.x.x.x.x.x.x.x.x.x.x.x.n.[.(.!.'.'.W.W.oXW.!..XoXW.oXoXW.!.!.W.W..XW.!.W.!.W.W.W.L.& 7 9 9 6 9 9 9 9 8 9 9 7 p p u p p u 7 u u u p p p p p p p p u u u u u p u u u u u 9 2 2 5 8 2 2 6 6 6 3 7 x 3 = L Q.T.W.W.W.W.W.T.W.T..XW.W.W.T.W.T.T.T.!.E.E.!.W.E.T.T._.}.[.}.x.}.c.}.c.}.}.c.}.}.}.c.c.c.c.c. Xc. Xc.[.c.c.c. Xc.x.x.x.x.x.x.x.n.x.n.z.z.k.n.k.k.x.x.x.x.x.x.x.x.n.n.<XI.lXkXkXkXkXkXkXdXkXkXkXyXlXyX1 2 2 3 * 2 3 2 6 2 2 2 6 2 ",
"x.x.x.n.x.x.x.x.x.x.x.x.x.x.x.x.x.x.x.x.x.x.x.x.x.n.x.x.x.x.c.k.x.k.x.x.x.x.x.k.x.x.x.z.x.k.x.k.z.c.k.x.x.x.k.c.k.x.k.x.x.j.x.k.x.j.k.c.z.j.}.~.T.T.T.T.!.W.T.T.!.E.T.!.!.T.T.T.R.!.R.T.T.!.T.!.T.E.E.$.7 7 u u 9 9 i u i u u 7 u u f s f s a a f j j j j j a j j f p j p j u j j u u j u j j u j u j u u p j j a f a f f u p p u j j a p u j u f r b A.E.E.E.E.E.E.V.E.E.E.E.S.Y. Xz.j.j.z.z.z.z.z.z.j.j.z.n.z.z.j.z.z.z.j.n.z.z.z.z.z.z.j.z.j.j.z.z.j.c.x.x.z.z.z.z.z.n.z.z.z.z.j.j.z.z.j.z.z.z.j.z.z.z.z.z.j.j.z.z.j.j.n.z.z.z.j.z.z.j.j.z.z.z.j.z.z.z.z.z.z.z.z.z.j.z.z.z.z.j.n.z.k.z.z.z.z.x.x.k.z.z.j.k.j.j.j.j.j.v.j.j.z.z.z.z.k.x.k.c.j.x.x.k.x.c.j.j.c.z.z.z.z.k.z.z.k.x.k.c.c.x.x.x.k.x.x.j.c.c.k.j.c.z.j.c.j.z.z.z.j.j.z.j.j.k.x.x.x.k.x.j.k.z.x.c.k.j.c.x.z.k.z.z.z.z.z.z.z.x.x.z.z.x.x.x.j.z.z.j.z.x.k.x.x.z.z.z.z.x.x.k.x.x.x.x.x.k.x.x.x.x.x.k.c.x.k.x.k.x.x.k.z.j.x.j.x.x.x.k.c.x.n.x.x.x.x.x.x. X'.W.T.T..X.XW.W.W.!.W.!.T.W.!.W..XW.oX!.W.!.W.W.W.W.E.L.+ 9 p u 7 9 9 8 9 9 9 7 7 q q u p u p p u u p p p p i u u u u u f f u u u u p u p p 9 2 9 2 2 9 8 4 2 3 3 7 7 7 + A E.T.W.E.T.W.W.W.W.E.W.E.T.T.T.W.T.E.T.E.E.!.E.W.!.W.T._.x.x.{.x.c.}.}.}.}.c.}.c.}.c.c.c._.c.c. Xc.c.c.}.[.c._.[.c.}.}.k.x.x.k.x.x.z.z.n.x.z.z.x.x.k.x.x.x.x.x.x.x.n.n.<XuXlXdXkXkXkXkXkXkXfXkXkXkXvXfX4 2 * 2 3 3 2 2 6 2 2 6 2 2 ",
"x.x.x.x.x.x.x.x.x.k.x.x.x.x.x.x.x.k.x.x.n.x.x.k.n.x.n.x.x.x.x.x.k.x.x.x.k.x.x.x.x.x.x.x.x.k.x.x.x.x.x.x.k.x.x.j.x.x.x.x.k.x.k.x.c.x.k.x.x.x. X~.T.!.T.!.T.T.T.W.T.!.T.T.T.T.T.T.T.R.!.T.T.T.T.T.E.R.E.e.6 p p u u u 9 p u u u u u i j a s g s g j f j s j f j s f u j u j u f f u j p f f f a j u j j u f j u f f a u j u u u s j j u p j u j f p p b A.E.E.E.E.E.E.E.E.E.E.Y.E.R. Xz.z.z.n.k.z.n.z.z.z.z.z.z.z.n.j.z.n.j.z.z.z.z.z.z.z.z.j.z.z.j.z.z.j.k.x.k.x.k.z.z.z.n.z.z.z.z.z.j.z.z.z.z.z.z.z.n.j.z.z.z.n.z.z.z.j.z.z.z.j.z.z.z.j.z.j.z.j.j.z.z.z.z.j.z.z.z.z.z.z.j.z.z.n.n.j.z.z.z.z.z.z.z.z.z.z.j.j.k.j.j.z.j.j.z.x.z.z.z.z.j.x.x.x.j.x.c.k.x.k.x.j.c.j.z.n.z.z.z.z.z.z.k.x.j.j.x.c.k.x.x.x.j.z.j.j.j.c.z.z.z.z.z.j.j.k.j.k.j.j.x.c.x.k.x.j.c.c.j.x.c.j.j.c.x.k.z.x.j.z.z.z.k.z.z.z.z.z.k.z.x.j.z.z.k.k.j.k.x.x.x.x.z.z.x.k.x.x.x.x.x.x.x.x.j.x.x.c.k.x.x.x.x.x.k.c.x.k.z.j.x.c.x.x.x.x.x.x.x.x.n.x.x.x._.(.oXT.T.(.(.!.oXW.oXW.W.oXW.W..X.X.XoXW.W.!.W.!.W.!.W.L.: 9 9 6 u 6 7 u 7 7 9 9 6 9 p p p p u p p p p p p p p p p p u a p a u u u u f p f f q 2 2 8 6 2 9 7 6 3 3 2 2 7 + b Q.R.W.W.E.W.W.W.T..X(.T.E.T.T.W.W.!.!.E.T.!.W.W.E.T.T._.}.}.[.x.x.}.c.}.}.x.c.c.}.}.c. Xc._. Xc. X Xc. Xc._.c._.c.x.x.x.k.x.x.x.x.n.x.n.z.x.x.x.x.x.}.}.x.x.x.}.x.n.n.:XI.vXkXuXhXdXdXvXkXkXkXkXkXkXfX1 4 2 2 * 4 2 2 2 2 2 2 6 6 ",
"x.x.x.x.x.x.x.x.x.x.x.x.x.x.n.x.x.x.x.k.x.x.x.n.x.x.x.x.n.x.x.x.x.c.k.x.x.c.k.x.x.k.k.x.c.k.z.x.x.x.x.x.c.j.k.x.k.c.x.x.j.x.c.x.k.x.k.x.x.x.}.~.T.E.T.T.W.!.!.W.T.T.T.T.T.T.T.T.!.T.R.T.T.T.!.T.T.T.L.e.7 7 7 u 9 u p 9 u u u u 8 u j f j s f s s f s g s f j f j u p j p j a p j u a f p j j u p u u j j u j p j f j f j f u j p f j a p f u u p p b L.E.E.E.E.E.E.Y.E.E.Y.E.E.R.{.z.k.k.z.z.z.z.z.z.z.z.n.z.j.z.z.z.z.z.z.j.z.k.z.z.z.z.j.j.z.z.z.j.x.x.z.c.j.l.j.k.j.j.j.z.z.z.z.n.z.z.z.n.j.z.z.z.z.z.z.j.z.z.z.j.z.z.z.j.n.z.z.j.z.z.z.z.z.j.n.z.z.z.n.z.z.j.z.z.j.z.z.z.j.z.z.z.z.z.j.z.z.z.k.z.z.x.j.k.k.k.j.j.c.z.x.z.k.x.z.z.x.c.k.k.x.j.x.x.x.x.x.j.z.k.z.z.z.n.z.z.k.c.z.x.z.j.x.j.c.j.j.c.k.x.x.z.k.z.k.z.j.z.z.z.z.z.x.c.x.x.k.j.z.z.j.j.j.c.z.k.x.j.j.x.c.z.z.z.z.z.z.z.z.z.z.j.k.k.c.x.z.z.k.k.n.x.x.x.x.x.x.{.x.k.c.k.x.x.x.x.x.x.x.c.z.k.x.j.x.k.x.j.c.x.j.x.x.x.x.x.k.x.x.k.x.x.x.x.x.x.x.x.x.[.(.W.(.'.(..XW.!.W.W.!.W.!.oXW.!.!..XW.W.W.T.W.W.W.W.W.L.+ 9 i 9 7 9 6 7 9 9 9 9 6 p 9 u p u p p p 7 p p p p p p u p u a u u u u u u 9 u 9 f f 2 6 2 6 2 6 2 2 3 3 2 * 7 + S Q.E.E.W.W.W.T.E.W.T.E.T..XT.W.T.W.T.E.!.E.E.E.W.E.E.T.`.}.}.}.x.}.x.c.c.c.}.}.c.c.c.c. Xc.c.c.c.c.c. Xc. Xc._. Xc.}.x.x.k.k.x.x.k.z.z.z.x.n.x.x.k.x.x.x.x.x.x.x.x.n.n.].I.uXkXhXkXkXkXdXkXlXkXfXkXvXyX2 4 4 2 2 2 2 2 2 2 2 2 2 2 ",
"x.x.x.x.x.x.n.x.x.x.x.x.x.x.x.x.x.x.x.x.n.x.x.x.x.x.x.x.x.x.x.k.x.j.x.x.x.z.k.x.x.k.x.x.x.x.x.x.x.x.x.k.x.x.x.k.x.x.x.x.c.x.k.x.x.x.c.x.x.x.c.R.T.T.E.!.!.W.T.T.T.T.T.T.T.T.T.T.!.R.!.T.T.!.W.W.T.!.E.a.7 7 p u u u 9 i i u 9 9 u 9 j s f f g s f s s j g s f j p j u u u j u j f u j u j p s f j u j a u p j j u u j p u u u u j u u f f u u f p f b Q.E.Y.E.E.E.E.E.E.E.E.E.E./. Xz.k.k.z.z.z.z.z.z.z.z.z.z.n.z.z.j.z.z.j.n.j.j.n.z.z.z.z.z.z.z.j.j.z.x.j.x.x.z.z.z.z.z.z.z.z.z.z.z.j.z.z.z.j.z.j.z.z.z.n.j.z.z.n.j.z.n.z.z.z.z.z.z.j.z.z.j.z.z.z.j.z.z.z.z.z.z.z.n.j.z.j.z.z.z.z.n.z.z.j.j.z.z.k.z.x.z.j.j.k.k.x.z.j.z.z.z.z.z.z.j.x.z.k.x.c.j.x.x.x.z.c.z.j.z.z.z.z.z.z.z.x.x.k.x.c.k.x.k.j.j.c.x.x.k.x.j.c.z.k.z.z.z.z.z.z.z.x.x.z.k.x.c.j.k.x.x.x.j.j.k.x.x.j.x.k.j.z.x.z.z.j.z.z.x.x.k.j.x.x.x.z.x.x.z.k.k.k.x.x.x.z.x.z.x.k.x.x.x.x.x.x.x.x.k.x.x.c.x.x.x.x.x.x.j.j.x.x.x.x.x.k.x.k.x.x.x.x.x.x.x.x.x.x.[.(.W.T.W.(.W.oX!.W.W.!..X!.W.!.W.W.!.W.T.W.!.W.!.W.W.W.L.+ 9 9 9 9 9 6 7 7 9 9 u 6 p u u u p p u p p p i p p p p u u p u u u a u a f u u f f 9 2 2 6 2 2 8 7 2 3 x 6 6 7 3 A Q.E.W.W.T.W.W.W.W./.W.W.E.W.W.W.T.T.E.E.!.W.E.T.W.W.R._.}.}.[.c.{.c.}.x.}.c.}.}.c.c.c.c. Xc.c.c. Xc.c.c.c.c._.c.c.c.}.k.x.x.x.x.k.n.z.z.n.x.x.x.n.x.x.x.x.n.x.x.c.n.n.<XI.hXkXvXkXkXhXkXkXkXkXkXdXvXyX2 4 2 4 3 2 2 2 2 2 2 6 2 2 ",
"n.x.x.x.x.x.k.x.x.x.x.x.x.x.x.x.x.x.x.x.k.x.k.x.x.k.x.x.x.x.x.x.x.x.x.x.x.k.x.x.x.x.c.j.k.x.x.x.x.x.x.x.k.x.k.c.x.x.x.k.x.x.x.x.x.x.j.x.x.x.[.R.T.T.T.T.T.W.T.T.!.T.T.T.!.T.R.T.T.!.T.T.!.W.W.!.T.T.Q.e.7 7 p p i 9 u u 9 u u i u a f s f s a s g f f f s j j f j u j j u f j u j j p j p f p j u f u p u f u a u j u j j u u f u u j u p p s f a f b L.E.E.E.E.E.E.E.E.E.E.E.Y.R.{.z.k.z.z.z.n.z.z.n.z.z.z.z.z.n.z.z.z.z.z.z.z.z.z.z.k.z.z.z.z.z.z.z.z.x.x.x.k.z.z.z.j.z.z.j.n.z.z.z.z.j.n.z.z.z.n.j.z.z.z.z.z.z.z.z.z.j.z.z.z.z.j.z.z.n.j.z.z.z.z.z.n.z.j.z.j.n.z.z.z.j.z.z.z.z.z.j.z.z.z.j.k.z.z.z.j.x.x.j.j.z.z.z.l.z.{.z.z.x.j.z.x.x.x.x.k.j.c.j.k.x.k.j.j.z.z.z.x.z.z.z.k.x.x.k.j.x.x.x.x.z.k.k.c.x.x.k.x.z.z.z.j.z.n.z.k.z.x.k.x.c.x.z.k.x.c.k.j.k.c.j.x.j.c.x.x.z.z.k.z.z.j.z.x.x.j.l.z.j.x.k.z.z.k.z.k.k.z.x.x.x.{.x.z.x.x.c.k.x.x.x.x.k.k.x.x.k.z.k.x.k.c.k.x.k.c.x.x.x.x.x.x.x.x.x.x.x.x.x.x.x.x.x.x.[.(..X(.!.T..XW.W.W.oXW..X!..XW.!.W.W.W.!.W.!.W.W.W.W.W.L.: 9 u u 9 9 9 9 9 9 9 9 7 u p p p p u p 7 i p p p p p p p p u a u u u u u f 9 a 9 f f 2 9 2 2 2 6 3 3 * 3 6 3 x = A Q.E.E.E.E.T.T.T.W.W.W.T.W.T.W.T.T.E.!.E.E.W.T.E.W.W.R.`.}.x.}.}.x.c.}.c.c.}.c.c. Xc.c.c.c._.c.c.c.[. Xc. X Xc. Xc.x.x.x.x.n.x.k.x.z.z.z.z.x.n.x.x.x.}.x.}.x.}.x.x.n.n.<XI.kXkXhXkXkXuXkXkXkXlXkXdXvXfX@ 4 3 * * 3 2 2 2 2 2 2 2 2 ",
"x.x.n.x.x.x.x.x.k.x.x.x.k.x.x.x.x.x.x.x.x.x.k.x.x.x.x.x.x.x.x.k.x.x.x.x.k.x.n.x.x.x.x.x.x.k.c.x.x.x.z.z.x.x.x.x.z.}.x.k.x.x.{.x.x.x.x.x.{.x.[.~.W.W.T.!.W.T.T.T.W.!.!.W.W.T.T.R.T.T.W.T.T.E.W.E.W.W.#XL 9 u 9 u i u u u u u i u 9 u a s s f j s f j s f f j f f j u j p f a u p j j u a u j u u p u f f f a a a f p j a j u f a u j j u p u p s p p b L.Q.E.E.E.E.E.E.E.E.E.E.E.R. Xx.x.k.k.k.z.z.x.z.k.j.j.j.j.z.z.z.z.z.k.z.z.z.z.z.n.z.z.z.j.z.z.z.j.z.z.z.j.j.z.z.z.z.z.j.z.j.z.z.z.z.z.n.z.j.z.z.z.z.j.z.j.z.z.n.z.z.k.z.j.z.z.z.z.z.z.j.z.z.z.n.j.j.z.z.z.z.z.j.j.z.z.n.z.j.z.z.j.j.z.z.k.k.k.z.x.x.j.j.j.x.x.c.x.j.z.z.z.n.j.z.z.z.n.n.j.z.z.z.k.k.k.k.k.z.n.k.z.z.z.z.j.z.z.z.z.z.z.z.z.z.z.z.j.z.z.z.n.j.z.z.z.z.z.z.n.z.k.z.z.z.z.n.z.z.z.j.z.n.z.j.z.z.j.z.z.z.j.z.j.z.z.z.z.z.z.z.z.z.z.k.n.k.k.n.k.n.k.j.z.z.z.z.z.x.c.x.x.x.x.z.x.c.x.x.x.k.k.x.x.x.z.z.x.z.x.x.x.x.x.x.j.x.j.x.x.x.x.x.x.z.{.x.x.[.(..XW.W.W..XW.oXW.oX(.!..XT.!.!.W.W.W.oXoX.X.X.X!..X.XL.: u q u 9 7 7 7 9 9 q 9 6 7 p q u p p p p p p p u p p p u p u u f u 9 f p f u 9 9 f 9 9 2 2 2 5 5 4 2 2 * 3 2 2 + A @XE.!.Q.!.E.!.E.!.W.W.W.W.W.W.!.E.T.E.E.!.E.E.!.E.!.R.'.}.c.c.}.[.}.x.c.}.c.c.x.}.}.c.[.[.[.c.c.c.c.c.c.[.c.[.l.{.z.j.n.j.j.k.k.k.z.n.z.x.z.n.z.z.n.{.z.{.x.z.}.x.x.}.+XuXvXkXkXkXkXkXkXkXkXkXlXkXvXyX2 8 1 2 6 2 6 2 2 6 2 2 2 8 ",
"x.x.x.x.x.x.x.x.x.x.x.x.x.x.x.x.x.x.x.x.k.c.x.x.c.k.x.x.x.x.x.x.k.x.c.k.x.x.x.k.x.x.x.x.x.k.x.k.x.x.z.x.x.x.x.x.x.x.k.x.z.z.z.z.z.z.x.x.x.x. X~.T.!.T.W.W.T.T.T.T.T.!.W.W.T.T.!.T.T.T.!.T.W.W.W.W.E.#X$.4 u 9 u u 9 i 7 6 u 9 u u i a f g s s g f s a g f s f s u j u j u f j f f u u j j u p f a j u u a f f a s j p j u u u u u u a u a j p p p q b @XE.E.E.E.E.E.E.E.E.E.E.E.R. Xx.k.z.k.z.z.z.k.z.k.j.j.n.l.n.j.n.z.z.z.z.k.z.z.z.j.j.z.z.j.j.z.j.z.j.z.z.z.j.n.z.j.z.z.z.j.z.z.z.z.z.z.j.z.z.j.z.j.z.z.z.z.j.z.j.z.z.z.z.n.n.j.z.z.z.j.z.z.j.n.z.z.z.j.z.z.z.j.z.z.z.z.z.z.j.z.z.z.z.z.z.n.k.k.x.x.x.c.c.x.x.k.k.x.z.z.z.k.z.z.z.z.z.z.z.z.z.z.z.z.k.k.z.k.z.z.z.z.z.z.z.n.z.z.z.z.n.j.z.z.z.z.z.n.z.z.z.z.z.z.n.z.z.k.z.z.z.k.k.z.z.z.z.z.n.z.j.z.z.j.j.z.j.z.z.z.z.z.j.z.z.z.j.z.n.z.z.z.z.z.z.k.k.k.k.k.j.k.z.z.z.z.n.z.x.x.x.x.x.x.x.x.x.k.k.x.c.x.x.k.x.x.x.x.x.x.x.x.k.x.c.j.k.c.x.x.x.x.x.x.x.x.z.x.[.~..X(.oX!.(.!.!.oXT.oX.X.X.X.X.XoXoXoX.XW.W..XW..X.XW.L.> 9 7 9 9 9 u 9 9 9 7 9 7 7 p u u u p p p p p p q p q u q 9 p q p 9 f 9 p f 9 f a f w 2 2 2 4 2 2 2 2 2 2 2 2 6 + A @XE.E.!.E.E.E.E.E.E.W.W.W.W.E.!.E.T.E.E.!.E.!.E.!.!.R._.[.x.c.c.}.x.}.x.}.}.}.}.c.c.[.c.}.}.[.c. Xc.[.c.c.[.c.[.[.z.n.j.j.n.k.n.k.z.k.z.n.z.n.z.z.x.x.z.n.n.z.}.x.x.x.].I.lXkXkXkXkXkXkXkXdXlXkXlXkXfX@ 4 2 6 2 2 2 2 2 1 2 6 2 2 ",
"x.x.x.x.x.n.x.x.x.k.x.x.x.x.x.x.k.x.x.x.k.x.x.x.x.x.k.x.x.x.x.x.x.x.x.k.k.k.x.x.x.x.c.k.x.x.c.k.x.x.x.x.c.x.x.x.k.k.x.x.x.x.z.z.x.x.z.x.x.x.[.~.T.T.T.W.!.T.T.!.T.T.!.T.!.T.T.R.T.T.T.!.W.W.W.!.W.W.#XL 5 q u i 9 i u u u u u 9 9 i a s f j s g j g s s a g f s j p f f j u j p j j p f f j f p u j f u f u a g p p u u j u u p u j u j a a a a p 7 b L.E.W.E.E.E.E.E.E.E.E.E.V.R.}.k.x.z.z.z.z.z.n.j.k.n.j.z.z.z.z.z.z.z.z.z.n.z.z.z.z.z.z.n.j.z.z.j.z.j.j.z.j.z.z.z.j.z.n.j.z.z.z.j.j.z.z.z.z.z.j.z.j.z.z.j.z.z.z.z.z.z.n.z.z.z.z.z.z.z.n.z.z.z.z.z.z.z.z.z.z.k.k.z.z.z.z.z.z.z.j.z.z.z.z.z.k.k.z.x.z.x.z.k.c.x.k.x.x.z.z.z.z.z.k.z.k.z.n.z.z.z.x.k.x.k.k.k.k.z.z.z.k.j.z.k.z.j.z.j.z.z.z.z.z.n.j.j.z.z.z.z.z.z.z.j.z.z.z.z.k.z.n.z.z.z.j.k.z.k.z.z.z.z.z.z.z.z.j.z.z.z.z.n.z.z.z.n.z.z.z.j.z.k.z.k.k.n.k.k.j.k.j.n.j.n.z.z.z.k.k.x.x.x.x.x.x.x.x.x.x.x.x.x.c.x.k.x.k.x.x.x.x.x.c.x.k.x.x.x.x.x.x.x.x.x.z.x.l.[.(..X.XW.!..XW.W.!..X.X'.T.(.T.!.!..X!..X.X.X!..X.X.XW.L.: q 9 9 9 9 9 u 9 9 u u 9 7 p q 9 p p p p p p p p p p f 9 p p p p p u f f p a 9 p u 9 2 6 2 3 8 8 9 9 2 2 2 2 2 = L @XE.E.!.E.!.E.Q.!.E.E.W.E.W.E.!.W.T.E.!.E.E.!.!.E.!.!.-X X}.c.}.c.c.x.}.c.c.x.c.}.c.}.c.}.}.c.[.c. Xc.}.c.[.c.c.c.{.z.z.k.j.k.z.n.z.n.z.x.x.x.z.z.n.}.x.z.}.x.x.x.z.}.<XuXuXkXvXkXkXkXhXkXkXvXkXdXsXyX1 8 6 6 2 6 2 2 2 6 2 6 2 6 ",
"x.x.x.x.x.x.x.k.x.x.x.k.x.x.x.c.x.x.x.k.x.x.k.x.k.x.x.x.x.x.c.k.x.x.x.x.c.x.x.x.k.x.k.x.x.k.x.x.x.c.x.x.x.x.x.k.k.n.}.}.}.{.}.}.{.{.}.c. X X|.~.T.T.T.T.W.T.W.T.W.W.W.T.!.E.E.E.W.Q.E.W.@X%X%X%X%X#X=X$.9 9 9 u 9 9 9 i u u 8 a u w a a f s f a s a a a a s a f u f p j u j u j u a u u u j u i u u f i u j s a a f j a u u u p u u u p p a p a p p b Q.Q.E.E.E.E.E.E.E.E.E.E.E.R. Xx.k.k.k.k.z.z.k.j.j.j.j.j.z.n.z.z.z.j.n.z.z.z.z.z.j.j.z.z.z.z.z.z.j.z.z.z.z.j.z.z.z.z.z.j.z.j.z.z.z.z.j.z.j.z.z.z.z.j.n.n.z.j.n.z.z.z.j.z.z.z.z.j.n.z.z.z.j.j.j.z.z.z.z.j.z.n.z.z.z.z.z.j.j.j.j.z.z.j.n.z.k.k.x.x.x.z.x.x.x.j.c.j.x.k.z.k.z.z.z.z.n.z.k.z.z.j.x.x.z.z.k.k.k.z.z.n.z.n.z.z.z.z.n.z.j.j.z.j.n.z.z.z.z.j.n.j.z.j.j.z.z.n.z.z.z.z.k.z.z.z.z.z.z.z.j.z.z.z.z.z.j.j.j.n.z.z.z.j.z.z.z.j.z.n.z.z.z.z.z.k.k.k.j.k.k.k.k.k.z.z.z.z.n.x.x.x.x.x.x.x.x.x.z.x.x.x.k.j.j.k.x.k.x.x.x.x.x.k.j.x.x.k.x.x.x.x.x.x.x.x.x.x.x.{./..XoXW.W..X!.oXW..X!.!.!.'.@X@X@X@X%X@X@X@X@X@X@X@X%X#X= 7 9 9 9 9 9 7 9 9 9 9 9 9 p p p 7 p u u 9 u 9 u u u u u u q 9 p 9 u 9 p 9 u f u f 9 1 2 9 3 9 3 2 2 3 2 2 2 2 + L %XQ.Q.Q.@X@XQ.Q.Q.!.Q.!.@XE.!.!.Q.E.!.E.!.!.E.!.T.!.!._.[.}.}.}.}.}.[.}.}.}.}.c.}.c.[.}.c. Xc.[.c.[. Xc.[. X[.c.c.{.n.k.n.n.z.k.n.z.z.z.n.z.x.z.{.}.x.x.}.x.}.x.{.n.n.;XI.vXjXkXjXvXkXjXkXkXkXkXkXkXyX1 8 1 6 2 2 6 1 2 2 2 2 2 6 ",
"x.x.k.x.x.x.x.x.x.x.x.k.x.n.x.k.x.x.x.x.k.x.x.x.x.k.x.x.x.x.x.k.x.x.x.k.x.x.x.n.c.k.c.k.x.x.x.x.k.x.k.x.z.x.x.k.k.z._.v.v._.^.v.v.^._.v._.^.'.(.T.W.T.!.W.W.W.T.T.(.T.T.W.r.A A A S b S L L A S b A F n s a g a j j j k j s j g j j j s g s s s j a s s f s f j z j z j j j j j j j z j j j z z j j k j j k j j j j z z j f j f j f l f j p p p p p b L.Q.E.E.E.!.E.E.E.E.E.E.E.R. Xx.x.x.x.x.c.}.c.x.z.z.x.z.z.z.z.z.z.n.k.z.z.k.z.j.j.z.z.z.z.z.z.j.z.z.z.z.z.z.z.z.z.z.z.z.j.z.z.z.z.n.j.j.z.z.z.z.z.z.z.z.z.z.z.z.z.z.n.j.z.z.j.z.z.z.z.z.j.j.z.j.z.n.z.z.z.z.z.n.z.z.z.z.z.z.z.z.n.z.z.z.z.k.z.z.x.c.x.x.k.x.z.z.x.n.z.z.z.z.z.z.z.z.z.z.z.z.x.z.x.x.j.k.k.z.n.z.j.z.z.z.z.z.z.j.z.z.z.n.j.z.z.z.j.z.z.z.z.z.j.j.z.z.z.z.z.z.z.z.z.z.z.n.k.z.j.z.z.z.j.z.z.j.z.z.z.z.z.n.z.n.z.z.j.j.n.j.k.z.k.k.k.k.k.k.j.k.k.n.j.n.j.z.z.k.n.x.n.k.k.k.x.x.x.x.k.k.j.j.j.k.n.k.k.z.k.z.z.x.x.k.z.x.c.x.x.x.k.x.c.x.x.x.x. XY..X.XoXW.T.T.T.W.!.W.W.W.Q.e.P R P P $.P P P R P P P 5.q p z f f f h z z h j h f f f z p j z j z p j f f z f j j f z z z z z j j z f j h z k p f q f r f p q f q p q p 0 n $.e.P e.P e.a.e.r.r.r.a.e.p.Q.W.Q.!.E.!.!.E.!.E.!.!.T.!._._._.!.!. X[._._. Xl._.[.[._. X_._._._._.[.[._._._._.[.l.}.n.n.k.z.n.k.k.k.n.k.k.z.n.x.x.x.{.}.x.x.}.x.}.}.}.|.uXvXkXkXkXjXkXvXxXkXkXxXkXkXyX@ 4 2 6 2 2 2 2 2 2 2 2 6 2 ",
"x.x.x.x.x.x.x.x.x.x.x.x.x.x.x.x.x.k.x.k.k.x.x.x.x.x.x.x.x.x.x.x.k.x.x.c.x.x.n.x.x.x.x.k.x.k.x.x.x.z.c.z.x.x.k.x.}.[.~.R.T.(.T.~.T.~.T.(.T.(.~.(.'.T.T.W.!.!.T.T.T.T.!.!.Q.$.0 n h f n z ^ n n { n z n z ( m k ~ ! ( ~ ( ( ( ( ( ( ( ( ( ( ( ( ( ( m ( m ( ( ( ~ ~ ~ ~ ~ ( ( ( l ~ 6.` ` ' ~ ` ` ' ` ` ' ( ( ( ( ~ ` ( ( 6.~ l 6.6.~ ~ 6.6.^ k ^ z z b L.!.E.E.E.E.E.E.E.E.E.E.E.T.`.l.[.[.l.[.[.{.[.[.[.[.v.c.x.z.z.k.n.z.z.z.z.j.n.z.n.z.z.j.z.z.z.z.j.z.z.z.j.j.z.z.z.z.z.z.z.n.z.z.z.z.z.z.z.j.z.z.n.j.n.z.z.z.z.j.n.z.z.z.z.z.n.z.z.n.z.z.z.z.z.z.z.j.z.j.z.z.z.z.z.z.z.z.n.z.j.z.z.z.z.z.z.k.x.x.k.x.x.x.x.c.z.x.z.z.z.z.k.k.z.z.z.z.k.n.z.z.x.z.x.k.k.k.k.z.j.z.z.n.z.j.n.n.z.z.z.z.z.z.z.z.z.z.n.j.z.z.j.z.z.z.z.n.z.z.z.z.z.z.z.z.z.z.z.z.n.z.z.z.z.n.z.j.n.z.z.z.z.j.z.z.z.z.z.j.j.j.j.n.k.k.k.j.k.k.n.n.k.n.j.j.j.j.z.k.x.k.k.n.k.x.k.x.k.c.x.z.k.k.k.k.k.k.z.k.z.z.z.x.k.x.x.x.k.x.x.x.x.x.k.x.x.{.c. X~..XT.W.W..XT.!.W.W.!.oX'.#Xc h n n z z z n z l l n n n ^ l n l h l l l ~ ~ n ~ l ~ n ^ n ^ l j ^ ^ z l l l l z h l k k k l ^ h l l l l l l l h 6.~ l l 6.6.6.l l h 6.l 6.t 5 7 p p j n 7 x 7 q q 3 7 P @XW.W.E.!.E.E.!.E.!.E.T.E.T.R.!.!.b.!.T.b.!.R.!.!.R.!.R.R.!.!.!.!.!.T.!.!.'.!.T.T.(.b.[.z.j.n.k.n.k.n.k.k.n.z.z.z.x.{.[.x.x.[.[.x.}.c.z.z.OXI.vXjXvXjXkXvXkXjXxXkXkXkXkXyX1 4 2 2 1 6 6 2 2 2 2 2 2 6 ",
"x.x.x.x.x.x.x.x.x.x.x.x.x.x.x.x.x.k.c.x.c.x.k.x.x.x.x.x.x.x.x.x.x.x.x.x.x.x.x.x.x.x.x.x.x.k.x.x.z.x.k.x.x.x.x.x.x.[.~.W.W.T.W.!.W.W..XT.W.T.T.W..XT.T.W.T.T.T.T.T.'.T.!.E.$.e p j z z j z z z z z l z k k ( ( k ! m ( l ( k m ( m ~ ( ( ( ( ( m ( ( ( ( ( ( ( ( ~ ( ( m ( l ( ( ~ ~ 6.` ~ ~ ~ ~ ~ ~ ~ ( ( ~ m ( ( ( ( ~ n ! l ~ ^ l ^ l l l ~ l z ^ n L.Q.E.!.E.E.E.E.E.E.E.E.E.R.'.~.v.^.^.v.~._.^.^.^.^.v.v.{.n.z.z.z.z.z.z.z.z.z.z.z.z.z.z.z.z.z.z.z.z.z.z.j.j.n.j.z.z.z.n.j.j.z.z.z.z.z.z.j.j.z.z.j.z.z.z.j.k.z.z.z.k.z.k.n.z.z.z.j.j.z.z.j.z.n.z.z.z.z.n.z.z.z.z.z.z.z.x.z.z.z.z.z.z.z.z.z.x.x.x.x.j.x.x.x.k.x.k.x.n.z.z.n.k.z.z.z.z.n.n.z.j.x.x.x.x.x.k.k.z.z.z.k.j.z.z.z.j.z.z.n.n.z.z.z.j.z.z.z.n.z.z.n.z.z.n.z.z.z.z.z.z.x.z.n.n.z.z.z.z.z.j.z.j.z.j.z.z.z.z.z.z.k.z.z.n.z.z.j.j.j.z.n.j.z.j.k.k.k.k.j.j.n.j.n.k.j.j.j.k.k.k.x.k.k.k.x.k.z.x.x.j.j.x.k.k.x.k.k.k.x.z.z.x.x.c.j.x.z.x.c.c.x.x.x.x.x.x.z. X~..X(.(.W..X!.W.W.!.W.!.!.#Xb l k l l z l l z l l j k z ~ l ~ ! l k ! l l z l ~ h ~ l l l n ^ l l l l ^ l l k l l l l l l l ~ l l ~ ~ l l l n l l l l l l l l l ~ 6.~ ~ l j f p p p p p p q p 7 p p q A @XW.W.!.E.E.!.!.T.E.T.T.!.!.R.b.!.E.E.!.!.T.T.T.T.T.T.T.T.!.T.!.!.T.E.T.T.!.R.R.E.W.R.|.z.j.n.k.z.z.n.z.k.k.k.z.z.z.x.}.c.c.x.[.x.{.c.z.{.<XI.vXkXkXvXvXvXkXvXkXkXkXvXdXpX6 4 2 2 1 6 2 2 1 8 6 2 2 6 ",
"n.x.x.x.x.x.k.x.x.x.x.x.x.x.x.x.x.x.x.x.x.x.x.x.x.x.x.x.x.x.k.x.k.x.x.x.x.x.x.x.k.x.k.x.z.z.z.x.x.x.k.x.x.x.x.x.x.[.(.W.!.W.W.W.T.!.W.W.W.W.W.W.!.T.T.!.W.!.W.'.W.!.W.T.E.$.y z z f z z z p f z z z p l ( k ( ( k k ( l k ( ! k ! ( ( ( ( ( ( ( ( ( ( ( ( ( ( ( ( ( ~ ( ( ( ! ( ~ ) ( ~ ~ ( ( ( ( ( ( ~ ( ~ ~ ( ~ l ` ~ l l k h l l l l ~ ~ ~ ~ 6.z F L.!.E.E.E.E.E.!.E.E.E.E.E.T.'.~.v._._.^.'.^.).'.^.).).^.x.z.z.z.z.z.z.z.n.z.z.j.z.z.z.n.j.j.z.z.z.j.z.j.n.z.z.z.z.j.n.z.z.z.z.z.z.z.z.z.n.n.z.z.z.z.z.z.n.z.z.z.z.z.z.z.z.j.z.z.n.z.z.z.n.z.j.j.n.z.z.j.z.z.z.n.{.z.z.z.z.z.z.z.z.z.n.z.n.z.j.z.z.j.x.x.x.x.k.k.z.z.z.z.z.n.z.z.z.z.z.z.z.k.x.x.x.x.j.k.k.z.z.z.n.z.z.z.z.z.z.z.z.z.j.z.j.n.z.z.z.j.z.z.j.z.z.j.z.z.k.z.z.k.z.z.z.z.z.z.k.z.z.z.z.n.z.z.z.z.z.z.j.n.z.z.z.z.z.z.n.n.z.z.z.n.z.k.z.j.n.k.j.n.j.j.j.j.k.n.n.k.k.k.k.k.k.k.x.x.x.k.x.c.z.z.x.z.z.z.z.z.z.j.n.x.k.x.x.x.x.x.x.x.x.x.x.x.c.x.x. X~..X.X.X.XW..XW.!..X.X!.W.Q.b h l l l ~ ~ l l l l l l k l l l l l l F l l ^ ~ l 6.l l l l l 6.l l l l n l l ~ l l n ~ n ^ l n ~ l n l ~ l ~ ~ ~ ~ n l l h ! n l n ~ l 6.l z f p p 7 p 7 p p q p p p q L Q.E.W.!.E.!.!.E.E.T.T.T.T.!.!.!.!.!.!.T.T.T.T.T.R.!.R.E.T.W.T.!.T.!.!.T.!.T.!.T.T.E.R. Xz.k.k.z.z.n.x.z.n.z.n.n.{.}.x.x.{.{.}.x.[.x.x.{.n.<XI.vXkXvXkXkXjXjXkXkXkXvXkXkXyX1 4 6 2 6 2 2 2 6 2 2 2 2 2 ",
"x.x.x.x.x.x.n.x.x.x.x.x.x.x.x.x.x.x.x.x.x.x.x.x.x.x.x.x.x.x.x.n.x.x.x.x.x.k.x.x.z.z.z.z.z.z.z.z.j.c.x.x.x.k.x.x.x. XT.T.T.T.W.T.W.W.T.W.W.!.W.!.W.T.!.T.T.'.T.T..XoXT.T.E.$.q z p z z p z j t z z z z l ~ ~ ~ l ! ~ ( k ( k k ( ( / ( ( ( ( ( ( ( ( ( ( ( ( { ( ( ( ( ( ! ( m ( ( ( ( m ( ( m ( ( ( ( ! ( ( ! ( ( l ( n ~ l l k ~ l l ~ l 6.^ ~ ^ l b Q.E.E.!.!.E.E.!.E.E.!.E.E.E.!.!.!._.~.~.'.'.).)._.~.).v.}.z.z.n.z.z.z.z.z.n.z.z.k.z.z.z.z.n.z.z.z.n.z.z.z.z.z.z.z.n.j.z.z.z.z.z.z.z.n.z.z.z.z.z.z.z.z.z.z.z.z.z.z.z.k.z.z.z.z.z.z.z.z.n.z.z.z.z.z.z.z.z.j.z.z.z.:Xz.k.z.z.z.z.}.z.{.z.z.z.z.z.k.z.z.x.x.c.x.z.z.k.x.z.z.z.z.z.z.z.z.z.z.k.z.x.x.x.x.k.k.k.z.z.z.z.z.z.k.z.z.z.n.j.z.z.k.z.z.z.z.z.j.n.z.z.z.z.j.x.x.x.z.x.z.z.j.z.z.z.j.z.z.n.n.z.z.z.z.z.z.z.k.z.z.z.z.n.z.n.z.k.z.z.z.z.z.z.z.k.k.n.k.k.k.k.z.k.z.k.j.j.k.z.k.z.k.j.j.x.j.c.z.x.j.x.z.z.z.n.k.j.z.z.z.z.z.z.x.x.x.x.{.x.x.x.x.x.x.x.c.{. X~.W.(.W..X.XW.W.T.!.T.oXT.@Xy n ! l ~ n ^ ^ ^ ^ l l l l l l l l l n ~ 6.l l n l 6.~ ! l n ! l ^ l l ^ l l n ~ ~ l ~ n l l l l n ! ~ l l l l n ~ l n l n l h l ~ n ~ l 6.l z f p p p p q q p p q 9 f q L Q.Y.W.W.E.W.W.!.E.E.E.E.!.E.!.!.R.E.T.T.T.T.T.T.T.T.E.T.T.T.T.!.E.!.E.T.T.!.T.T.T.E.R. Xx.x.x.x.k.n.z.z.n.z.n.x.x.}.x.[.x.{.c.x.x.x.{.c.x.].uXvXvXkXjXkXvXkXvXvXkXkXkXkXyX1 6 2 2 6 2 6 2 2 2 1 6 2 6 ",
"x.x.x.x.x.x.n.x.n.x.x.n.n.x.x.x.x.x.x.x.x.x.x.x.x.x.x.k.n.x.x.x.x.x.x.x.x.x.x.x.n.z.k.x.k.x.x.x.x.k.k.x.x.x.x.z.x. XT.T.T.!.!.T.T.!.W.!.W.!.T.W.W.T.T.!..X!.!.W.(..X!.T.Q.$.q z z z z z z f j f j k z l ! l ~ ~ ( ~ k ( m ( ( ( ( m ( ( ( ( ( ( ( ( ( ( ) ( ( ( ( l ( m ( ( ( ( k ! ( ( ( ( ! ( ( ~ ( ( m ( k ( ( ~ ( ~ l ! l l l ^ l l l ~ l l l z n Q.E.W.E.E.!.E.E.E.E.E.E.E.E.!.!.!._.~._._._.'.'.).'.'._.x.z.z.z.z.z.n.z.z.k.z.z.z.n.z.z.z.j.z.z.z.j.z.z.j.j.n.z.z.z.z.z.j.z.{.z.z.z.z.z.z.z.z.z.z.n.j.j.z.n.z.z.z.z.n.z.z.n.z.z.j.n.z.j.z.z.z.z.z.j.n.z.z.z.z.z.z.z.z.z.{.:Xz.z.z.z.z.n.z.k.z.z.x.j.x.k.j.k.x.x.x.x.z.z.z.z.n.z.n.n.z.z.z.z.z.x.x.x.x.z.x.k.n.k.z.z.z.n.z.z.z.z.z.z.z.n.z.j.n.z.z.z.z.z.z.z.z.x.x.x.x.x.x.z.z.z.z.n.z.z.n.z.j.z.z.j.z.j.n.z.n.z.z.k.n.z.z.z.z.z.n.n.z.z.z.z.n.n.z.k.k.k.k.n.x.z.k.k.k.k.j.z.z.z.z.z.z.z.x.k.x.k.x.c.j.z.z.z.z.z.z.l.j.z.z.z.x.z.x.c.x.x.x.x.x.}.x.x.x.x.x.[.~..X.X.X.XW.(.oXW.W.'.oXT.@Xb z z l l ^ ^ n ^ l l j l l l n ^ ~ l l ~ l ^ l l l l n l l l ! n n l l n l 6.l l l l ~ l 6.^ n 6.l ~ ~ ~ l 6.~ ~ l l ! l l l l l ! l l l l ~ l p q p p p q p p p p q 9 q A Q.W.W.W.!.W.W.E.!.!.!.!.E.!.E.E.!.!.E.T.T.T.E.T.T.T.T.T.!.T.!.!.E.E.!.!.T.W.T.T.E.T.R. X}.x.x.x.x.x.z.z.k.z.x.x.}.x.[.[.}.}.c.x.[.[.x.}.{.+XuXlXvXvXkXjXjXvXjXkXkXkXkXkXeX1 2 2 2 6 2 2 2 2 2 2 6 2 6 ",
"x.x.x.k.x.x.x.x.x.x.x.x.x.x.x.x.x.x.x.x.x.k.x.x.x.k.x.x.k.n.x.x.n.x.x.x.x.x.x.x.z.z.z.z.z.z.z.x.x.x.x.x.x.k.x.x.x.[.T.!.T.W.T.W.!.T.T.W.T.W.T.W.W.!.(.!.(.oX'.W.T.!.oXT.E.e.y z f j z z t j f j z z j l m ! l ( ! m ( k ! ! ( k k ( ( ( ( ( ( ) ( ( ( ( ( ( ( ( ( ( ~ ( ( ( ( ! ( ( ( ! ( m ( k l ( ( ( ( ( ( ( ( ~ 6.~ ~ l ! ~ l l l ^ l ~ ^ n ^ n n E.E.E.E.W.E.E.E.!.E.E.E.E.!.!.!.!._.'.'._.'._._._.'.).v.{.n.z.z.z.z.k.z.z.z.z.z.z.z.z.z.z.z.z.n.z.z.z.n.z.k.z.z.z.z.z.k.z.z.k.z.z.z.z.z.z.j.z.n.z.z.z.z.n.z.z.z.z.z.z.k.n.j.z.z.n.z.z.z.z.n.z.n.z.z.j.n.z.n.z.z.{.z.z.z.z.z.z.z.z.x.z.z.x.k.x.z.z.x.x.x.x.x.c.k.k.x.x.k.k.k.z.z.z.z.z.z.n.k.x.x.x.x.x.x.z.z.n.z.z.z.z.z.z.n.j.z.z.z.z.j.z.z.z.z.j.j.z.z.z.z.z.j.x.x.x.z.k.z.z.j.n.z.z.z.z.z.n.j.z.z.z.z.z.z.z.n.z.z.n.z.z.z.n.z.z.z.z.n.z.z.n.z.k.x.x.z.z.k.z.z.z.z.z.z.z.z.z.k.z.z.j.j.x.x.x.x.x.z.z.k.z.z.z.z.k.j.j.z.z.z.x.x.x.x.{.z.x.x.}.x.x.x.c.x.x. X(..X(.W.E..X.XT.W.W.T.oXoX#Xn z l k l ^ n l l l ^ l z l l l l l l l l l n ^ n l ~ l l l l ~ l l l l l l n ~ ~ n ^ ^ ~ l l 6.l 6.n ! n ~ ~ l ~ ~ l l 6.~ l n l l l n ~ 6.6.z f p p p q u q p 7 p p q r P @XW.W.E.!.W.E.E.E.E.!.E.!.E.!.E.E.T.T.T.T.T.T.!.E.E.!.T.T.!.!.E.!.E.!.T.!.T.T.T.E.T.R.|.x.x.z.x.n.x.z.k.n.k.z.{.x.x.}.x.[.}.}.}.x.x.x.x.x.:XuXvXkXvXjXvXkXkXkXkXkXkXkXkXrX1 2 2 2 2 2 2 2 2 2 2 6 2 2 ",
"x.x.n.x.x.x.x.x.x.x.x.x.x.x.x.x.x.x.x.k.x.x.x.x.x.x.x.x.x.x.x.x.x.x.x.k.x.x.x.n.n.z.z.z.k.z.z.x.x.k.k.c.x.k.}.x.x.[.~.T.!.W.!.W.W.W.W.!.W.!.W.T.W.T.T.(.W.!.W.!.(.W.!.oXQ.a.n z t z z f j z z t f z f l ~ k ( k ( ! m ( ! m k ( k ( ( m ( ( ( m ( ( ( ( ( ( m ( ( ( ( ( m ! ( ( ( ( ( ( ( ! ( ! ( ( m ! ( ( ( m ~ ( ~ 6.~ l l l ~ ^ ^ n ^ ~ ~ ^ ~ z n Q.E.E.W.E.E.!.E.E.E.E.E.E.!.!.v.!._.^.'._.).).).'.(.~.v.c.z.z.k.n.z.z.n.z.z.z.z.z.n.z.n.z.z.z.j.z.z.z.z.j.z.z.z.z.z.z.n.z.z.z.z.z.n.z.z.n.z.z.j.z.z.z.j.z.z.z.z.n.z.z.z.z.z.z.z.z.j.z.z.j.j.z.z.z.z.z.z.z.z.z.z.z.z.}.z.n.z.z.n.{.z.z.z.x.z.z.z.z.j.x.z.k.x.x.x.x.z.z.z.x.z.z.z.n.z.z.z.z.z.k.k.k.x.x.x.x.z.z.z.n.z.z.z.z.j.z.z.z.n.z.z.z.z.z.z.n.z.z.n.j.z.k.z.x.x.k.k.z.z.z.z.z.z.z.z.j.z.z.z.j.j.z.z.z.z.z.k.z.z.z.z.k.z.z.z.z.z.z.x.z.z.z.z.z.x.x.k.k.x.z.z.z.n.z.z.n.z.n.k.z.z.z.z.x.x.k.c.k.j.z.z.j.z.z.z.z.z.z.z.z.z.z.x.x.x.z.x.l.x.x.x.c.x.x.x.{. X~..X.X(..X.XW.!.T.W.!.oX!.%Xb h l k l ^ z l l l j l l z l l l n l l l l l l l n ! l 6.l ^ n l l ^ n l l l ~ l l ~ n l l 6.l l l l ~ l ~ n l l ~ n l l l l ~ ! n l l l ` l k f p p 7 p p p u p q p p r L @XW.W.!.E.!.!.!.E.!.E.!.E.!.E.!.T.T.T.T.T.T.T.T.T.T.T.T.E.!.E.!.E.!.E.T.W.T.T.T.W.W.R.|.x.k.x.x.x.x.n.z.z.x.x.x.}.x.{.{.x.x.}.x.[.x.}.}.x.|.uXlXkXvXkXkXjXkXjXvXkXkXkXvXrX8 u 1 6 6 2 2 6 2 2 2 2 2 6 ",
"x.x.x.x.x.x.x.x.x.x.x.x.x.x.x.x.x.x.x.k.x.n.x.x.x.x.k.x.x.x.x.n.z.k.x.n.x.x.x.x.z.z.z.z.z.x.z.z.x.x.x.x.x.x.x.z.x.[.(.T.T.W.T.W.W.T.!.W.W.T.T.T.T.'.T.'.W.T.T.'..X!..XoXoXa.n p f z t f z j f z z z z l ~ ~ ! m ~ ( l l k ( l ( m ( ( ( ) ( ( ( ( ( ( ( ( ( ( ( ( ( ~ ( ( ! m ( m k ( m ( ( k ( ( ( ( k ! m ( ! ~ ~ ` ~ ~ l ~ l ^ n n ^ ^ 6.l 6.~ h F Q.E.E.E.W.E.!.E.E.E.E.E.!.!.!.!.v.!._._.'._.).'.~.'.).v.}.n.z.x.z.z.z.z.z.z.z.z.n.k.z.z.z.z.z.z.z.z.j.z.z.z.z.z.j.z.z.z.n.n.z.z.z.k.z.z.k.n.z.z.z.z.z.z.n.z.z.z.z.z.z.z.z.z.n.j.z.z.z.z.n.z.z.n.n.z.z.z.z.z.z.z.z.z.k.x.k.z.z.z.z.z.{.k.z.z.z.z.z.z.x.z.x.x.x.x.x.z.z.k.n.z.z.z.x.z.z.z.z.z.x.k.k.x.x.x.x.z.z.z.z.z.x.z.z.z.z.z.z.j.z.j.z.z.z.z.z.z.k.z.z.z.z.z.k.z.k.z.z.z.z.z.z.z.z.z.j.z.z.z.z.j.z.z.z.z.z.z.z.z.n.z.z.z.z.z.z.z.z.n.z.z.n.x.x.x.x.x.x.x.x.n.x.z.z.z.z.z.z.n.z.z.z.z.j.c.j.x.x.z.c.j.z.z.z.z.z.z.z.z.z.{.z.z.x.x.x.c.z.x.x.x.z.x.x.x.{. XT..X/.T..XW.(.W.T.T.(.oXoX#Xb l l l l l l l ^ l l l l l l ^ ~ ~ k l l l l l l ~ ~ ~ ^ l k ~ l l l l l ^ n ^ n n ~ 6.l ^ n ^ 6.! n l 6.l ~ 6.l ~ ! l ~ n l l ~ ~ l 6.l 6.~ h f p p q p p q u u q p q z $.@XW.W.E.E.E.!.!.E.E.!.E.!.E.!.E.!.T.T.T.T.E.!.E.!.!.T.!.E.!.T.E.!.!.!.W.T.W.W.W.W.W.R. X}.z.k.z.z.n.z.n.z.z.n.x.}.c.[.c.}.}.}.}.}.x.[.{.x.].I.vXkXvXkXvXkXvXkXkXkXkXvXlXiX. 2 6 2 6 2 2 2 6 2 2 2 2 2 ",
"x.x.x.x.x.x.x.x.k.k.x.k.x.k.x.x.x.n.k.x.k.x.x.k.k.k.x.x.x.x.x.x.z.z.{.x.}.x.x.x.x.x.}.z.z.z.x.x.x.{.x.z.x.x.x.x.k.[.(.T.!.W.!.W.W.!.T..XT.!.W.W.W.W.!.T.oX!.oXT.!.T.!.!.#Xa.p z f z f z z z z z z f z l ~ ~ ~ ~ ~ ~ l ( ~ l ~ ~ ! ! ( ( m ( ( ( ( ( ( ( ) ( ( ( ( ~ ( ~ ( ( ( ( ( ) ( ! ! ( m ( k m ( ( ( ( ( ( ( ( ~ ~ ! ~ l k ^ ^ ^ l ^ l l ^ ~ h b Q.E.W.W.W.E.E.!.E.E.!.E.E.b.v._.v.!.v._._._.^._._.'._._.x.z.k.x.z.z.n.x.k.k.k.z.k.z.z.k.k.z.j.z.z.n.j.z.j.z.z.z.n.z.z.z.z.z.z.z.z.z.k.n.z.z.z.z.z.z.z.z.j.z.z.z.z.z.n.z.x.z.z.z.z.z.z.z.z.z.j.n.v.n.z.z.z.z.z.n.z.x.{.z.{.x.x.}.z.z.z.x.x.x.x.z.z.x.c.x.x.k.x.c.z.z.z.z.z.k.z.x.z.n.z.z.z.z.k.x.k.z.x.z.z.z.z.z.k.z.z.n.z.x.k.k.z.z.j.j.j.j.z.j.z.k.n.z.k.j.k.z.x.z.z.z.z.k.z.z.n.j.j.z.n.z.j.z.j.j.z.j.n.n.z.z.z.z.z.z.z.k.n.z.z.z.n.z.z.z.z.x.z.x.x.:Xx.z.x.z.z.x.z.n.x.z.z.z.z.z.z.j.x.x.z.x.z.x.k.x.j.z.k.k.z.z.n.z.z.z.z.z.{.x.{.x.z.x.{.z.z.x.x.z.x.}.(..X(./..XT.E.W.W.W.W..X.X#Xb l l l l l j l l j l l z z l n l l l l l l l l ^ l ~ n n n ~ ~ n ^ n n ^ l l l l ~ ~ n ~ 6.6.l l ~ l ~ l n ! n l n l n ! ~ ~ 6.~ ~ ~ 6.l l 6.l p u u u u p u p p p p p n e.@XW.W.Q.!.E.!.!.E.!.E.E.E.!.E.!.E.T.T.T.!.!.!.!.E.T.T.!.T.T.T.E.!.E.!..XW..XW.!.T.T.T.|.z.x.z.n.n.z.n.z.n.z.{.{.x.}.x. Xl.}.}.}.c.x.x.x.z.+XuXvXkXjXkXkXjXjXkXkXkXvXjXlXpX. 6 2 2 2 2 2 2 2 2 2 2 2 4 ",
"x.x.x.x.n.x.x.x.}.x.x.x.x.x.x.x.x.n.x.x.x.x.x.x.n.x.k.k.k.k.k.k.k.n.z.k.n.z.n.z.n.x.n.z.k.x.k.x.z.x.x.k.k.k.}.k.k.[.T.W.W.W.W.!.W.W.W.W.W.W.T.(.T.!.T.oXW.!.!.oX!.oXW..X#Xa.p z z z z z z z z f f z j h ~ ~ ~ ~ ~ l l ~ l ( ~ ~ ( k m ( ( ( ( ( ( ( ( ( ( ( ( m ( ` ~ ( k ( ( ! m ( m ! ! m m ! ( m ( ( ( k ( ( ( ~ ` 6.~ l ~ l n l ~ ~ l ~ ^ l ~ n b Q.E.T.T.E.E.E.E.E.E.E.!.E.!.!.!._._._.'._._.)._.)._.)._.x.z.z.x.z.z.z.x.x.z.z.z.z.z.z.z.z.z.z.z.z.z.z.n.z.z.z.z.z.z.z.z.z.z.z.{.n.z.:Xz.z.z.z.z.z.n.z.z.z.z.n.z.z.x.z.z.z.v.z.z.z.n.z.z.z.z.n.z.z.n.v.v.n.}.n.z.z.z.z.z.z.x.}.x.z.}.x.z.}.x.}.z.x.x.x.x.x.x.z.x.x.x.x.k.x.x.x.k.z.z.z.n.z.z.x.n.z.x.x.z.k.z.z.n.z.x.z.z.x.x.x.z.z.z.z.z.z.z.z.z.z.z.z.z.z.z.z.z.k.j.z.j.j.j.j.k.j.n.j.n.j.z.z.z.z.z.n.z.z.z.z.k.z.k.z.z.n.z.n.z.n.x.x.}.x.z.z.n.z.z.x.k.k.z.z.k.k.x.x.z.x.z.z.z.z.z.k.j.x.x.x.x.x.x.x.x.x.k.x.x.z.z.{.z.{.x.{.x.x.x.x.x.c.x.x.[.z.x.x.c.x.[.R..X/..X.X.XW.W..XT.(..XoX%Xn l k z l l ^ l l l l l l l ^ ~ ~ n l l k n l l n n ^ n ^ ~ n ~ l l l l l ~ n l l ~ l ^ l 6.l l 6.6.~ ~ 6.n l ~ ~ 6.l ~ n ~ 6.n ~ ~ n l 6.6.~ z f p 9 u p p p p p p p p p a.L.T.T.!.!.Q.E.!.!.!.E.!.E.!.T.T.T.T.T.T.T.!.R.E.T.T.T.E.T.T.R.!.!.E.!.W..X.X.X.XW.T.R. X{.n.z.z.z.z.z.{.z.z.:Xx.}.x.{.}.l.}.c.}.c.x.}.z.z.:XuXvXvXvXjXvXkXvXkXkXkXkXkXkXiXX 2 1 2 2 2 2 2 2 4 2 4 4 2 ",
"n.}.x.}.x.x.x.x.x.x.x.x.x.x.x.x.x.x.x.n.n.k.k.n.x.x.k.n.k.k.k.n.k.k.n.k.n.k.z.k.x.k.k.z.z.z.z.k.x.z.x.x.k.z.{.x.x.[.T.E.!.T.T.W.T.!.T.T..XW.(.T.'.T.!.T.!.(..X.XW.W.!..X@Xa.b j z j f z f z f z z j f z l ~ l ~ ~ ~ ~ ~ l ~ l ( k ! ( ( ( ( ( m ( ( ( ( ( ( ( ` ~ ( ( ~ ( m m ( ! ( m ( m ( ! ( m ! ! m ( ( ( k ~ ( ~ ~ ~ l l k ^ ^ l l l l n ^ ~ z b L.T.T.E.W.!.!.!.E.E.E.E.!.!.!.v.!._._._.'._.).`.'.~.)._.{.z.n.z.n.z.z.z.k.z.k.z.z.z.n.z.j.z.z.n.z.z.j.z.z.k.n.z.z.z.k.z.k.z.z.z.z.z.z.z.z.z.n.z.z.z.z.z.z.z.z.z.z.n.z.z.z.n.z.j.n.z.z.z.z.z.z.z.n.n.z.n.n.z.z.z.z.z.n.k.{.z.z.z.z.z.z.z.z.z.z.z.z.x.x.z.x.x.x.x.z.x.x.k.z.x.k.z.z.z.z.z.z.z.z.n.z.x.k.z.j.z.k.z.z.z.z.z.z.k.x.k.z.z.z.z.z.j.z.z.j.n.k.k.z.k.k.k.x.j.n.z.n.j.n.j.k.j.j.j.j.z.z.z.z.z.z.z.z.z.z.n.z.z.z.z.z.z.x.x.z.k.k.k.k.z.z.z.x.z.z.x.k.z.z.z.:Xz.{.z.x.{.z.z.z.z.z.x.z.z.j.k.z.z.z.j.z.z.z.z.z.z.z.z.z.l.x.x.x.z.z.x.x.x.x.x.x.x.z.c.x.l.~.T.T..XW.W./.W.W..X.X.XoX%Xb l l k k j j l j j ^ l z j n n ^ ^ l l n ~ l l l 6.~ ~ l ~ l ~ l ~ ^ n ~ ~ ~ l l 6.6.6.6.^ 6.6.l ~ ~ ~ ~ ~ l 6.~ ~ l ~ l ~ ~ ~ l ~ l ` l ~ h j p q p q p q q q p p q q n P Q.W.W.W.E.!.!.E.E.E.!.E.!.E.!.E.!.T.T.T.T.T.T.T.!.T.E.T.E.!.T.T.T.!.E.W.T.E..XW.W.W./.|.z.z.n.z.n.n.z.n.n.z.z.{.x.}.[.}.c.}.}.c.}.c.[.z.n.<XI.vXkXkXkXjXjXkXvXvXkXkXzXlXwX1 2 2 2 2 2 4 2 2 2 2 2 4 4 ",
"}.x.x.}.x.}.x.x.x.}.x.x.}.x.x.x.x.}.x.n.x.x.x.x.x.x.x.x.x.x.x.}.z.x.x.x.x.x.x.x.x.{.x.x.x.z.{.x.x.x.}.x.x.x.k.x.x.[.(.T.W.!.W.!.W.!.T.T.T.W.W.!.!.!.!.T..XoXoXW..XQ.W.oX@X$.y z l j z f j p z z z j f z ~ ~ ~ ~ 6.^ 6.^ z 6.6.6.^ z 6.( ^ ` ~ ~ ~ ' ( ( ` ( ( ( ( ( ( ( ( ( ( ( ( ( ( ~ ( m ( ( k ( m ! ( k ( ( ( / m ! m ! k k l ~ k l l l ~ ~ ~ n { L.W.W.W.E.E.!.!.Q.Q.W.W.!.(.).)._._._._.'.).)._.^._._._.x.x.x.x.x.z.z.z.z.k.x.z.z.z.x.x.x.x.x.z.z.z.z.z.z.z.z.x.x.x.z.x.z.x.x.x.x.x.z.{.x.x.x.z.{.l.z.z.x.x.x.x.x.{.k.k.k.n.n.z.z.z.z.z.}.x.}.x.k.z.z.z.z.z.x.x.x.z.x.x.x.z.x.x.x.x.x.x.x.k.z.z.z.z.x.z.}.x.x.}.z.x.x.}.x.x.{.x.x.x.x.x.x.x.n.x.x.x.x.x.x.z.z.z.z.z.z.x.k.z.z.x.x.x.z.z.z.k.z.x.x.x.x.x.k.x.x.x.x.k.x.x.x.x.x.x.x.x.x.x.x.x.x.c.x.x.x.x.x.x.x.k.x.x.x.x.x.x.x.x.x.c.x.x.x.x.x.x.x.x.x.x.z.x.x.x.{.z.{.z.{.}.}.c.c.x.x.x.x.z.z.x.z.x.j.z.c.z.z.z.k.x.x.x.c.x.x.x.x.}.x.x.x.c.x.x.x.x.x.z.c.c.b.(.(.(..X.X.XW.W.W.!.Q.!.&Xq z ^ ^ j j j l j z l k k h l l l l l l k l l n l l 6.6.l n l 6.l ^ 6.6.6.z ^ 6.6.6.6.z 6.6.6.^ ^ 6.6.6.^ 6.z 6.6.^ ^ 6.6.6.6.z 6.^ 6.^ 6.6.l z p q p p q q q q p p p q r P @XW.W.!.E.!.E.E.!.W.!.W.W.W.oXW.T.!.!.T.T.W.E.T.W.E.W.E.W.W.W.W.!.W.W..XT..XW..X.X/.R.|.x.x.}.}.x.}.n.x.}.z.x.{.x.}.}. X X}.}.}.c.}.}.}.[.+XuXvXkXkXkXxXkXxXkXkXvXxXdXkXyX4 6 1 4 1 4 2 2 2 2 4 4 4 4 ",
"x.x.x.x.n.k.n.x.x.x.x.x.x.x.x.x.k.x.x.x.x.x.k.k.x.k.x.x.x.x.x.x.x.z.x.x.x.k.x.x.x.x.x.z.x.x.z.c.x.c.c.x.x.x.x.c.}.[.~.T.W.W.T.W.W.T.W.W.W.W.!.!.W.T.E.!.W.E.W.oXXXoXW.W.@Xa.z z f z j z l z z z z f j z k l l ! ^ 6.^ 6.z 6.z ^ 6.^ ^ 6.6.^ ` ~ ' ~ ` ~ ( ~ ( ( ( ~ ~ ~ ( k ~ ( m ! ( ( ! k k ( m k ( ( ( ( ( k m ( ( ! ! k ( k ( k ( ~ ! l ^ ~ ~ 6.n #XoXW.E.E.E.Q.E.!.W.!.Q.!..X`.).'.^.'.^._._.).'.'._.).v.{.{.x.{.x.z.{.{.z.x.x.x.z.x.x.x.k.x.x.}.z.x.z.x.x.x.x.z.c.z.z.x.k.x.x.x.x.x.x.c.x.x.z.z.z.z.z.z.x.x.x.x.{.x.k.x.x.j.j.z.z.z.z.z.z.k.k.z.k.k.x.k.k.k.k.k.k.k.k.z.z.x.x.x.x.x.x.x.z.k.k.k.k.x.x.k.k.k.x.x.k.x.k.k.z.x.x.k.k.x.z.z.k.k.x.k.x.x.k.x.k.z.n.k.z.k.k.k.z.k.z.z.k.x.k.k.k.z.x.k.x.k.z.z.z.z.k.k.k.k.k.k.k.k.x.n.x.x.x.x.x.j.x.x.k.k.k.x.k.x.x.k.k.k.k.j.z.k.k.k.k.x.x.k.k.x.k.x.k.k.x.z.x.z.z.x.x.x.z.z.z.x.x.k.k.c.x.x.x.k.j.k.j.k.x.z.z.z.x.x.x.j.x.j.j.k.k.j.x.z.j.z.z.j.j.c.x.x.c.c.c. XR..X.X.X.X.X.XoXW.W.Q.W.E.#Xb z z z z l l j z l k l z ^ ~ ~ ! l l l n l l l l z ~ ~ l ! ~ ~ ~ ^ ^ ^ z 6.6.^ 6.^ ^ z ^ ^ 6.6.6.z ^ 6.^ 6.^ 6.^ 6.^ ^ z ^ z ^ 6.6.6.^ 6.6.^ p 7 7 u p p z f f p p q q 3 $.@XQ.Q.E.E.!.!.!.E.E.E.W.E.W.!.T.E.W.!.W.T.W.T.W.W.W.E.W.!.!.T.W.W.W.!.W..X/.T.W.T.(.R. X}.x.x.x.}.x.{.}.x.x.{.x.}.x.}.c.x.c.c.x.c.c.c.c.}.+XI.kXvXvXkXxXvXvXvXkXkXkXvXkXeX4 4 4 4 2 @ 2 2 7 9 4 8 4 1 ",
"c.c.x.}.c.c.}.c.x.c.x.x.x.x.}.n.k.x.x.x.:Xk.x.x.x.x.}.}.}.}.}.}.}.}.}.}.x.x.}.x.}.}.}.c.}.x.}.}.x.}.}.x.}.}. X}.}.`.T.T.W.!.!.W.T.T.W.W.W.W.E.S.S.S.S.S.S.S.A.S.L.L.S.A.L.a.z k l z j l z l ^ ^ z z z z ~ ~ l ~ ^ 6.^ ^ ^ 6.z 6.^ ~ 6.( ^ 6.^ ^ ^ ! ! ! ( ( ( l ~ k ! l k ( m ! ! k k k m ( ( ( ( ( ( ( ( ( ( g ( ( ( ) k k m ( k k l k ~ l ^ k ^ n n #XL.#X@X#XL.L.@XQ.L.Q.L.L.A.oX(.'.'.'.'.oX'.).'.`.'.'.]. X}.}.}.}.{.}.}.}.}.}.}.}.}.x.}.}.}.}.}.x.}.}.x.}.}.}.x.}.{.}.}.}.}.{.x.}.}.{.{.}.}.}.}.{.{.x.}.{.x.{.}.}.{.x.}.z.n.n.z.n.n.x.:Xn.n.x.x.{.}.}.}.x.:X}.}.}.{.}.}.{.}.}.}.}.x.}.}.}.}.}.}.x.}.k.x.n.x.n.:Xx.x.n.:Xz.x.x.x.x.}.}.}.}.}.x.x.{.:Xx.:X}.x.x.x.x.x.z.}.}.}.x.x.{.x.}.x.}.x.{.x.}.{.x.x.}.}.x.}.x.}.x.}.:Xx.}.}.}.}.x.}.x.:Xx.x.x.k.x.}.x.}.}.n.x.}.x.}.}.}.}.}.c.x.}.}.k.x.x.:Xx.}.c.}.c.}.x.}.}.}.x.{.}.x.c._.!.x.x.}.c.}.c.x.}.c.x.x.c.}.x.}.}.x.x.}.x.}.x.}.x.}.x.}.}.}.}.}.}.}.x.}.}. XR.W..X.X.X.X.XW.oX!.!.W.W.%Xn l l l l l j l l l j k k l ~ m ~ 6.~ ! l l n l ~ ~ ~ 6.' ' ' ' 6.6.' ' ^ 6.6.6.6.6.6.6.6.6.^ 6.6.6.6.6.6.6.6.6.6.6.6.' ' 6.6.6.' 6.6.6.6.6.6.6.p p z l z k z z h ^ p z p P #X#X#XQ.Q.Q.Q.Q.Q.Q.Q.Q.@X@X@X@X@X@X@X@X@XQ.oXQ.@X@XQ.W.W.T.T.W.W.W.W..XE.W..X(./..X/.`.|.|.|.}.|.|.}.|.}.}. X}.{. X|. X X X X X X X X X}.+XGXvXcXxXcXvXvXxXxXvXxXkXvXxXyXX 8 @ 4 X . 1 1 2 8 1 1 1 4 ",
"_._._._.^.^.^.^._.'.^.^.'.v.^.'.^.^.).).^.^.).^.).^.)._.v.^.^.^.^.v.^.^.^._.).)._._.^._.^.^._.).^._.^._.'.v.^.^._.^.T.!.W.W.W.!.!.T.T.!.T.W.Q.A c n b n b b F b b y z b b 6.~ ` 6.6.` ' 6.6.6.' ` ` ` ' { ' [ { ' [ [ ' ' ' ' ' ' [ %.&.=.o.o. .o.o.X.X. . .X. .X.} X.X. .o.O...o.o.o.o.o.*.O.o.o.O.O.O.O.O.o.&.*.@.&.O.] ( ) ( ' ] ] [ ' ' ' ' ' ' 6.b b n b b b b b n b n n b N Q.~.(.T.(.T.W.(./.(.(.(.T.~.^.~.~.~.~.~.^.~.).~.^.^.~.).).~.~.^.~.).).).).~.).^.~.^.~.^.~.^.~.~.~.~.~.~.~.~.~.~.^.^.~.^./.^.).~.~.).~.).^.^.^.D.^.).~.).^.^._.^.).).).).).).).^.^.^.).^.^.~.).~.~.).^.).).~.~.~.~.^.~.).).).).).^.^.).^.^.^.^.).^.).).^.~.^.^.~.).).).).)._.^.).).).).).).^.^.).^.^.^.).^.).~.~.^.~.).~.~.~.^.).).).^.^.^.^._.^.^.~.~._.'._._.v.^.^._.^.^._.^.^.^._.^.^.^.).).^.^.^.!._.^.).).).).).).^.^._.'.).^.).^.^.^.).).!._.!.!.'.^.^.^.^.^.^.^.~.~.'.T.^.~.~.~.~.~.'.R.~.~.~.).~.~.~.~.~.~.~.(.^.(.~.~.'.W.XX.X.X.X.X.XoXW.Q.!.W.!.%Xb l ^ l l l ^ ^ ^ l ^ ~ l 6.' ( { 6.` ` ` ) ) ( ` ' 6.' }  . .X. .} }  . .}  . . .o. .} [ }  . .}  .}  . . .}  .[ } }  . . . .[  .} } } X.X. .}  . .X.X.o.o.o.X.o.} [ [ } 5.$.$.P 5.P 5.L L P $.P L a.P P $.a.$.$.e.$.$.P $.a.a.P a.@XW.T.W.W.W.W.W..XW.W.W..XE.Y.'.).).~.).).(.~.(.~.~.!.(.)..X).'.'.~.'.~.~.'.'.'._.XXa.4.*.-.=.;.*.-.,.4.,.<.<.<.;.5X6X2.6X5X5X5X5X5X3.4X4Xs.s.",
"!.!.!.!.!.oX!.'.(..X'.T.T.'.W.T.(.oXT.(.(.(..X.X(..X(.(.(.(.(.(.(.T.'.W.T.T.T.'.!.'.!.T.!.T.T.T.T.(.(.T.(.T.'..XoX'.!.W.W.W.!.W.W.W.W.!.W.W.L.A n l z l l l n 6.l 6.l l l 6.6.~ ~ ~ ' ~ ' ^ ' ' ' ) ~ ] ] } ] | [ | [ ' | [ [ [ [  .:.=.=.=.:.=.:.=.-.:.-.=.=.>.:.*.*.:.=.=.*.=.*.*.*.*.*.*.*.O.*.&.*.&.&.*.O.&.O.&.*.&.} { _ { ] | ] [ ] | [ ' | } ` l l z n z 6.z z 6.6.z l n b Q.W.W.W.W.W.W..XE.T.(.E..X.XE./.E..XE.T.W.T.T.T.T.T.T.T.T.T.T.W.T.W.T.T.T.T./.E.T.T./.W..XW././.T.E.(.W.(./.W.W..XT..X/..X/.T.W.W.W.T.T./.T.T.Y.T.T.T.(.T.T.T.T.T.Y.T.T.T.E.W.T.(.(./.W.W.T.T.(.E.T.T.T.T.W.T./.W.T.(.T.T.W.W.(.T.(.T.E./.T.T.W./..XW..X/.W.T.(.T.E.(.W.W.W.W.T./.T./..X/.(.(./.(.W.T./.T.Y.T..XW.T.T./.W./.T.T.T.(.T.T.T.T.(.T.T.!.W.E.W.E.E.T.T.W.T.T.(.T.T.!.T.T.T.T.(.T.(.W.W.W.W.E.!.!.E.(.(.T.T.W.T.W.T.T.W.!.W.W.T.T.T.!.E.E.!.!.Q.!.E.W.W.T.T.W.T.T.T.W.T.T.T.T.T.W.E.T.T./..XE.T.E.(.E.W.W.W.W.E.!.E.T.W..XE..XE.E.W.W.W.W.W.W.Q.%Xq l ^ l l l ^ n n l ~ ~ l ( ( ( ( ) ( ` ) ` ( ` ` ( ( 6.}  . . . . . . . .}  . . .} }  . . . . .o. . . . .o. . .}  . . . .o.} } }  . . . . . . .o...o. .o.X.X.o. .o. . . .X.6.' ' [ [ 6.[ ' ' ' 6.6.6.z n n 6.l n 6.6.[ 6.' 6.6.n b #XE.W.W.Q.W.W..X.X.XW..XW.E..X/..X.XW.W.W..X.XW.W.W.W.W.W.W.W..XW.W.W.W.W..X.X.X.X@XL 9 a u i u u u u a a f g d _ xXjXjXjXjXjXgXgXjXxXxXxXjXjX",
"!.!.oX!.!.!..X.XoX!.W.oXoXT.!.oXW.!.oX!..X.X.X.X.X.XW./..X.X.X(..XW.W.W.W.'.W.'.W.T.T.'.T.'.(.!.!.T.T.oXoX!.W.W.!.W.W.!.W.oXW..XW.!.W.W.W.oX#Xb z l l l k k k ~ l h k l ^ 6.~ ` ' ~ ~ ' ' ^ 6.( ' ~ ' ' ] ] ] ] | | | | ' | [ [ }  .>.=.=.=.:.:.:.=.:.:.>.=.=.=.*.*.*.%.*.*.%.%.*.*.*.*.*.*.*.%.O.&.O.&.&.O.O.&.O.*.O.O...' ' _ ] ] ] ] | ' [ [ ] ] ` l l l ^ l 6.z ^ z p n n ^ y L.W.W.W.W.Q.W.E..XE.E.E..XW.W.W.T.T.W.W.T.W./.W./.T./.T./.E.T.T.W./.T.E./.W.W.W./.W.W.T..X(..XW..X.X.XT.E.W.W.(.W.T./.W..XW.T.E..X/.T.T.W.E.T.T.T.T./.W.T.T.T.T.T.E.(.T.W.W.W.T.T.(..XE.T.Y.T.E./.T.T.T.T.(.E.T..XW.E.W.W.E.W.W.W.E.T.W.T.T.W.W.T.W.W.T.E.T.W.E.T.(.E.W.W.W.W..X.XT.T.T..XW.W.(..XW.(.W.W./.T.T.T.T.(.T..XE.T.T.T.W./.T.T.T.T.!.!.T.T.!.!.!.!.W.T.W.!.W.T.W.!.W.T.W.W.T..X.X.XW.!.T.W.W.!.E.!.W.W.T.W.T.W.T.W.W.T.W.T.W.W.T.W.E.!.!.E.E.!.E.E.T.W.W.T.T.W.!.W.T.W.T.W.T.W.W.W./.W.W.E..X/.W./.E.W.W.W.W.Q.!.!.W.E.E.W..XE.W.W.W.W.T.W.W.W.%Xb n ^ l l l l ^ ^ ~ l ^ l ( ( ( ) ` ( ` ` ` ) ( ) ( ( ( }  . . . . . . . . . . . .} o. . . . . . .o.o. . . . .o.o. . .}  .}  . .o. .X. .X.X. . . . . .@.o.X.o...X.X. .X.X. .6.' ' 6.6.[ 6.' ' [ ' ( ( ^ ^ ~ 6.~ 6.6.6.( 6.~ ^ ~ l A Q.Q.W.W.W.W.W..XE./..XQ.W.W.E.W.W..XW.W..X.XW.W.W.!.W.!.W.W.W.W..X!..X.XoXW.W..X.X@XL u j u j j f j j f a a a m ..cXjXjXjXjXjXjXjXjXkXjXjXjXjX",
"!.!.!.!.oX.X.XoX!.W.oXW.oXoXW.oXoXW.(..X.X.XW.W.(.(.W..XW..XW..X(.W.W.W.W.W.oX.XoXT.(.T.T.T.T.oXW.(.T.T.W.!.!.W.W.W..XW..X.X!.W.W.!.!.W.W.W.L.A n z z l l n n l l l l l ~ ~ ' ~ ~ ] ~ ' ( ( ( ( ~ ' ' ] ] | ] | | [ [ } } [ | } } o.>.=.=.:.:.:.=.=.:.:.:.:.=.:.:.%.*.*.*.%.%.*.*.O.*.*.*.=.O.&.O.&.O.&.*.O.*.O.O.O.O.O.} _ { { ] ] ] ] ] [ ] ] ] ] 6.k l l l z 6.z z 6.z ^ ^ z q %XQ.W.W.W.W.E.E.W.E.(.(.E..X/.W.T.E.(./.E.W.E.T.E.T.T.E..X.X(..X(.T.T.W.T.T.E.W..XT.W.W./.W.E.W.T.T.E.W.W.W.E./.W.T.W.W..XW.T.(.(.E..XT.T.T.T.Y.T.T.E.W.W./.E.E.T.E.W.W.W.W.E.E..XT.E.W.T.T.T.E.T.T.T.E..XW.E.T.E.T.W.W.W.W.W.T.W.E.W.W.T.T.E.E.T..X/.T.T./.W.T.E.W.T.T.W.W.W.W.(.E..XW.W.E.W..XE..XE.W.W.T.T./..XE.E./.W.E.T.E./.T.E.E.T.E.(.E.E.!.E.W.E.E.!.W.W.W.W.W.W.W.W.W.W.T.T.T.T.T.T.!.E.E.Q.!.E.!.E.W.W.!.W.W.W.W.W.W.T.T.W.T.W.W.T.!.E.!.E.!.E.E.!.W.W.T.W.W.W.T.W.W.W.T.W.T.T.T.W.W..X/.W..XE.W./.W.W.W.W.W.W.E.E.W.W.E.W.E.W.W.W.W.W.T.T.W.W.#Xb 6.l l l l l ^ ^ ~ l l k ! ( ` ( ( ( ( ` ( ( ( ( ( ( ' }  . . . . . . . . . ... .o.o.}  .o. . .o. .o. . . .o.} o. . . . .o.}  ... . . . . . .X. . . . .X.X. .X. .X.o.o. .} 6.' ' ' ' [ 6.' ' ' ' ' ' 6.6.6.^ ~ ` ^ 6.^ 6.^ n 6.6.n #X!.Q.W.W.W.E..X.X.X.XW.W.W..XW..XW./.W..X.XE.W.W.W.W.W.W.W.!.oXW.W.W.W.!.W.!.(./.Q.L 9 f f p u u u f f g a f d _ jXjXjXjXjXjXjXjXhXhXjXgXhXjX",
"!.!.!.oXW..X.X!.oXW.W.W.!.W.W.!..XoX.X.X.X.X.XW..X.X.X.X/.W..X.X.XW.!.W.!.!.W.!.T.oXT.!.oXW.!.T.!.W.!.W.oXW.W.oX.X!.!.W..X.XW..XW..XW.!.W.W.#Xb k z l l l l ^ l l ^ n l ~ ^ ~ _ ~ ~ ' ~ ' ^ ' ' ' ~ ~ ] ] ] ] ] ' [ | ' | [ [ | |  .>.=.=.=.=.:.:.=.:.-.:.=.:.:.%.%.=.*.*.*.*.%.*.*.*.*.*.*.*.O.&.O.O.O.O.&.O.O.O.O.*.*.} { _ ] ] ' ] ] ] ] } ] ] ] ` z l z l l z z ^ z z ^ n j n #XQ.W.W.W.Q.W.W.W..X.XW..X.XT./.W.T.W.W.T..XT.T..XE.W.W./.E.(.W.W.E..XW..X/.W.W.E.T./..XT.W.W..XE..XT.E./.T..XT.E.T.(.E.T.W.W.E..X.XT..XE./.W./.E.T.T.W./.E.T.T.T.T.W.E.W.W.E.E.W.E.W.E.W.E.E.W.E.E.W.E.E.T..XW.T.E.T.E.T.W.W.E.(.(.E.T.E./.W.W.W.E.(.E..XE.W.W.W.W.E.T.W.W.W..XE.W.W..X/.W.W.E.W.W.W..XE..XW.W.W..XT.W.W..XT.W.W..XE.(.T.W.E.!.E.E.W.W.!.E.!.W.!.W.W.W.!.W.W.W.!.W.W.W.W..XW.W.W.W.!.!.E.E.!.W.W.W.W.T.!.W.T.W.T.W.T.W.W.T.W.Q.!.E.!.E.!.!.E.T.W.!.W.T.W.T.T.T.W.W.T.W.W.E.W.E.E.W.(.E.W.W.W.W.W.W.E.W.E.!.E.E.W.W.E.W.E.W.W.W.W.W.E.W.E.#Xb ^ l ^ 6.^ ^ n n l l ~ k ( { ( ` ) ( ( ' ' ( ' ( ( ( 6.[  . . . . . .o. . . . . .o.} o. . .o.o. . . . .o. .} o.}  . . . . .}  . . . .o.}  .X.X. . .@. . .o. .X. .o. . . .} ' ' ' [ ' ' [ ' ] ] ' ' ' 6.^ ^ ~ ^ ~ 6.~ ~ ~ l 6.6.6.b #XW.!.W.!.Q.W.W.E.E.E.W.W.W.W.E.W..XT.W.W.T..XW.W.W.!.W.W.W.W.!.W.oXW..X.XW.W..X.XQ.L f f p j j j f f f a f f m ..xXjXjXjXjXjXgXjXgXjXjXjXjXkX",
"oXoX!.!.W.oXoXW..X.XW.oXW.!.W.oX!.oXW.oXW.oXW.oX.X.XoXW.oXoXW.W.W.oXoXW.!..X.X.XoX!.oXW.W.!.W..XW.!.W.W.!.W.!.W.W.oX.XW..X.X.XW.oXW.W.W.W.W.Q.F ~ l k k l z l l l n ^ ~ l ~ 6.6.( ' ( ( ( ' ( ( ~ ] ~ | | ' [ ] ] ] [ | [ ] | | | } 4X=.=.=.=.=.:.-.:.=.=.=.=.=.*.*.*.=.*.*.=.*.=.%.%.%.=.%.O.%.&.&.O.&.O.&.&.@.&.&.&.&.| ] ] [ ] ' [ [ ' } [ [ ] ] ` j k l l l 6.z ^ n ^ ^ n p q #XE.E.W.W.W.W.E..XE..XE..XW.W.W.W.W.W.E./.W.W.(.E..XE.(.E.E..XW.W./..XT..X.XT..XE.E.(..X.XE..X.XT.W.E..X.X/.W.T.E.(.T.E..X/.W.E.(.W.W.T.W.E.T.W.(.E.T.W.E.W.E.W.T.W.W.E.W.W.W.E.W.W.E.W.E.E.W.E.W.E.W.E.E.W.W.E.W.W.W.E.W.W.W.W.E.W.E.E.W.W.W.E.W.E.W.W.W.E.W.W.W.W.Q.W.W.W.W..X.X.X/.W.W.W.E.W.W.W.W.Q.W.W..XW.W..XE.W.W..XE.W.T.W.W.W.W.W.E.W.W.W.W.!.W.W.W.Q.!.W.W.W.W.W.W.W.!.W.W.E.W.W.W.!.!.!.Q.!.Q.!.E.!.E.E.!.!.E.!.E.W.W.W.W.W.W.W.W.!.Q.!.E.!.E.E.!.W.W.W.E.Q.!.E.!.W.W.W.W.W.W.W.W.W.W.W.Q.W.W.E.W.E.E.!.E.!.Q.E.E.W.!.W.!.W.W.W.W.W.!.!.E.!.E.Q.b 6.^ l ^ ^ n l ^ l k l ^ k ` ( ) ' ~ ' ' ' ) ( ` ( ( ( }  . . . . . . . . . . . .o.} } o.o.} o.} o. .o. . . .o.}  . .}  . . . . . . . . . .X. . . . . .X.X. .X. .X...X.X.[ ' ' [ ' ' [ ' ' ' ' ' ' [ ~ ^ ~ l k l ~ ~ ~ ^ 6.^ ~ l A @XE.W.W.W.W.W.W.W.W.W.W.W.W.W..X.XW.W.W.W.W.W.!.W.oX!.W.W.W.!.!.W.W.W..X.XW.!..XW.@XA f f f f a j f j u f a f w ..jXjXjXjXjXjXjXjXjXhXjXgXhXjX",
"oXoXoXQ.oXW.oXoX.X.X!.W.oXW.W.oX.X.XoXW.W.W.W.oX.XQ.oXoXW.W.oXW.W.W.oXW..X.X.X.X!.W..X!.!.W.!.W.!.T.oXW.W.!.W.W.W.!.W..X.X.X.X.XW.!.!.W.W.W.Q.F n l z l l l z l l ^ n l k ~ ` ~ ( ' ( ( ' ^ ' ( ' ~ ~ ] [ | | | | ] | [ [ | [ ' ' } %.=.4X=.=.%.>.:.:.-.=.=.=.=.*.:.%.*.*.*.%.*.%.=.%.%.=.%.%.%.O.&.o.&.&.O.&.&.&.&.&.O.[ ] ] | ] ] } ] | | | ' ' ] ` l l z z l 6.z z z z z z z b @XQ.W.W.E.W.E.W.T..X.X(.W.W.W.E.W.W.W.W..XW.W.E.W.T.T.T..XW.W..X.XW.E./.W.W.W.T.(.E..XE.E.(..X/.T.W./.T.E.T.W.W.E.E..XE.(.W.T..XE.T.W./.E.(..XT.E.E.W.W.W.W.E.E.T.W.W.W.W.W.E.W.W.W.W.W.W.W.E.T.T..XE.T.T..XE.W.W.E.W.E.W.E.W.W.W.W.W.W.E.W.Q..XE.E.W.E.W.W.Q.W.W.W.W.E.!.Q.W..XE.W.W.W.W.E.W..XE.W./.W.W.W.W..X/.T..XE.W./..XW./.W.W.W.W.(..XW.W.W.W.!.Q.W.E.!.W.W.W.W.W.W.W.W.W.T.W.!.W.W.W.!.Q.Q.!.E.!.E.!.E.!.E.!.E.!.Q.!.W.W.W.W.W.W.W.W.!.E.E.!.Q.!.!.E.W.W.W.!.!.E.!.Q.W.W.W.W.W.W.W.Q.W.E.W.E.W.E.E.W.Q.!.E.!.E.!.!.E.E.E.W.E.T.W.W.W.!.E.E.!.E.!.Q.n 6.l l 6.^ ^ ^ ^ ~ ~ l l ! 6.` ` ~ ' ' ~ ~ ' ( ' ' ' ' }  . . . .o. .o. . . . . .} o.o.} } o.} o. .o. . .o. .} o. . . . . . . . .X.X. . . . .X.X. .o. .X.X...X...X.o.o.X.} ' ' ' 6.[ ' [ [ ' ' [ ' [ 6.^ ~ ~ ~ ~ 6.^ ~ n ^ n ~ z n #XW.Q.W.W.!.Q.W.W.Q.W.Q.W.W.W.W./.W.W.W.!.!.W.W.W.W.W.W.W.W.W.W..XW.W..X.XW..X.XW.Q.A r p j f j p p j f f r f d &.xXjXjXjXjXjXhXjXkXjXgXjXjXhX",
"Q.!.!.oXoX!.oXW.!.oXW.oXoXoXoXoXoX.XoX.XoXQ.oXoX.X.XW.W.W.W.W.oXW.oXW.oX!.oX.XoX.XW.oXW.oXW.W.oXW.oXT..X.XW.W.oXW.oXW.W.!.W.W.W.W.W..X!.W..X#XF l l l l l ^ l l l l l l ~ ~ ~ ~ ^ 6.( ' ( ' ^ 6.' ~ ~ ] | ] | ] | [ ] ] [ ] [ } |  .o.=.%.%.=.4X:.:.:.:.=.>.:.=.*.%.*.*.%.%.*.=.=.=.%.=.%.%.%.O.&.&.&.&.+.&.&.&.&.&.&.O.] ) ] ] ] ] | ] [ [ [ [ ' ] 6.l l l l l z z ^ ^ n p ^ z b L.E.W.W.E.W.W./.W..XE.W.E.W.W.W.W.W.E.W.W.W.E.E.W.W.E.E.W.W.W.E..XW..XW.W.W.W./.W..XE.(.E..XE.W.W.W.E.W.W.E.(.W.W..XT..XW.W.W.T.T.T.T.W.W.W.E.E.W.W.W.W.W.W.W.W.E.W.E.W.W.W.W.W.W.E.W.E.W.W.E.E./.W.E.E.(.E..XW.E.W.E.E.W.W.E.W.Q.W.W.W.W.W.W.W.W.W.W.W.W.W.W.W.W.W.W.E.Q.!.Q..X.XW.W.W.W.W.W.E..X.XW.W.W.W.W.E.E.W.E.W..XE..X.XW.W.E..XE.W.E.E.W.W.W.W.W.W.!.W.W.W.W.W.W.W.W.W.W.W.W.W.E.W.W.E.!.W.W.!.E.E.!.!.E.Q.E.!.E.E.Q.W.W.W.W.E.Q.W.W.E.!.!.E.!.E.E.!.W.!.!.E.E.!.Q.!.W.W.!.W.W.W.W.W.W.E.W.E.W.W.E.E.E.!.!.!.E.!.E.!.E.!.E.!.E.E.W.T.E.E.!.E.!.Q.#Xn 6.^ l l n l l n l l l l ~ ( ( ( ' ~ ( ( ' ` ( ( ( ' ^  . . .} o.} o. .o. . . . .} o.o.o.o.} } o.o. .} o. . .o.}  . . . . . . . . . . . .X. .o. .X.X. .X.X.X.X.X.X.X. . .[ ` ' ' ' ' ' ' ' ' ' ' [ ' 6.6.~ l ^ ~ ^ ^ ~ ^ ~ ^ ^ n A #X!.W.Q.W.W.W.E.W.W.W.W.W.W.W.W.W.W.W.W.W.W.W.W..X.XW.oXW.W.W.oXW.!.!..XW.W.W.W..XQ.A q j f f f j f f f f g f i _ jXjXxXjXjXjXjXjXjXjXjXjXjXjX",
"oX!.oXW.oXW.oX.XoXoXoXoX!.!.!.Q..X.XW..XoXW..X.X.X.XW.oXW.W.oXoXQ.oXoXoXW.oXoXoXoX!.!.W.!.!.W.W.W..X.XW.W.!.!.W.!.W.!.!.W..XW..X.X!.W..XXXE.#XL n l z l z n l l l l l l k ^ ' ~ ' ^ ' ^ ' ^ 6.' ~ ' ~ ' ] | ] ] ] ' | [ ] ] [ ' | } 4X=.o.4X=.&.:.-.:.>.:.=.=.=.=.%.%.%.%.*.*.%.%.%.%.=.%.=.%.O.O.O.&.&.&.+.&.&.&.&.&.&.] ] | ] ] ] ] | [ | | ' [ [ ` z k z z l ^ z 6.n ^ ^ n z q #XW.W.E.W.W.W.W.W.W.E.W.W.E.W.W.W.W.W.W.W.W.T.(.E.W.(..X/./..XW./.W..XW./.W.Q..X.XE..XW./..XE..X/..X.XE./..XE./.T.T.E./.W..XW.T.W.W.W.W.E.T.E.W.W.W..XoXW.W.W.W.W.W.W.W.W.W.W.W.W.W.W.E.W.W.W..XE.W.W..XE.E.T.W.E.W.W.W.W.T.T.W.W.W.W.W.W.W.W.W.W.W.W.W.Q.W.W.W.W.E.W.W.W.W.W.E.E..XW.W.W.W..X.XE..X.XW.W.W.W..X.XE.W..X/..X.X.X/.W.XX.X.XE..XW.W.W.W.W.W.W.W.E.W.W.!.Q.W.W.W.W.W.W.W.!.Q.!.W.!.Q.!.!.E.!.E.Q.Q.!.!.E.!.E.!.E.W.W.E.W.W.!.!.E.Q.!.E.!.E.!.!.Q.E.Q.Q.!.E.E.!.E.!.Q.Q.W.W.W.oXW.W.W.E.W.E.Q.W.W.E.E.Q.E.E.E.E.Q.W.E.E.!.E.!.T.T.W.W.E.!.!.!.%Xn 6.l l ^ ^ ^ ^ l ^ l ~ l ~ ( ( ` ( ( ' ' ' ) ' ( ( ( ( |  .} o.} }  .} o. . .o. .o.} } } o.o.o.}  .o.o. . .o. .o. . . . . . . . . . . . ... . . . . ...X. ...X...X.X...o.} ' ' ' ' ' ' ' ' ' [ ' ' ' ~ ^ ~ ~ n ^ n ~ ~ l l n ^ 6.F #XQ.W.W.W.W.W.W.W.W.oXQ.W.W.W.W..XW.W.!..XW.!..X.X.XW.W.W.W.oX.XW..X.X.X.XW.W..XE.@XL q f j f f f f f f f f f d &.MXjXjXjXjXjXjXjXgXjXgXgXhXjX",
"oX!.W.!.W..X.XW.W.W..X.XW.!.W.oX.X.X.X.XoXoX.XW..X.X.X.XW.W..XW.oXW.oXW..X.X.X'..XW..XW.W.W..X.X.X.X.X.XW..X.X.XW.W.W..X.X.X.X.X.XW.W.W.W.Q.#XF 6.k l l l l l l k l l l l ~ 6.~ ( ( ( ' 6.' ( 6.' ' 6.' [ | | ] | ] ] | [ ] | [ | } 4X%.=.4X%.4X=.:.:.:.:.:.:.:.*.*.%.*.%.=.%.=.%.=.%.=.%.%.%.O.O.&.O.&.O.&.&.&.&.&.&.&.| ] ] ] ] ] | [ ] | ] ] ' [ ` l z j z z p ^ p n p z z ^ q @XE.W.W.W..XW..XE..XW.XXW.W.W.W.E.W.W.W.W.W.W./.W.W.E.W.T.W.W.W.W.W.W.W.W.W.W.W.W.W.W.W.W.W.W.E.W.W.W..XW.T.W..XE./.W.W.E.W.W.W.T.T.W.W.E.W.W.T.W.T.W.W.W.W.W.W.!.W.W.W.W.W.W.E.E.W.W.W.W.W.E.W.W.W.W.E.W.W.W.W.E.W.W.E.W.W.W.W.W.W.W.W.W.W.W.W.E.W.W.W.W.W.W.W.W.W.W.W.W.!.W..XW.W.W.W.W.W.W.W.W..XW.W.W.W.W.W.T.W.W.W..XW..XW.W.W.W.E.Q.W.W.W.W.W.!.W.!.!.W.W.W.W.W.W.W.E.W.!.W.Q.!.W.W.W.W.E.!.E.!.Q.!.E.!.!.E.E.!.Q.!.Q.E.W.W.!.E.W.E.!.E.!.E.!.Q.!.E.E.E.!.E.!.Q.E.E.E.E.W.W.!.!.W.W.W.W.W.W.W.W.E.W.W.W.E.!.E.E.E.!.W.W.E.W.Q.E.E.E.T.E.W.W.W.oXE.E.#Xn l ^ 6.l l l ~ l l l ! l ~ ( ` ) ^ ' ' ' ' ' ' ^ ( ' ( } }  .} o.o.}  . . . . . .} o.} o.} o.o.o. . .o. .o.o. . . . . . . . . .X. ... . . . ...X.X...X. .X.X.X.X...X. .X.| ( ) ' ' ' ' ' ' ' ' ' ' [ ~ ~ ^ 6.^ ~ n ^ ^ n ^ l 6.6.L #XQ.Q.W.W.W.W.W.Q.W.W.oXW.E..XW.W.W.W..X!.W.W.W.W..X(.!.E.W.oX.XoXW.W.W..XW.W.W.W.@XL q f f j f f f f f f w g j *.cXxXjXjXjXjXhXgXjXjXhXjXjXjX",
"oXQ.W.oXoXoXoXoXoXoXoXoXQ.oXoXoXoX.X.XoXXXW.oXoXoXW..X.XW.W.oXW.!.oXoXQ..XoX.X.X.X'.(..XW.(..XW.W..X(..X.X.X.XW..XoX.XW..XW.W..XoX.X.X!.W.oX#XF l l h l l z l l l l l h z 6.' ~ ( 6.( ( ( ^ ' ( ( ( ' ' ] ] ] ] | ' ] [ ] [ [ | ' } =.=.=.=.%.=.=.-.:.:.:.:.:.:.=.%.*.*.*.%.=.%.=.=.=.%.=.%.%.O.O.&.&.O.&.O.&.&.+.*.*.&.| { ] ] ] ] [ | ] ] [ | [ [ ' ^ ^ n ^ ^ n n ^ ^ z l ^ n b #XE.W..X.XW.W.W.W.Q.W.E..XW.Q.W.T.T.T.E.W..XE.E.T.W.T..XW.T.W.W.W.W.W.W.W.oXW.W.W.W.W.W.W.W.W.W.W.oXW.W.W.W.W.E.W.T.T.W.W.W.W.E.W.E.W.W.E./.W..XE.W.W.W.W.W.W.W.W.W.W.W.W.W.W.W.W.E.W.Q.W.W.W.W.W.W.W.W.W.W.E.W.E.W.E.W.W.E.E.W.W.W.W.Q.W.W.W.W.W.W.W.W.W.(..XW.W.W.W.oXW.Q.W.W.W.W.W.W.W.W.oXW..XW.W..X.XW.W.W.W.W.W.W..XW.W.Q.W.W.W..XW..XW.W.W.W.Q.W.W.Q.W.Q.!.W.E.E.W.W.W.W.W.W.W.W.W.W.W.E.Q.!.E.!.E.!.E.E.!.!.E.E.E.!.!.!.W.E.!.!.E.E.!.E.E.E.!.E.!.E.E.E.!.E.!.!.!.!.!.W.W.!.Q.W.W.W.W.W.W.W.W.W.W.W.W.!.W.W.W.!.W.W.W.W.W.W.!.E.E.E.W.E.E.E.!.E.E.#Xb z ^ ^ ^ ~ ^ ~ ~ ^ ! l l l ( ` ` ' 6.' 6.' ' ' ' ( ( ( ]  .}  . .} o. . . . . . .o.} } o.o. .} o.o.o. .o. .o. .o. .}  . . . . .}  . . . . . .X. .X. .X. . .o...X.o.X... . .' ' ' | ' ' ' [ ' ' ' ' ' ^ 6.l ^ 6.n ~ ~ ~ ^ n ^ ~ z n %XW.W.W.W.W.W.W.W.E.W.W.W.W.Q.W..X.XW..XW..X.XoXW.T.W.W.W.W.W.W.!.W..XW.!..X!..X.X#XL r f f f f f j f f f a f s _ xXjXjXjXjXjXjXjXjXhXjXjXhXjX",
"!.oXoXoXoXoX!..X.X.XoX!.oXoXW.oXoX.X.XoX.X.X.X.X.X.X.XoX.XoXoX.XoXoXoXW.W.T..XoXoX!.!.oXoXW.W..XT.T..X.X.XW.W.W.W.W.W..XW.oX.X.XW.W.oX(..XXX#Xb ~ l l l z n l z l z l l ~ ~ ~ ' ' ^ ( ( ( ' ( ' ' ' ' ' ] ] ] ] [ [ ] [ | ] ] ' ' } =.:.:.-.-.:.:.:.:.:.:.:.:.:.*.*.%.=.*.%.%.=.=.%.%.=.=.%.o.%.&.&.&.&.O.&.O.&.O.&.*.O.] [ ] { ] ] ' [ ] [ ] ] [ } ' z n ^ j z ^ j p z z z p z y #X.XE.T..XW.W..X.XW.W.E.E.W.E..XT..X.XW./.W..X.X.XE.T.T..XT..XW.W.W.W.W.W.W.W.W.W.W.W.W.oXW.W.W.W.W.W.W.W.W.W.E..XW.W..X/.W.W.W.E.W.W.E.W.W.W.T.E..X.X.X.X.XoXW.W.W.W.Q.W.W.W.W.W.W.W.W.oXQ.W.Q.W.oXW.W.E.W.E.W.W.W.W.W.E.E.W.W.W.W.W.E.W.W.W.E.Q.W.W.W.W.W.E.Q.W.W.W.W.Q.!.oX.XoXQ.W..XW.W..XW.W..XW.W.W.W.W.W.W.W.T.W.E.E.W.W.W.W.oX.XW.W.W.oXW.W.W.oXQ.!.W.W.W.Q.W.W.E.W.W.W.W.W.W.W.W.E.E.E.!.Q.E.Q.E.E.E.!.E.E.E.E.!.!.Q.E.!.!.Q.!.Q.!.Q.!.!.E.!.E.E.!.E.!.Q.E.!.!.Q.W.W.W.W.Q.!.W.W.W.W.W.W.W.oX.XW.W.W.!.Q.Q.!.E.!.E.W.!.!.E.!.T.T.T.W.W.E.E.p.E.E.#Xn ^ n ^ ^ ^ l l k l l l j ~ ` ' ` ' ' ' ^ ' ' ' ' ' ' ( } }  .o.} }  . . . . . . .} o.o.o.} o. .o. .o. .o. . .o.} }  . . . . .o.} } X. ... . . . .X.X.X.....X.o.X...X...X.#.` ( ' ' ' ' ' ' ' [ ' ' ' 6.~ l ~ ~ ^ ^ ~ l l n ^ ^ n b @XW.W.W.oXW.W.Q.oXQ.oXW.W.W.oX.XW.W.!.W.W..X!.W.W.W.W.W.!.W.oXW.W..XW.W..XT.(..XW.@XL r f r f f j f j f f r u k &.xXxXxXjXjXjXjXjXjXjXjXhXjXjX",
"oX!.oXoX!.oXoXoXoXoX!.W.W..XW.W.oX!..XoX!..X!.oX!..X.X.X.XoXW..XW.W.W.oXoXoX.XT.oXoXoXW.!.oXW..XoX.XW.W.W..XoXW.oXoXW.W..X!.!.!.oXoX.X.XXX@X#Xb n z z l l ^ l l ~ l l l l ^ ' ~ ' ^ ( 6.' ^ 6.( 6.( ( ' [ ] [ ] ] ] ] | [ ] ] | ' } =.=.:.:.:.:.:.-.:.:.:.=.=.;.:.*.:.*.%.*.=.=.=.=.=.%.=.=.%.O.O.&.&.O.&.&.&.O.O.&.&.&.] ) ] ] ] ] ] ] ] | [ ] [ } 6.z l j n ^ z z ^ n ^ z z ^ e #XE.Y.T.T.W.W.E..XE..X.X.X.X.XT.E.E.W.W..XE.T.T.E.(.W.W.W.E.E.W.W.W.W.E.E.W.E.W.E.E.W.W.W.W.E.W.W.W.W.Q.W.W.W.E.W.W.XXW.W.W.E.E.W.W.E.W.E.W.E.E..XE..XW..X.XW.W.W.W.W.W.W.Q.W.W.Q.W.W.W.W.W.W.W.W.W.W.W.W.E.W.W.E.E.E.E.E.E.E.E.E.W.W.E.W.W.E.E.W.W.W.W.W.W..XW.W.W.W.Q.!.W.W.W.W.W.W.W.W.W.Q.W.W.W.Q.W.W.E.W.E.W.E.W.E.W.W.W.W.Q.E.W.W.Q.W.W.Q.W.W.Q.oX!.Q.W.W.Q.!.W.W.W.W..XW.W.W.oXW.W.Q.!.!.E.!.E.!.E.!.E.E.E.Q.!.!.E.E.!.E.E.!.E.E.!.E.!.E.E.E.Q.E.!.!.Q.!.Q.!.E.W.W.W.E.W.E.Q.!.W.W.E.W.W.E.W.W.W.W.W.W.E.!.W.!.E.E.E.!.E.E.W.E.W.E.E.T.E.E.W.p.Y.E.#Xb j n ^ n ^ l ~ l l ^ l k ( ( ' ( ' ' ' ' ' ^ 6.6.' ( ' |  . .} o.o. .o. . .o.o. .o.o.} o.o. .o. .o.}  .o.o. . .o.O. . . . . .} o.}  .}  . . . . ... . .X.X.X...X.X.X. .X.| ) ' ' ^ ' ' ' ' ' ' ' ' ' ` 6.6.^ l ^ 6.~ ^ 6.^ ~ ^ n n #XW.Q.W.W.W.W.W.W.W.Q.Q.W.Q.W.E.W.E.XXW.oXW.W.W.W.W.W.W.W.E.W.W.W.W.W.W.W.T.W.oXQ.@XA r f g f f f f f f g a a d -.xXxXxXjXjXjXhXhXjXhXjXhXhXhX",
"@X@X@X@X@X#X@X@X@X@X@X@X@X@X@X@X@X@X@X@X@X@X@X@X@X@X@X@X@X@X#X@X@X@X#X@X@X@X@X@X@XXX@XoX@X@XXX@X@X@XQ.@XQ.Q.XX@XXX@X@X@X%X@X@XoXXX@X@X@X#X#X%XF ! l h l k l l h l h h z z ~ ~ ( ( ~ ' ~ ' ( ( ' ' 6.6.[ [ [ [ [ [ [ [ ' 6.[ [ [ ' } 4X%.:.:.:.:.:.:.:.:.=.:.:.:.=.%.=.%.%.&.%.%.%.=.=.=.=.%.O.%.&.%.%.%.%.%.%.%.&.%.%.%.| ' ' [ ] ' [ ' ' [ [ | [ [ 6.^ z n ^ p k h l j j z z j y L.W.W.oXoXoX!./.W.(..X.XoX.X.XoXoX@XoX@XoXoXoXoXW.W.W..XW.oXQ..X.X.XXXE..X/.W.E..X(./.W.XXoXW.W.oXXXoXoXoX.XXXW.oX.XXXoXoXXXoX.X.X.X.XXXW.E.Q.Q.W.E.E.W.E.E.E.E.W.W.Q.W.XX/..XW.Q.oXQ..XXXW.Q..XoXW.W.oXoXQ.oX.XW.Q.W.W.Q.Q.W.W.Q.E.W.E.E.W.W.W.Q.oX.XQ.XXoX.XoXQ.oXoXQ.XXoXoX.XQ.XX.XQ.XX.X.XXX.XE.E.XXE.XXE.E.E..XXXE.XXE..XXXE.E..X.X.XXXXXW..XoXXXW.Q.Q.E.W.oXoXQ..XoXW.Q.Q.oXQ.W.Q.W.W.E.W.W.E.W.W.W.W.E.E.E.!.!.E.E.!.E.!.Q.!.Q.Q.W.E.E.!.Q.!.!.Q.!.Q.!.W.Q.oXQ.!.Q.Q.W.!.Q.Q.W.!.Q.E.E.E.E.Q.!.Q.Q.!.!.Q.@X!.!.!.Q.!.Q.-X%X@X@XQ.Q.Q.@X@X@XL.@XXXXX#Xb l ^ l 6.^ ^ ^ 6.z ^ 6.^ 6.6.6.' 6.' ^ ' ^ ' ' ' ' 6.6.[  . . . .o. . . . .o.o. .} }  . .o.o.o.o.o.o. . . .}  . ...#.| #. . . .#. ... . . . . ... .o. . .o. . .o.o.X.X. .} ' ' ' ' ' ' ' ' ' ' ' ' ] ] 6.^ 6.^ 6.~ ~ l ~ l ~ ~ l b %X#X#X#X#X#X#X#X@XL.#X#X@X@X@X#X#X@X#XQ.#X@X%X#X@XQ.Q.@XQ.L.#XQ.Q.Q.Q.#XXXQ.@X@X%X#XL l z f f k f j z j j j g f o.xXxXxXgXjXxXgXgXjXgXjXjXjXjX",
"L P L P P P L P P P L L L L P P L L P P L L L P L P P L L P P L P P P P L L L P L L L A A L L L L A A L L L L L A L L D L G A A A L L P A S F r f q f f f f f j f f f f f a ' ( ) 6.) ' ( ^ ' ( ' 6.'  .%.%.%.%.%.%.%.%.%.+.+.%.%.%.=.%.=.:.:.%.=.:.:.:.:.=.:.=.pXpXpX6X6X6X6X6X6X6X6X6X6X4X%.O.O.O.O.&.%.O.%.%.O.%.%.%.} [ } [ | | } } } } [ [ [ | 6.p p p p z z z z z f j f u + a.r.u.p.p.S.p.u.y.y.y.m.p.y.y.y.y.y.y.p.a.y.u.p.a.y.y.y.y.u.u.u.y.u.y.u.u.u.u.y.y.u.y.y.y.p.p.g.y.a.p.y.y.y.u.y.y.y.y.y.y.y.y.u.u.y.u.u.u.u.u.u.u.u.u.u.u.u.u.u.u.u.u.u.y.u.u.p.p.p.p.u.u.y.y.y.u.u.p.p.p.p.y.u.u.y.u.p.p.u.u.y.u.y.y.u.u.u.u.u.u.u.u.y.y.u.u.y.u.u.u.y.y.y.u.y.y.u.u.u.u.y.y.u.y.y.y.u.u.u.y.y.y.u.u.y.y.u.u.y.u.y.g.y.y.y.y.y.y.y.y.y.y.y.u.p.p.p.p.f.y.p.p.p.p.p.p.p.p.p.p.y.p.u.u.p.p.p.y.p.p.p.p.p.p.p.p.p.r.p.p.p.p.u.u.p.p.p.u.p.p.p.p.u.u.p.u.p.p.p.p.p.p.p.r.p.p.p.p.p.p.p.p.p.p.u.u.u.r.u.p.p.p.p.p.a.P e.P $.P G A S b S A L P 5.t z k l l ^ n n ^ 6.^ ^ z 6. . . .o. .o.o.} } } }  . . .o.%.+.%.+.%.%.%.o.O.%.%.%.%.%.1.4X:.:.:.:.:.1.1.:.4X1.2.:...&.@...o...X.....@.o.o.O.o.o. .o. .o. . .o. . .X.X. . . .` ` 6.' ' ' ' ' 6.' ' ' ' 6.6.6.^ 6.^ ~ l l l 6.~ 6.~ n L A #.L L L A A F L A L n A n S A A A A F S b b A A A A A A L L A A A A L $.P $.L L b 7 u q u 9 u w w f 9 w 9 9 ` 2.2.2.5X2.5X5X4X5X2.2.5X5X5X",
"3 + x 3 = 3 3 x - 3 4 = 3 = = = = % = % * + = % % * % % % * % % x + + + + = = + % * - * - + 3 = + 3 3 - 3 = = - = = 3 = + + = 3 = - : : - % * 5 9 9 9 q q 9 q 9 9 w 9 3 9 j ' ' ' ) ' ` ' ' ' ' ' ' [ o.4X:.1.1.:.4X1.:.:.:.:.:.4X:.=.=.:.:.:.:.:.=.:.:.=.=.:.4XcXzXzXzXsXsXsXzXzXaXsXzXzX5X} O.O.O.O.o.O.O.o.o.o.o.O.o.} [  .| } | } } } } | [ | } ^ 6 7 7 7 p 9 u a 9 9 9 9 7 + P K V K w.w.J H H H H H H J H V C K V H K V H 8.H 8.J U U 8.w.8.w.8.U U 8.w.8.8.U 8.U U V J H C U U V H H H H K V K V V K K V H H Y w.w.w.w.8.8.8.w.w.w.w.w.w.w.w.8.J 8.J U U H H H H V H H J J H K K H H H w.8.U 8.U w.w.w.0.w.0.8.8.0.8.w.8.8.U J J J H J J J H H H H H H H J H J H J J U U J Y U w.Y Y w.w.Y 8.Y Y 8.8.8.8.U U U 8.H H J J J H J J J H H H H H J J H H H H w.H K w.w.8.8.H w.w.8.J w.8.J 8.J w.w.w.w.w.J w.8.8.w.w.w.8.K K w.K K K 8.K w.K K 8.8.K 8.K 8.K w.8.K w.w.w.w.w.w.w.w.K w.J w.J J J H H w.r.r.w.W & 5 0 3 - 0 3 3 0 = + + + + f l ~ k l ^ ^ ^ ~ 6.^ ^ 6.6.O.%.%.%.O.O.O.%.%.%.o.%.%.o.:.:.:.:.:.:.:.:.*.=.=.=.=.:.4XzXzXaXzXzXzXzXzXaXzXaXaXaX4X&.@.&.&.O.O.O.&.&.O.&.O.@.&.o. .} } o. .o.}  . .X. . . .} ^ ~ ~ 6.^ ^ ^ 6.6.6.^ ' 6.^ ^ ^ n ^ ^ l l ~ h l l ~ ~ f 3 3 = = 3 2 x 3 + x 2 x 3 = = + x 3 + x + 7 3 7 3 = 3 = 3 3 3 3 - - 3 3 = = 3 3 = 3 5 3 6 6 3 6 8 6 8 2 4 3 4 4 2 * 2 2 8 8 8 2 2 4 1 6 8 1 1 ",
"3 x 3 x x 3 x 3 2 2 2 4 2 3 3 2 2 2 2 2 2 2 2 2 2 2 2 2 6 6 2 4 7 7 9 9 3 2 3 6 2 2 2 2 2 2 2 2 2 7 3 6 3 6 x 2 2 2 2 6 2 x 2 3 6 2 2 2 2 2 2 6 u 9 p 9 9 u q p f 9 q 9 9 ! ' ( ` ' ~ ` ' ' ' ) ^ ' 6.+.:.:.:.:.:.%.:.:.:.:.:.:.%.=.=.=.:.:.%.%.=.=.:.%.=.%.=.%.zXzXsXsXsXsXsXsXsXhXaXaXaX5X..O.o...o.o.O.o.O.O.O.o.o.o.| | } [ } [ } } | [ } } } } j 6 7 7 p 7 9 r 9 9 u 9 9 9 + A K 8.w.J J J J J J J H J J J U U U H 8.J H J 8.J J J Y Y Y Y U T U U Y Y Y J J J J Y U U Y U U U U K J J H J Y Y U U Y J J 8.U J Y Y J J J 8.w.8.J J w.J J w.J w.w.J J J Y U H J J H J Y Y Y J J H w.K J J J U U J Y 8.J J J J Y Y J Y U Y J U Y w.J 8.J Y Y 8.J J J J J Y Y Y J Y U J J Y Y Y U Y J w.Y U Y Y Y w.Y Y U J J Y Y U U 8.U J J J J 8.J J J H w.H 8.J J Y U J Y J w.K w.w.K K w.H J J 8.J J w.J J J w.J J J w.J w.w.K w.w.w.w.w.w.w.8.8.8.w.K w.8.w.K w.w.w.8.8.w.8.w.w.w.w.w.w.w.w.K w.w.J J J J w.J w.J J w.J L % 3 2 3 3 6 7 7 6 3 3 2 + = f k k l l n n ^ ~ z 6.^ ^ 6.%.o.O.o.O.O.O.o.%.o.%.+.%.+.:.:.:.:.:.:.:.:.%.=.=.:.:.:.4XzXaXzXaXaXaXaXzXzXaXaXzXaX6X....@.@.O.O.@.&.@.O.&.@.*.o.o. .X.o. .} o. . .o. .X. . .[ ^ l 6.6.6.' 6.^ 6.6.6.^ 6.6.6.^ ^ ^ n l l l l h l k 6.z x 3 3 x 2 2 2 x 2 x x x x x 7 3 6 x 6 3 6 7 7 7 7 7 7 3 6 6 6 7 3 6 6 7 6 6 7 3 6 3 3 2 6 x 6 2 2 2 2 2 2 * 2 2 4 2 2 6 6 2 4 4 8 2 5 4 6 4 8 ",
"2 2 2 * x + 3 3 4 * * * * 2 @ 2 * 3 2 2 2 2 * 2 2 2 * 2 4 2 2 2 * 2 2 2 2 * 2 2 2 * 1 2 2 * 2 4 2 * 3 * = 2 2 * 3 + 2 2 6 2 2 2 2 x x 2 2 2 5 9 u 9 9 9 u p 9 r w 9 9 r 9 j ' ' ' ` ~ ] ~ ] ' ~ ' ' ' %.4X%.:.:.:.:.:.:.1.:.:.:.%.:.%.:.:.%.:.:.:.*.=.:.=.=.:.:.zXzXsXsXhXsXsXsXaXhXaXzXsX6X .O.o.o.O.o.o.o.O.O.o.o.o.o.} ] } | } [ [ | } } } } } } l 7 7 7 9 9 9 9 f 9 9 9 u 9 0 A P w.K w.J J H I Y Y J Y K Y H U U U Y Y U Y U K Y Y Y Y J Y Y Y U H Y Y U K U T Y Y Y H J H H Y Y Y Y Y Y Y Y T Y Y Y Y Y Y Y Y J Y Y I Y Y K w.K w.J J J Y J J J J Y Y J K J J Y Y Y Y Y Y J J J J w.J J J J Y Y Y Y J J J J J J J Y Y Y Y Y Y Y Y Y U Y w.J J J J U Y Y Y Y Y Y Y Y Y w.Y Y Y Y Y Y Y Y Y Y Y Y Y Y Y w.J Y J Y J J Y J J Y J J J J J Y Y J J J J U J J J J J J w.K w.w.J J J J w.w.K w.J J J J J J J J w.K w.K K K w.w.K w.K K w.K 8.K w.w.K w.J w.P w.w.8.K w.K w.w.P 8.w.K w.w.K w.K w.J w.J J J J w.J L * * 4 2 2 2 2 x 3 * 3 * 2 2 a ^ j ^ ^ ^ ^ l l z ^ 6.6.6.O.%.o.%.&.%.O.%.O.%.o.%.%.o.:.%.:.:.:.:.%.:.:.*.:.:.:.%.4XzXaXaXzXzXaXaXaXsXaXzXaXaX6X..&.&.&.&.O.@.&.O.@.O.O.@.O.o. .} }  .X. . .o. . . . . .[ 6.~ ~ 6.6.6.6.6.6.6.6.~ ~ ~ k l l l l l l l l l l l l z 2 6 1 6 6 1 x 2 x x x 3 x + 6 x 6 2 x 2 2 2 x 3 3 3 6 3 3 3 3 5 2 5 5 4 4 4 2 2 2 2 2 2 2 2 2 2 2 2 2 2 4 2 2 2 2 * 2 2 2 2 2 2 2 2 * 4 2 3 * ",
"* + 2 2 3 3 + 3 * 2 2 2 4 2 2 2 2 2 2 2 2 2 2 2 x 2 2 2 * 2 2 2 2 2 2 2 3 2 2 2 2 2 4 2 2 2 2 * 2 = 3 3 3 2 2 2 x 6 6 x 6 x 2 x 6 2 2 2 1 2 = 4 9 r 9 u 9 9 u 9 a 9 w 9 9 l ' ` ' ~ ] ] | ~ ' ' ' 6.^  .:.:.:.:.:.:.%.4X:.:.:.:.:.:.=.:.:.:.%.:.*.:.:.=.=.=.:.:.zXzXsXsXsXsXhXsXhXsXaXhXaX6Xo.o.o.O.O.o.O.o.o.o.o.o.o.O.} ] } } [ } [ } } [ } | } } ~ 7 p q p 9 9 f 9 9 9 w 9 9 3 e.w.K w.K J J H U U U H J U U I U K T Y Y T I Y Y Y Y Y Y Y Y Y Y K T Y Y Y Y Y K Y Y Y Y Y Y Y J Y Y Y Y Y Y Y Y Y Y U Y T Y Y J Y Y Y Y Y Y w.K w.K J J Y Y J J J J Y J Y Y J J Y Y Y Y Y Y J J J J J J J J Y J Y Y Y Y Y Y J J J J Y Y Y Y Y Y J w.Y Y Y Y J J Y Y J W Y Y J Y Y Y Y Y Y Y Y Y Y Y Y Y Y Y Y Y Y Y Y Y Y J Y Y Y Y U J Y Y Y J J Y J W J J H J J J J Y Y Y J J J J J J J J w.J J J J J J J J w.J J J J J J w.w.w.w.w.w.K w.K w.w.K 8.w.w.K K w.K w.w.w.J w.w.w.w.w.K w.w.w.w.K w.K 8.w.8.P J w.J r.J w.J J L + = 4 2 6 2 7 3 3 3 6 2 2 2 j z ^ n n l l l ~ 6.^ z 6.^ %.O.%.%.O.o.&.%.%.%.%.%.o.%.:.:.:.:.:.:.:.:.:.:.:.:.:.:.4XzXaXaXaXaXaXlXzXsXsXaXzXzX5X..@.@.&.@.&.&...O.*.O.O.O.*.@. .X. . . .} o.} o.o. . . .[ l ^ 6.6.^ ^ 6.^ ^ 6.z 6.~ n ~ n ^ l l ! h l l l l m l l x 6 1 6 1 1 6 6 6 6 6 7 7 3 7 6 7 2 6 6 x 2 6 2 3 6 x 3 3 3 3 5 2 3 2 2 2 2 2 2 2 2 2 2 2 2 2 2 2 1 2 2 @ 2 * * 2 2 2 2 2 2 4 4 3 3 2 3 3 4 4 ",
"2 2 x 2 2 x 7 2 2 1 2 4 2 2 4 4 2 2 2 2 2 2 x 6 2 2 2 2 2 2 2 2 2 2 2 2 2 2 2 2 2 2 2 2 2 2 2 2 2 x x 6 6 x 2 2 x 6 x 2 x 6 2 2 x 6 x + 2 * 2 4 9 9 u 9 f 9 9 9 9 r r 9 p l ' ) ' ' ~ ~ ) ' ' ' 6.' ^  .:.:.:.:.:.:.:.:.:.1.1.:.4X:.=.:.:.:.:.%.:.*.=.=.=.=.=.=.zXsXsXzXsXsXsXsXsXsXsXsXzX4Xo.o...O.O.o.o.o.o.o.o.o.o.o.} } } } } } } } } } [ } }  .~ 7 9 q 9 9 9 9 9 u 9 w 9 9 & e.w.w.K J J J H Y H K K U K U Y U K J Y Y J K Y U Y U Y Y K U U Y T U U Y Y Y Y Y J U Y Y Y Y J Y J U Y I Y Y Y Y J J U U H U Y w.Y Y T U Y Y J J J J J J J J J J J w.Y Y Y Y J J J Y Y Y Y Y J J J w.8.J J w.Y Y Y U Y Y Y Y J J J J Y Y Y Y Y Y J J Y Y Y Y Y J Y J Y Y Y Y Y Y Y Y Y Y Y 8.Y Y Y Y Y Y Y Y Y Y Y Y Y Y Y Y Y J Y J Y J Y J Y Y Y Y J J Y J J J J J J U Y Y J J J J J w.J w.J J w.J P w.w.K J w.w.J J J J J w.P w.w.w.K w.w.w.w.K w.8.w.w.K w.K w.w.K w.w.P P w.w.w.K w.K w.w.w.w.P w.w.w.w.w.J w.J J J J J L + 1 2 2 6 3 2 7 2 2 x 2 2 2 l l z j ^ l l l ^ z ^ 6.^ ^ +.%.o.O.&.O.O.o.%.o.o.%.%.%.%.:.:.:.:.:.:.:.:.:.:.>.>.:.4XzXzXzXaXaXzXsXsXsXsXaXaXzX5X&.&.O.O.&.&.O.@.o.O.@.O.O.@... . . . . .} o. .o.} o. . .[ ^ n ^ 6.^ 6.6.6.6.^ ^ ~ ~ ~ ~ l l l l l l l l l m m k l 2 1 2 1 6 6 6 x 6 6 6 6 6 3 3 6 x 7 7 6 6 2 2 x 6 6 6 6 7 7 7 6 8 8 6 8 6 2 2 2 2 2 2 2 2 2 2 2 1 2 2 * 4 2 2 2 2 * 2 2 2 2 4 2 2 2 3 2 2 3 3 ",
"+ 2 2 * 2 2 2 2 4 @ 2 @ 2 2 @ 4 2 2 * 2 x 2 * 2 2 * 2 2 2 2 4 * 2 2 2 2 2 * 2 * 2 * 2 4 * * 4 1 * 2 2 2 = 2 6 x 2 2 2 2 x = @ 2 3 * 2 3 2 2 3 4 9 9 9 r 9 9 u 9 a 9 9 9 9 l ' ( ~ ' ] ' ' ' ^ ' ' ' ^ } :.:.:.%.4X:.:.:.:.:.:.:.%.%.:.=.:.%.=.:.*.:.=.=.=.=.=.%.sXsXsXsXsXsXsXsXsXsXsXsXzX4Xo.o.o.O.o.o.o.o.o.o.o.O.o.o.} [ } } } | } } [ } | | [ } ~ 7 u 9 9 u 9 u 9 9 9 u u 9 b P w.P J J J J Y K J Y Y J Y Y Y Y Y Y Y J Y Y Y Y Y Y U Y Y U Y Y H K U Y Y Y Y U Y Y U Y Y Y U Y Y Y Y H H Y J J 8.J J J U U Y J w.J 8.J Y Y J w.K w.J J w.J 8.J J J Y Y H Y 8.J J J Y Y Y Y J J J J J J J J U J U J U J J Y Y w.R J Y J U J w.Y Y Y U U Y Y Y Y Y Y Y Y Y Y Y Y Y Y Y Y Y T Y Y Y Y Y T Y Y Y Y Y Y Y Y T U Y Y Y Y Y Y Y Y Y J Y J Y J Y J J J Y J J U J Y J J J J J J J J J J J J w.J J w.w.J J w.w.J w.J K w.w.P w.w.K w.w.K w.K w.P w.w.w.K w.P w.w.J J w.8.K w.w.w.K w.K w.w.w.w.K w.P r.J J J w.w.J J A o 4 2 4 1 2 * 3 2 2 2 2 2 2 j z ^ l l l l l l 6.z ^ 6.^ +.o.%.O.O.O.O.%.O.%.%.o.%.%.:.:.*.:.:.%.:.:.:.:.=.:.=.%.4XzXaXaXzXzXaXsXsXsXaXzXaXzXtX&.O.O.O.&.O.&...O.O.&.&.*.o.o. .X. . . . . . .} o. . .o.[ l ^ 6.^ 6.^ 6.^ 6.6.6.~ 6.~ n l l l l l l l l l ~ l g k 2 6 2 6 1 1 6 2 2 6 6 x 6 x 6 6 6 2 2 + 3 2 1 * 3 2 2 2 2 3 3 8 2 4 4 4 2 4 2 2 6 1 2 2 2 2 2 2 2 2 2 2 2 2 * 2 2 2 3 3 3 3 3 3 2 5 3 4 2 2 3 ",
"2 2 1 2 2 * 2 2 * 2 @ 2 2 2 2 * 2 2 2 2 2 * 2 2 @ 2 1 2 2 * 2 2 2 2 * 2 1 4 * * 2 2 2 * 2 @ 2 2 2 * 2 2 * 2 2 2 2 2 2 2 2 2 * 2 2 2 1 2 2 2 2 9 w 9 9 r 9 r 9 9 u 9 r r 9 ! ` ' ' ( ' ' ' ( ' ' ' ^ ' | :.:.:.:.:.1.:.:.:.:.1.:.:.=.:.=.:.:.=.=.:.=.:.:.:.:.:.:.zXsXsXsXsXsXsXsXsXsXzXfXzX4X%.o.o.o.o.O.o.o.o.o.o.o.o.o.| ] } [ } } } } ] } ] } [  .l 9 9 9 9 9 9 9 w u 9 9 u 9 0 R Y J J Y J Y U Y Y K K Y Y Y Y J J J J Y Y Y Y I U Y Y Y Y J H Y J U Y Y Y H J Y K T J Y Y Y U T U J Y Y Y Y U Y Y Y J Y Y Y Y K U T Y Y Y Y J w.J J J J J Y Y Y Y Y Y T H Y Y Y U T Y T Y Y Y J Y Y J W J J Y Y Y Y Y Y Y Y J Y Y Y Y Y Y Y Y Y Y Y Y Y Y Y Y Y Y Y Y Y Y Y Y Y Y Y Y Y Y Y Y Y Y Y Y T Y Y W Y Y Y Y Y Y Y Y Y J I J Y Y J Y Y J Y J J J J J Y J J Y Y K Y J J J Y Y J J w.w.w.P w.K w.K w.J J J J w.J J w.J J w.J P w.w.w.w.w.J J w.J w.J w.w.J J w.w.w.w.K P w.w.w.P w.K w.w.w.8.w.w.K w.J J w.J w.J J J P = 7 7 2 2 2 2 2 2 2 2 2 2 2 ~ l l ^ l l l l l ^ z z z ^ +.o.%.o.%.O.O.%.o.%.O.%.%.O.%.:.:.:.:.:.:.,.=.,.=.=.:.*.4XkXsXdXdXdXsXsXsXsXsXsXsXzXtX@.&.&.O.O.&.O.O.O.@.O.O.O.O. . . . .}  .}  . . .o. . . .} ^ ^ 6.~ 6.~ 6.~ ~ ~ ~ ~ ~ l l l l l l l l l l l k l l ^ 2 2 1 2 2 2 2 2 2 2 6 x 2 2 2 2 1 2 2 2 2 2 2 2 2 2 2 2 2 2 2 8 6 2 2 2 8 2 2 2 2 6 2 2 2 2 2 2 2 6 2 2 * 4 2 2 2 2 2 2 2 2 4 3 3 4 3 4 3 3 4 ",
"2 x * 2 1 2 @ 2 2 2 2 * * 2 2 2 2 + 2 1 2 4 2 2 4 * * 2 * 2 2 1 * 2 1 2 2 * 2 2 2 2 2 4 2 2 2 * 2 2 2 * 2 1 2 1 1 2 2 1 2 x 2 * @ * 2 * * * 2 5 r 9 9 w 9 9 9 w q 9 9 9 9 l ' ` ' ' ( ' ' ' ' ' ' ' ^  .:.:.:.:.:.:.:.:.:.:.:.:.:.=.=.=.=.:.:.=.=.=.%.:.:.:.:.%.zXsXzXsXsXsXsXsXsXsXaXfXzX4Xo.o.O.o.O.o.o...o. .o.o.o.o.} } } } } ] } ] ] } } | ]  .l 6 9 9 9 a u q 9 9 u 9 9 9 0 R Y J K H J J U K Y Y J J Y J J W Y J Y Y Y J Y Y Y Y Y J Y U Y Y T K H U Y Y U Y H U U Y U J K U U Y Y H U J U Y Y Y U U H Y Y Y Y U Y Y Y Y J J w.J J J Y Y Y Y Y Y Y Y Y Y Y Y Y K Y K Y Y Y Y Y J Y Y J J J Y J Y T K J Y Y Y Y Y Y Y Y Y Y Y Y Y Y Y Y Y Y Y Y Y Y Y Y Y Y Y Y Y Y Y T U Y Y Y Y Y Y Y Y J Y Y Y J Y J Y Y Y Y Y J Y Y Y Y J Y Y Y J Y Y Y Y Y J Y Y Y Y J J Y Y Y J J Y K J w.w.P w.w.J J w.J w.J J w.J J w.w.J w.w.w.P J J w.J J J J J J J J w.P w.K w.w.w.K w.w.w.8.w.w.P w.K w.K w.w.J J w.J J w.J J P 7 = 7 2 2 2 2 2 2 2 2 2 2 2 l l j j l z ^ n ^ 6.z ^ 6.6.+.+.%.%.o.%.O.o.%.O.+.%.o.%.:.:.:.:.%.*.:.=.=.:.=.:.=.*.4.kXdXsXsXsXsXzXsXsXzXsXsXsX5X&...@.&.&.O.O.&.O.O.O.O.&.O. . . .X. . .o.X. . . . .o. .[ ^ ^ 6.~ ~ ~ ~ ~ ~ 6.6.~ ~ l l l l l l l h l l l l l l j 1 2 2 2 2 1 2 2 1 2 2 2 2 2 1 2 2 2 2 2 2 2 2 2 2 2 2 8 2 6 2 2 2 2 8 6 2 2 2 2 6 2 2 2 2 6 2 2 6 6 2 2 2 4 2 * 2 2 4 4 2 4 * 2 4 = 3 4 5 4 3 ",
"2 1 2 2 2 * * 2 2 * 2 2 @ 2 2 2 2 2 2 2 2 * 2 4 4 2 2 * 2 @ 2 * 2 @ 2 * 2 2 @ 2 2 2 1 4 2 * 2 1 1 2 2 * 2 2 @ 2 @ 2 2 2 2 2 6 x * 2 2 2 2 1 2 5 9 r 9 9 9 9 9 r u 9 9 q p l ' ) ^ ' ^ ' ^ ' ^ ' ' ' 6.o.:.:.:.4X:.:.:.:.:.:.:.:.:.:.=.=.=.=.=.=.=.:.*.:.=.:.=.O.sXsXsXsXsXsXsXsXsXsXsXzXzX5X .o.o.o.O.o.O.o.o. .o.o.o.o.} ] } } ] ] ] } } } ] } [ [ m 8 u 9 9 9 9 9 9 9 u 9 9 w 0 e.J J Y U T H H J Y K J J J J J J J J J Y Y Y T U J J T U Y J H Y H H K T U Y Y Y Y Y Y Y T K U Y J Y T U Y Y Y Y Y Y K T Y Y Y Y Y Y Y Y Y Y J J J R Y Y Y Y Y Y Y Y Y Y U Y Y Y Y Y J Y Y Y J Y J Y J Y J Y Y Y Y J Y Y Y Y Y Y J J T Y Y Y Y Y Y Y H Y Y Y Y U Y K I Y J Y Y Y Y Y Y Y Y Y Y Y Y Y Y Y Y J J J J J Y I Y Y Y Y Y Y J W Y J J J J Y Y J Y J Y Y Y I Y Y J Y J J J J J J J J J w.w.J w.J J J J w.w.J J w.w.J w.K J w.K w.w.w.J J J J J J J J J J J w.K w.w.w.w.P w.w.P 8.w.K w.K w.P w.w.w.K J J w.J J J w.J P + 7 3 3 3 x 3 * 2 2 * 2 2 6 l ^ ^ l l z ^ ^ l z ^ ^ ^ ^ +.+.o.O.%.O.O.%.O.%.+.%.o.O.%.:.%.:.:.*.:.:.*.=.>.=.:.*.>.kXfXdXdXsXdXaXsXsXsXsXsXsX5X@.&.@.&.O.@.&.@.O.&.&.@.&.@.@. . . .X. . ... . . . . ...[ z 6.6.~ ~ 6.~ 6.~ ~ ~ 6.l l l l l h l l k l l l l l k j 2 2 2 1 2 2 2 2 x 2 1 1 2 1 2 2 2 2 2 2 2 2 2 2 2 2 2 2 6 2 6 6 2 2 6 2 2 2 2 2 2 6 2 2 6 2 2 2 6 2 6 2 2 2 2 2 2 2 2 2 2 2 2 4 2 2 4 3 * 4 * ",
"* 2 2 * 2 @ 4 @ 2 2 2 @ 2 2 * @ * 1 2 * 2 4 @ * * 1 2 2 4 @ 2 2 * 2 2 2 * 2 2 2 * 2 * 2 4 * 2 2 2 2 * 2 * 2 2 2 2 2 2 1 2 2 + 2 2 1 * @ 2 2 2 9 9 9 9 9 9 r 9 9 q 9 q 9 9 l ' ' ' ' ' ' ' ' ' ' ^ ' '  .:.:.=.=.1.:.:.:.1.:.1.:.:.:.=.=.=.:.:.=.:.=.:.:.=.:.:.O.sXsXhXhXzXsXsXsXsXsXsXaXzX5Xo.o.o.o.o.o. . .o.O.o.o. .o.} ] } [ } ] } ] } ] } ] ]  .~ 7 9 9 r 9 u 9 9 9 9 9 u 9 q P T U K Y K U J I Y Y W K J J Y Y Y Y Y Y Y Y Y K Y Y K Y U U Y Y Y Y U Y Y J J H U Y Y H U U Y J U Y U K Y U Y Y Y Y Y Y Y Y Y Y Y Y Y Y Y J J J J J Y Y Y Y Y Y Y U U Y Y Y Y Y Y J Y Y Y Y Y Y Y Y Y Y Y J J Y Y Y J Y J Y Y J W Y J J J Y Y J Y J Y U T K Y U Y Y Y Y Y Y Y Y Y Y Y Y Y Y Y Y Y Y Y Y Y Y Y J Y J Y Y Y J Y J Y J J Y Y Y J J W Y Y Y Y Y Y J Y Y Y Y Y Y J J J J J J J w.J J J J w.w.J w.J J J J J w.J J w.w.w.K w.w.K K w.J J w.w.J w.J J w.J J w.w.K K w.w.w.K w.w.K w.w.w.w.w.w.K w.w.r.w.J w.J w.J w.P + x 7 6 x 3 3 2 2 2 2 2 * 2 l z j z l l j l l ^ 6.z 6.6.o.o.%.%.o.%.O.O.%.O.%.o.%.%.%.:.:.:.:.=.:.:.:.,.=.=.>.,.;.dXfXdXsXsXdXzXaXsXsXsXsXsX5X&.O.&.&.&.O.&.&.O.O.&.O.O.O.o. .X. . .X.X. . . .o. . . .[ l ^ l ~ ~ ~ ~ ~ ~ 6.l ~ ~ 6.l l l l l l l l l l l l h j 2 2 1 2 2 1 2 1 2 2 2 2 2 2 2 2 1 6 1 2 1 2 2 2 x 2 2 2 6 4 2 2 2 2 8 8 2 6 2 6 6 2 2 2 2 2 2 2 2 2 2 @ 2 2 2 4 * 4 2 2 2 4 2 2 2 3 2 3 3 4 3 ",
"2 @ 2 * 2 2 2 2 2 4 2 2 2 * 4 4 2 2 1 2 2 * 1 4 2 * 4 4 @ 4 1 4 2 2 2 2 * 2 * 2 4 2 2 * 2 2 2 * 2 2 2 * 2 2 * 2 2 * 2 + 2 2 x x * 2 * 2 2 + 2 5 9 9 9 9 r r 9 w 9 q 9 q 7 ^ ] ' ( ^ ' ' ' ( ' ' ' ' ^ ] :.:.:.1.:.:.:.:.:.:.:.:.:.:.:.:.=.=.=.=.:.:.=.=.=.%.=.o.sXsXsXgXsXsXsXsXsXsXsXsXzX4Xo.} ..o.o.o.O.o.o.o.o.o...o.} ] } [ ] } ] } } [ } } [ } ` 6 9 9 u 9 9 9 9 u u 9 9 9 0 L K H K U Y U H K J J K Y J J Y J Y Y Y Y Y I J Y Y Y Y Y Y Y H K J H Y H H J H K J Y Y U U U J Y U Y U Y Y Y Y Y Y Y Y Y Y Y J Y Y Y Y Y Y Y J Y K Y Y Y Y Y J J Y Y H Y T K Y Y Y Y U Y Y Y J J Y Y Y J J Y Y Y Y T Y Y Y Y Y J J Y Y Y Y Y Y Y Y Y Y Y H Y Y Y Y J K Y Y Y I Y Y Y Y Y Y Y Y Y Y Y Y Y Y Y Y Y Y J Y Y Y J Y Y Y Y J J Y Y Y Y Y Y Y Y Y Y K Y Y Y J Y J Y J J J J J J J w.8.J J w.J J w.Y w.J J J w.J J w.K w.K w.w.K w.w.J J J J w.J J w.w.J J K w.w.8.w.w.K K w.w.w.w.8.P w.8.8.K w.w.w.J J J w.J J 8.K P x 3 7 x 3 3 x 2 2 2 2 2 2 2 l l l j l l l l z 6.^ z z ^ %.o.%.%.%.o.%.O.%.O.O.o.%.%.%.:.%.:.:.=.=.>.=.=.=.-.,.-.<.xXsXdXsXdXsXiXzXsXsXsXsXzX4XO.O.O.&.&.&.&.&.O.@.&.O.O.O.o. . . .X...X.o. . . . .X.X.[ l ~ l l ~ l ~ ~ 6.~ ~ ~ ~ l l l l l l l l l l h l l l z 1 2 2 1 2 2 2 2 2 2 1 2 2 1 2 1 2 1 6 2 2 2 x 2 2 2 2 2 6 2 2 2 8 2 2 6 2 2 6 2 6 2 2 2 6 2 1 1 6 2 2 2 2 2 2 2 * 2 2 2 2 2 4 2 3 3 2 4 3 3 2 ",
"2 2 4 4 4 2 2 4 2 @ 4 4 4 2 * 4 2 @ 2 2 2 2 4 1 2 2 * 4 2 * 2 1 * 2 2 2 2 2 2 2 2 * 2 2 4 * 2 * 2 * @ 2 @ 2 2 2 2 2 3 = 2 2 x x 2 . @ @ 2 2 x 6 9 9 r 9 9 9 f 9 p 9 q 9 9 ^ ' ' ' ' ' ' ^ ' ' ' ' ' ' [ :.:.:.:.1.:.:.1.:.:.:.:.:.:.:.:.:.=.=.=.=.:.=.=.4Xo.=.o.sXsXsXsXgXsXzXsXsXsXsXsXzX4Xo.o.O.o.o.o. .o. .o.o.o.o.o.} ] } [ | ] ] } | } } ] [ } ~ 2 9 9 9 9 9 p w 9 9 9 9 9 = L K H H H K U Y Y J J J J J J J J Y Y Y K Y Y Y Y Y Y Y J J U U Y Y Y J J J H H T U Y U K U I U K H U U Y U Y Y Y Y Y Y Y Y Y Y Y Y Y Y Y Y Y Y Y T Y Y J Y J T Y Y Y Y U U Y J J K J K J Y Y H J J H J J J J J J Y K K Y Y Y Y J J Y Y Y Y Y Y Y Y Y Y Y Y Y H J J J Y Y Y Y H Y Y Y H Y H Y Y J Y Y Y Y Y Y Y Y Y Y Y Y Y Y Y J Y Y J J J Y Y J Y J Y J Y Y Y Y Y Y Y Y J Y J J J J Y J J J J J J J 8.J J U w.J J J J w.J H P w.w.w.w.w.K w.J w.w.J J J J w.w.J w.w.J J K 8.K w.w.w.w.K K 8.w.w.K 8.P w.w.K J w.w.J w.J K K b + 7 x x 3 x 3 * 2 * 2 * 3 2 h j j l l j ^ l ^ p ^ 6.^ ^ %.%.%.%.o.o.%.%.O.O.%.%.%.%.:.:.:.:.:.=.=.-.=.=.=.-.-.,.<.vXsXdXsXdXdXzXsXsXsXsXsXsX5XO.o.O.O.&.&.@.O.O.&.O.O.O.O.X. . . .X. . .X.o. .X.} ..X.[ l ~ ~ 6.~ 6.~ ~ ~ l ~ ~ ~ l h h ! l z l l l l l k l k j 6 1 2 2 2 1 2 x 2 2 x 2 1 2 2 1 2 2 1 1 2 2 2 1 2 6 2 2 8 8 2 2 2 4 4 8 2 6 2 2 2 4 8 6 2 2 2 1 2 2 4 2 2 2 2 2 2 2 2 2 4 2 2 = 2 2 3 4 * 3 3 ",
"2 4 5 4 4 4 4 4 4 5 4 4 2 1 4 @ @ @ 4 4 * * 4 4 4 6 1 1 2 2 1 2 2 2 2 2 2 4 2 4 4 5 4 2 2 2 2 2 * 1 2 * 2 * * 2 2 9 4 3 + + . . + . + 2 3 = = 9 r 9 9 r r 9 9 r 9 q 9 q 7 ^ ' ^ ' ^ ( ' ( ' ' ' ' ' ^ [ 1.:.:.1.:.1.:.:.1.:.:.1.1.:.:.=.=.=.%.%.=.=.&.%.=...%...hXaXsXsXsXsXsXsXsXsXzXaXzX4Xo.o.o. . .o.o. .o.o.o.o.o. .] ] } } | ] } ]  .] [ | } } ~ 6 w 9 9 u 9 9 u 9 u 9 q 7 + S K H K U J J Y U T J K Y Y Y J K Y Y Y Y Y Y J Y J Y Y Y Y T U T U Y Y T U Y U Y U Y U U U U U U U I K T U Y Y J Y Y Y J Y Y K T Y Y Y Y Y Y Y Y Y Y Y Y Y Y Y Y Y Y Y Y Y Y Y Y T H H Y T K J Y K T Y U J Y J J Y J T Y Y Y Y T Y Y Y Y Y T Y Y Y Y Y Y Y K Y Y I Y Y Y Y Y U Y Y Y Y Y Y Y Y Y T U Y Y Y Y Y Y Y Y T Y Y Y J Y Y Y Y Y Y Y w.Y Y Y J J Y J Y T Y Y Y Y J J J J J J J J J w.J H J J J J J U P w.J w.J J w.J w.K w.w.w.w.w.w.e.K w.J w.J w.K J J J K J K w.8.w.w.8.8.K 8.8.8.K K w.8.8.K w.8.J w.J J J J J K A X x 7 7 3 x 3 2 * 4 2 x 3 2 k l j l j l z l l 6.6.p ^ 6.o.o.%.%.%.%.%.O.O.o.%.%.%.%.%.%.%.%.%.*.*.*.=.>.>.;.,.-.;.kXsXsXsXsXsXiXdXsXsXsXsXfX5X+.O.O.O.@.O.O.O.O.@.&.@.+. .o. ... . . .o. . . .X.o.o. .[ l ~ ~ ~ 6.~ ~ ~ ~ ! ^ ~ ~ l ( l k l l l l l m l l l l k u 6 6 4 1 2 4 6 1 6 2 6 2 2 2 6 2 2 6 6 2 1 2 2 7 2 6 2 4 6 2 2 2 2 5 9 8 9 8 8 9 8 8 8 8 2 2 1 1 4 4 4 2 8 8 4 4 2 2 2 2 2 2 4 2 5 2 3 2 3 4 ",
"a a g s a a r s s s r s s r s w a w w 8 w i 8 w w w a a w 8 a w 8 s 8 j s a j l s s s w * 2 @ 2 2 2 2 2 2 2 2 2 4 Z S S S b c c c c c c Z c A b 9 9 9 9 q f 9 q p q q p 7 j ' ( ' ' ' ( ' ' ' ' ' ^ ) ] :.>.1.:.:.1.1.:.1.:.:.:.:.1.6X4X6X4X4X4X4X4X4X4X:.4X=.=.sXaXzXzXsXsXsXsXsXsXsXsXzX4X&.o.O.O.o.O.%.o.&.&.O.O.O.o.} ] ] } } } } } ] ]  .}  .[ ~ 9 9 9 9 9 9 9 9 9 9 q 7 7 3 C V C V 8.U 8.V V V V Q U Q V V V V V V V V V V H V V V U V V Q V Q V V V Q U V V Q V V V V V V V V V V V V V V V V C V V K V V V V V V H V H V V U V H H H H H V H Q C V V V V V V V V V V V V V V V V V V K V H V H H V U V V U K Y V H V V V K V H V H H Q H V V V U V V V V V V V V V U V Q Q V V V K H Q U V U H Q V U V U V Q U V H V H V H V V H H V Q V V V K H V H Q H H V 8.H H J J 8.V 8.V 8.H H H w.J H H H 8.H 8.w.w.w.K K w.K 8.J 8.w.w.w.H w.8.w.w.w.w.w.8.8.K 8.K K K 8.K K V 8.8.8.K 8.8.K 8.J w.w.w.w.w.K V P o x 7 3 3 3 = 4 4 2 2 3 6 6 z l ^ l z ^ ^ l l p 6.6.^ 6.o.%.%.o.%.%.o.O.%.%.%.%.+.%.4X6X6X6X5X5X5X6X3.2.2.3.4X3.5XkXhXsXsXsXsXsXsXsXsXsXsXsX5X-.%.%.&.&.*.O.*.*.*.*.*.=.O.o.} o. . . . .X... .} X. . .[ k l l z l l l l ~ ~ F l l ~ ~ m l l l l l ~ l l l l l ( s a a a s j s i 8 i u 8 i i 6 i 6 8 8 8 i s i s i u u a a a a a s s a a 8 8 8 i 8 8 8 8 8 i a i a a i 8 w 8 8 w 8 4 2 2 2 3 3 2 2 2 3 3 3 * 4 ",
"hXhXhXhXhXhXhXhXaXhXhXhXhXhXgXgXzXgXgXgXgXgXgXgXzXgXgXgXgXgXgXgXhXdXsXaXfXaXjXdXsXzXkX>.* 2 2 2 * 2 2 2 2 2 2 2 3 $.#X#XQ.A.Q.L.L.L.A.L.Q.#X#X$.m h z z z z z h f f t z p l ' ' ' ' ) ' ( ' ' ^ ] ' ~ ] <.<.<.<.4.<.4.2.<.<.>.>.1.3.zXzXzXzXzXzXzXzXzXzXiXsXsXaXaXaXaXaXaXaXiXaXiXiXiXaXaX4X1.1.:.:.:.:.:.:.:.:.>.,.=.*.#.] | #.| |  .|  .| | #.|  .g 8 u 9 9 9 9 9 9 9 u 9 5 5 & S.C.V.T.'.~.'.~./././.(.T.~.R.V.~.R.T.R.T.R.!.R.R.R.R.R.b.R.R.V.V.R.R.R.b.R.b.R.R.R.R.R.R.R.!.R.R.R.R.R.V.R.R.R.R.R.R.R.R.R.R.R.b.R.R.V.R.R.T.V.V.V.V.b.R.V.V.V.V.V.V.V.R.V.V.!.R.R.b.R.R.R.R.R.R.R.R.R.R.R.R.R.V.R.R.V.R.V.V.R.V.V.V.V.V.V.V.V.R.V.V.V.V.V.V.V.V.Y./.V.R.D.R.Y.R.V.R.R.V.Y.V.V.V.Y.C.Y.V.V.V.C.Y.V.C.R.Y.R.Y./.R.V./.C./.Y.D.R.R.T./././.T.Y././.~.D.T./.Y.Y.T.T.R.T.Y.C././.Y./.C./.(.R././././.C./.C.T.D.Y.C././.C.Y././.E.Y.~././.Y.Y././././././.D./././.D./.E.XX/././././././.E./.XXC.Y.Y./.oXOX.XXXV.C.N.X 2 2 4 2 4 2 2 4 2 2 4 4 4 l l l k g ! k l l ^ z ^ ^ p %.+.%.%.%.o.%.O.%.%.o.%.%.%.tXzXzXaXlXsXdXdXkXkXxXvXxXkXjXdXdXhXdXfXdXfXhXhXfXhXdXdX7X>.>.<.>.<.,.>.<.>.1.1.>.<.>.*. . .}  . ...#... . ... .X.[ k l l l h l l l l l l l l n ~ ~ ~ k m ^ ~ l l 6.l ~ ~ ` lXzXzXgXkXfXqXiXaXaXzXaXiXaXgXzXsXgXgXaXaXaXiXaXiXiXiXpXpXpXpXpXiXiXiXaXzXaXaXsXsXsXsXiXdXdXsXaXiXfXdXfXfXfXfXaXrX9 7 3 3 3 3 2 3 2 3 3 3 3 3 ",
"hXgXgXgXhXgXgXgXgXgXgXgXgXgXgXjXgXgXgXgXgXgXgXgXgXgXgXgXgXgXgXgXgXgXhXhXhXhXgXhXzXgXzX2.@ 2 1 2 2 * 2 2 2 2 * 2 + a.Q.E.Y.Y.E.V.E.V.Y.T.E.R.A.L r l z t f h z t z z f z f 6.( ' ~ ' ` ' ' ' ' ' ] ' ' ] <.<.<.1.<.<.<.4.1.<.1.1.2.2.xXdXdXgXsXdXsXlXdXsXdXdXsXsXaXaXaXaXaXaXaXaXaXaXaXaXlX5X:.:.1.:.1.:.:.1.:.:.:.>.>.=.]  . .| | #.| #.| #.#.|  .| g 9 w 8 9 u 9 u u 9 9 5 5 9 O G.(.'.-X X`._._._.).[.[. X`._.`.`.`._.`._._._._._._._.v.!.v._.v._._._.!._._._.v.'.v._.v._._._._._._._._._._. X'._.'._.!._._._.'.'._._._.v.!._.^._.^._._._.v.'.v.~._._.v.'.'.v._._.!._._.'._._._.'._.'._.-X_._.~.'._._.~._._.'._._._._._.'._._._.'._._._._._.`._.`._.`.`.`.`._._._.]._._._._._._._._._._.`.`._._._._._.`.'._.).'._._._._._._.'._._.)._.)._._._.`.'.'.`.'.`.`._.`.`._.`._._.`.`.`.`.`.`.`.`.`.`.`.`.`.`.'.`.`.`.`.`.'.`.).`.'.`.).).).).)._.).'.).'.`.oX'.`.`.`.'.`.`.`.'.`.'.`.'.'.).).'.`.`.'.).`.'.`.`._.'.R.S.o @ 2 2 2 2 2 2 2 2 4 2 2 2 k l k m l l ~ ! l z 6.6.z p %.%.%.%.%.%.%.%.+.%.%.%.%.o.tXzXaXzXaXhXsXdXsXfXsXdXsXsXdXfXsXfXfXfXhXyXdXfXkXdXfXkX6X>.>.>.<.>.>.4.>.>.>.>.1.>.>.@. . . . . . . .#. . . ... .[ z l l l l l ~ l l l l ! n l l l l m ! n l l l l l l ~ ~ zXxXxXxXjXhXdXzXgXgXhXgXgXgXgXgXgXhXgXgXgXgXgXgXhXgXgXhXzXhXzXhXgXhXhXhXsXgXhXdXdXdXdXgXhXgXgXhXhXsXdXdXxXxXdXjXiXi 7 6 x 6 6 3 2 3 2 3 6 3 3 ",
"gXgXgXgXhXgXgXgXgXgXgXgXgXgXgXgXgXgXgXgXgXgXgXgXgXgXgXgXgXgXgXgXgXgXgXgXhXhXgXgXgXgXjX<.2 2 2 1 2 @ * 2 2 . = 2 = a.C.E.Y.E.Y.V.E.C.E.Y.E.E.Q.P y z f f f t j t f z z p j l ' 6.' ~ ` ' ( ' ' ' ( ^ ) ] <.<.<.<.4.<.<.4.<.1.1.<.2.>.zXdXsXdXhXdXhXdXhXdXgXsXgXsXaXaXaXaXaXaXaXaXaXiXaXaXzX4X1.:.:.a.:.:.:.:.4X%.=.>.-.,.} } | #.| } #.} #.| #.| #.| m 8 9 9 9 9 9 9 r 9 9 9 9 5 + XX_._._._._._._.v._._._._._._._._.`._._._._._._._._._._._._._._._._._.v._._._.'._._._._._._._._._._._._._._._._._._._._._._._.v.~._._.v.'._._._._._._._._._.'._._._._.`._.'._. X_._._._._.'._._.[._._._._._._._._._._._._._._.`._._.`._._._.)._._._.`.`.`.'._._.`._._._._._._.`.`._.`.'._._._.`._.`._._.`.`._._._._._._.'.`.`.`.'.`._._._._._._._._._._._.`.`._._._._._.`._.`.`.`.`.`._.`.`.`.`.].`.`.`.`._._.`.`.`.`._.`.`.`.`.`.`.`._.`.`.`.`.`.`.`._.`.`.`.'._.`.`.`.'.`.'.'.`.`.`.`.`.`.`._._.`._.'._._.'.'.`.).).`.`.'.~.P.O * 2 2 4 6 2 2 2 4 2 4 2 2 h k k k k l l l l ^ z z ^ 6.+.%.%.O.%.%.%.%.%.%.%.%.%.%.iXzXaXzXaXdXdXdXdXhXdXdXdXhXsXsXsXdXdXdXdXhXfXfXfXhXfXdX8X>.<.>.<.<.>.>.>.>.>.>.4.>.<.@. . ... . .#....... . . .X.[ k l l l l l l l l l l ~ l l l m k ! l ~ l l ~ l l l 6.! dXxXgXgXgXgXgXzXgXzXgXzXgXgXgXgXgXgXgXgXzXgXgXgXgXgXzXzXgXgXgXgXzXgXgXgXgXgXgXgXgXgXgXgXgXgXdXgXgXgXgXdXgXgXgXjXaX7 7 x 3 x 6 2 3 2 3 3 = 2 3 ",
"gXgXgXgXgXgXjXgXgXgXgXgXgXgXgXgXgXgXgXgXgXgXgXgXgXgXgXgXgXgXgXgXgXgXgXgXhXhXgXgXgXgXjX<.1 2 2 2 2 2 2 2 2 2 2 2 + a.E.Y.Y.Y.Y.E.E.E.V.E.E.E.A.P y t z z z z z f z j t z z l ' ) ' ' ' ~ ' ' ' ' ' ] ] } >.1.<.<.<.<.<.<.1.<.1.<.4.-.zXdXgXdXdXdXdXdXdXdXsXsXgXsXaXaXaXaXaXaXaXaXiXiXaXaXaX4X1.1.:.:.:.;.:.%.4X:.>.>.,.=.] } | | | } } } |  .|  .| | g 4 a 9 u 9 9 u 9 9 9 w 9 4 > XX_._._._._._._._._._._._._._._.`._._._._._._._._._._._._._._._._._._.v._._._._._._._._._._._._._._._._._._._._._.[._._.v._._._._._._.v._._.[._._._._._._._. X_._._._._._.v._._._._._._.v._._._._._._. X_._._._._._._.^._._._._._._._._._._.[._._._._._._._._._._.`.`.`._.`._.`.[.`._._._.'._.`.`.`.`.`.`.`.`.'._.`.`._._.`._.`._.`._._._.'._.`.`._.'.`._.'.`.`.`.`.`._.`.`.`.`.'.+X`.`.`.`.`._.).`.`.`.`.`._.`.`.`.`.`.`.`.`.`.`.`.`.`.).`.`.`.`.`.`.`.).`._.`.`.`.`.`.`.`.'.`.`.`.`.`.`.).).).)._.'._.`._._.`.`.).`.).`.`.).S.o * 2 2 2 7 2 3 4 4 * 2 4 6 l l ~ l k l l ! l 6.z ^ ^ p +.+.%.%.O.%.O.%.%.%.O.%.+.o.tXzXzXaXzXdXsXsXdXdXdXsXhXsXsXsXsXfXsXsXsXfXhXhXfXdXhXfX6X,.>.>.>.>.4.>.<.>.>.>.>.>.>.o. .}  . . .....#. . . .X.o.{ k l z h l l l ^ n l l l l ~ l k k ! m l l l ^ l l l ~ ! hXjXgXjXgXzXgXgXgXgXgXgXgXgXgXgXgXgXzXgXgXgXgXgXgXgXgXgXgXgXgXgXzXzXzXgXgXzXgXgXjXgXzXgXzXdXzXdXgXgXgXgXgXgXgXgXaX9 3 x 6 3 6 3 2 3 2 3 2 2 7 ",
"gXgXgXgXgXgXgXgXgXgXgXgXgXgXgXgXgXgXgXgXgXgXgXgXgXgXgXgXgXgXgXgXgXgXgXgXhXgXhXgXgXgXgX2.2 2 2 2 * 2 * 2 2 2 x * + a.E.A.E.Y.Y.Y.Y.V.Y.E.V.V.C.L t t z t z f z z z f z f z ^ ' ~ ) ' ~ ] ] ~ ' ) ] ' ! } >.<.<.<.4.<.<.<.<.<.<.<.2.;.dXdXdXhXdXgXsXzXsXgXsXsXgXsXaXaXzXaXaXaXaXaXaXiXaXaXaX4X:.:.:.:.:.1.:.4X%.:.>.>.*.>.| | | } #. .| #.|  .#.| } ] z 6 9 w 9 9 9 9 9 9 9 w 9 9 : #X`.`.`.`._._._._._._._._._._._._._._._._.[._._._._._.l._._._._._._._._._._._._._._._._._._.[._._._._._._._._._._._._._._._._._._._._. X_._._.[._.[._._._._._._._._._._._.[._.[._._.[._.[._._._._.[._._._._._._._._._._._._._._._._._._._.`._._._._._._._._._._._._.`.`.`.`.`.`._._.`._.`._.`.`.`.`._.`.`._._._.`._._._._.`._._._.'.`._._._.`.`.`._._.`.`._._._._._._.`.`.`.`.`.`.`.`. X`.`.`.`.`.`.`.'.`.`.-X`.`.`._.`.`.`.`.`.`.`.`.`.`.`.`.`.`.`._._.`.`.'.`.].'._.].'.`.`.`.`.`.`.).`.`.`.`.)._.)._.).].'.`._._.'.).)..XXXS.+ 7 6 2 3 2 2 2 4 4 2 2 4 2 k k l l k k l l k 6.^ p 6.p %.o.%.%.O.%.+.%.%.%.%.%.%.%.0XlXsXsXsXdXdXdXdXsXsXzXdXsXsXdXfXdXfXsXdXyXdXhXdXdXdXfX7X*.,.,.>.<.<.,.<.>.1.<.>.>.>.o. . . . . . .#... . . . . .[ l l l ^ l l n ! l ^ l l l ( l l ~ k ( l l l n l l l k ! dXgXzXgXgXgXjXgXgXgXgXgXgXzXgXgXgXgXgXgXgXgXgXgXzXgXgXgXgXgXgXgXzXgXgXzXgXhXgXgXjXgXgXgXgXgXgXgXgXhXjXjXdXgXgXzXsX9 9 2 x 7 3 2 3 2 3 3 6 2 2 ",
"gXgXgXgXgXgXgXgXgXgXgXgXgXgXgXgXgXgXgXgXgXgXgXgXgXgXgXgXgXgXgXgXgXgXgXhXgXgXgXgXgXhXgX<.. 2 1 2 2 2 2 1 2 2 2 * + E V.E.V.Y.E.V.Y.E.E.Y.A.V.C.P z f f f f t t f f t z t z ^ ~ ' ~ ' ] ~ ~ ] ' ' ' ' ~ } <.<.<.<.<.<.<.<.<.<.<.;.<.>.jXdXdXhXhXdXhXsXgXsXgXsXsXsXaXaXaXaXaXaXaXaXiXaXiXaXaX4X:.:.1.1.:.:.:.:.:.:.>.>.,.-.#.#.| #. .|  .| #.| |  .} } k 9 9 9 u 9 u 9 u 9 9 9 9 9 < %X`._._._._.[._._._._._._._._._._.v._._._._.[.[._._._._._._._._._._._._._._._._._._._.[._._._._._._._._. X_._.v._._._._._._._._._.[._._._._._._._._._._._._._._._._.[._._._.[._.[._._._._._._._._._._._._._. X_._._._._._._._._._._._._.`._._._._._._.)._._._._.`._._._._.`.`._.`.`._._._._.`.`.`.`._._._._.`._.`._.'._._._._._._._._.`.`.`.[._._._._.`._._._.`.`.`._._.`.`.`.`.`.`.`.`.`.`.`.`._. X`.`.`.`.`.`.`._.`. X`.`.`.`.`.`.`._.`._._.).`.`.`.`._._.`.`.).`.`._.`.`._.`.`.`.`._.`._.).`.`._.`.)._.`._.).`.)._.`.`.).].L.= 9 6 2 3 2 2 2 2 = 2 2 2 2 l l l k l ! l l ~ 6.p 6.p ^ %.%.%.%.%.%.%.%.%.%.%.%.%.o.tXzXsXzXsXdXdXfXlXkXsXsXsXsXsXdXdXdXdXdXdXhXhXyXdXfXdXhX6X-.,.>.>.,.,.<.,.>.>.>.1.>.,. . . . . . . .....#. .X. . .[ j l z l z l l l l n l l l l l l m l k 6.l ~ l ~ l 6.l ( dXgXgXzXgXgXgXgXgXgXgXgXgXgXgXgXgXgXgXgXgXgXgXgXgXgXgXgXgXgXgXgXgXgXgXgXhXsXgXgXgXgXgXgXdXgXgXgXgXgXgXhXjXjXhXjXsXa 2 2 2 6 6 2 6 3 2 3 3 2 2 ",
"gXgXgXgXgXgXgXgXgXgXgXgXgXgXgXgXgXgXgXgXgXgXgXgXgXgXgXgXgXgXgXgXgXhXgXgXgXhXgXgXgXhXhX=.. 2 2 2 2 2 2 2 2 2 2 + O $.V.E.E.Y.Y.V.V.Y.E.Y.R.V.A.S y z t z f t f z j j z z z ^ ~ ' ' ' ' ' | ' ' ' ' ' ~ } <.<.<.<.<.<.<.;.<.<.<.<.2.-.kXdXhXdXdXsXgXsXsXgXsXgXgXsXaXaXaXaXaXaXaXaXaXaXaXaXzX4X:.:.:.:.:.:.:.:.:.:.,.-.,.*.| | | | | | | #.| | #. .[ [ l 4 u 9 9 9 w 9 9 p w 9 u q > $X_._._._._._._._._._._._._._._.[._._.[._._._.[._._._._._._._._._._._._.c._._._._._._._._.[._._._._._._._._._._.v._._._.[._._.[._._._._._._._._._._._._._._.[._._._._._._._._._._._._._._._._._. X_._._._._._._._.`._._._._._._._.`._.`._._.`.)._.)._._.`._._._.'.'._.`._.`.`._._._._.`._._.`._._._._._._._.`.`._._._._._.`.).)._._._.`.`.`.`.`.`.`.`.`.`.[._.`.`._.`._._.`.`.`.`.`.`.`.`._.`.`.`. X`.`. X'.`.`.`.`.`.`.`.`.`.`.`.`.`.`.`.`.`.`.`._.`.`.].`.`.`.`.`.`.).`.`._.).`.`.`.)._.).`._.).`.)._.).)._._.`.).[.`.).).`.L.> 9 7 6 3 2 2 * 3 2 2 4 * 4 l k l k l ^ l l l ^ 6.z ^ ^ +.%.%.O.%.O.O.%.%.%.O.%.%.o.0XsXsXaXzXdXdXdXdXsXsXdXdXsXsXdXdXfXsXsXsXhXfXhXfXfXhXyX6X-.>.,.>.>.<.<.<.>.>.>.>.<.>.o. . . . . . . . . .X.}  . .' z ^ l l l n l l n ^ l l l l l l l l m ~ ~ ~ ~ ~ l k l j dXgXgXgXgXgXgXgXgXgXgXgXgXgXgXgXgXgXgXgXgXgXgXgXgXgXgXgXgXgXzXhXgXgXgXgXgXzXhXgXgXgXdXgXgXgXgXgXhXgXgXgXdXhXgXhXsXa 2 2 2 2 2 x 2 2 3 x 7 x 6 ",
"gXgXgXgXgXgXgXgXgXgXgXgXgXgXgXgXgXgXgXgXgXgXgXgXgXgXgXgXgXgXgXgXgXgXgXgXgXgXgXgXgXhXhX=.. . 2 1 2 4 * 2 x 6 x x O J A.E.Y.Y.A.E.E.A.E.Y.V.Y.A.A e p f j z j t f z f t f z l ` ` ~ ' ~ ] ) ] ' ' ' ' ! ] >.<.<.<.<.<.<.4.<.<.<.>.<.*.dXdXhXhXhXgXsXzXgXsXgXsXsXgXaXaXaXaXaXaXaXaXiXiXaXiXaX6X:.:.,.,.:.1.1.:.:.:.,.-.>.*.| #.} #. . .#.|  . .| | [ [ ` 9 9 9 w 9 9 9 9 9 9 9 9 9 : @X_._.[._._._._._._._._._._._._._._._._._._._._._._.[._._._._._._._._._._._._._.l._._._._._._._._._._._._._._._._._._._._._._._._._._._._._. X_._._.[._._._._._._._._._._._._._._._._._._. X_._._._._._._._._._.`._._.`.`._.`.`._._._.`._.`._._._._._._._.)._._._._._._._._._.`._._.).`._._.`.`._._._._.`.`.`.`._._._.)._._._._._.`._.`._._._.`._.[.`.`.`.`.`._._.`.`.`.[.`.`.`.`.`.`.`.`.'.|.`.`.'.`. X'.'.`.`.`.`._.`.`.`.`.`.`.`.`.].`.`.`.`.`.`.`.`.`.`.`.`.`.`.`.`.`.`.`.).`.`.`.`.`._._.`.`.`._.'._._.'.).`.).`.`.).`.(.A.& 3 6 2 3 6 2 4 4 2 4 2 2 4 ~ l ! k z l l l ~ 6.p 6.^ p o.%.%.%.%.%.%.+.%.O.%.%.%.o.0XsXsXzXaXdXdXdXdXdXdXsXsXsXdXdXdXdXdXdXsXdXdXfXdXkXhXkX6X,.-.>.<.,.>.<.<.4.>.>.>.>.>.o. . . . ...X...#. . . .X.X.' z n ^ l l l k l l l l l l l l l l l ~ l ~ l k ~ l l 6.s sXgXgXdXzXgXgXgXgXgXgXgXgXsXgXgXgXgXgXgXgXzXgXgXgXgXgXgXgXgXhXgXgXgXgXgXgXhXgXgXgXgXgXgXgXgXgXgXgXgXgXhXgXgXgXgXaXi 2 2 6 2 6 6 3 6 2 6 7 7 3 ",
"gXjXgXjXgXgXgXgXgXgXgXgXgXgXgXgXgXgXgXgXgXgXgXgXgXgXgXgXgXgXgXgXgXgXhXhXjXjXhXjXgXgXhX<.1 1 2 2 * 2 2 2 * 2 2 * X a.C.E.E.C.E.E.V.E.Y.Y.C.V.A.$.q z f t f j f y z t f f f l ~ ) ^ ' ^ ' ' ' ' ' ' ] ~ | >.<.<.<.:.<.>.<.<.>.>.>.<.:.gXsXgXgXdXdXgXsXgXsXsXsXgXsXaXaXaXaXaXaXaXaXaXiXiXaXlX5X:.>.,.:.:.1.>.>.>.:.,.>.>.:.|  .| | } } | } } #. .[ ] { l 8 9 9 u 9 9 9 9 9 9 9 9 q c oX!._._._._._._._._._._._._._._._._._._._._._._._.[._._._._._._._._._._._._._._._._._._._._._._._._._._._._._._._._._._._._._._._._._._._._._. X_._._._._._._. X_._._._._._._. X_._._._._._._._._._.[._._._._._._.`._._.`._._._._._.`._._.)._._._._.`._._.)._._._.'._._._._.)._.`._._._._._._.)._._.`.).[.`._._._.`._.)._._._.'.)._._._.`._.).`._._._._._.`.`.`._._.`._.).[.`.`.`.`.`.`.`.`.`.`.`.`.`.`.`.`.`.`.`.`.`.`.|.`.`.`.`.`.`.`.].`.`.`.).).`._.`.`.`.`.`.`._.`.`.`._.`.`.`.`.)._.).`.)._.`._.`._.)._.`._.'._.).)._.).Z.3 0 7 6 3 2 3 4 2 4 2 2 2 2 l k l l k l k l ! ^ z 6.z p +.%.o.%.%.%.%.%.%.%.%.%.%.o.0XzXsXsXzXsXzXsXsXsXsXzXsXdXhXfXfXdXdXsXsXfXdXdXdXdXhXkX8X<.>.>.>.>.>.>.,.>.>.4.>.>.>.o.}  . .}  .o.} } X.}  .o.X.' j ^ z l l l ^ l z n l l l l l l l m ~ n ^ ~ l l ~ l 6./ sXzXgXgXgXgXgXgXgXgXhXgXgXgXgXgXgXgXgXgXgXgXgXhXhXgXgXgXgXgXaXgXgXgXgXgXgXhXgXgXgXgXgXgXgXsXgXgXgXgXgXgXhXgXhXgXsXi 2 6 2 2 2 x 3 3 3 6 x 7 7 ",
"gXgXgXgXgXjXjXgXgXgXgXgXgXgXgXgXgXgXgXgXgXgXgXgXgXgXgXgXgXgXgXgXgXgXjXhXgXhXhXhXgXgXgX2.1 x 2 2 2 2 4 * 2 2 2 2 o a.C.E.E.E.C.E.E.Y.Y.V.Y.Y.A.L 0 z z f z z t j f z z z z l ' ~ ' ' ' ' ' ' ^ ' ' ] ` | <.<.<.<.<.<.<.<.<.<.>.<.>.%.dXsXsXgXdXhXsXgXsXgXgXsXgXsXaXaXaXaXaXaXaXaXiXiXaXaXiX5X:.,.:.1.:.:.,.:.:.:.:.:.:.:.#.| | #.} #.| #.| | } } | [ h 2 9 9 9 9 9 u 9 a 9 r 9 9 : oX_._._._._._._._._._._._._._._._._._._._._._._._._._._._._._.v._._._._._._._._._._._._._._._._.v._._._._._._._._._._._._._._._._._. X_._._._._._._._._._._._._._._._._._.c.*X_._._._._._._._._._._._._._._.`.`._.-X_._.`._._._._._.`._.`._.`._._.)._._._._._._.`._._.)._._._._.`._.)._.`.`._._.`._._._.)._._._.).`._._.`._._._._._._._.`.`._._.`.`._.`.`._.`.`._._.`._.`.`.`._.`.`.`.`.`.`.`.`.`.`.`.`.`.`.`.`.`.`.`.`.`.`.`.`.`.`.`._.`.`.`.`._.`.`.`.`.`.`.`.`._.'.).`.`.`.`.`._.)._.`.'._._.'.`.)._.)._.)._.).^._.'.'.'.).A.= 9 3 3 6 3 * 2 4 * 2 2 2 4 l k k k k ~ l l l z 6.p ^ 6.+.%.%.o.%.o.o.%.%.o.%.%.%.o.tXsXsXsXsXsXsXsXsXzXsXiXzXdXfXdXdXsXsXdXsXyXhXdXfXdXfXfX6X,.<.>.>.,.>.<.<.>.>.>.>.>.>.O. . . . . .} o.o. .X. . . .[ n n ^ z l l n l l ^ l h l l l l l l l ^ 6.^ l l 6.~ l p sXgXgXzXgXgXgXgXgXgXgXgXgXgXgXgXgXgXgXgXgXgXhXhXhXgXgXgXgXgXzXgXgXgXgXgXgXgXgXgXgXhXgXgXgXgXgXgXgXgXgXgXhXgXgXhXsXs 2 3 2 2 2 6 6 3 6 7 3 x 7 ",
"jXgXgXgXgXgXgXgXgXgXgXgXjXgXgXgXgXgXgXgXgXgXgXgXgXgXgXgXgXgXgXgXgXgXgXjXhXjXjXgXgXgXjX<.x 2 2 2 @ 2 2 2 * 2 * 2 + a.C.E.V.C.E.V.E.V.Y.Y.Y.C.L.L y z z t z t j f f z y z f ! 6.' ' ' ' ' ' ' ' ' ~ ' ' } <.<.<.>.<.>.<.<.<.-.>.<.<.;.gXdXhXgXdXgXgXsXgXsXgXsXsXsXaXaXaXaXaXaXsXaXiXiXaXaXfX6X:.:.,.>.:.:.:.:.:.:.:.:.:.,. .| | #.| | | | | #.} }  .#.k 4 9 9 a 9 9 9 r 9 9 w 9 q , @X_._._._._._.[._._._._._._._._._._._._._._._._._._._._.v._._._._._._._._._._._._._._._._._._._._._._._._._._._._._._._._._._._._._. X_.[._._._. X_._.[._._._._._._._._._.!._._._._._._. X_._._._._._._._._._._._._._._._.`._._.`.`._._._._._.`._.`._.`._._._._._._._.)._._._._._._._.)._._._._._._._._._._.`._.)._._._._._.`.`._.`._._._.`.`._.`._.)._._._.`._._._._._.`.`.`.`.`.`.`.`.`.`.`.`.`.`.`.`.|.`.`.`.`.`.`.`.`.`.`.`.`.`.`.`.`.'.`.`.`._.`.`.`.`._.).`._._._.).`.).`.`.`.`.`.)._.)._._._.'.`.)._._.'._.'.).).`.`.'.Z.- 5 3 3 6 6 3 2 2 4 2 2 * 2 ~ k l l h l ^ l l ^ z z ^ ^ +.+.o.%.o.%.%.%.%.%.%.%.%.o.iXsXsXsXsXsXsXzXsXsXsXzXsXdXfXsXdXdXdXdXsXhXfXhXdXhXhXdXs.*.,.<.<.>.>.<.,.>.>.>.>.>.>.o. ... . . .} } } X. . .X.X.{ ^ ^ h l l z l l l l l l l l l l ( ~ l ~ l l l l ~ l l ^ zXgXgXzXgXgXgXgXgXgXgXgXhXgXgXgXgXgXgXgXgXhXhXgXgXgXgXgXgXgXgXgXgXgXgXgXgXgXgXgXgXgXgXgXgXgXgXgXgXgXgXgXgXgXgXgXsXu 2 6 2 6 2 6 3 x 3 3 x 7 3 ",
"gXgXgXgXgXgXgXgXgXgXgXgXgXgXgXgXgXgXgXgXgXgXgXgXgXgXgXgXgXgXgXgXgXgXgXhXjXhXjXhXgXgXjX>.1 x 2 x 2 * 2 @ 2 2 2 @ + a.E.Y.Y.Y.Y.E.Y.A.E.E.C.E.#XL p z z r f f f t z f z z z ~ ' ' ' ' ^ ' ' ' ) ' ' ] ' &.<.<.>.>.;.>.<.<.>.;.<.,.-.:.dXsXhXhXdXdXsXzXsXgXsXgXgXsXaXaXaXaXaXaXaXaXiXaXaXaXaXtX:.:.1.,.:.,.>.,.:.:.:.:.:.:.} } ] ] } #.#.| | } } }  .[ j 2 9 f 9 9 9 9 u 9 9 9 u q > %X_._._._._._._._._.v.[._._._.[._._._.l._._._._.[._._._._._._._._._._._._._._._._.v._._._._._._._._._._._._.[._._._._._._._._.`._._.`._._._._._._._._._._._._._._._. X_._._._._._._._._._._._._._._._._._._._._._._._.`._._.`._._.`.`._._.'._._.)._._._.).)._.)._._.)._._.`._._.)._._._._.)._._.`._._.).`._.`.`._.`.`.`._.`.`.`._._.).`._._.`._.].`._._.`._.`.`.`.`.`._.`.].`.`.`.`.`.`.`.`.`.`.`.`.`.`.`._.`.`.`.`.`.`.`.`.`.`.`.`.`.`.`._.`._.).`.`.`.`.`.`._._.'.'.`._._.`.).`.`._._._.`._.).`.`.`.)._._.'._.`._._.'.'.'.`.A.> 5 7 3 x 6 3 2 4 2 2 2 2 3 l l k l k k l k l ^ z 6.z ^ o.+.+.%.%.%.%.o.%.o.%.%.%.} iXsXzXsXsXhXsXzXsXzXsXsXsXdXdXdXdXdXsXsXsXdXdXfXhXfXkXjX6X,.>.>.>.<.>.>.<.>.>.>.>.1.>.+. . . . . .o.} X.}  . .X...[ k z ! l l l l ^ n l l n ~ l l l l l l ~ l ~ l ^ l 6.l ^ sXgXgXzXgXgXgXgXgXgXgXgXgXgXgXgXgXgXgXgXgXgXgXgXhXgXgXgXgXgXgXgXgXgXgXgXgXhXzXgXgXgXgXgXgXgXgXgXgXgXgXgXhXgXgXjXsXa 6 6 2 2 6 6 3 7 3 3 6 7 7 ",
"gXjXgXhXjXgXgXgXgXgXzXgXgXgXgXgXgXgXgXgXgXgXgXgXgXgXgXgXgXgXzXzXgXjXgXgXjXgXjXjXgXgXxX>.. * * 2 2 2 2 2 * 2 2 * + a.A.W.V.E.E.V.Y.Y.Y.Y.Y.E.A.L t r j f j f z f z p t z p 6.' ' ' ^ ' ' ' ' ' ] ' ' ' o.<.>.>.<.>.<.<.>.>.>.>.;.>.%.xXsXgXhXsXiXsXdXhXdXsXgXsXsXaXaXaXaXaXaXiXiXaXiXaXiXiX6X:.:.>.>.:.:.:.,.>.:.,.:.:.:.} [ [  .| | #.} } } } } } } ~ 6 9 f 9 9 9 9 9 9 9 9 9 5 > $X)._._._._.v._._._._._._._._._._._._.`.[.`._.`.`._._._._._._._._._._.v._._.v._.v._._._._._._._._._._._._._.`._._._._._._._._._.`.`.`.`.`.`.`.'.-X_._._._._._._._._._._._._._._.`.`._._._._._._._._._.`._._._._._.[._._._._._._.`._._._._.`.`.`._._.'.`._._.`._.`.`.`.'.`.`.`.`.].`._._._._.^.)._._._.).`.`.`.`.`.`.'._._._.`.`.`._._._._._.[._._._._.`.[._._.`.[.`.`.`._.`.`.].`.`._.`.`.[.`.`.`.`.`._._._._._.`.`.'.`.`.`.`._.`.`.`.`.`.).`.`.]._._.]._._.`._.`.`.`._._.'.!.`.`.`.`.`.`.`.`.`.`.`.`.`.'.'.`._._.`.`._.oX`.oXA.% w 2 2 2 4 2 2 2 2 2 2 2 2 l k k l l l k ~ l 6.^ ^ ^ ^ %.%.%.o.%.%.%.%.%.o.%.O.%.o.pXaXsXsXsXaXzXsXsXsXsXsXsXdXhXdXdXsXhXfXdXdXhXdXhXkXfXfXqX-.>.>.<.>.>.>.1.>.>.4.>.,.<.&. . . . .} X. . ... . . . .[ g k h z l l z l l z l l l ~ k l l l ~ ~ ^ n ^ l l ~ ~ j zXzXzXgXgXgXgXgXgXzXzXgXhXhXgXzXgXgXzXgXgXzXzXgXgXzXzXgXgXgXgXgXgXgXgXgXgXzXzXgXgXgXgXgXgXhXgXgXhXhXgXgXgXjXjXxXdXk 9 2 6 2 6 6 6 6 3 3 7 7 3 ",
"gXjXgXhXgXjXjXjXzXzXzXzXzXzXgXgXgXjXjXjXjXjXgXgXzXzXgXzXzXzXzXzXxXxXjXjXjXxXjXgXzXhXgX4X2 2 * 2 @ * * 2 1 2 2 2 + a.L.E.Q.Q.A.Q.Q.A.Q.A.Q.A.#XL n f z t t j f z r z z p p 6.^ ^ ' ' ' ' ' ^ ) ' ' ' ~  .<.>.>.:.<.>.>.-.-.<.>.>.2.<.zXgXdXhXzXgXzXzXzXzXzXzXzXzXsXaXzXfXsXsXsXiXzXlXaXaXzXtX:.1.>.1.1.:.:.1.>.>.1.>.>.:.} [  .[ | #.| } } }  .} } #.' 9 9 9 9 q u 9 f 9 r f 9 5 $ %X+X_._.v.v.'.'._.v._._._._._.`.].`.`.`.`.`._. X`._._._._._._._.~.v.~.'.'.v.!.~._.^.!._._._._._.^.)._.^._._._._.'.^.!._._._._.`.'.`.`.`.].`._._._._._._.)._._._.~.'.~._._._._._._._._._.)._._._._._._._._._.)._.-X_.'.`.`.`.`.`.`.)._._.'._.'._.)._.`.`.).).`.).`.`.`.`._.`.`.^._.'.'.`.)._._._._._._.[._.`.`._.`.`.).).'.).`.)._.'.).'._.).`.`.'.'._.`.`.`.`._._.).[._._._.`.`.`.`.'.`.).).`.`.`.`.`._.).~.'.`.`.`.).`.`._.`._.'.).`.`.).[.)._.).`.).).^.).'.).)._._._.'.'.!.`.OX`.`.`.).'.OX).`.OX'.`.`.`.'.'.'.'.'.`.+X+X+XL.= 9 5 2 6 2 6 2 4 2 2 2 2 2 ! k k j l l l k l z z z z ^ %.o.o.%.o.o.o.%.%.%.%.%.O.o.tXzXzXlXaXzXaXzXsXzXzXxXzXkXkXkXvXkXkXkXdXdXkXvXjXfXhXvX6X*.<.>.>.4.1.>.>.>.>.>.>.<.>.*. . . .X. . . . . . .X. . .[ k l l l l l l l l n ^ l l l l l l ~ ~ l ~ ^ ~ ~ ~ ~ k p zXdXzXzXgXgXsXgXzXzXzXzXzXzXzXxXxXzXzXzXzXzXzXzXzXzXzXzXzXzXzXzXzXjXjXgXhXhXsXgXhXsXhXsXgXgXgXjXxXiXgXjXzXzXzXxXsX! 8 2 2 2 2 3 3 2 2 7 x 6 7 ",
"4X4X4X4X4X4X4X4X4X;.4X4X4X4X4X4X4X4X4X;.4X4X4X4X4X4X4X4X4X4X4X4X5X4X2.<.<.4XtX6X4XtX4X1.1 9 9 9 5 5 9 9 a 9 r h n A J r.K J K K K K K J J K G b q z j f f z f t p z z z p ^ ' ' ' ' ^ ' ' ' ' ' ' ] ' } &.&.....o.O.O.*.o.o.o.o.o. .%.%.%.-.&.&.&.&.%.%.=.=.%.:.:.:.=.=.:.:.=.=.1.:.1.4X>.=. .&.+.+.+.+.+.o.%.%.+.+.o.O.[ ' ] ] { { { { ] ] ] ] [ [ { 7 8 9 9 9 9 9 9 9 9 9 9 9 : L.V.T.'.~.R.!.b.V.R.R.R.!.!.b.V.V.V.R./.V.V.V.C.Y.Y.V.C.C.R.V.Y.R.R.R.R.R.E.R.R.R.R.R.R.R.R.V.V.V.V.Y.V.V.V.V.R.V.R.R.R.R.R.T.Y.V.V.R.R.Y.C.Y.R.Y.!.T.Y.Y.Y.Y.R.R.T.R.R.!.!.R.V.R.V.V.R.Y.R.V.~.R.T.Y.R./.D.~.!.T.R.~./././.~.(.~././.~././.D././././.~./././././.Y./././././.)./././..X/././././././././././././././././././././././././././././.~././././././.)././.~./.(././.~.~.)././././.)./..X/.(.(.T.T././.C.~.Y.T././.T.D./.C.D.Y.C./.T.Y.C./././.~./.(./.~.(.!.(.!.!././.Y./.D.~./././././..X.XD.R.R.R.V.T.T.Y.R.C.C.S.0 9 2 2 3 2 2 6 2 9 2 2 2 3 ~ k ^ j l j l l k z ^ ^ ^ ^ %.o.%.o.o.%.o.o.%.o.%.%.O.O.4X1.4X4X4X4X4X:.4X4X>.1.1.,.<.;.<.<.<.<.<.,.;.;.4.4.;.4.;.O.o.o. . . . ...o.o.X.o.o.X.X. . . . .}  . . . . . . .X.{ j l l z l l l l z l l l l l ~ k k l l n ^ l ^ l ^ l ~ j tXtX4XtX0X0X0XtXtX4XtX6XtXtX6XtX0XpXtXtXpX6XtXtXtXtXtX6X6X6X6X6X6X6XtX6XtX0XqXtXpX0XqX0X0XtXqXqX0X0XtXtX0XiXrXiXeX9 8 6 2 6 2 6 x 3 x x 7 7 7 ",
"_ _ .._ _ _ _ _ | | _ | _ _ | | _ .._ .._ ...._ | | ..| | | } } ..| | | | | | | | ] } ] 2 9 5 4 4 4 5 5 9 9 w z q b P G C K K K C C G K K K K S j f z z f f z f z p p z p 6.' ' ' ' ' ' ' ' ' ' ] ' ' | &.&.&.o.@.O.O...o.o.o.o.&.o.>.<.>.>.>.:.:.:.>.=.=.:.:.:.:.=.4X:.:.4X4X:.1.:.:.:.>.%.o.o.o.o.o.o.o.+.+.o.o.o.o.@.] ' ' ' _ ' ' _ ' ] ' ' ' ' l 2 2 6 2 9 8 2 7 7 9 7 3 3 = r.0.9.9.u.9.9.9.7.9.9.9.9.9.7.9.7.9.7.9.7.7.9.9.8.9.9.9.9.9.9.9.8.8.9.9.7.q.9.9.8.9.9.9.9.9.7.q.9.9.9.9.w.9.9.9.8.9.9.9.9.9.7.9.w.9.9.9.8.9.9.8.8.7.8.9.9.8.9.9.9.9.9.7.7.9.7.w.9.9.9.9.9.8.9.w.8.8.9.7.9.8.9.7.7.7.7.9.9.7.7.7.9.9.9.9.9.9.9.7.9.9.7.9.9.7.9.7.9.9.w.9.9.9.9.9.9.9.7.7.9.7.9.9.7.8.9.9.7.9.7.9.9.8.9.9.9.9.9.9.9.9.9.9.9.9.9.9.7.7.9.7.7.7.7.7.9.7.9.9.9.7.9.7.7.7.7.9.9.9.9.9.7.7.9.9.7.7.9.9.9.9.9.9.9.9.q.9.9.q.9.9.9.9.9.9.8.8.9.9.9.w.w.8.w.w.8.8.8.7.7.7.8.7.7.8.7.7.9.9.7.9.9.9.9.9.9.9.q.9.9.q.9.8.8.J : 9 2 2 7 2 8 7 4 2 8 2 3 2 l z k l l l l l l ^ 6.^ ^ 6.%.%.o.%.%.o.o.o.%.o.o.O.O.o.:.:.:.%.:.=.:.:.:.:.:.:.:.>.;.,.,.<.,.<.<.;.,.,.-.;.,.-.,.X...X.o.o. .@...X.X.o.X... . . .}  .} .. . .} X. . . . .{ h z k k k l z l l z l z l k l l k l l ^ l l ^ n l l ~ ^ [ ' [ | ' ( ' ^ | ' ^ ' | ' ' ^ ' ' ' ' ' | | ' | | ' ' | ^ | ] ] ' ' | ] 6.6.^ ' 6.( ' ^ ' ^ ) ^ ~ ' ' ' ` ` [  .2 9 2 2 2 6 6 6 7 6 3 7 7 7 ",
"......_ } } ..| } } } } } } ..} } } ..} } ....}  . ...} } ..} } | | } } } }  .} } ..} [ 6 6 6 6 4 3 4 4 4 5 2 5 * F G G K K K C K K C K P K P b y f z z f f f z j t f z f ! ' ' ' ' ' ' ' ' | ' ' ' ' } o.o.o...O.o.o...o.o.o.O.o.o.:.:.:.>.>.:.:.>.:.:.:.:.:.:.:.<.:.<.>.:.:.<.>.:.:.>.>.%.O.O.O.o...O.o.&.o.&.O.O.o.O.] { ' ' ' ' ] ] ' { _ ( ' ] l 2 2 7 6 2 9 6 6 9 6 9 3 3 + a.w.q.q.9.u.9.q.q.q.q.q.q.q.q.q.q.q.q.q.q.q.q.q.q.9.q.q.9.q.q.q.q.q.q.q.q.q.q.q.q.q.q.r.i.q.q.q.i.q.q.q.q.q.q.q.q.q.q.q.q.9.i.0.0.q.q.q.9.0.9.0.q.0.0.9.0.9.q.9.0.0.0.q.0.9.q.q.q.q.q.q.q.i.9.9.q.q.9.9.0.0.0.0.0.0.0.0.0.q.0.q.0.0.9.0.9.0.q.0.9.q.q.q.q.q.q.q.q.q.q.q.9.0.q.0.w.q.q.w.r.q.w.0.w.0.0.0.0.q.q.9.q.q.q.q.q.q.q.9.q.9.q.q.q.q.q.e.q.q.q.q.0.0.q.w.q.w.w.q.w.w.q.0.r.q.r.w.r.w.q.q.q.q.q.q.q.q.q.q.q.q.i.q.q.q.i.q.q.9.q.q.r.r.i.q.q.q.q.q.q.q.q.q.q.q.q.q.q.q.q.q.q.q.q.q.q.q.q.u.q.q.q.q.u.9.9.q.q.i.q.q.9.q.q.e.+ 7 3 2 3 3 2 2 8 9 2 8 3 2 l j j k z l k l j l j j l 6.%.O.O.O.O.o.O.o.o.o.o.o.+.o.:.:.:.:.:.:.:.:.a.:.:.:.:.>.>.,.<.1.>.1.>.1.>.1.1.:.1.:.=.@...@.@...o.o.@...o.X...X.X... . . . . . .}  . .X.}  ...] z z k z z l l h k z k l l j j l ^ l j ^ l l l l j ^ l l [ [ [ [ [ [ #.} [ } } [ X.[ [ [ [ [ X.[ [ [ [ [ [ [ [ [ [ } [ [ } [ [ } } } [ } } } } } [ [ [ [ [ [ [ [ [ [ [ [ [ 3 7 3 2 6 6 2 6 2 6 7 x 7 7 ",
"_ ........} } ....} ..} } } } } } } }  .} } } } } }  .} } } } .. . .|  .} .. .} } } } [ x 6 7 6 4 4 3 4 3 5 2 2 % b P K K A K K K K P K K K K n z f f z f z z f z f z z f z ' ' ' ' ' ' ' ' ' ' ] ' ' ] o.o.o...O.o.o.O.O...O.o.o. .:.>.:.>.>.:.:.>.,.:.:.:.:.:.>.<.>.>.>.:.<.<.:.:.:.>.>.%.O.O.O.&.@.o.@.@.o.o.O.@.o.O.' ) { ' ' ' { ) ' ' ' ' ] { l 2 2 6 7 2 2 9 9 2 9 3 5 5 3 e.r.q.q.q.q.q.q.9.q.q.q.q.q.q.q.q.r.r.r.r.u.q.q.q.q.q.q.q.w.q.q.q.q.q.q.q.q.q.q.q.q.q.q.9.q.q.q.q.q.r.q.q.q.q.q.q.q.q.q.q.q.q.0.0.q.q.q.0.0.q.9.q.9.q.0.0.w.q.q.0.0.q.9.q.q.i.0.9.q.0.9.0.9.0.q.q.q.q.q.0.q.q.0.0.q.q.q.q.0.q.q.0.0.q.0.q.q.0.q.0.q.0.q.q.q.q.0.q.q.0.q.0.0.9.0.0.0.0.q.q.q.q.0.q.0.0.0.q.q.0.q.0.q.0.q.0.q.q.q.q.q.q.q.q.q.q.q.q.q.q.r.r.0.q.q.w.q.q.q.q.q.q.q.w.q.q.q.q.r.q.w.q.q.q.q.q.q.0.0.q.q.q.0.0.q.q.q.9.q.q.9.q.9.q.q.q.q.q.q.q.q.r.q.q.q.q.q.q.q.q.q.0.q.q.q.q.q.q.q.q.q.9.q.q.q.q.q.q.q.q.q.u.q.q.e.+ x 6 2 3 2 9 8 3 2 8 2 2 2 l l l k k l l l j j l l l 6.%.O.O.o.O.O.o.o.O.%.o.%.%.o.:.1.:.:.4X1.:.:.:.1.1.:.1.>.>.>.>.>.>.>.>.>.>.:.1.1.:.:.=...o...o.o.o...@.o.X.@.o.X...X. .} }  . . . . . .} } X.X.] j k z z k j z j k z z z l l l l l l ^ l l l ^ l l l ~ j [ [ [ [ [ [ #.} } } [ [ X.[ [ [ [ [ [ [ [ [ [ [ [ [ ' } [ [ } [ [ [ ' ' [ } [ [ [ } [ } [ [ [ [ } [ [ [ [ [ [ [ ` 9 2 2 6 2 2 2 2 3 2 7 7 7 7 ",
"......| } } } } } } ....} } } } | } | ..} } } ....} } } } } ..}  .}  .| } } } } ..} } | x 7 x 7 2 2 4 2 2 5 2 2 + c C K K K K A K P K K K K P n p z j f t z z t f f z f f ^ ' ' ' ' ' ' ' ' ' ' ' ) (  .&.O.O.O.O.O.o.o.o...o.o.o. .:.>.:.>.>.:.>.>.>.:.:.:.:.:.>.>.;.>.>.<.1.>.:.1.>.<.>.&.o.O.&.o.@.O.O...o.o.o.o.O.o.] ' { _ { _ ' { ' ' ' ' ' ] l 2 7 6 6 3 6 7 8 9 8 5 5 5 = r.q.r.q.q.q.q.q.r.q.q.q.q.q.r.q.q.q.q.q.r.9.q.q.r.r.q.q.q.r.r.r.q.r.q.r.r.r.r.r.r.q.q.q.u.q.q.q.q.q.q.r.r.q.q.q.q.q.r.q.q.q.q.q.q.q.q.q.q.0.9.q.q.0.0.r.q.q.q.0.q.0.0.0.0.0.0.0.0.q.q.e.q.q.0.q.0.q.0.q.0.q.0.0.0.q.q.q.0.q.q.0.q.q.q.q.q.q.q.0.q.q.0.q.0.0.q.q.0.q.q.q.q.q.q.q.0.q.q.q.q.q.r.q.r.q.q.r.q.q.r.q.q.q.q.q.q.q.q.r.q.q.q.q.q.q.q.9.q.q.q.q.q.q.q.q.q.r.0.w.w.q.w.w.w.q.w.0.0.w.q.w.q.w.q.0.0.0.q.q.0.q.q.q.r.q.q.q.q.q.q.q.r.r.r.q.q.r.r.q.q.q.q.q.q.q.q.q.q.q.q.r.9.q.q.q.q.q.q.9.q.q.q.q.q.q.q.q.q.q.q.q.q.q.q.R + 6 6 2 7 2 9 2 8 3 2 2 2 2 l ^ l j l l l l l l ^ z l ( O. .O.o.O.O.o.%.%.o.o.o.%.o.:.:.:.:.:.:.:.:.:.:.:.:.1.;.,.>.>.>.1.1.>.>.<.<.:.:.:.:.=...@.o.o.o.o.....X.o...X.X.X... . . . . . . . . . . .X. .' h j z z z j l z l l l l l l j l l l l l n ^ l l l l l z [ { [ [ [ [ [ [ [ } } [ [ X.[ [ [ [ [ [ 6.[ [ [ [ [ [ [ [ [ [ [ [ [ } [ [ [ [ [ [ [ [ [ } } [ [ } [ [ [ [ [ [ } ` f 2 2 2 2 2 2 6 6 2 7 x 3 7 ",
"| ..| ....} ..} } } } } } } ...... . .} ..| ..} } }  ...} ..} }  .}  .....} }  .} | } } x 7 7 7 4 5 * 2 3 2 4 - + b P K K K K K K K K K K K K A t f z t j f f j f t f t f j ' 6.' ' ^ ' ' ' ^ | ' ` _ | O.O.O.O.O.&.&.o.o.&.O.o.&.&.:.:.:.>.:.:.:.>.>.:.>.,.:.:.:.>.:.>.>.:.<.:.:.:.>.:.>.&.o.O.@.O.O.O.O.O.o.&.o.O.o.o.] { ' ' ' { ' ' { ' ' ] ] ' ~ x 6 6 3 3 4 9 3 8 3 2 4 3 3 r.r.q.q.q.q.q.q.q.q.u.r.q.r.q.q.r.q.r.q.q.r.q.q.q.q.r.q.q.q.q.q.r.q.r.q.q.q.r.r.r.q.q.q.q.q.q.q.u.q.q.q.9.u.q.q.q.q.q.q.q.q.q.q.q.0.q.0.q.0.q.q.0.0.q.w.q.q.w.q.q.q.0.q.q.q.0.0.q.0.q.q.q.0.q.q.0.q.q.0.q.q.q.q.0.q.q.q.q.q.0.0.q.0.q.q.0.q.q.q.q.q.q.q.0.q.q.q.9.0.0.q.q.q.q.q.q.q.q.q.0.q.w.q.q.q.q.q.q.q.q.q.q.q.q.q.q.q.q.q.q.q.w.q.q.q.0.q.q.q.q.q.q.q.q.q.q.w.0.q.q.q.q.q.q.q.q.q.q.w.q.q.q.r.q.q.q.q.q.q.q.q.q.q.q.q.q.q.q.q.q.q.q.q.q.q.q.q.w.q.q.q.q.q.q.q.q.q.q.q.q.q.q.r.9.q.9.u.q.q.q.q.q.q.9.9.u.q.u.9.9.q.q.q.9.a.+ 2 2 2 6 8 2 7 2 2 6 2 2 2 l z l ^ z l j j j j j j ^ 6.O.o.o.O.o.o.o.o.o.o.%.o.%. .:.:.1.:.:.:.:.:.:.1.:.:.1.>.,.>.>.>.>.>.>.<.>.:.<.1.<.:.=...o.o.o.o.o.@.o.o.X.o.o.X.X. . . .X.}  . . .}  .} X...} ] z k z j l l z k z k z k z j l l j l l z ^ ^ z j l ^ l l [ [ [ [ [ [ [ [ [ } }  .X.[ [ [ [ [ [ [ [ [ [ [ [ ' [ [ [ [ [ [ } [ [ [ [ | } } } [ [ [ [ } [ } [ } [ [ [ [ [ } ' p 2 2 6 6 2 2 2 6 6 7 x 7 7 ",
"} } ..} ..} ..} } } } ......} ..} ..} } } }  .| ..} ..} } } } }  .} }  .} } } } }  . .} 6 7 x 7 4 2 2 3 2 * - 4 3 b K K K K K K K K K K K K P b t z j f z f f t f z z f f k 6.' ' ( ' ' ' ' ' ' ' ' ' X.O.O.&.O.O.O.O...o.O.o.o.o.o.:.>.:.:.:.>.>.>.>.:.>.:.:.>.>.>.>.:.>.:.>.>.>.:.>.>.>.%.O.O.&.@.O.O.@.&.o.@.o.O.O.o.] ' { ] ' { ] { ) ] ' ' ] ' ` 2 7 3 6 3 9 2 8 7 4 2 6 5 0 r.r.q.q.e.q.q.q.q.q.r.q.q.q.r.r.q.q.q.q.r.q.q.q.q.q.q.q.q.r.q.r.q.q.r.q.q.q.q.i.q.q.q.q.r.q.q.q.u.q.r.q.r.q.q.q.q.q.q.q.q.q.q.q.0.0.q.q.0.0.q.q.0.0.q.q.q.q.w.q.9.0.q.0.q.0.q.9.0.q.0.q.q.q.q.q.q.0.q.q.q.q.q.q.q.0.q.0.0.q.q.q.q.0.0.0.q.q.q.q.q.q.q.0.q.0.0.q.0.0.q.q.q.q.q.q.r.q.q.q.q.w.q.q.q.q.q.q.q.q.q.q.q.r.q.q.0.q.q.q.q.q.q.0.q.q.q.q.q.q.0.q.q.q.q.q.q.q.0.0.q.0.r.q.q.q.q.q.q.0.q.q.q.q.w.q.q.q.w.0.q.0.q.q.q.q.0.q.r.q.q.q.q.q.q.q.q.q.q.w.r.q.q.q.q.q.q.q.q.q.q.q.q.q.q.q.q.q.q.9.q.q.q.q.9.q.q.q.q.q.q.q.q.q.r.a.+ 3 2 6 6 7 6 4 6 4 6 2 2 2 l ^ l z l l j l z z ^ j ^ 6.O.o.o.o.o.o.o.o.o.o.%.o.o.o.:.:.:.:.:.:.1.:.:.1.1.:.:.,.-.>.>.>.>.>.>.>.>.>.>.:.<.:.=.o.o.o.X.o.o.X.o...@.@...X.X. .#. . . . . .}  . . . . . .] f l k z l k z z z k l l z l z l j ^ j j l l l ^ k k ~ z [ [ [ #.[ [ [ [ [ [ X.[ X.[ [ [ [ [ [ [ [ [ [ [ [ [ ' [ [ [ [ } [ [ [ [ [ [ [ [ [ [ [ | [ [ [ [ } } [ [ [ [  .} [ f 7 6 2 2 6 2 2 3 3 2 2 7 3 ",
"} ..} } } ..} } } } } } } } ..} ..} | ..} .. .....} } ....} } } }  .| ..} ..} } } } X. .6 6 x 7 * 2 4 2 3 2 4 4 3 S N K K P K K K K P P P K J n y f f j j z f j j f y f z k ` ' ' ( ' ( ^ ' ' ' ' ) ' } ..O.O.&.&.&.&.&.&.&.o.&.&.o.>.>.:.<.>.>.>.>.>.:.:.>.:.>.>.>.:.>.>.>.>.>.>.>.:.>.<.%.o.O.&...o.&.O.O.O.o.&.@.o.o.] ' ) { ' _ ] ' { ' ' ] ' ] ` 2 7 9 2 3 8 9 3 8 2 9 2 5 e R r.q.q.q.q.q.q.q.r.q.q.r.r.r.w.r.q.r.q.r.q.q.q.r.r.q.q.w.r.q.q.q.q.r.q.q.w.q.q.q.q.q.q.q.i.r.q.q.r.q.q.q.q.r.q.q.q.q.q.q.q.0.0.q.q.0.q.q.q.q.q.q.q.0.q.q.q.q.q.0.0.q.q.0.9.q.0.0.0.q.q.q.q.q.0.0.q.q.q.q.q.q.0.0.0.0.9.q.0.q.q.0.9.q.q.0.0.q.q.q.q.q.q.0.9.q.q.0.q.0.q.q.q.q.q.q.q.q.q.q.r.q.q.q.q.q.q.q.q.q.q.q.q.q.q.0.q.q.q.q.q.q.q.q.0.q.0.0.q.q.q.q.q.q.q.q.q.0.q.0.0.0.w.q.0.0.0.q.0.q.w.q.q.q.q.q.q.q.q.0.q.q.q.q.q.q.q.q.q.q.q.i.q.q.q.q.q.q.q.q.q.q.q.q.q.q.q.q.q.q.q.q.q.q.q.u.q.q.u.q.q.q.q.u.q.q.9.q.q.q.q.q.u.q.e.3 q x x 6 2 3 2 2 7 2 2 2 2 l z ^ ^ l j l j ^ j z j n ( %.o.o.o.%.o.%.o.%.o.o.o.%.o.:.:.:.1.:.:.:.:.:.:.:.:.:.>.>.>.>.>.>.>.>.>.:.1.:.1.:.:.*.X.o.o.o.o.X.o.....o...o.X.o. . . . . . . . . .} } .. .} ] z z z z k z k l l z z l f j l l l l l j j l l l k k l l [ [ [ [ [ [ #.[ [ [ [ [ X.[ [ #.[ [ [ [ [ [ [ [ [ ' [ [ [ [ } [ [ [ [ [ [ } ' [ [ } | [ } [ } [ } [ [ [ [ [ [ [ [ j 3 7 7 6 2 6 x 6 x 2 2 3 7 ",
"} } ......} } } ..} } } } } } } } ..} } } }  . .} ..} } } } ..} } }  ...} } ....} } X.[ 7 3 3 x 2 4 2 2 2 2 4 4 - b K K K A K K K K K K K K P A f f f z t f z f f t z z j ~ ` ` ( ' ' ' ' ' ' ' ~ ' ' } O.O.&.O.O.&.&.O.o.&.&.o.o.o.:.:.:.:.>.>.>.>.:.>.>.>.>.>.>.:.:.>.>.>.>.>.>.>.:.:.<.*.o.o.&.@.@.&.O.o.o.O.o.O.o.o.] ' ) ] ' ' ] ' { ' ' ' ] ' ~ x 3 7 3 3 7 8 2 9 8 2 2 5 b e.r.q.q.q.q.q.q.r.q.q.r.r.q.w.q.q.r.q.q.r.r.r.r.q.q.r.r.q.q.r.q.q.q.q.q.q.q.q.q.q.q.q.q.u.9.r.q.q.q.q.q.q.q.q.q.q.q.q.q.q.q.q.q.q.q.q.0.0.q.0.0.q.q.q.w.0.q.q.0.q.q.q.q.0.q.9.0.q.q.0.q.0.0.q.q.q.q.0.0.q.q.q.q.q.q.0.0.q.q.0.0.q.0.0.0.q.0.0.q.q.0.0.q.q.0.q.0.q.q.q.r.q.q.q.q.q.q.q.q.q.q.q.q.q.q.r.q.q.q.q.q.q.q.q.q.q.q.0.q.q.q.q.q.q.q.q.0.q.q.0.0.q.0.q.q.q.q.q.0.q.q.q.q.q.0.q.q.q.q.w.w.q.q.q.q.q.q.q.q.q.q.q.q.q.q.q.q.q.q.q.q.q.q.q.q.q.q.q.q.q.q.q.q.q.q.q.q.q.r.q.q.q.r.q.q.q.q.9.q.9.9.q.q.q.q.9.9.u.q.q.q.9.r.r.P 0 3 2 3 6 3 3 6 2 2 8 6 2 2 k l z l z l j z j z ^ z ^ ^ o.o.O.o.o.o.%.%.o.%.%.%.o.%.:.:.:.:.:.:.:.:.:.:.:.:.:.:.>.,.>.>.>.>.>.:.1.>.<.:.1.1.:...@.o.o...X.X.@.X.o.X.X.o.X... . . . . . . . . . . . .X.[ z l z j k k z k z k l z l z z l l l l ^ l l l k k k ~ k } { [ [ [ [ [ [ [ X.[ [ [ [ [ [ [ [ [ [ [ [ 6.[ ' [ ' [ [ [ [ [ [ [ [ [ [ [ } [ [ | ] | [ } [ } [ } [ [ [ [  .[ ' z 7 2 2 2 2 6 6 3 6 3 7 3 3 ",
"..} } } } ....} ..} } ..} } ....| ..} | } ..|  .} } } ..} } ....} .. . .} ..}  . .} X.' x 7 7 7 * 4 2 4 2 2 4 * + S K P K K K K K A K P K K J n y f z f z f f z j f f z f ^ ' ~ 6.' ' ^ ' ' ^ ' ' ' ' } O...&.O.O.O.&.O.O.&.&.O.&.&.>.>.:.>.>.:.>.>.>.>.:.:.>.:.>.:.>.:.>.>.>.>.>.:.>.>.1.*.O.O...&.o.o.o.o.O.o.O.O.O.o.{ ' ] { ] { { ) ] ] ' ] ' ' ~ 2 3 7 6 3 9 3 9 9 2 5 2 5 : R r.q.0.q.q.q.q.q.r.q.q.w.r.q.q.r.q.q.r.q.q.r.q.q.r.q.q.r.w.r.r.q.q.r.q.q.q.q.q.q.q.q.q.q.q.q.q.i.q.i.r.q.u.q.q.r.q.q.q.q.q.q.q.q.0.q.q.9.0.q.q.0.q.q.q.q.q.0.q.q.0.0.q.0.q.0.9.0.0.q.0.q.q.0.q.0.q.q.0.q.0.q.i.0.0.q.q.q.0.q.q.q.0.q.0.0.q.q.q.0.q.q.0.q.q.0.q.0.0.q.q.q.q.q.q.q.q.q.q.q.q.q.q.q.q.q.q.q.q.q.q.q.q.q.q.q.q.q.0.0.q.q.q.q.q.q.0.q.q.q.0.0.0.q.q.q.q.0.q.0.q.e.r.q.q.0.q.q.q.q.r.q.q.q.q.q.q.q.q.q.q.q.q.q.q.0.q.r.q.q.q.q.q.q.q.q.q.q.q.q.q.q.q.q.q.q.q.q.q.q.q.q.q.q.q.q.q.q.q.q.q.9.u.9.q.q.q.q.q.9.u.q.q.q.R = x 2 3 x * 3 2 6 6 6 2 2 2 h j l j ^ j l j z ^ z ^ ^ 6.%.o.o.o.o.o.o.o.%.o.o.o.o.%.%.:.:.:.:.:.:.=.4X:.:.:.:.:.>.>.>.>.>.>.>.<.:.:.1.>.:.:.*...o.o.X...@...o.X.o.o.o...X. . . . . . . . . . . . .} X.[ j j z k z z l z l z z l l j l j l j l z l k l ^ j l l z [ #.[ #.[ [ [ [ [ [ [ [ [ [ [ [ [ [ [ [ [ [ [ ' [ ' [ [ [ [ [ [ [ [ [ [ [ ' } | [ ] [ [ [ [ } [ [ [ [ [ [ [ [ } ] a 6 2 6 2 2 6 3 3 2 2 7 3 3 ",
"} }  . . . . .} } ..}  .} } } } } }  .|  . . .|  .|  .|  .| ..}  .|  .} |  . .}  . .o.z 7 3 3 x 2 2 4 2 4 * 5 2 + A P K K K K K K K K K K K P A z z p z f z f f j z f z f ~ ` ' ~ ' ' ~ ' ' ' ' ' ' ' } &.o.&.&.&.&.o.&.o.&.&.o.O.O.>.>.:.>.>.:.>.>.>.:.>.>.>.:.>.:.>.>.>.>.>.>.>.>.>.>.>.=.o.o.&.o.o.o.O.O.O.@.o.O.o.o.{ ] ] ' ) ] ) ' { ] ' ' ' ' ( 2 6 3 6 6 2 9 2 9 3 3 2 5 ; e.r.w.q.0.q.q.q.q.q.q.q.q.q.q.q.r.q.r.q.r.r.r.r.r.q.r.r.q.e.r.q.r.q.r.q.q.q.r.q.q.q.q.q.i.q.i.q.q.q.r.q.q.q.r.q.q.q.q.q.q.q.q.q.q.0.q.q.0.0.0.w.q.0.0.0.0.q.q.0.q.0.q.q.0.q.q.0.q.0.q.0.q.q.q.q.0.q.q.q.q.q.q.0.0.0.q.q.0.q.0.0.0.0.0.0.q.0.0.0.q.q.q.q.q.q.0.q.0.q.q.0.q.q.q.q.q.q.q.q.q.r.q.q.q.q.r.r.q.q.q.q.q.q.q.q.q.0.q.q.q.q.q.q.q.r.r.q.q.0.0.0.0.q.0.q.0.q.0.q.0.q.0.q.r.w.q.q.q.q.q.q.q.r.q.q.q.q.q.q.q.q.q.q.q.q.q.q.q.r.q.q.q.q.q.q.q.0.q.q.q.r.q.q.q.q.r.q.q.q.q.r.q.r.w.q.q.q.q.q.q.q.q.q.q.q.9.q.q.q.q.q.q.q.w.P + 2 2 2 2 2 6 2 2 6 2 2 2 6 h ! z k k l j l l z l z z 6.%.o.O.o.O.o.O.o.%.o.%.%.o.%.:.:.:.:.:.:.:.4X:.:.:.4X%.:.:.:.:.:.1.1.:.:.>.:.1.:.1.1.*.o.o.o.X.X...X.o.o.o.o.@.o. . . . . .X.X. . . . . . . . .[ k l z z z k z z z z z l l z k l l l l ^ z ^ ^ j ! l ~ l } [ [ [ { [ [ [ [ [ [ [ [ [ [ [ [ [ [ 6.[ [ [ { [ [ [ [ [ [ [ [ [ [ [ [ ] ] } } [ ] ] [ [ [ [ } [ [ [ [ [ [ [ [ ' u 3 2 6 2 2 3 3 6 6 7 2 2 7 ",
".... . .| |  .[ } } } } ..} } ....}  . ...| |  .|  . .} .. .} }  .}  .} .. . . . . .o.6.6 6 3 7 2 4 2 2 2 4 3 2 + n G K A P G G K A A K K K P b y p p z z j f t t f t f f ~ ' ~ ' ~ ' ' ^ ' ' ' ) ' ' } o.&.%.o.o.&.o.&.&.&.O.&.O.O.1.>.>.:.:.:.>.>.>.:.:.>.:.>.:.:.:.:.>.:.=.>.>.:.>.>.>.=.O.O.O.o.@.O.O.o.O...O.O.o.&.' _ ) ] ' { ] { ' ' ' ] { ) m 2 3 3 3 6 9 6 6 7 3 3 4 8 + R w.r.q.q.q.q.q.0.q.q.q.q.q.r.r.r.r.r.r.q.r.q.r.r.r.w.q.r.0.0.0.0.q.r.r.q.r.q.r.q.r.r.q.r.r.r.q.u.q.r.r.q.q.q.q.q.r.q.q.q.q.q.0.q.0.q.0.0.0.0.q.0.0.0.0.0.0.0.0.q.0.0.0.q.0.0.0.0.0.q.i.0.0.0.0.q.q.0.q.q.q.0.0.0.0.0.0.0.q.0.0.0.0.q.0.0.0.0.0.q.0.q.0.0.q.q.q.q.q.e.q.q.e.q.q.r.0.0.0.0.0.e.e.0.0.e.0.0.q.q.0.0.0.0.q.q.q.q.r.u.r.q.q.q.q.q.q.0.e.q.q.0.r.0.r.0.0.e.0.q.0.0.0.0.q.q.r.w.w.r.w.r.q.w.w.w.q.r.q.r.q.r.q.q.q.q.q.q.i.q.q.q.q.q.r.r.w.q.w.w.w.w.w.w.q.q.q.q.q.q.w.r.w.r.q.q.q.q.q.q.q.q.q.q.u.q.q.w.q.q.q.q.w.e.P + 7 2 1 2 2 2 8 2 8 2 2 2 9 ~ l k k z j l j ^ j ^ j ^ 6.*.+.O.O.O.O.o.o.%.o.%.%.%.%.:.:.:.:.:.:.:.%.:.:.:.:.:.:.1.:.:.:.:.:.:.1.:.1.:.:.:.1.%.X.....X.X.X.X.X. .X...X.o.@. . . . .} }  .} }  . . . . .[ k k k k l z k k l j l j l z k k ~ l ~ l l ^ n l l k k k } { [ { [ [ [ { [ [ [ [ [ [ [ [ [ [ [ [ [ [ [ [ [ [ [ } ] [ [ ] [ [ [ [ [ [ ] ] ] | ' ' } [ | [ [ [ [ [ [ [ } [ ' 6 3 3 3 6 2 3 x 3 6 6 3 7 7 ",
"} }  .}  . . . ...o.o. .o.o...}  ... .o...X.X.X.&. .O.o. .o.o.O.&.o.o.o...o.o. . . .o.6.3 7 x 7 2 2 2 2 4 2 2 2 = F P P A b A S A b b L L P $.F n z z z h k h k z z f f a ~ ' ~ ' ~ ~ ~ ' ' ' ' ` ' ' | o.&.&.&.&.o.&.o.o.O.&.&.O.o.1.>.>.>.:.:.>.:.:.:.>.>.:.>.=.=.=.=.=.=.=.>.:.:.:.>.>.>.o.O.O.O.O.@.O.&.O.O.O.@.o.O.| ' { { ' ' ' ' ' ' ' ] ' { { 2 2 6 7 7 7 7 3 7 7 6 2 9 O $.e.e.e.r.0.r.0.e.e.r.e.r.e.e.u.r.r.u.r.r.r.r.e.e.e.e.e.e.e.e.e.e.e.e.r.e.e.e.r.r.r.q.q.r.r.r.r.u.r.r.r.r.r.r.r.r.r.q.r.r.r.t.r.r.r.r.q.e.r.e.r.r.e.e.r.r.r.q.0.e.q.r.e.e.e.0.e.r.q.e.r.r.r.q.r.r.e.t.e.e.r.r.e.e.e.E e.0.w.0.e.e.e.0.0.e.0.t.e.0.e.e.e.e.q.r.r.t.r.r.r.E e.e.e.e.e.r.e.e.e.e.e.e.e.e.e.e.r.e.e.e.e.e.e.r.e.r.r.r.r.u.e.r.e.e.e.e.e.e.e.e.e.q.e.e.R w.Y R e.e.r.r.e.J q.r.e.q.e.q.e.R e.e.r.r.r.r.u.r.r.r.r.u.u.r.r.r.e.u.r.r.r.e.e.e.e.e.R e.e.w.r.r.e.e.r.r.e.e.r.w.r.r.r.r.u.r.r.r.r.r.r.r.r.r.r.a.p.r.w.J L - 2 6 2 2 2 2 2 2 2 2 6 2 6 n z k z z l j j j ^ z l j 6.%.+.o.o.O.o.&.%.o.o.+.o.o.o.:.:.:.:.1.:.:.%.4X:.:.:.:.:.:.:.:.:.:.:.1.:.:.:.:.:.:.1.=...@...X.o...X...X.o.X... . .#.] #.} } }  .}  . . . . .@.] j z j l l j z j j h h k z k k ! k l l n ^ ^ l ! l l ! l [ [ #. . .X.[ [ #.[ [ #.[ [ ' 6.6.[ 6.[ 6.6.[ { [ [ [ ] [ [ ] } } [ [ ] [ [ ] ] [ [ [ [ [ [ ' [ [ [ [ [ [ [ [ [ ] a 3 7 2 2 2 6 x 2 6 6 3 2 9 ",
"j ^ ^ n ^ ^ ^ l ^ ^ ^ ^ ^ ^ ^ ^ l k l l ~ ^ ^ z p j p a z =.+.+.%.%.*.:.=.%.*.*.:.%.:.p x x 7 x 2 * 2 2 2 2 3 2 3 y : O : c - - : & & : > 0 - q 9 9 9 9 9 u 9 9 9 q 9 5 6 p ' ` ' ' ' ) ^ ' ' ' ` ' ' | o.X.} }  . . . .}  .} } } o.o.&.&.&.%.%.&.O.&.&.%.&.&.O.%.%.%.%.%.%.%.%.&.O.&.O.&.O.} }  . . ...@...o.@.o.O.@...{ ' ) { ' ' _ { _ { ' { ' ` ( 2 6 6 2 7 2 2 2 7 6 2 2 x + F L A A L L L A S A F L L S S S S A b b S b A S S S A S F A A A n A A A A A A A A A A A A S S S S S A A S A S S A A A A A A A A A A A L A L A A A A A L A A A L A L A A A L L D A L A A A A A A S A S A S S A S A A A A F A A A A A A D A A A A A A A A A A A S S A A A A A A A A A A A S S S S b S S S b S S S S F S S S S F b A b b S b S S S S Z S F A S S Z F S A A S S S n b A n n A b S S A S b A A b b b b b b S b b b b b S b b b b Z b S b S S S b A S n b b b b b b b b A b b b b b b b b b b S n b c b b b A b b b y + 6 2 @ 2 2 2 2 6 2 2 2 x 6 k j j z j j j j l j j j z ^  . .}  . . . . .} [  .} [ [ o.%.%.o.%.o.o.o.+.+.+.+.O.%.%.+.+.+.%.o.o.O.O.O.O.%.O.%.o. .X.X...X.o.X.X.X...X. .X. .] ) ] ' ' [ ] ] ] ] ] ] ] ] { z j j l l k k h l ! z k l k 6 6 7 u u 9 q p 7 q p p f p ~ ^ n z q 9 a z p q q p p p z n z z 6.z z 6.n l l ~ l l l 6.6.z l 6.~ 6.6.` ` ' 6.` ' ' 6.6.6.6. . .[ 6.6.6.6.` ] 2 1 2 1 1 2 x + . . . . . . ",
"x x x 7 x 7 x 2 x 7 x x p 6 6 x 2 2 2 2 2 2 * 2 6 x 6 2 @.mX                        HXr x 6 3 x 2 2 * 2 2 3 2 2 x 2 x 3 4 2 4 2 3 x x + 2 3 7 2 2 2 2 2 2 2 2 2 6 2 x 2 x f ' ' ' ^ ' ' ' ' ' ' ] ' ' } } }  .}  .}  . .} } } } } ..o.o. .o. . .o. . . .o.X.X. .o.o.o.o.o.o.o.o.o.O.o.o.O. .} } } } } #.}  .| #.} }  . .] { ' ' { ' _ ' ' ' ' ' ' ` ! 6 2 2 6 x 2 2 6 6 x 3 2 x 6 x + % 3 5 - = * * = = + = + = x + + = 3 = = 3 = 3 - 5 0 3 : = 0 0 = = - 3 - = = - = x * = 3 = = * % = 3 = = 3 3 - = 3 3 - 5 4 3 2 - 2 3 - 2 = 3 7 3 5 - - 3 - * 4 3 = 3 = 3 = 4 = 3 = 2 = 3 3 3 3 3 3 3 : 3 7 - 3 3 3 4 4 - 4 3 5 - 3 3 - 3 3 3 4 - 3 3 = 3 3 3 - 3 3 4 = 4 - 0 3 : 3 3 3 3 0 7 0 7 0 5 0 3 7 7 9 0 3 = 3 3 3 3 3 = = 0 7 3 3 3 3 7 3 3 - 3 3 3 7 0 q 7 7 0 7 0 q 0 9 7 0 3 3 7 7 7 7 0 3 0 = 0 3 3 3 3 3 7 3 7 3 7 7 9 0 9 3 3 3 0 9 7 0 7 q 9 0 9 q q 7 0 7 q q q 3 q = 0 3 = 0 3 7 3 0 3 0 7 7 0 0 ; 5 - 5 7 3 2 2 @ 2 2 2 2 2 2 2 1 6 6 l k k f l j j j j l j z j ^  . . .o.} }  . . .}  .[ o.} o.%.o.+.+.O.o.O.o.o.o.+.o.+.O.O.O.+.o.+.+.o.+.+.O.%.O.o.o...@.X.o.X.....@.X.o.o...o.o.] _ ' _ ] ] ] ] { ] ] { ] ] ` ~ ~ l l ^ ! l l l l l l z l x 6 6 2 3 7 7 3 3 5 2 2 7 x 9 7 3 2 2 2 2 3 3 7 2 7 7 7 6 7 7 3 3 7 7 7 x 2 2 2 2 2 2 2 2 7 2 2 2 2 6 2 2 x x 6 6 7 x 7 3 x x 7 x x x 7 7 2 6 3.rXwX8XwXrXwXwX0X0X0X7X7X7X",
"2 2 2 2 7 x 3 3 7 7 7 7 6 6 7 x 2 2 2 2 * 2 2 2 x 2 2 2 {                             w 2 x = 3 2 2 2 2 2 * 2 2 7 6 2 2 1 2 2 2 3 x 3 x x 6 2 2 2 2 x 2 2 1 2 2 2 2 2 2 1 j ' ` [ | ' ' ' [ ' [ ' ' ' } }  . . .}  .}  . . . .} } } o.o.o.o.o.o.o.o.o.o.o.X.o.o.o.o.O.O.&.o.o.o.o.O.o.O.O. .} }  .} }  .} } | } } #.| #.' ) { ' _ { { ' { ' _ { ] ` F 2 2 x x 2 2 x x 6 x 3 2 x 2 6 2 2 3 4 4 4 4 4 4 2 6 6 7 7 7 7 q 3 q 7 3 7 3 9 7 3 3 7 7 6 7 7 7 q 9 5 9 9 7 7 7 3 5 4 5 4 9 4 3 4 3 3 3 3 4 4 7 3 3 5 4 3 5 3 5 5 2 9 5 5 7 7 3 3 7 3 9 3 5 4 7 3 2 5 3 3 5 9 3 5 5 5 5 5 9 9 9 7 7 7 9 9 7 9 9 9 9 5 5 5 4 9 5 5 3 3 5 4 5 9 3 3 9 7 3 3 3 5 3 5 4 4 5 3 7 7 7 9 q 9 9 9 q 7 7 7 9 9 7 9 q 9 9 7 6 6 9 7 7 7 7 u 7 7 7 9 9 9 9 9 9 9 9 7 0 7 3 9 7 7 3 9 q 7 7 7 7 7 7 q 7 q 7 q 7 7 7 9 q 3 7 7 7 7 7 q 7 7 0 9 9 9 9 9 9 q 7 9 q 9 9 9 9 9 q 7 7 q 7 q 7 7 q 7 7 7 q 7 7 3 7 7 7 7 7 7 7 7 7 0 9 5 5 5 3 3 2 2 2 2 2 2 2 2 2 2 2 6 2 l k k l j l l l j j l ^ z ^ #. .}  . . . . . . . .o.} o.o.+.+.o.+.O.+.O.+.%.+.%.+.%.+.+.+.+.+.+.+.+.+.+.+.+.+.%.O.o.o.o.o.o.O.@.o.@.o.o.o.@.o.} { { { ] ' ] ] ' ' ] ] _ ] ' l ~ k l l j l l l l l l l k x 2 7 2 3 6 7 2 3 8 6 3 6 7 7 3 3 5 6 2 9 3 7 3 7 7 7 3 6 7 7 7 7 7 7 7 7 8 2 2 3 2 2 2 2 7 7 6 6 2 9 6 7 9 9 7 7 3 7 7 7 7 7 7 7 7 7 7 7 9 4 0X                          ",
"2 2 6 3 x 7 7 7 3 3 x x x 7 7 7 2 4 2 2 2 2 2 2 2 2 * 2 +.                            9 2 x x 2 2 * 2 2 * 2 2 2 2 2 2 x 2 2 2 4 x x 2 2 x x 2 * + 2 2 2 2 1 2 . x 3 2 2 2 z ' ` ' ' ' ' [ ' ' ' ] ' '  .}  . .| } } }  .}  .}  .}  .o.o.o.o.o.o.o.o.o.o.O. . .o.o.O.o.O.o.o.O.o.o.o.o.&.@...|  .} } } | #.|  .|  . .#.| ' ' { _ ' ' { ] ' ' ' { ' { ` 2 2 2 1 x x 7 x x 2 x 6 2 6 6 3 3 3 3 4 3 3 3 7 7 7 7 7 7 7 7 3 7 7 3 7 3 3 5 3 3 3 3 6 3 3 3 3 3 2 4 4 4 2 4 5 7 9 6 8 7 7 8 3 5 5 5 3 3 6 6 6 7 3 3 6 7 7 7 7 7 7 7 3 9 7 7 7 3 3 6 3 7 3 7 7 7 7 6 7 7 7 7 7 7 7 7 7 7 9 7 7 7 7 7 9 7 7 7 6 9 8 9 9 9 7 7 9 6 3 9 9 6 2 6 7 7 6 9 7 7 7 7 4 4 8 2 3 3 3 3 3 3 3 3 7 7 7 7 7 7 7 6 3 3 6 3 6 6 7 7 3 3 7 7 7 7 3 3 3 5 7 7 7 7 7 7 7 9 7 9 5 3 5 3 5 5 3 3 3 6 3 3 3 7 7 7 7 3 7 7 q 7 7 3 3 3 3 3 7 3 q 3 3 3 3 3 3 7 9 7 7 3 7 3 7 3 3 3 3 3 7 3 7 7 7 7 7 3 7 7 7 7 7 7 7 7 7 7 7 7 9 9 9 7 9 7 7 9 2 2 2 2 2 2 x 2 6 2 2 2 2 2 1 ! l j l z j j ^ l l z ^ ^ n  .}  .} } }  . . . . .}  .o.o.o.+.+.o.+.+.+.o.+.+.+.o.o.+.O.O.+.o.+.+.+.+.+.+.+.+.+.o.o.X...@.o.o.o.o.o.o.@.o.o.o.| ] ] ] ] ] { ' ] ] ] { ' } ' k k ~ k l l l l l l l l n l 6 7 6 3 2 3 2 2 2 2 7 2 6 7 6 3 3 3 5 3 5 6 3 3 7 3 3 3 3 3 3 3 7 7 7 7 7 2 9 3 2 2 9 9 7 5 9 7 6 5 4 3 5 3 3 6 6 3 7 7 7 7 7 7 7 7 7 x x 2 4 wX                          ",
"2 2 2 3 3 3 3 x 3 3 7 7 7 7 x x 2 2 2 2 2 2 2 2 2 2 2 * {                             9 2 x 2 2 2 * 2 * 2 2 2 2 3 6 x 2 * 2 2 * 3 2 2 2 7 2 2 2 2 2 1 2 2 2 * 2 6 x + 2 7 ! ] ' ' ' ' ' [ ' ' ' ] ] '  . . . . . . . . . .} } } } } o.X.o.o.o.o.o.o.o.o.o.o. .o.o.o.o.o.o.o.o.o.o.o.o.o.o. .| }  .} }  .}  . .#.]  .]  .{ ) { ' ' ' ) { { _ ' ' ] ] ` 2 2 2 x 2 2 x x 6 + 7 6 2 x 3 3 3 2 3 3 3 2 3 7 7 3 3 3 3 3 3 3 3 3 3 3 3 7 3 3 3 6 3 7 3 3 7 7 7 9 7 9 7 7 7 6 3 7 5 7 5 5 3 5 4 4 3 3 3 5 6 9 3 7 3 4 6 3 2 5 8 4 5 3 2 3 7 0 3 9 9 7 7 2 4 9 9 9 4 2 2 4 2 8 7 4 2 7 6 7 7 7 7 7 7 7 9 7 9 7 7 7 7 3 3 7 7 3 3 3 3 2 2 9 7 3 7 7 6 7 3 7 3 3 5 2 2 3 5 7 7 7 3 3 3 7 7 7 3 6 7 9 3 9 7 3 7 7 7 7 9 9 7 7 7 7 0 3 3 3 3 7 7 7 7 3 7 9 7 3 7 3 9 5 5 5 9 7 7 q 7 q 7 7 7 7 7 7 3 7 7 7 7 7 3 3 3 0 7 3 3 3 3 7 7 7 q 7 9 3 9 9 9 7 7 7 7 q 7 9 7 7 7 3 3 7 7 7 7 7 q 7 7 q 7 q 7 7 7 7 7 9 7 7 3 9 7 5 9 4 2 2 2 2 2 2 2 2 2 6 2 2 2 6 ! l l l j l l l z z ^ z j ^ }  . . .o. .} }  .}  . . . .o.o.+.+.o.o.O.+.+.o.+.+.+.+.+.O.+.+.+.+.o.+.+.O.O.+.+.%.o.o.o.X.o.o.o.o.o.o.o.o.o.o.o.] { ] ] ] ] { ] ] ] ' ] ' ] ` ( l ~ ^ l l l l l l l l l l x x 6 = 2 3 3 2 3 3 6 6 6 7 6 3 3 5 2 2 5 3 3 6 6 3 3 3 3 3 3 3 3 3 7 7 3 3 3 7 7 7 2 3 6 3 3 5 3 3 4 3 4 2 3 3 3 3 3 7 7 7 7 7 x 7 7 7 7 2 5 wX                          ",
"6 2 2 4 2 4 2 2 2 6 2 2 2 6 2 2 4 * 4 2 2 2 2 4 2 2 * 4 [                             4 . 2 2 2 x 2 2 2 2 2 2 2 2 2 * 2 * 2 2 2 * 2 2 * 2 @ * 2 3 6 3 x 3 x 6 x x 7 x x 7 ^ [ ' [ 6.[ ' [ ' ' ' ' ' '  .} } o.} }  . . .}  . .#.}  .X.o.o.o.o.o.o.o.o.o.o. .o. .O.o.o.o.o.o.o.o.o.O.o.o.O.X.} } } } #.} } } } } } |  .] { ' { ( { _ ' ' ' ' ] ' ' { ` 2 2 2 2 2 2 2 6 x x 2 2 2 2 3 2 3 3 4 2 4 3 2 2 8 2 9 2 8 4 6 5 8 3 6 6 4 7 9 2 8 3 3 7 7 3 6 7 2 7 6 2 7 9 8 3 7 7 7 7 7 7 9 3 5 3 5 3 3 3 2 2 7 7 7 7 7 2 9 7 4 9 2 8 3 6 3 2 9 9 2 8 3 9 2 7 4 8 2 9 7 9 2 6 9 4 9 6 9 7 3 7 7 7 7 3 7 7 7 6 3 6 7 7 3 3 6 6 2 9 7 6 3 7 7 6 7 7 7 3 3 6 3 3 3 7 7 3 7 7 6 6 6 3 3 3 3 7 7 7 7 7 7 7 7 7 7 7 7 7 7 7 7 7 7 7 7 7 3 7 7 7 7 7 3 7 7 7 7 7 3 7 7 3 6 7 7 7 7 7 7 7 7 7 7 7 7 7 7 7 7 7 7 7 7 7 7 3 3 7 7 7 7 7 7 7 7 7 3 7 7 7 7 7 7 3 7 7 7 9 7 9 9 7 7 8 7 5 6 4 9 2 9 9 6 9 8 9 9 6 9 6 9 6 9 3 9 5 8 8 2 2 2 2 2 6 6 3 3 6 x 6 2 7 k z l l l l l j l ^ z 6.^ 6.o.[ o.[ o.[ o. .o.[  .[ o.o.o.+.+.+.+.o.+.+.+.+.+.o.+.+.+.+.+.o.%.+.+.%.+.+.+.o.+.+.o.o.o.o.o.o.o.X.o.o.o.o.o.O.o.] _ ' { { _ ' ] ] ] ] ] ] ] ' k ~ l l ^ l ~ l ~ l l l l k 6 2 2 2 3 2 2 6 2 2 6 3 6 7 2 2 7 2 9 2 9 3 3 6 4 9 3 9 2 6 2 9 6 3 7 7 7 7 2 7 7 3 7 6 7 7 7 7 3 3 3 7 7 9 2 8 2 6 9 8 5 2 6 2 2 2 6 2 2 6 2 eX                          ",
"2 3 2 2 2 * 2 2 2 6 6 2 1 6 2 4 2 2 2 4 4 2 2 * 2 * 2 @ {                             2 2 2 2 2 2 2 2 2 6 2 2 2 2 * 2 2 2 2 2 @ 2 1 2 2 * 2 2 1 + 3 x 6 3 6 x 6 x x 7 3 7 ^ ' ' ' ' ' ' ' [ ' [ ' ' '  .o.}  .}  .}  . . . . .} } ..X.o...o.X.o.o.o.o. .o.o.o.o.o.o.o.o.o.O.O.o.o.o.o.o.o.X.[ }  .} } } } } } } #.| ]  .{ ) { ) ) ' { ' ] ' ' ' ] { ` 2 1 2 x x x 2 x 2 2 2 x x 2 2 3 4 2 4 2 2 2 6 2 6 7 2 9 2 6 7 6 2 6 4 4 3 6 2 9 2 3 3 3 6 7 3 7 7 7 6 6 7 2 9 9 7 7 7 7 7 7 3 5 5 5 5 2 5 7 3 7 7 7 7 7 8 8 2 8 7 9 6 2 6 4 8 9 6 8 9 7 8 9 8 2 6 3 6 4 2 2 6 4 9 6 6 5 7 6 6 3 7 7 7 7 7 7 7 6 6 3 3 7 9 4 9 4 7 7 7 7 3 2 7 6 7 7 7 7 6 7 3 3 3 7 3 3 6 7 3 3 3 6 7 3 3 7 7 7 7 7 7 7 7 7 7 7 7 7 7 7 7 7 7 7 7 3 7 7 7 7 7 7 7 7 7 7 7 7 7 7 7 7 6 6 7 7 7 7 7 7 7 7 7 7 3 7 7 7 7 7 7 7 7 7 7 7 7 7 7 7 7 7 7 7 7 7 7 7 7 7 7 7 7 7 7 7 7 7 7 7 9 7 7 5 6 6 9 9 6 8 9 2 9 9 2 2 9 8 3 6 4 9 4 8 9 9 7 6 2 6 2 2 2 2 6 6 x 6 3 3 2 7 z ^ ^ j j j j l j z z ^ p z [ o.[ o.[ o.[  .[ o. .[ } [ o.+.+.+.+.+.+.+.o.o.+.+.+.+.o.+.+.+.+.+.+.o.+.+.+.%.+.%.o.o.o.o.o.o.o.o.o.o.o.+.o.@.o.] { ] ] ] ' ' { { ' { ) ] ] ' l l l l l 6.~ ~ l ^ l l l k 2 2 2 3 2 8 6 2 2 3 2 3 6 7 7 7 3 7 2 8 2 3 3 7 2 7 8 9 6 5 6 2 7 3 6 7 7 2 7 7 2 6 7 3 3 7 7 7 7 3 3 3 6 2 6 2 9 2 9 6 9 6 2 2 8 3 2 7 2 2 2 eX                          ",
"2 2 2 3 4 2 2 2 2 2 2 2 4 1 4 2 4 * 2 2 4 * * 2 2 2 * 2 {                           HX2 9 * 2 2 1 2 2 2 2 2 1 2 2 2 2 2 2 2 2 2 2 @ 2 * 2 2 * 2 2 6 x 3 x 6 x 6 7 x x 7 7 ^ 6.' ' ' ' [ ' ' ' ' ' ' '  . . . .} }  .|  . . . . . . .o.o.o.o.o.o. .o.o.o.o.o. .o.O.o.o.o.o.O.o.o.o.o.o.o.o. .[ } }  .} } } #.} } }  .]  .] ' ' { { ' ' ] ' ' ' ] ' { ` 2 2 + 1 2 2 2 x x x 2 x 2 2 2 3 2 4 4 2 5 5 2 2 7 6 9 2 6 8 2 6 5 5 8 3 8 4 6 2 6 6 3 7 7 2 7 2 2 6 5 6 9 5 6 7 6 2 7 7 7 9 3 2 3 5 2 3 4 3 3 7 7 7 7 7 7 9 2 8 2 2 2 9 5 6 9 4 9 3 8 9 9 6 2 9 2 6 4 9 8 8 3 2 6 6 5 3 6 3 7 7 7 7 7 7 7 3 7 6 7 6 9 7 9 9 6 9 6 7 7 7 6 7 7 6 3 7 7 3 6 7 6 3 3 3 6 7 6 3 7 7 3 3 7 7 7 7 7 7 7 7 7 7 7 7 7 7 7 7 7 7 7 7 7 3 7 7 7 7 7 7 7 7 3 7 7 7 7 7 7 7 7 7 7 7 7 7 7 7 7 7 7 7 3 3 7 7 7 7 3 7 7 7 7 3 7 7 7 7 7 7 7 7 7 7 7 7 7 7 7 7 7 7 7 7 7 7 7 7 7 7 6 7 7 8 5 8 9 2 3 9 7 2 8 2 9 9 9 7 7 9 3 9 9 8 9 9 8 9 6 2 2 2 2 2 6 6 x 6 3 x 6 7 j n ^ l l l j l l ^ z ^ z ^ [ [ o.[ o.[ o. . . . .o.[ o.o.o.+.+. .+.+.+.+.+.+.+.+.+.o.+.+.+.+.%.o.%.+.+.%.+.+.o.o.o.o.X.o.o.o.X.o.X.o.o.o.o.o.| { ) ' ' | ] ' ] _ ] ] { { ` l l ! ^ n ~ ^ l l ~ k ~ l z 2 2 2 5 2 2 2 2 6 2 2 2 6 7 2 7 6 7 6 2 7 7 6 2 8 4 6 2 8 9 2 6 7 7 7 7 7 7 7 7 7 3 3 3 6 7 7 7 3 6 3 3 6 8 3 9 2 6 8 9 9 6 2 2 6 2 2 6 2 6 2 eX                          ",
"* 3 2 2 2 2 2 4 2 2 6 6 4 2 2 2 2 2 2 4 2 2 2 2 2 2 4 2 {                           HX2 2 1 2 x 2 2 2 1 2 2 2 2 2 2 @ * @ 2 * 2 2 2 2 1 2 * 2 2 2 6 6 3 3 x 6 x 7 x 7 x 6 6.' ' ' 6.' ' ' ' ' ' ' ' ]  .} }  . .#. . . . .| #.}  . ...o.o.o.o.o.o. . .o.o.o. .o.o.o.o.o.o.o.o.o.o.o.o.o.o.o.} }  .[ } } }  .[  . . .]  .] { { ) ' ' ' ' ' ] ' [ ] ] ` 6 1 2 2 2 2 x 6 x 3 x 6 x 2 2 2 4 3 3 2 4 2 4 8 2 2 2 3 8 2 9 2 6 6 2 6 2 2 2 3 8 6 6 6 3 7 7 7 7 2 8 9 2 8 6 3 7 7 7 2 7 2 3 5 5 2 5 3 3 7 6 2 7 7 2 9 2 6 9 2 9 6 8 2 6 7 4 9 6 7 2 2 6 2 9 2 8 3 6 2 6 4 6 9 2 8 2 7 3 6 3 2 7 3 6 7 7 7 7 7 7 3 3 9 7 4 6 2 9 7 2 7 3 6 3 3 7 3 3 3 3 6 3 3 7 6 7 3 3 6 6 7 3 3 7 2 7 7 7 7 7 7 7 7 7 7 7 7 7 7 7 7 7 7 7 7 7 7 7 7 7 3 7 7 7 7 7 7 7 7 7 7 7 7 3 7 7 7 7 7 7 7 7 7 7 7 7 7 7 7 7 7 7 7 7 7 7 7 7 7 7 7 7 3 7 7 7 7 7 3 7 7 7 7 7 7 7 7 7 7 7 7 9 6 9 6 9 3 9 9 8 8 2 9 2 9 6 2 8 6 6 2 8 8 7 9 9 7 9 6 2 2 2 2 2 2 2 3 3 x 2 2 3 2 z z j j l l ^ l l z ^ 6.z 6.[ o.[  .[ o.[ o.[  . .[ o.o.o.o.+.+.o.o.+.o.+.+.o.+.o.+.+.+.o.%.+.+.+.+.+.+.o.+.+.o.%. .o.o.o.o.X.o.o.o.+.o.X.O.o.] ' ] ' { { { { ' ' { ] ] | ' l l ~ ~ ^ n ^ l ~ l l l l k 2 6 2 2 3 2 6 7 2 2 2 6 6 2 7 7 2 7 3 8 9 2 7 9 2 6 3 8 2 2 8 2 3 2 7 2 2 7 x 7 2 3 6 3 6 6 3 6 3 3 7 7 6 6 2 2 6 2 9 2 2 8 9 2 2 3 6 6 7 6 2 rX                          ",
"2 3 2 2 2 4 2 2 2 2 2 2 2 2 * 2 2 2 2 2 * 4 2 2 2 2 2 * {                           HX2 4 * 2 2 2 1 2 2 1 2 1 2 2 1 2 2 2 2 2 * * 2 2 2 2 x 2 2 2 x 6 6 2 x 6 6 x 3 x 3 7 ^ ' 6.' [ 6.[ ' ' ' ' ' ' '  .} }  . ...}  . . .#. .}  . .X.o.o.o.o.o.o.o. .o. . . .o.o.o.o.o.o.o.o.&.o.o.O.o.o.o.[  .#.| } }  . .[  . .| [ #.] ) ` ` ] ' ' ] ' ' ' ' ' ' z + 2 2 x x x 2 1 2 x 2 x 2 x 7 6 6 4 4 2 2 2 3 7 2 2 2 9 2 3 3 2 4 6 2 8 3 9 6 3 7 2 6 3 7 7 3 7 7 9 2 9 6 2 7 7 7 7 3 7 6 7 3 3 5 3 3 5 3 3 3 3 3 7 3 7 6 3 7 3 2 2 9 2 9 8 8 2 6 7 7 7 3 8 6 4 6 6 2 7 9 6 2 9 2 7 6 6 3 6 6 6 6 3 7 7 7 7 7 7 7 7 6 9 2 2 2 8 2 6 6 6 6 6 6 6 3 3 7 3 6 3 7 7 7 3 3 6 3 7 6 6 3 6 7 3 7 7 7 7 7 7 7 7 7 7 3 7 7 7 7 7 7 7 7 7 7 7 7 7 7 7 3 7 7 7 7 7 7 7 7 7 6 7 7 7 7 7 7 7 7 7 7 7 7 7 7 7 7 7 3 7 7 7 9 7 7 7 7 7 7 7 7 7 7 7 7 7 7 7 6 7 7 7 7 7 7 7 7 7 7 9 9 7 8 9 6 9 2 8 9 8 7 9 6 7 2 7 2 7 6 9 2 3 7 2 9 9 9 7 2 2 2 6 x 2 7 3 6 x 3 2 2 x l ^ ^ l z l k l k 6.z ^ z ^ [ o.o.[ o. .[  .}  . .o.[ [ +.+.+.o.+.+.+.o.+.+.+.o.+.+.o.+.+.+.+.+.+.+.+.%.+.+.+.%.o.o.o.o.o.o.O.o.o.o.o.o.X.@.o.] { ] { ] { ] ' ' { ' ] ] | ' l l l l ^ l l ~ ~ l l ~ l l 2 6 2 2 2 6 2 6 2 3 7 6 6 7 7 2 7 3 6 6 2 6 2 2 9 3 8 2 9 3 6 4 7 6 3 2 2 x 7 6 3 3 7 7 6 7 3 7 7 3 3 7 6 7 2 2 6 2 6 2 2 2 2 7 2 7 2 6 7 6 2 rX                          ",
"* 2 4 2 2 2 2 2 2 2 2 2 2 2 2 2 4 * 2 2 2 2 2 2 2 2 4 2 m                           HX4 2 2 2 2 2 2 2 2 2 2 + 2 2 * * 2 1 * 2 2 2 @ 1 * 2 2 2 * * 3 x 3 2 x 2 x 3 x 3 x 7 j 6.' 6.' [ 6.' { ' ' ' ' ' ..}  . .} } }  . . .|  . . . ...O.o.o.o.o. . .o.o.o.o. .o.o.%.o.o.o...o.o.o.o.o.o.o. .} } }  .} #.[  .| #.}  . . .] ' { { { ' ' { [ ' [ ' ] ' ` 6 2 2 2 2 2 2 x 2 2 2 7 x 2 7 3 2 2 2 2 2 2 2 6 7 6 8 3 8 3 3 7 6 8 9 2 3 8 2 7 3 7 2 7 7 7 7 3 7 2 8 9 3 6 7 2 7 3 6 6 2 3 6 3 3 5 5 2 3 7 6 7 3 3 6 7 2 7 7 9 6 9 6 3 7 7 5 8 3 7 7 2 8 2 7 6 5 2 6 6 2 3 8 8 6 3 7 6 3 7 7 3 3 7 7 7 7 7 7 7 7 7 9 8 9 9 9 3 6 3 6 6 7 3 6 6 7 7 7 6 6 3 7 7 7 6 7 7 7 7 3 3 6 6 3 6 7 7 7 7 7 7 7 7 7 7 7 7 7 7 7 7 7 7 7 7 7 7 7 7 7 6 6 7 3 7 7 7 7 7 7 3 7 7 9 7 9 7 7 9 7 7 7 7 7 7 7 7 7 7 7 7 7 7 3 7 7 7 7 7 7 7 7 7 7 7 7 7 7 7 3 7 7 7 7 7 3 7 7 7 7 7 9 8 7 7 7 2 6 2 3 2 5 6 5 7 3 6 7 7 7 2 6 7 3 9 6 9 2 7 6 6 2 2 2 6 2 3 6 2 3 6 6 x z l z l ^ k k l l ^ z 6.^ 6. .} } o.[ } o. . . . .[ [ +.[ o.o.+.o.o.+.+.o.o.o.+.+.+.+.+.o.+.+.+.+.o.+.+.o.o.+.%.o.o.o.} o. . .o.o.+.o.o.o.O.O.| ' ] ' ' ) ] _ ' ] ' ] ] ] ' l k ~ l l ^ l l l l k l l z 1 2 2 2 3 2 4 2 6 3 3 2 3 2 7 6 7 7 6 3 6 4 9 6 2 2 6 8 2 8 2 6 3 3 7 7 9 7 7 6 7 3 6 7 3 7 3 6 3 3 6 3 6 3 3 6 2 2 9 8 6 9 9 7 3 6 7 2 7 2 2 rX                          ",
"2 4 2 2 2 3 2 2 2 2 2 2 2 2 2 2 2 2 2 2 2 2 2 2 2 2 2 2 m                           HX2 4 * 2 2 2 1 2 2 2 2 2 2 2 2 1 2 2 * 2 * 2 . 2 2 2 x + 2 2 x 6 x 2 2 2 2 x 7 3 x 6 p ^ ' ' ' 6.' ' ' ' ' ' ' ' }  .}  .} }  . . . . . . .#. . .o.o.o.o. .o.o. .o.o.o.o.o.o.o.o.o.o.o.o.o.o.o.o.o.o. .} } } } } | } ]  .] #.| #. .] { ' ' ' ' ` ' { { ' { ' { ~ 2 2 x 2 2 2 2 2 2 2 x 2 2 2 2 6 2 2 2 2 2 2 3 7 7 6 6 3 7 6 6 7 3 3 7 5 5 3 9 3 7 7 7 7 3 6 6 7 7 2 9 9 6 7 2 7 3 7 7 2 6 2 3 2 2 2 2 2 3 6 3 6 6 7 3 7 3 7 3 7 7 7 7 7 9 7 7 7 3 7 7 7 7 7 7 3 6 2 6 7 6 7 3 3 3 3 7 3 3 3 6 7 3 7 7 7 9 7 7 7 7 3 9 3 8 9 3 7 7 3 3 3 7 3 7 7 3 7 3 6 6 3 7 7 7 7 7 7 7 3 3 6 3 6 6 3 2 3 7 7 9 7 7 7 7 7 7 3 7 6 6 7 7 3 3 3 3 7 3 7 3 3 6 7 7 6 3 7 9 7 9 7 7 9 9 7 7 7 7 7 9 7 7 7 7 7 3 7 7 3 7 9 5 7 7 3 7 7 9 7 3 7 7 6 6 7 3 3 3 6 3 6 7 7 7 7 6 7 7 9 7 7 7 7 9 7 7 7 7 7 7 5 9 9 9 3 6 3 7 7 9 7 7 6 3 7 7 7 2 7 6 7 7 6 2 7 7 3 3 3 2 x 7 x l z ^ l ^ l k l l p ^ z 6.6.[ [ o.o.[ o.[ }  . .} [ +.+.+.+.+.o.+.+.+.+.o.+.o.o.+.+.+.+.+.+.+.+.+.%.+.+.+.+.+.o.o. . . . . .O.o.o.o.o.o.o.o...{ { ] ) ] ] { ' { ] ] ] ] ] ` k k l ^ n n ^ l ! l l ! l z 1 2 2 3 3 3 6 9 2 x 3 3 6 6 3 6 6 2 7 7 3 6 2 7 6 2 6 3 9 6 7 7 3 7 6 5 4 7 6 6 3 3 6 3 7 6 3 3 3 6 6 6 6 3 6 2 3 7 7 2 2 3 3 7 7 9 7 6 6 8 6 rX                          ",
"2 5 2 5 3 2 4 * 2 2 * 4 2 2 4 @ 4 * 4 5 4 5 3 2 * 2 4 4 {                           HX2 4 2 9 2 + 2 2 2 2 . 2 1 2 2 2 + 2 2 2 2 2 2 2 2 2 2 2 2 2 2 3 3 2 2 2 6 7 7 7 3 7 j [ ' 6.' ' [ { ' ' ' ' ' ' ..}  .}  .}  . .#.|  .#. . . . .o.o.o.o.o.o. . .o.o.o. .o.o.o.o.o.o.o.o.o.o.o.O.o.O.o.} } } } } } } #. . . .|  . .' ` ] ' { [ { { [ ' { ` ' { ` 2 9 2 3 3 2 2 6 6 7 2 2 6 x 2 2 + * x 2 2 2 2 x 7 + x 2 2 6 3 3 7 q 9 9 9 9 9 q 9 9 9 q 9 7 q 9 q 9 9 9 2 2 2 2 x 2 2 2 2 2 2 2 2 2 2 2 x x x 2 x 2 3 7 7 7 9 7 7 9 9 9 9 7 q 9 9 9 9 7 7 3 3 2 2 2 2 2 2 2 2 2 2 3 x 3 3 x 3 3 6 3 3 3 5 5 3 9 9 9 9 9 9 9 9 9 9 q 7 7 2 3 x 3 3 3 3 2 2 7 x x 7 7 x 3 3 3 9 3 9 9 3 9 2 7 7 9 7 9 9 9 9 9 7 7 3 3 2 3 6 3 3 6 6 6 6 7 7 3 3 3 7 6 7 7 7 9 9 q q 9 q 9 q q q q q q 7 q 9 q 9 9 9 2 2 2 2 x 3 3 x 3 x x 6 6 + 3 3 6 2 2 2 3 9 q 7 9 q p q q q 9 q q p q 9 q 9 p q q 9 q 9 3 3 2 6 2 2 x x 2 2 3 2 2 3 2 2 6 6 7 9 9 9 9 q 7 q 7 2 7 x x z l ^ j n l l ~ l 6.6.6.p 6. .o.} [  .[ o.}  . .} +.[ [ [ +.[ +.+.+.+.o.+.+.+.+.+.o.+.o.+.o.+.o.+.+.+.+.+.o.+.+.o.o.o.o.o. .O.o.o...O.O.o.O.*.| ) { ' { ' ' _ ] ] { ] ] } ( ~ k ( k ^ ~ ~ ~ ~ l ~ l l l 6 7 9 9 3 7 2 9 9 3 6 x 3 x 9 3 6 7 7 2 3 7 3 2 7 9 9 5 2 9 3 7 5 9 7 9 9 7 6 3 3 6 3 3 x 6 7 3 6 3 6 7 7 9 7 2 3 3 3 5 5 9 7 9 9 2 7 7 7 6 8 rX                          ",
"@ 5 2 @ 2 @ * * @ . @ @ * @ @ @ @ . 2 * @ * @ . . . 2 . m                           HX2 4 . @ X X . 1 . @ X X . X @ . . @ @ @ @ . . @ . . X @ X . X @ . . . . 1 x x x x x p ` ' ` ' { ' { ` ' { ^ 6.6.}  .}  .} }  .}  .} } } }  . . .o.o.o.o.o.o.o.o.o.o.o.o...o...o.o.o.&.o.o.o.o.o.o.O.o.} } } #.|  . . .| } }  .{ | ] ' ' ' [ [ [ [ [ { { [ [ [ [ * 2 5 3 3 . x 2 * 2 2 2 X X . X X X X X X X X X . . . x 1 2 2 2 2 2 4 2 4 4 4 5 5 5 5 9 5 3 3 2 4 * . . X X X . X X . . X X X . X X X X . + . . X . 2 2 2 2 2 2 2 3 3 2 2 3 2 2 2 2 2 2 2 . . 1 . . . 1 . . . . . . . . 1 . . + . 2 * 2 * 2 * 2 2 2 2 2 * 2 2 * 2 2 * . x x . 1 + x + x + + . . x . x . . . 2 2 x 2 + 2 2 2 2 * 2 x 2 x 2 2 2 + 2 + . . . . + x x . . + . . + + 1 x . x + 2 2 2 3 3 5 7 9 7 7 5 5 4 4 4 2 2 2 4 2 . . . X + . X . . 1 . . . . . . . . . . . + 2 2 2 9 9 9 7 7 9 9 9 9 8 7 5 3 5 4 9 9 9 9 5 4 2 x . . 1 . . + . . . . . + 1 X 6 q q 7 9 9 7 9 3 2 1 X . j z k z ~ l ~ l ( 6.6.6.^ 6. . .} } } } } } } } } [ o.[ +.+.o.+.+.o.+.o.+.+.+.o.+.+.+.+.+.o.+.+.+.o.o.+.o.o.+.o.o. .X.X. .o.o.o. . . .X.o.o.O.] ( ) ( ' ' ) ' { ( ' ) { ' ( m k ! ~ ~ l ~ ~ l l l l l l . . . + 2 2 2 2 x X . X X X . . . + . x 2 * 2 . 2 @ 2 2 2 1 * 4 * 2 * * * 2 4 * 2 2 2 2 * X + 2 . 1 . 2 . * @ 2 2 @ @ * 2 2 2 . 2 . * 8 . 2 2 rX                          ",
"yXyXyXyXyXyXyXfXlXyXeXyXyXyXyXyXyXrXyXyXyXyXfXrXeXyXlXrXHX                            eXyXrX8XwXeXrXrXrXeXrXrXrXrXeXeXwXeXrXeXeXrXeXrXyXrXrXeXeXeXrXyXeXeXeXrXeXyXwXwXwXwX#.7 2 2 3 q p q p 9 3 7 p x ^ }  .} } } } } } } #.}  . . . . ...X... . . .o. . . . ...o... . . . . ...o. .o.o. . .' } } | ] ] | ] { #.] | | ] k 6 9 p h z ! n z l p f k g #.lXrXyXrX8X7X7X7X8XwX7X7X8XwX8X8XwX0X8XwX8X8X0XwXwXeXeXeXeXwXeXeX0XeXeXwXwXwXwXwXwX8X0X8X8X8X7X7X7X7X7X7X7X7X7X7X8X7X7X8X8X0X8X7X8X8X7X8X8X8XwX8XeXeXwX0X8X0XwX8X0X0X8X8X8X8X8X0X8X7X7X7X7X8X7X7X8X8X7X7X7X7X7X8X7X8X7X8XtX8X0X0X8X8X0X8X0X8X0XwX8X8XwX8X0X8XwX8X8XwX8X8X8X8X8X8X0X8X8XtX8X7X7X8XwX7X8X8X8X8XwX8X8XwXwXwXwX8X8XwXwXwXwXwXeXeXwXwXwXeXwXwXwX8X8X8XtX8X8X0X8XtX8X7X8X8X7X8X8X7X8X8X8X8X8X8XwX8X0XwXwXwXwXwXeXeXeXeXeXrXrXrXeXrXwXeXeXwXeXwXeXeXeXwXwXeXeXwXeXwXeXeXwXeXwXeXeXeXeXrXrXrXrXeXrXrXrXrXrXrXeXrXeXrXrXfXeXHXfXrXrXiXyXrXrXrXrXrXyXiXyXrXrXeXrXrXeXrXlXrXwXwXwX7X. 2 6 9 u u 9 u u p p p 7 7 [ } [ } | } } [ [ [ } [ [ [ [ o.o.[ o.[ +.o.[ +.[ [ o.[ o.[ [  . .[  .o.o.} o.[ o.[ } } } } } } } [ [ | ] | }  ...( ! m ! k ( ! ( ( ( ( ( k ( j 8 8 8 9 9 u p q p q u w f f ,.rXeXyXrXwXwXrXeXwXrXrXrXyXwX8XeXwXwXwXeXwXwXwXwXwXwX8X8X8X0X0XwX8X0X0XwXwXwXwXeX8X0XeXeXwXrXeXeXeXeXeXeXeXeXeXeX0XwXwXwXwXwXrXeXeX0XwXyXrXrX                            ",
"                                                                                                                                                                          @.x 2 * 3 3 3 5 3 4 3 3 x x ^ } | } } ] } } } #.| } } ] |  .}  . .} }  . .} .. .}  . .} ..}  . . . . . . .}  . .} ' [ ] ] ] ] ] #.] { ] ] ' ' u 2 2 2 9 9 9 9 9 9 9 3 9 w X.HX                                                                                                                                                                                                                                                                                                                                                                                                                                                                                                                                                                                    HXX 2 2 3 2 9 6 4 9 7 x 7 x x 6.[ [ [ [ [ [ [ [ [ [ [ [ [ o.o.[ [ +.[ o.[ o.[ +.o.[ o.[ +.[  .[  . .} o.} } o.} o.} } | } } | [ | } } | | }  .| ` l ( k ( m ( m k ( k ( ( ( f 2 2 6 9 7 7 7 9 9 9 6 2 2 4 s.                                                                                                                                                                        ",
"                                                                                                                                                                          +.2 2 3 3 - 3 3 3 3 - 3 3 3 p [ } | | | } } } | | | ] [ |  . . . . . . . .} } } } } } }  . .} }  .}  . .}  . . .} | ' ] ] ] ] ] ] ] ] #.] ] ] 9 2 3 5 9 7 9 7 5 9 5 3 0 w #.HX                                                                                                                                                                                                                                                                                                                                                                                                                                                                                                                                                                                    HX. 2 2 2 2 2 9 2 2 7 7 x x x [ [ [ } ' | [ } [ [ } [ [ [ [ o.[ o.[ +.[ +.[ [ +.[ o.[ o. . . . . . .} } } o.} } o.} ] | ] ] } } } [ | | #.] |  .) ! m ! ( ! k ( ( ! ( ( ! m f 2 2 4 7 7 7 7 9 9 9 2 4 5 4 3.                                                                                                                                                                        ",
"                                                                                                                                                                          X.3 = 3 + 7 x + 3 6 = = 3 3 j } [ } [ } ] } | ] | #.] | | #.} |  .| | }  . .| } } | ..} ..} .. .} }  . .} }  .} } [ | ] | ] ] ] ] ] ] ] | ] ] w 2 3 3 3 5 5 5 3 5 5 3 5 w @.HX                                                                                                                                                                                                                                                                                                                                                                                                                                                                                                                                                                                    lX@ 2 * 2 2 x 6 x 7 3 6 x x p ' [ [ ' [ [ [ [ [ ' [ [ [ [ [ o.[ [ o.[ o.o.[ +.[ o.[ o.[ o.[  . . . .} o.o.} } } o.[ ] ] ] } | } } | #.| | | } } ) m ( ! ! ! ( m ( m ( m ( ( f 2 4 3 5 2 4 5 4 5 4 2 2 2 2 3.                                                                                                                                                                        ",
"                                                                                                                                                                          @.x * 6 2 6 3 6 3 3 3 3 3 x z [ | | | | ] | ] ] } | ] [ [ } |  . . . .}  .} } } } } } }  .}  .} ..}  .}  . . .} } [ [ ] [ ] ] ] ] ] ] ] ] ) #.k 9 3 5 7 7 3 7 7 3 3 3 5 q #.HX                                                                                                                                                                                                                                                                                                                                                                                                                                                                                                                                                                                      * 3 2 2 2 7 6 7 x x 6 6 x 7 ' [ [ [ [ [ [ [ [ } [ [ [ [ o.o.o.o.[ o.[ [ [  .o.[ o.[ o.[ o.[ o. . .} } }  .o.[ } } } ] } ] [ [ ] } } | | #.} } _ m ( ( m ( ! ! k ( ( ! m ( g 2 2 5 4 5 3 3 2 6 6 5 2 7 2 3.                                                                                                                                                                        ",
"                                                                                                                                                                          X.2 + 2 + = 2 3 3 2 x 3 3 x p ] | [ | ] | ] } ] | |  .] ] } |  .| } } |  .} } } | } |  .} }  . .} } } }  . . . .} | ' } ] ] ] ] [ ] ] ] ] ]  .h 9 2 2 7 7 7 7 3 7 9 3 5 5 @.                                                                                                                                                                                                                                                                                                                                                                                                                                                                                                                                                                                      HX@ 2 2 2 2 x 7 3 3 6 x 6 x p [ [ ' [ [ [ [ [ [ [ ] [ [ [ [ [ o.[ o.[ [ [  .[  . .[ [ o.+.[  .}  .} o.[  .}  .[ o.[ ] } ] ] } ] [ [ | } | |  .] ) ( ( ( m ! l k m ! ( ! ( ( k 2 8 2 3 5 2 8 8 2 4 6 2 7 5 3.                                                                                                                                                                        ",
"                                                                                                                                                                          X.1 x 2 2 2 2 2 2 2 = = x 3 n } | [ ' ] ] ] | ] ] ] ] ] ]  .| |  .} } } | }  .}  .| .. . .}  .}  . .} }  . . . .| [ [ ] ] ] ] ] ] ] ] ] ] ]  .l 9 6 9 7 7 7 7 7 9 3 3 3 4 {                                                                                                                                                                                                                                                                                                                                                                                                                                                                                                                                                                                       HX. 2 2 2 2 2 2 x 3 7 6 6 x 6 ' [ [ [ [ [ [ [ [ [ [ [ [ [ o.o.[ o.[ [ +.o. . . . . .o.o.[ o.} o.}  .} o. . . .o.} } } ] } } } } | ] | ] #.[  .} ' ! k ( ! ( ( ( ! ( ! m ! ( z 5 9 2 4 2 9 2 3 9 6 4 3 9 3 3.                                                                                                                                                                        ",
"                                                                                                                                                                          #.. 2 2 2 2 * 3 2 2 3 = x 2 l } | | ' ] | ] ] ] ] ] ] ] ] | #.} } | | } } |  .| } }  .}  .} }  .} }  .}  . .}  .} [ ' ] ] ] ] ] ] ] ] ] ] [  .l 9 5 5 7 7 7 7 7 7 3 2 3 2 #.                                                                                                                                                                                                                                                                                                                                                                                                                                                                                                                                                                                      lXX 4 2 * 2 2 2 2 2 2 2 2 1 u ] ] ] [ [ [ [ [ [ [ [ [ [ [  .X.} #. . . .}  . . . . .[ } } o. . . . . . . .X.} X.} [ } ] } } ] } | [ ] ] } | | } ' m ! m k ( ! m ! ( m ( ( ( l 9 9 2 2 4 4 7 6 9 2 8 2 2 . 3.                                                                                                                                                                        ",
"                                                                                                                                                                          X.. * * 2 2 2 * 2 2 = 3 3 6 ~ } | ] [ ] ] ] ] [ | [ ] ] | } } | } } } | } | #.#.} | | } } }  .} o.} }  . .}  . .} [ [ ] ] ] ] ] ' ] ] ] ] ]  .l 9 5 3 3 7 7 7 7 7 3 3 2 2 {                                                                                                                                                                                                                                                                                                                                                                                                                                                                                                                                                                                       HX. 2 2 4 2 2 2 1 2 2 2 1 2 a } ] ] [ [ [ ' [ [ [ [ ' [ [ #.} }  . .#.|  . . .#. . .o.[ o.[  .} [  . . . . .}  . .[ ] ] ] } ] ] } } | [ ] } }  .' ( ( ( ( ( ( ! ( m ~ k ( ( z 2 9 2 5 2 9 2 2 9 9 2 6 2 @ s.                                                                                                                                                                        ",
"                                                                                                                                                                          @.2 * * 2 * 2 2 2 2 * + 3 7 ~ } ] ' | | ] [ ] | [ [ ] ] ] } } } } } } } | | | |  . . .} }  .} } } } } }  . .} } } ' ' ] ] ] ' { ] ] ] ] ] ] } l 9 4 5 7 3 7 7 7 7 3 3 2 . {                                                                                                                                                                                                                                                                                                                                                                                                                                                                                                                                                                                       fX. 2 2 2 2 2 2 2 2 2 2 2 2 f  .[ ] [ [ [ [ ' [ [ [ [ [ [  .X.}  . .} } } } }  . .[  . .}  .o.} } X. . .[ [  . . .} } } [ | ] ] } ] ] ] } } } } ' ~ ! m ( k ( ! k ( ( ! ~ ( l 9 6 5 2 5 2 8 8 2 3 8 2 2 9 s.                                                                                                                                                                        ",
"                                                                                                                                                                          X.2 2 2 * 2 2 2 2 2 = 3 x x j  .] [ [ ] | ] | [ ' | ] | |  .| } } }  .}  . .|  .|  .|  . .} } } o.o.} }  .}  . .} [ [ ] ] ] ] ] ] ] ' ] ] ] ..h 9 5 3 6 7 9 2 3 7 2 3 * . `                                                                                                                                                                                                                                                                                                                                                                                                                                                                                                                                                                                       yXX * 2 2 * 2 2 2 2 2 2 2 2 f } ] [ ' [ [ [ [ [ [ [ ' [ [  . .#. . .}  .#. . . . . . . .[  .} } X.}  . .X.X. . . .[ ] ] } ] ] } | } } | } } }  .] l ( ! ( ! m ( ( ( ( ( ! ~ z 2 2 2 4 2 5 2 6 2 9 5 9 2 2 s.                                                                                                                                                                        ",
"                                                                                                                                                                          X.2 2 2 2 2 2 * 2 3 3 3 x 3 z  .| | | | | ] ] | ' | ] | ]  .} | .. .| | | | }  .| |  .} }  . . . . . . . . .} o.} [ [ ] ] ] ] ] ] ] ] ] ] ] ] w 9 2 5 3 7 5 9 9 7 7 7 * @ {                                                                                                                                                                                                                                                                                                                                                                                                                                                                                                                                                                                       rXX 7 2 2 3 1 1 2 2 2 2 2 6 4 ] [ [ [ [ [ [ [ [ [ [ [ [ '  . . . .#. .#. . . . .X. . . . .[ o. .X.X.} } X.[ }  . .[ [ ] ]  .} ] } } }  .} } ]  .) ! ! ~ ~ ~ ~ ~ ~ ( k m ! ( g 2 2 7 3 3 2 2 2 7 4 8 2 2 4 s.                                                                                                                                                                        ",
"                                                                                                                                                                          X.2 6 2 2 2 3 2 2 2 3 3 3 3 p } [ [ | ] | ] } [ | | [ | {  .[ } | |  . . . . .|  .|  .} } } } } [  .[ } } }  .} } ' ' ] ] ] ] ] ] ] ] ] [ [ [ f 2 2 2 9 7 9 5 7 3 3 7 2 @ (                                                                                                                                                                                                                                                                                                                                                                                                                                                                                                                                                                                       fXX 3 x 2 2 2 2 2 1 * 2 1 2 2 ] [ [ [ [ [ [ [ [ [ [ [ [ ] X. . . . . . . . . .}  .} [ [  .o. .[ [ +.o. .X.#.} }  . .[ [  .] ] } ] { } ] ] [ } } ' ~ ~ ( ~ ( ~ ( ( k k ( k ( g 2 2 2 2 5 4 4 3 4 9 4 9 2 5 7X                                                                                                                                                                        ",
"                                                                                                                                                                          #.* + . + 1 * * 2 1 * 2 . + z } } [ } [ | [ } | [ [ [ | ]  . . ... .#.] |  .} | #.#.| } } } } } }  . . .}  .o.o.} [ [ [ [ ] ] ] } X.[ } [ [ [ g 1 @ 2 2 4 2 4 2 * * * @ X {                                                                                                                                                                                                                                                                                                                                                                                                                                                                                                                                                                                       lXX 7 2 * 2 * 4 2 2 5 5 4 8 2 } [ } [ [ [ [ [ [ [ [ [ [  .o. .}  . . . .X.X.o.o.X.X. .[ [ [ [ [ [ [ [ [ [ X.[ +.o. .} }  . . .X. .} } } o.o.o.X.' ( ( ` ( ( ( ' ` ( ( ( ( ` g 4 4 4 2 4 4 2 * @ @ @ @ . 2 3.                                                                                                                                                                        ",
"                                                                                                                                                                          7X4.,.,.,.:.,.,.5.,.+.:.,.,.` z j ^ ^ 6.6.6.^ 6.6.6.6.m k k k g k k k k z f f f g s m j j j j j z z z p ^ p j j j ^ 6.l l l ! l ! F l j f h z @.,.,.4.>.3.3.3.>.3.4.3.3.3.7X                                                                                                                                                                                                                                                                                                                                                                                                                                                                                                                                                                                        r n ` #.[ { [ { [ { h l { { k k z z ^ n ^ l 6.l z n l z p 9 9 w w w w w 4 9 9 9 9 p p p p p p p p p p p 7 p p p p p u p f f f p f u p p p a f u 9 u 9 a a f f 9 9 9 9 9 4 @.4.,.,.,.,.4.4.,.,.,.,.,.,.@.lX                                                                                                                                                                        ",
"                                                                                                                                                                                                      +.* + 1 2 7 x 7 x 7 7 7 7 3 3 x x x x x x 2 2 3 3 x 7 3 2 3 x x x 7 7 x x x x x x x x 2 7 9 9 5 3 2 2 2 2 * 2 * 2 7X                                                                                                                                                                                                                                                                                                                                                                                                                                                                                                                                                                                                                                                2 6 2 2 2 2 2 1 2 2 9 2 x + 2 x 2 x 2 2 2 x 2 2 . x 2 7 9 3 6 2 6 6 7 7 7 3 3 x 7 6 7 2 2 2 2 2 2 5 2 3 3 6 6 6 6 6 x 2 2 2 6 6 9 9 2 6 2 7 1 eX                                                                                                                                                                                                      ",
"                                                                                                                                                                                                      @.2 2 x 6 x 3 x 3 3 3 3 x x 3 3 x 3 x x = x * 3 3 3 + x 2 = 3 7 3 3 3 3 x 3 3 3 3 3 x 3 3 3 2 3 3 3 2 2 5 3 2 2 * s.                                                                                                                                                                                                                                                                                                                                                                                                                                                                                                                                                                                                                                                2 3 7 2 2 2 6 2 6 2 8 6 6 6 6 7 6 2 2 2 2 2 2 2 2 2 3 2 2 2 2 2 x 7 x 3 x 7 x 3 x x 6 5 3 2 2 2 2 4 * 2 3 3 x 2 7 x 6 2 2 3 2 2 2 2 2 6 2 7 + 0X                                                                                                                                                                                                      ",
"                                                                                                                                                                                                      @.x 2 2 2 3 x x 3 x x 7 x 3 x = 3 = 3 x = 3 + 3 x = = 3 x 3 x 3 = x 3 x 3 3 3 3 3 3 3 x 3 2 2 3 2 2 2 2 2 2 3 2 * 3.                                                                                                                                                                                                                                                                                                                                                                                                                                                                                                                                                                                                                                                5 4 2 6 2 2 2 6 2 2 2 6 2 6 2 2 2 2 2 3 2 2 2 2 2 2 6 3 2 7 6 2 2 3 6 3 3 x 3 2 2 6 7 2 4 2 3 2 2 2 3 * 3 = 6 6 3 3 3 2 2 3 2 2 2 2 2 2 2 3 . wX                                                                                                                                                                                                      ",
"                                                                                                                                                                                                      X.2 x x 2 3 x 3 3 x 3 x 3 3 3 3 x 3 3 3 3 3 3 3 3 3 3 3 3 = 3 3 3 x 3 3 = x = 3 + 3 3 = 3 3 3 * 3 * * 2 2 2 3 2 2 s.                                                                                                                                                                                                                                                                                                                                                                                                                                                                                                                                                                                                                                                5 3 2 2 2 6 2 6 2 6 2 2 6 2 2 6 6 2 2 2 6 2 2 2 2 2 6 6 3 7 x 2 6 7 x 3 3 7 3 3 6 3 3 3 2 3 3 3 2 3 2 2 6 6 6 6 x 7 x 2 2 2 3 2 7 2 7 7 2 7 x eX                                                                                                                                                                                                      ",
"                                                                                                                                                                                                      @.x x 2 x x 3 x x x 3 x 3 x x 3 3 3 3 = x 3 3 3 x 3 3 3 3 x 3 = x 7 3 3 3 6 + 3 3 3 3 3 3 3 = 2 2 2 2 2 3 3 3 * * s.                                                                                                                                                                                                                                                                                                                                                                                                                                                                                                                                                                                                                                                2 2 2 2 2 6 2 2 6 2 4 7 2 2 6 2 2 6 2 6 2 2 6 3 3 3 2 2 6 6 x 6 x 7 3 x 7 3 6 3 6 3 6 3 2 3 * 3 * 3 3 6 2 6 x x 7 7 3 3 3 3 3 3 6 6 6 7 x 7 x rX                                                                                                                                                                                                      ",
"                                                                                                                                                                                                      #.2 2 x 6 3 x x 3 3 3 x x 3 = 3 x x = 3 3 3 = 3 3 = x 3 3 3 3 3 3 3 x = = 3 3 3 3 3 + x 3 3 3 3 3 3 2 * 3 4 * 2 . 3.                                                                                                                                                                                                                                                                                                                                                                                                                                                                                                                                                                                                                                                2 2 2 2 6 6 2 7 2 6 2 8 8 2 2 6 2 6 2 2 6 6 2 3 3 2 2 6 6 3 6 3 7 7 6 7 3 x 7 3 3 3 6 2 3 2 3 3 3 3 3 3 3 3 6 3 6 x 7 x 3 3 2 7 2 6 3 7 x 7 x yX                                                                                                                                                                                                      ",
"                                                                                                                                                                                                      @.3 3 6 6 x 3 3 x x x x = x 3 = x 3 3 3 3 = 3 3 3 3 x 3 x = 3 3 3 3 3 3 3 3 + 3 3 3 3 3 3 3 3 = 2 2 3 3 2 2 3 4 4 4.                                                                                                                                                                                                                                                                                                                                                                                                                                                                                                                                                                                                                                                5 2 2 2 6 2 6 8 2 6 2 2 2 2 8 2 2 2 2 7 2 6 7 6 2 3 3 3 3 3 6 x 7 x 7 7 3 7 7 x 3 x 3 2 3 4 2 2 3 3 3 3 3 6 3 7 3 7 x 7 7 2 3 3 6 3 x 2 2 3 . HX                                                                                                                                                                                                      ",
"                                                                                                                                                                                                      X.3 x 6 x 3 x 3 3 x 3 3 3 x = 3 3 3 x = x 3 3 = 3 3 3 3 = 3 x 3 3 3 = 3 3 3 3 3 3 3 3 3 + 3 3 3 2 3 4 * 3 4 2 * 4 s.                                                                                                                                                                                                                                                                                                                                                                                                                                                                                                                                                                                                                                                5 2 2 2 2 2 2 2 2 2 2 6 2 2 2 6 6 2 6 2 2 6 x 6 3 6 6 6 3 3 x 7 7 7 7 7 x x 7 7 3 6 3 3 3 3 3 2 3 3 3 6 3 x 6 x 3 7 6 3 3 2 2 3 3 6 6 7 2 2 . HX                                                                                                                                                                                                      ",
"                                                                                                                                                                                                      X.2 2 x 2 2 x x 3 3 x 2 2 + 6 3 3 3 = = = 3 3 3 3 3 3 + 3 3 3 3 3 = 3 3 3 3 3 3 3 3 3 3 3 3 3 3 3 2 3 2 3 2 3 3 @ s.                                                                                                                                                                                                                                                                                                                                                                                                                                                                                                                                                                                                                                                4 2 2 2 2 2 2 2 2 6 3 2 2 2 2 2 6 2 6 2 6 6 3 2 6 6 3 2 6 2 2 2 3 3 x 3 7 3 x 2 2 6 3 3 3 6 3 2 2 3 3 2 3 2 3 2 3 3 6 2 2 3 6 6 3 6 6 6 2 x + HX                                                                                                                                                                                                      ",
"                                                                                                                                                                                                      #.7 2 7 x 7 3 3 2 3 x 2 3 2 3 3 x 3 x 3 3 3 3 3 3 3 3 3 7 3 3 7 = 3 3 3 3 3 3 3 + 3 3 3 3 3 3 x 3 3 2 3 3 3 3 3 2 s.                                                                                                                                                                                                                                                                                                                                                                                                                                                                                                                                                                                                                                                9 2 2 2 2 2 2 6 2 3 6 2 2 2 2 2 2 2 2 2 2 2 2 2 x x 3 7 2 2 2 3 2 6 7 6 x 3 7 3 7 6 6 x 3 3 3 3 2 3 3 6 6 3 3 6 6 x 3 3 3 6 6 3 6 3 2 3 3 6 x HX                                                                                                                                                                                                      ",
"                                                                                                                                                                                                      #.9 2 2 2 7 6 x 3 3 3 3 2 3 3 3 3 3 3 3 3 3 3 3 x 3 3 3 3 3 7 0 3 3 3 3 3 * 6 3 2 3 3 3 3 3 7 3 3 5 3 2 2 3 5 3 * s.                                                                                                                                                                                                                                                                                                                                                                                                                                                                                                                                                                                                                                                5 2 2 2 2 2 9 6 7 7 6 2 2 6 2 8 2 2 2 2 6 6 6 7 7 6 x 3 6 2 2 3 x 3 x x 6 7 7 6 2 2 2 2 7 6 3 2 2 4 2 3 3 2 2 2 3 3 3 2 5 5 2 3 3 2 3 2 2 2 . HX                                                                                                                                                                                                      ",
"                                                                                                                                                                                                      +.9 8 9 4 7 3 9 u q 7 7 3 9 5 9 9 0 7 7 7 3 7 7 = 0 3 7 3 7 7 3 3 3 3 3 x 2 3 3 3 7 7 7 7 7 7 7 q 9 9 5 2 * 3 3 4 s.                                                                                                                                                                                                                                                                                                                                                                                                                                                                                                                                                                                                                                                2 2 * 2 3 2 9 7 9 p 7 6 2 6 2 3 6 3 2 2 6 3 x x x + x 2 7 7 3 6 3 3 7 7 3 3 6 2 2 2 4 7 6 x + . 2 2 4 2 3 3 7 3 9 3 3 5 9 9 w q q 5 3 2 2 2 . HX                                                                                                                                                                                                      ",
"                                                                                                                                                                                                      #.. . 2 1 1 2 4 9 3 . . X . . . + . X . . = 3 0 q 7 7 3 3 3 3 7 9 3 0 7 + . X . . . 1 + . x + 3 3 * 2 5 * 9 9 2 2 7X                                                                                                                                                                                                                                                                                                                                                                                                                                                                                                                                                                                                                                                4 2 * 2 * . 9 4 5 2 . . . 2 . . . . . . . X X . . . @ 2 2 2 2 2 2 2 2 7 7 8 4 4 2 2 2 2 2 4 2 1 @ 2 @ . . 1 . . @ . . @ @ 2 4 5 w 9 9 5 * . X yX                                                                                                                                                                                                      ",
"                                                                                                                                                                                                                                HXHXHXHXHXHXmXmXHX                            HXHXHXHX                              HXHX                                                                                                                                                                                                                                                                                                                                                                                                                                                                                                                                                                                                                                                                                            HXHXHXHX                                                                            HXlXlXlXHX                                                                                                                                                                                                              ",
"                                                                                                                                                                                                                                                                                                                                                                                                                                                                                                                                                                                                                                                                                                                                                                                                                                                                                                                                                                                                                                                                                                                                                                                                                                                                                                                                ",
"                                                                                                                                                                                                                                                                                                                                                                                                                                                                                                                                                                                                                                                                                                                                                                                                                                                                                                                                                                                                                                                                                                                                                                                                                                                                                                                                ",
"                                                                                                                                                                                                                                                                                                                                                                                                                                                                                                                                                                                                                                                                                                                                                                                                                                                                                                                                                                                                                                                                                                                                                                                                                                                                                                                                ",
"                                                                                                                                                                                                                                                                                                                                                                                                                                                                                                                                                                                                                                                                                                                                                                                                                                                                                                                                                                                                                                                                                                                                                                                                                                                                                                                                ",
"                                                                                                                                                                                                                                                                                                                                                                                                                                                                                                                                                                                                                                                                                                                                                                                                                                                                                                                                                                                                                                                                                                                                                                                                                                                                                                                                ",
"                                                                                                                                                                                                                                                                                                                                                                                                                                                                                                                                                                                                                                                                                                                                                                                                                                                                                                                                                                                                                                                                                                                                                                                                                                                                                                                                ",
"                                                                                                                                                                                                                                                                                                                                                                                                                                                                                                                                                                                                                                                                                                                                                                                                                                                                                                                                                                                                                                                                                                                                                                                                                                                                                                                                ",
"                                                                                                                                                                                                                                                                                                                                                                                                                                                                                                                                                                                                                                                                                                                                                                                                                                                                                                                                                                                                                                                                                                                                                                                                                                                                                                                                ",
"                                                                                                                                                                                                                                                                                                                                                                                                                                                                                                                                                                                                                                                                                                                                                                                                                                                                                                                                                                                                                                                                                                                                                                                                                                                                                                                                ",
"                                                                                                                                                                                                                                                                                                                                                                                                                                                                                                                                                                                                                                                                                                                                                                                                                                                                                                                                                                                                                                                                                                                                                                                                                                                                                                                                ",
"                                                                                                                                                                                                                                                                                                                                                                                                                                                                                                                                                                                                                                                                                                                                                                                                                                                                                                                                                                                                                                                                                                                                                                                                                                                                                                                                ",
"                                                                                                                                                                                                                                                                                                                                                                                                                                                                                                                                                                                                                                                                                                                                                                                                                                                                                                                                                                                                                                                                                                                                                                                                                                                                                                                                ",
"                                                                                                                                                                                                                                                                                                                                                                                                                                                                                                                                                                                                                                                                                                                                                                                                                                                                                                                                                                                                                                                                                                                                                                                                                                                                                                                                ",
"                                                                                                                                                                                                                                                                                                                                                                                                                                                                                                                                                                                                                                                                                                                                                                                                                                                                                                                                                                                                                                                                                                                                                                                                                                                                                                                                ",
"                                                                                                                                                                                                                                                                                                                                                                                                                                                                                                                                                                                                                                                                                                                                                                                                                                                                                                                                                                                                                                                                                                                                                                                                                                                                                                                                ",
"                                                                                                                                                                                                                                                                                                                                                                                                                                                                                                                                                                                                                                                                                                                                                                                                                                                                                                                                                                                                                                                                                                                                                                                                                                                                                                                                ",
"                                                                                                                                                                                                                                                                                                                                                                                                                                                                                                                                                                                                                                                                                                                                                                                                                                                                                                                                                                                                                                                                                                                                                                                                                                                                                                                                ",
"                                                                                                                                                                                                                                                                                                                                                                                                                                                                                                                                                                                                                                                                                                                                                                                                                                                                                                                                                                                                                                                                                                                                                                                                                                                                                                                                ",
"                                                                                                                                                                                                                                                                                                                                                                                                                                                                                                                                                                                                                                                                                                                                                                                                                                                                                                                                                                                                                                                                                                                                                                                                                                                                                                                                ",
"                                                                                                                                                                                                                                                                                                                                                                                                                                                                                                                                                                                                                                                                                                                                                                                                                                                                                                                                                                                                                                                                                                                                                                                                                                                                                                                                ",
"                                                                                                                                                                                                                                                                                                                                                                                                                                                                                                                                                                                                                                                                                                                                                                                                                                                                                                                                                                                                                                                                                                                                                                                                                                                                                                                                ",
"                                                                                                                                                                                                                                                                                                                                                                                                                                                                                                                                                                                                                                                                                                                                                                                                                                                                                                                                                                                                                                                                                                                                                                                                                                                                                                                                ",
"                                                                                                                                                                                                                                                                                                                                                                                                                                                                                                                                                                                                                                                                                                                                                                                                                                                                                                                                                                                                                                                                                                                                                                                                                                                                                                                                ",
"                                                                                                                                                                                                                                                                                                                                                                                                                                                                                                                                                                                                                                                                                                                                                                                                                                                                                                                                                                                                                                                                                                                                                                                                                                                                                                                                ",
"                                                                                                                                                                                                                                                                                                                                                                                                                                                                                                                                                                                                                                                                                                                                                                                                                                                                                                                                                                                                                                                                                                                                                                                                                                                                                                                                ",
"                                                                                                                                                                                                                                                                                                                                                                                                                                                                                                                                                                                                                                                                                                                                                                                                                                                                                                                                                                                                                                                                                                                                                                                                                                                                                                                                ",
"                                                                                                                                                                                                                                                                                                                                                                                                                                                                                                                                                                                                                                                                                                                                                                                                                                                                                                                                                                                                                                                                                                                                                                                                                                                                                                                                ",
"                                                                                                                                                                                                                                                                                                                                                                                                                                                                                                                                                                                                                                                                                                                                                                                                                                                                                                                                                                                                                                                                                                                                                                                                                                                                                                                                ",
"                                                                                                                                                                                                                                                                                                                                                                                                                                                                                                                                                                                                                                                                                                                                                                                                                                                                                                                                                                                                                                                                                                                                                                                                                                                                                                                                ",
"                                                                                                                                                                                                                                                                                                                                                                                                                                                                                                                                                                                                                                                                                                                                                                                                                                                                                                                                                                                                                                                                                                                                                                                                                                                                                                                                ",
"                                                                                                                                                                                                                                                                                                                                                                                                                                                                                                                                                                                                                                                                                                                                                                                                                                                                                                                                                                                                                                                                                                                                                                                                                                                                                                                                ",
"                                                                                                                                                                                                                                                                                                                                                                                                                                                                                                                                                                                                                                                                                                                                                                                                                                                                                                                                                                                                                                                                                                                                                                                                                                                                                                                                ",
"                                                                                                                                                                                                                                                                                                                                                                                                                                                                                                                                                                                                                                                                                                                                                                                                                                                                                                                                                                                                                                                                                                                                                                                                                                                                                                                                ",
"                                                                                                                                                                                                                                                                                                                                                                                                                                                                                                                                                                                                                                                                                                                                                                                                                                                                                                                                                                                                                                                                                                                                                                                                                                                                                                                                ",
"                                                                                                                                                                                                                                                                                                                                                                                                                                                                                                                                                                                                                                                                                                                                                                                                                                                                                                                                                                                                                                                                                                                                                                                                                                                                                                                                ",
"                                                                                                                                                                                                                                                                                                                                                                                                                                                                                                                                                                                                                                                                                                                                                                                                                                                                                                                                                                                                                                                                                                                                                                                                                                                                                                                                ",
"                                                                                                                                                                                                                                                                                                                                                                                                                                                                                                                                                                                                                                                                                                                                                                                                                                                                                                                                                                                                                                                                                                                                                                                                                                                                                                                                ",
"                                                                                                                                                                                                                                                                                                                                                                                                                                                                                                                                                                                                                                                                                                                                                                                                                                                                                                                                                                                                                                                                                                                                                                                                                                                                                                                                ",
"                                                                                                                                                                                                                                                                                                                                                                                                                                                                                                                                                                                                                                                                                                                                                                                                                                                                                                                                                                                                                                                                                                                                                                                                                                                                                                                                ",
"                                                                                                                                                                                                                                                                                                                                                                                                                                                                                                                                                                                                                                                                                                                                                                                                                                                                                                                                                                                                                                                                                                                                                                                                                                                                                                                                ",
"                                                                                                                                                                                                                                                                                                                                                                                                                                                                                                                                                                                                                                                                                                                                                                                                                                                                                                                                                                                                                                                                                                                                                                                                                                                                                                                                ",
"                                                                                                                                                                                                                                                                                                                                                                                                                                                                                                                                                                                                                                                                                                                                                                                                                                                                                                                                                                                                                                                                                                                                                                                                                                                                                                                                ",
"                                                                                                                                                                                                                                                                                                                                                                                                                                                                                                                                                                                                                                                                                                                                                                                                                                                                                                                                                                                                                                                                                                                                                                                                                                                                                                                                ",
"                                                                                                                                                                                                                                                                                                                                                                                                                                                                                                                                                                                                                                                                                                                                                                                                                                                                                                                                                                                                                                                                                                                                                                                                                                                                                                                                ",
"                                                                                                                                                                                                                                                                                                                                                                                                                                                                                                                                                                                                                                                                                                                                                                                                                                                                                                                                                                                                                                                                                                                                                                                                                                                                                                                                ",
"                                                                                                                                                                                                                                                                                                                                                                                                                                                                                                                                                                                                                                                                                                                                                                                                                                                                                                                                                                                                                                                                                                                                                                                                                                                                                                                                ",
"                                                                                                                                                                                                                                                                                                                                                                                                                                                                                                                                                                                                                                                                                                                                                                                                                                                                                                                                                                                                                                                                                                                                                                                                                                                                                                                                ",
"                                                                                                                                                                                                                                                                                                                                                                                                                                                                                                                                                                                                                                                                                                                                                                                                                                                                                                                                                                                                                                                                                                                                                                                                                                                                                                                                ",
"                                                                                                                                                                                                                                                                                                                                                                                                                                                                                                                                                                                                                                                                                                                                                                                                                                                                                                                                                                                                                                                                                                                                                                                                                                                                                                                                ",
"                                                                                                                                                                                                                                                                                                                                                                                                                                                                                                                                                                                                                                                                                                                                                                                                                                                                                                                                                                                                                                                                                                                                                                                                                                                                                                                                ",
"                                                                                                                                                                                                                                                                                                                                                                                                                                                                                                                                                                                                                                                                                                                                                                                                                                                                                                                                                                                                                                                                                                                                                                                                                                                                                                                                ",
"                                                                                                                                                                                                                                                                                                                                                                                                                                                                                                                                                                                                                                                                                                                                                                                                                                                                                                                                                                                                                                                                                                                                                                                                                                                                                                                                ",
"                                                                                                                                                                                                                                                                                                                                                                                                                                                                                                                                                                                                                                                                                                                                                                                                                                                                                                                                                                                                                                                                                                                                                                                                                                                                                                                                ",
"                                                                                                                                                                                                                                                                                                                                                                                                                                                                                                                                                                                                                                                                                                                                                                                                                                                                                                                                                                                                                                                                                                                                                                                                                                                                                                                                ",
"                                                                                                                                                                                                                                                                                                                                                                                                                                                                                                                                                                                                                                                                                                                                                                                                                                                                                                                                                                                                                                                                                                                                                                                                                                                                                                                                ",
"                                                                                                                                                                                                                                                                                                                                                                                                                                                                                                                                                                                                                                                                                                                                                                                                                                                                                                                                                                                                                                                                                                                                                                                                                                                                                                                                ",
"                                                                                                                                                                                                                                                                                                                                                                                                                                                                                                                                                                                                                                                                                                                                                                                                                                                                                                                                                                                                                                                                                                                                                                                                                                                                                                                                ",
"                                                                                                                                                                                                                                                                                                                                                                                                                                                                                                                                                                                                                                                                                                                                                                                                                                                                                                                                                                                                                                                                                                                                                                                                                                                                                                                                ",
"                                                                                                                                                                                                                                                                                                                                                                                                                                                                                                                                                                                                                                                                                                                                                                                                                                                                                                                                                                                                                                                                                                                                                                                                                                                                                                                                ",
"                                                                                                                                                                                                                                                                                                                                                                                                                                                                                                                                                                                                                                                                                                                                                                                                                                                                                                                                                                                                                                                                                                                                                                                                                                                                                                                                ",
"                                                                                                                                                                                                                                                                                                                                                                                                                                                                                                                                                                                                                                                                                                                                                                                                                                                                                                                                                                                                                                                                                                                                                                                                                                                                                                                                ",
"                                                                                                                                                                                                                                                                                                                                                                                                                                                                                                                                                                                                                                                                                                                                                                                                                                                                                                                                                                                                                                                                                                                                                                                                                                                                                                                                ",
"                                                                                                                                                                                                                                                                                                                                                                                                                                                                                                                                                                                                                                                                                                                                                                                                                                                                                                                                                                                                                                                                                                                                                                                                                                                                                                                                ",
"                                                                                                                                                                                                                                                                                                                                                                                                                                                                                                                                                                                                                                                                                                                                                                                                                                                                                                                                                                                                                                                                                                                                                                                                                                                                                                                                ",
"                                                                                                                                                                                                                                                                                                                                                                                                                                                                                                                                                                                                                                                                                                                                                                                                                                                                                                                                                                                                                                                                                                                                                                                                                                                                                                                                ",
"                                                                                                                                                                                                                                                                                                                                                                                                                                                                                                                                                                                                                                                                                                                                                                                                                                                                                                                                                                                                                                                                                                                                                                                                                                                                                                                                ",
"                                                                                                                                                                                                                                                                                                                                                                                                                                                                                                                                                                                                                                                                                                                                                                                                                                                                                                                                                                                                                                                                                                                                                                                                                                                                                                                                ",
"                                                                                                                                                                                                                                                                                                                                                                                                                                                                                                                                                                                                                                                                                                                                                                                                                                                                                                                                                                                                                                                                                                                                                                                                                                                                                                                                ",
"                                                                                                                                                                                                                                                                                                                                                                                                                                                                                                                                                                                                                                                                                                                                                                                                                                                                                                                                                                                                                                                                                                                                                                                                                                                                                                                                ",
"                                                                                                                                                                                                                                                                                                                                                                                                                                                                                                                                                                                                                                                                                                                                                                                                                                                                                                                                                                                                                                                                                                                                                                                                                                                                                                                                ",
"                                                                                                                                                                                                                                                                                                                                                                                                                                                                                                                                                                                                                                                                                                                                                                                                                                                                                                                                                                                                                                                                                                                                                                                                                                                                                                                                ",
"                                                                                                                                                                                                                                                                                                                                                                                                                                                                                                                                                                                                                                                                                                                                                                                                                                                                                                                                                                                                                                                                                                                                                                                                                                                                                                                                ",
"                                                                                                                                                                                                                                                                                                                                                                                                                                                                                                                                                                                                                                                                                                                                                                                                                                                                                                                                                                                                                                                                                                                                                                                                                                                                                                                                ",
"                                                                                                                                                                                                                                                                                                                                                                                                                                                                                                                                                                                                                                                                                                                                                                                                                                                                                                                                                                                                                                                                                                                                                                                                                                                                                                                                ",
"                                                                                                                                                                                                                                                                                                                                                                                                                                                                                                                                                                                                                                                                                                                                                                                                                                                                                                                                                                                                                                                                                                                                                                                                                                                                                                                                ",
"                                                                                                                                                                                                                                                                                                                                                                                                                                                                                                                                                                                                                                                                                                                                                                                                                                                                                                                                                                                                                                                                                                                                                                                                                                                                                                                                ",
"                                                                                                                                                                                                                                                                                                                                                                                                                                                                                                                                                                                                                                                                                                                                                                                                                                                                                                                                                                                                                                                                                                                                                                                                                                                                                                                                ",
"                                                                                                                                                                                                                                                                                                                                                                                                                                                                                                                                                                                                                                                                                                                                                                                                                                                                                                                                                                                                                                                                                                                                                                                                                                                                                                                                ",
"                                                                                                                                                                                                                                                                                                                                                                                                                                                                                                                                                                                                                                                                                                                                                                                                                                                                                                                                                                                                                                                                                                                                                                                                                                                                                                                                ",
"                                                                                                                                                                                                                                                                                                                                                                                                                                                                                                                                                                                                                                                                                                                                                                                                                                                                                                                                                                                                                                                                                                                                                                                                                                                                                                                                ",
"                                                                                                                                                                                                                                                                                                                                                                                                                                                                                                                                                                                                                                                                                                                                                                                                                                                                                                                                                                                                                                                                                                                                                                                                                                                                                                                                ",
"                                                                                                                                                                                                                                                                                                                                                                                                                                                                                                                                                                                                                                                                                                                                                                                                                                                                                                                                                                                                                                                                                                                                                                                                                                                                                                                                ",
"                                                                                                                                                                                                                                                                                                                                                                                                                                                                                                                                                                                                                                                                                                                                                                                                                                                                                                                                                                                                                                                                                                                                                                                                                                                                                                                                ",
"                                                                                                                                                                                                                                                                                                                                                                                                                                                                                                                                                                                                                                                                                                                                                                                                                                                                                                                                                                                                                                                                                                                                                                                                                                                                                                                                ",
"                                                                                                                                                                                                                                                                                                                                                                                                                                                                                                                                                                                                                                                                                                                                                                                                                                                                                                                                                                                                                                                                                                                                                                                                                                                                                                                                ",
"                                                                                                                                                                                                                                                                                                                                                                                                                                                                                                                                                                                                                                                                                                                                                                                                                                                                                                                                                                                                                                                                                                                                                                                                                                                                                                                                ",
"                                                                                                                                                                                                                                                                                                                                                                                                                                                                                                                                                                                                                                                                                                                                                                                                                                                                                                                                                                                                                                                                                                                                                                                                                                                                                                                                ",
"                                                                                                                                                                                                                                                                                                                                                                                                                                                                                                                                                                                                                                                                                                                                                                                                                                                                                                                                                                                                                                                                                                                                                                                                                                                                                                                                ",
"                                                                                                                                                                                                                                                                                                                                                                                                                                                                                                                                                                                                                                                                                                                                                                                                                                                                                                                                                                                                                                                                                                                                                                                                                                                                                                                                ",
"                                                                                                                                                                                                                                                                                                                                                                                                                                                                                                                                                                                                                                                                                                                                                                                                                                                                                                                                                                                                                                                                                                                                                                                                                                                                                                                                ",
"                                                                                                                                                                                                                                                                                                                                                                                                                                                                                                                                                                                                                                                                                                                                                                                                                                                                                                                                                                                                                                                                                                                                                                                                                                                                                                                                ",
"                                                                                                                                                                                                                                                                                                                                                                                                                                                                                                                                                                                                                                                                                                                                                                                                                                                                                                                                                                                                                                                                                                                                                                                                                                                                                                                                ",
"                                                                                                                                                                                                                                                                                                                                                                                                                                                                                                                                                                                                                                                                                                                                                                                                                                                                                                                                                                                                                                                                                                                                                                                                                                                                                                                                ",
"                                                                                                                                                                                                                                                                                                                                                                                                                                                                                                                                                                                                                                                                                                                                                                                                                                                                                                                                                                                                                                                                                                                                                                                                                                                                                                                                ",
"                                                                                                                                                                                                                                                                                                                                                                                                                                                                                                                                                                                                                                                                                                                                                                                                                                                                                                                                                                                                                                                                                                                                                                                                                                                                                                                                ",
"                                                                                                                                                                                                                                                                                                                                                                                                                                                                                                                                                                                                                                                                                                                                                                                                                                                                                                                                                                                                                                                                                                                                                                                                                                                                                                                                ",
"                                                                                                                                                                                                                                                                                                                                                                                                                                                                                                                                                                                                                                                                                                                                                                                                                                                                                                                                                                                                                                                                                                                                                                                                                                                                                                                                ",
"                                                                                                                                                                                                                                                                                                                                                                                                                                                                                                                                                                                                                                                                                                                                                                                                                                                                                                                                                                                                                                                                                                                                                                                                                                                                                                                                ",
"                                                                                                                                                                                                                                                                                                                                                                                                                                                                                                                                                                                                                                                                                                                                                                                                                                                                                                                                                                                                                                                                                                                                                                                                                                                                                                                                ",
"                                                                                                                                                                                                                                                                                                                                                                                                                                                                                                                                                                                                                                                                                                                                                                                                                                                                                                                                                                                                                                                                                                                                                                                                                                                                                                                                ",
"                                                                                                                                                                                                                                                                                                                                                                                                                                                                                                                                                                                                                                                                                                                                                                                                                                                                                                                                                                                                                                                                                                                                                                                                                                                                                                                                ",
"                                                                                                                                                                                                                                                                                                                                                                                                                                                                                                                                                                                                                                                                                                                                                                                                                                                                                                                                                                                                                                                                                                                                                                                                                                                                                                                                ",
"                                                                                                                                                                                                                                                                                                                                                                                                                                                                                                                                                                                                                                                                                                                                                                                                                                                                                                                                                                                                                                                                                                                                                                                                                                                                                                                                ",
"                                                                                                                                                                                                                                                                                                                                                                                                                                                                                                                                                                                                                                                                                                                                                                                                                                                                                                                                                                                                                                                                                                                                                                                                                                                                                                                                ",
"                                                                                                                                                                                                                                                                                                                                                                                                                                                                                                                                                                                                                                                                                                                                                                                                                                                                                                                                                                                                                                                                                                                                                                                                                                                                                                                                ",
"                                                                                                                                                                                                                                                                                                                                                                                                                                                                                                                                                                                                                                                                                                                                                                                                                                                                                                                                                                                                                                                                                                                                                                                                                                                                                                                                ",
"                                                                                                                                                                                                                                                                                                                                                                                                                                                                                                                                                                                                                                                                                                                                                                                                                                                                                                                                                                                                                                                                                                                                                                                                                                                                                                                                ",
"                                                                                                                                                                                                                                                                                                                                                                                                                                                                                                                                                                                                                                                                                                                                                                                                                                                                                                                                                                                                                                                                                                                                                                                                                                                                                                                                ",
"                                                                                                                                                                                                                                                                                                                                                                                                                                                                                                                                                                                                                                                                                                                                                                                                                                                                                                                                                                                                                                                                                                                                                                                                                                                                                                                                ",
"                                                                                                                                                                                                                                                                                                                                                                                                                                                                                                                                                                                                                                                                                                                                                                                                                                                                                                                                                                                                                                                                                                                                                                                                                                                                                                                                ",
"                                                                                                                                                                                                                                                                                                                                                                                                                                                                                                                                                                                                                                                                                                                                                                                                                                                                                                                                                                                                                                                                                                                                                                                                                                                                                                                                ",
"                                                                                                                                                                                                                                                                                                                                                                                                                                                                                                                                                                                                                                                                                                                                                                                                                                                                                                                                                                                                                                                                                                                                                                                                                                                                                                                                ",
"                                                                                                                                                                                                                                                                                                                                                                                                                                                                                                                                                                                                                                                                                                                                                                                                                                                                                                                                                                                                                                                                                                                                                                                                                                                                                                                                ",
"                                                                                                                                                                                                                                                                                                                                                                                                                                                                                                                                                                                                                                                                                                                                                                                                                                                                                                                                                                                                                                                                                                                                                                                                                                                                                                                                ",
"                                                                                                                                                                                                                                                                                                                                                                                                                                                                                                                                                                                                                                                                                                                                                                                                                                                                                                                                                                                                                                                                                                                                                                                                                                                                                                                                ",
"                                                                                                                                                                                                                                                                                                                                                                                                                                                                                                                                                                                                                                                                                                                                                                                                                                                                                                                                                                                                                                                                                                                                                                                                                                                                                                                                ",
"                                                                                                                                                                                                                                                                                                                                                                                                                                                                                                                                                                                                                                                                                                                                                                                                                                                                                                                                                                                                                                                                                                                                                                                                                                                                                                                                ",
"                                                                                                                                                                                                                                                                                                                                                                                                                                                                                                                                                                                                                                                                                                                                                                                                                                                                                                                                                                                                                                                                                                                                                                                                                                                                                                                                ",
"                                                                                                                                                                                                                                                                                                                                                                                                                                                                                                                                                                                                                                                                                                                                                                                                                                                                                                                                                                                                                                                                                                                                                                                                                                                                                                                                ",
"                                                                                                                                                                                                                                                                                                                                                                                                                                                                                                                                                                                                                                                                                                                                                                                                                                                                                                                                                                                                                                                                                                                                                                                                                                                                                                                                ",
"                                                                                                                                                                                                                                                                                                                                                                                                                                                                                                                                                                                                                                                                                                                                                                                                                                                                                                                                                                                                                                                                                                                                                                                                                                                                                                                                ",
"                                                                                                                                                                                                                                                                                                                                                                                                                                                                                                                                                                                                                                                                                                                                                                                                                                                                                                                                                                                                                                                                                                                                                                                                                                                                                                                                "
};
