/* XPM */
static char *result[] = {
/* columns rows colors chars-per-pixel */
"640 640 250 2 ",
"   c black",
".  c #1C1D1B",
"X  c #191915",
"o  c #1D180D",
"O  c #231C0C",
"+  c #231E14",
"@  c #1F201E",
"#  c #29230D",
"$  c #342B0B",
"%  c #252214",
"&  c #2B2413",
"*  c #23221D",
"=  c #2A251C",
"-  c #2C2A1D",
";  c #2D2A15",
":  c #322D1C",
">  c #332C15",
",  c #393419",
"<  c #39320E",
"1  c #1E2121",
"2  c #262524",
"3  c #282625",
"4  c #272825",
"5  c #292926",
"6  c #262628",
"7  c #292728",
"8  c #27292A",
"9  c #2A2A29",
"0  c #312E22",
"q  c #312E2C",
"w  c #2E312C",
"e  c #343224",
"r  c #33332C",
"t  c #3A3A2D",
"y  c #393729",
"u  c #2E2E32",
"i  c #252E36",
"p  c #302F34",
"a  c #2E3134",
"s  c #2C343A",
"d  c #28343A",
"f  c #323335",
"g  c #353934",
"h  c #3A3B34",
"j  c #34353A",
"k  c #35393D",
"l  c #3A3B3D",
"z  c #393737",
"x  c #211F21",
"c  c #433A19",
"v  c #45380E",
"b  c #473B25",
"n  c #453E36",
"m  c #3E413B",
"M  c #4B431A",
"N  c #55491B",
"B  c #5A501B",
"V  c #795C1E",
"C  c #66541B",
"Z  c #4C4226",
"A  c #5B4B2C",
"S  c #554727",
"D  c #5C5325",
"F  c #524934",
"G  c #675828",
"H  c #7B5E24",
"J  c #7B5F29",
"K  c #725728",
"L  c #675535",
"P  c #6C5634",
"I  c #6C622C",
"U  c #7D6026",
"Y  c #7C6029",
"T  c #75682C",
"R  c #776936",
"E  c #7D7237",
"W  c #706631",
"Q  c #7D621E",
"!  c #363B42",
"~  c #3B3D41",
"^  c #353944",
"/  c #2E3A42",
"(  c #3E4145",
")  c #3A444B",
"_  c #3F4C53",
"`  c #414345",
"'  c #42454A",
"]  c #46494D",
"[  c #494A4E",
"{  c #474947",
"}  c #4A4E52",
"|  c #454C52",
" . c #4D5155",
".. c #4C545A",
"X. c #515455",
"o. c #52565A",
"O. c #56595D",
"+. c #595A5C",
"@. c #565956",
"#. c #50514E",
"$. c #756748",
"%. c #595D61",
"&. c #565C61",
"*. c #5C6265",
"=. c #5E6469",
"-. c #5C666C",
";. c #5F6D74",
":. c #61666B",
">. c #64696D",
",. c #676967",
"<. c #666D71",
"1. c #696E71",
"2. c #6B7478",
"3. c #757877",
"4. c #6F716E",
"5. c #635E53",
"6. c #413F42",
"7. c #86661E",
"8. c #836424",
"9. c #896924",
"0. c #86692C",
"q. c #896B2D",
"w. c #846527",
"e. c #846C33",
"r. c #896C33",
"t. c #86793A",
"y. c #9C7A39",
"u. c #9A7836",
"i. c #8C752B",
"p. c #9D7A3A",
"a. c #8B7847",
"s. c #7D827D",
"d. c #8D813C",
"f. c #94853C",
"g. c #9B8C36",
"h. c #AD953C",
"j. c #D6BB36",
"k. c #D8BC37",
"l. c #D5B43D",
"z. c #D7BB39",
"x. c #D8BC3A",
"c. c #D7B53B",
"v. c #D1AF3B",
"b. c #C39F3E",
"n. c #DAC03B",
"m. c #938542",
"M. c #998B46",
"N. c #958747",
"B. c #A7974A",
"V. c #BD9A45",
"C. c #B89B4A",
"Z. c #A89953",
"A. c #B99959",
"S. c #A58B51",
"D. c #B8A64B",
"F. c #BEAB53",
"G. c #B8A655",
"H. c #B0A453",
"J. c #97967A",
"K. c #9B966C",
"L. c #B89964",
"P. c #A7946F",
"I. c #B5AD70",
"U. c #9FA176",
"Y. c #C39C4C",
"T. c #CA9D4E",
"R. c #C49C46",
"E. c #C69B52",
"W. c #CB9E51",
"Q. c #C59E5B",
"!. c #D19F4F",
"~. c #CBA545",
"^. c #CDA944",
"/. c #C4A14C",
"(. c #CCA24D",
"). c #CDA949",
"_. c #D3AC46",
"`. c #D2AC49",
"'. c #D1A74C",
"]. c #CBB649",
"[. c #D5B343",
"{. c #D5BC43",
"}. c #D9BC42",
"|. c #D5BD4B",
" X c #D8B748",
".X c #CCA152",
"XX c #C6A758",
"oX c #D0A354",
"OX c #C8B658",
"+X c #D4BC55",
"@X c #CBA562",
"#X c #C8A766",
"$X c #C9B765",
"%X c #D0B06A",
"&X c #EBB16C",
"*X c #E8B463",
"=X c #E9B675",
"-X c #D5AD56",
";X c #DAC24C",
":X c #D7C149",
">X c #DBC353",
",X c #D9C357",
"<X c #CEC056",
"1X c #E1C859",
"2X c #D8C565",
"3X c #E2CB66",
"4X c #737C82",
"5X c #7B8488",
"6X c #7F8A90",
"7X c #888C8A",
"8X c #8D928C",
"9X c #94968A",
"0X c #8C9495",
"qX c #8D9A9C",
"wX c #929592",
"eX c #959A96",
"rX c #989D9A",
"tX c #848D92",
"yX c #9CA19D",
"uX c #ADAE8D",
"iX c #939EA4",
"pX c #8E9CA1",
"aX c #96A1A6",
"sX c #9AA6AB",
"dX c #9BA9AC",
"fX c #99A4A6",
"gX c #9BADB3",
"hX c #97ABB1",
"jX c #9EB0B6",
"kX c #A2ADAD",
"lX c #A4A8A5",
"zX c #A2ADB3",
"xX c #A5B3B7",
"cX c #B6B7B7",
"vX c #A8B1AB",
"bX c #A19B82",
"nX c #DBDDDD",
"mX c #D6D8D7",
"MX c #CBCCCB",
"NX c #DEE0DF",
"BX c #E0E2DF",
"VX c #DFE1E1",
"CX c #E2E3E2",
"ZX c #E9EAE9",
"AX c gray99",
"SX c #F4F4F4",
"DX c #EEF0EF",
"FX c #DCDEE0",
"GX c #C3BEAD",
"HX c None",
/* pixels */
"                                                                                                                                                                                                                                                                                                                                                                                                                                                                                                                                                                                                                                                                                                                                                                                                                                                                                                                                                                                                                                                                                                                                                                                                                                                                                                                                ",
"                                                                                                                                                                                                                                                                                                                                                                                                                                                                                                                                                                                                                                                                                                                                                                                                                                                                                                                                                                                                                                                                                                                                                                                                                                                                                                                                ",
"                                                                                                                                                                                                                                                                                                                                                                                                                                                                                                                                                                                                                                                                                                                                                                                                                                                                                                                                                                                                                                                                                                                                                                                                                                                                                                                                ",
"                                                                                                                                                                                                                                                                                                                                                                                                                                                                                                                                                                                                                                                                                                                                                                                                                                                                                                                                                                                                                                                                                                                                                                                                                                                                                                                                ",
"                                                                                                                                                                                                                                                                                                                                                                                                                                                                                                                                                                                                                                                                                                                                                                                                                                                                                                                                                                                                                                                                                                                                                                                                                                                                                                                                ",
"                                                                                                                                                                                                                                                                                                                                                                                                                                                                                                                                                                                                                                                                                                                                                                                                                                                                                                                                                                                                                                                                                                                                                                                                                                                                                                                                ",
"                                                                                                                                                                                                                                                                                                                                                                                                                                                                                                                                                                                                                                                                                                                                                                                                                                                                                                                                                                                                                                                                                                                                                                                                                                                                                                                                ",
"                                                                                                                                                                                                                                                                                                                                                                                                                                                                                                                                                                                                                                                                                                                                                                                                                                                                                                                                                                                                                                                                                                                                                                                                                                                                                                                                ",
"                                                                                                                                                                                                                                                                                                                                                                                                                                                                                                                                                                                                                                                                                                                                                                                                                                                                                                                                                                                                                                                                                                                                                                                                                                                                                                                                ",
"                                                                                                                                                                                                                                                                                                                                                                                                                                                                                                                                                                                                                                                                                                                                                                                                                                                                                                                                                                                                                                                                                                                                                                                                                                                                                                                                ",
"                                                                                                                                                                                                                                                                                                                                                                                                                                                                                                                                                                                                                                                                                                                                                                                                                                                                                                                                                                                                                                                                                                                                                                                                                                                                                                                                ",
"                                                                                                                                                                                                                                                                                                                                                                                                                                                                                                                                                                                                                                                                                                                                                                                                                                                                                                                                                                                                                                                                                                                                                                                                                                                                                                                                ",
"                                                                                                                                                                                                                                                                                                                                                                                                                                                                                                                                                                                                                                                                                                                                                                                                                                                                                                                                                                                                                                                                                                                                                                                                                                                                                                                                ",
"                                                                                                                                                                                                                                                                                                                                                                                                                                                                                                                                                                                                                                                                                                                                                                                                                                                                                                                                                                                                                                                                                                                                                                                                                                                                                                                                ",
"                                                                                                                                                                                                                                                                                                                                                                                                                                                                                                                                                                                                                                                                                                                                                                                                                                                                                                                                                                                                                                                                                                                                                                                                                                                                                                                                ",
"                                                                                                                                                                                                                                                                                                                                                                                                                                                                                                                                                                                                                                                                                                                                                                                                                                                                                                                                                                                                                                                                                                                                                                                                                                                                                                                                ",
"                                                                                                                                                                                                                                                                                                                                                                                                                                                                                                                                                                                                                                                                                                                                                                                                                                                                                                                                                                                                                                                                                                                                                                                                                                                                                                                                ",
"                                                                                                                                                                                                                                                                                                                                                                                                                                                                                                                                                                                                                                                                                                                                                                                                                                                                                                                                                                                                                                                                                                                                                                                                                                                                                                                                ",
"                                                                                                                                                                                                                                                                                                                                                                                                                                                                                                                                                                                                                                                                                                                                                                                                                                                                                                                                                                                                                                                                                                                                                                                                                                                                                                                                ",
"                                                                                                                                                                                                                                                                                                                                                                                                                                                                                                                                                                                                                                                                                                                                                                                                                                                                                                                                                                                                                                                                                                                                                                                                                                                                                                                                ",
"                                                                                                                                                                                                                                                                                                                                                                                                                                                                                                                                                                                                                                                                                                                                                                                                                                                                                                                                                                                                                                                                                                                                                                                                                                                                                                                                ",
"                                                                                                                                                                                                                                                                                                                                                                                                                                                                                                                                                                                                                                                                                                                                                                                                                                                                                                                                                                                                                                                                                                                                                                                                                                                                                                                                ",
"                                                                                                                                                                                                                                                                                                                                                                                                                                                                                                                                                                                                                                                                                                                                                                                                                                                                                                                                                                                                                                                                                                                                                                                                                                                                                                                                ",
"                                                                                                                                                                                                                                                                                                                                                                                                                                                                                                                                                                                                                                                                                                                                                                                                                                                                                                                                                                                                                                                                                                                                                                                                                                                                                                                                ",
"                                                                                                                                                                                                                                                                                                                                                                                                                                                                                                                                                                                                                                                                                                                                                                                                                                                                                                                                                                                                                                                                                                                                                                                                                                                                                                                                ",
"                                                                                                                                                                                                                                                                                                                                                                                                                                                                                                                                                                                                                                                                                                                                                                                                                                                                                                                                                                                                                                                                                                                                                                                                                                                                                                                                ",
"                                                                                                                                                                                                                                                                                                                                                                                                                                                                                                                                                                                                                                                                                                                                                                                                                                                                                                                                                                                                                                                                                                                                                                                                                                                                                                                                ",
"                                                                                                                                                                                                                                                                                                                                                                                                                                                                                                                                                                                                                                                                                                                                                                                                                                                                                                                                                                                                                                                                                                                                                                                                                                                                                                                                ",
"                                                                                                                                                                                                                                                                                                                                                                                                                                                                                                                                                                                                                                                                                                                                                                                                                                                                                                                                                                                                                                                                                                                                                                                                                                                                                                                                ",
"                                                                                                                                                                                                                                                                                                                                                                                                                                                                                                                                                                                                                                                                                                                                                                                                                                                                                                                                                                                                                                                                                                                                                                                                                                                                                                                                ",
"                                                                                                                                                                                                                                                                                                                                                                                                                                                                                                                                                                                                                                                                                                                                                                                                                                                                                                                                                                                                                                                                                                                                                                                                                                                                                                                                ",
"                                                                                                                                                                                                                                                                                                                                                                                                                                                                                                                                                                                                                                                                                                                                                                                                                                                                                                                                                                                                                                                                                                                                                                                                                                                                                                                                ",
"                                                                                                                                                                                                                                                                                                                                                                                                                                                                                                                                                                                                                                                                                                                                                                                                                                                                                                                                                                                                                                                                                                                                                                                                                                                                                                                                ",
"                                                                                                                                                                                                                                                                                                                                                                                                                                                                                                                                                                                                                                                                                                                                                                                                                                                                                                                                                                                                                                                                                                                                                                                                                                                                                                                                ",
"                                                                                                                                                                                                                                                                                                                                                                                                                                                                                                                                                                                                                                                                                                                                                                                                                                                                                                                                                                                                                                                                                                                                                                                                                                                                                                                                ",
"                                                                                                                                                                                                                                                                                                                                                                                                                                                                                                                                                                                                                                                                                                                                                                                                                                                                                                                                                                                                                                                                                                                                                                                                                                                                                                                                ",
"                                                                                                                                                                                                                                                                                                                                                                                                                                                                                                                                                                                                                                                                                                                                                                                                                                                                                                                                                                                                                                                                                                                                                                                                                                                                                                                                ",
"                                                                                                                                                                                                                                                                                                                                                                                                                                                                                                                                                                                                                                                                                                                                                                                                                                                                                                                                                                                                                                                                                                                                                                                                                                                                                                                                ",
"                                                                                                                                                                                                                                                                                                                                                                                                                                                                                                                                                                                                                                                                                                                                                                                                                                                                                                                                                                                                                                                                                                                                                                                                                                                                                                                                ",
"                                                                                                                                                                                                                                                                                                                                                                                                                                                                                                                                                                                                                                                                                                                                                                                                                                                                                                                                                                                                                                                                                                                                                                                                                                                                                                                                ",
"                                                                                                                                                                                                                                                                                                                                                                                                                                                                                                                                                                                                                                                                                                                                                                                                                                                                                                                                                                                                                                                                                                                                                                                                                                                                                                                                ",
"                                                                                                                                                                                                                                                                                                                                                                                                                                                                                                                                                                                                                                                                                                                                                                                                                                                                                                                                                                                                                                                                                                                                                                                                                                                                                                                                ",
"                                                                                                                                                                                                                                                                                                                                                                                                                                                                                                                                                                                                                                                                                                                                                                                                                                                                                                                                                                                                                                                                                                                                                                                                                                                                                                                                ",
"                                                                                                                                                                                                                                                                                                                                                                                                                                                                                                                                                                                                                                                                                                                                                                                                                                                                                                                                                                                                                                                                                                                                                                                                                                                                                                                                ",
"                                                                                                                                                                                                                                                                                                                                                                                                                                                                                                                                                                                                                                                                                                                                                                                                                                                                                                                                                                                                                                                                                                                                                                                                                                                                                                                                ",
"                                                                                                                                                                                                                                                                                                                                                                                                                                                                                                                                                                                                                                                                                                                                                                                                                                                                                                                                                                                                                                                                                                                                                                                                                                                                                                                                ",
"                                                                                                                                                                                                                                                                                                                                                                                                                                                                                                                                                                                                                                                                                                                                                                                                                                                                                                                                                                                                                                                                                                                                                                                                                                                                                                                                ",
"                                                                                                                                                                                                                                                                                                                                                                                                                                                                                                                                                                                                                                                                                                                                                                                                                                                                                                                                                                                                                                                                                                                                                                                                                                                                                                                                ",
"                                                                                                                                                                                                                                                                                                                                                                                                                                                                                                                                                                                                                                                                                                                                                                                                                                                                                                                                                                                                                                                                                                                                                                                                                                                                                                                                ",
"                                                                                                                                                                                                                                                                                                                                                                                                                                                                                                                                                                                                                                                                                                                                                                                                                                                                                                                                                                                                                                                                                                                                                                                                                                                                                                                                ",
"                                                                                                                                                                                                                                                                                                                                                                                                                                                                                                                                                                                                                                                                                                                                                                                                                                                                                                                                                                                                                                                                                                                                                                                                                                                                                                                                ",
"                                                                                                                                                                                                                                                                                                                                                                                                                                                                                                                                                                                                                                                                                                                                                                                                                                                                                                                                                                                                                                                                                                                                                                                                                                                                                                                                ",
"                                                                                                                                                                                                                                                                                                                                                                                                                                                                                                                                                                                                                                                                                                                                                                                                                                                                                                                                                                                                                                                                                                                                                                                                                                                                                                                                ",
"                                                                                                                                                                                                                                                                                                                                                                                                                                                                                                                                                                                                                                                                                                                                                                                                                                                                                                                                                                                                                                                                                                                                                                                                                                                                                                                                ",
"                                                                                                                                                                                                                                                                                                                                                                                                                                                                                                                                                                                                                                                                                                                                                                                                                                                                                                                                                                                                                                                                                                                                                                                                                                                                                                                                ",
"                                                                                                                                                                                                                                                                                                                                                                                                                                                                                                                                                                                                                                                                                                                                                                                                                                                                                                                                                                                                                                                                                                                                                                                                                                                                                                                                ",
"                                                                                                                                                                                                                                                                                                                                                                                                                                                                                                                                                                                                                                                                                                                                                                                                                                                                                                                                                                                                                                                                                                                                                                                                                                                                                                                                ",
"                                                                                                                                                                                                                                                                                                                                                                                                                                                                                                                                                                                                                                                                                                                                                                                                                                                                                                                                                                                                                                                                                                                                                                                                                                                                                                                                ",
"                                                                                                                                                                                                                                                                                                                                                                                                                                                                                                                                                                                                                                                                                                                                                                                                                                                                                                                                                                                                                                                                                                                                                                                                                                                                                                                                ",
"                                                                                                                                                                                                                                                                                                                                                                                                                                                                                                                                                                                                                                                                                                                                                                                                                                                                                                                                                                                                                                                                                                                                                                                                                                                                                                                                ",
"                                                                                                                                                                                                                                                                                                                                                                                                                                                                                                                                                                                                                                                                                                                                                                                                                                                                                                                                                                                                                                                                                                                                                                                                                                                                                                                                ",
"                                                                                                                                                                                                                                                                                                                                                                                                                                                                                                                                                                                                                                                                                                                                                                                                                                                                                                                                                                                                                                                                                                                                                                                                                                                                                                                                ",
"                                                                                                                                                                                                                                                                                                                                                                                                                                                                                                                                                                                                                                                                                                                                                                                                                                                                                                                                                                                                                                                                                                                                                                                                                                                                                                                                ",
"                                                                                                                                                                                                                                                                                                                                                                                                                                                                                                                                                                                                                                                                                                                                                                                                                                                                                                                                                                                                                                                                                                                                                                                                                                                                                                                                ",
"                                                                                                                                                                                                                                                                                                                                                                                                                                                                                                                                                                                                                                                                                                                                                                                                                                                                                                                                                                                                                                                                                                                                                                                                                                                                                                                                ",
"                                                                                                                                                                                                                                                                                                                                                                                                                                                                                                                                                                                                                                                                                                                                                                                                                                                                                                                                                                                                                                                                                                                                                                                                                                                                                                                                ",
"                                                                                                                                                                                                                                                                                                                                                                                                                                                                                                                                                                                                                                                                                                                                                                                                                                                                                                                                                                                                                                                                                                                                                                                                                                                                                                                                ",
"                                                                                                                                                                                                                                                                                                                                                                                                                                                                                                                                                                                                                                                                                                                                                                                                                                                                                                                                                                                                                                                                                                                                                                                                                                                                                                                                ",
"                                                                                                                                                                                                                                                                                                                                                                                                                                                                                                                                                                                                                                                                                                                                                                                                                                                                                                                                                                                                                                                                                                                                                                                                                                                                                                                                ",
"                                                                                                                                                                                                                                                                                                                                                                                                                                                                                                                                                                                                                                                                                                                                                                                                                                                                                                                                                                                                                                                                                                                                                                                                                                                                                                                                ",
"                                                                                                                                                                                                                                                                                                                                                                                                                                                                                                                                                                                                                                                                                                                                                                                                                                                                                                                                                                                                                                                                                                                                                                                                                                                                                                                                ",
"                                                                                                                                                                                                                                                                                                                                                                                                                                                                                                                                                                                                                                                                                                                                                                                                                                                                                                                                                                                                                                                                                                                                                                                                                                                                                                                                ",
"                                                                                                                                                                                                                                                                                                                                                                                                                                                                                                                                                                                                                                                                                                                                                                                                                                                                                                                                                                                                                                                                                                                                                                                                                                                                                                                                ",
"                                                                                                                                                                                                                                                                                                                                                                                                                                                                                                                                                                                                                                                                                                                                                                                                                                                                                                                                                                                                                                                                                                                                                                                                                                                                                                                                ",
"                                                                                                                                                                                                                                                                                                                                                                                                                                                                                                                                                                                                                                                                                                                                                                                                                                                                                                                                                                                                                                                                                                                                                                                                                                                                                                                                ",
"                                                                                                                                                                                                                                                                                                                                                                                                                                                                                                                                                                                                                                                                                                                                                                                                                                                                                                                                                                                                                                                                                                                                                                                                                                                                                                                                ",
"                                                                                                                                                                                                                                                                                                                                                                                                                                                                                                                                                                                                                                                                                                                                                                                                                                                                                                                                                                                                                                                                                                                                                                                                                                                                                                                                ",
"                                                                                                                                                                                                                                                                                                                                                                                                                                                                                                                                                                                                                                                                                                                                                                                                                                                                                                                                                                                                                                                                                                                                                                                                                                                                                                                                ",
"                                                                                                                                                                                                                                                                                                                                                                                                                                                                                                                                                                                                                                                                                                                                                                                                                                                                                                                                                                                                                                                                                                                                                                                                                                                                                                                                ",
"                                                                                                                                                                                                                                                                                                                                                                                                                                                                                                                                                                                                                                                                                                                                                                                                                                                                                                                                                                                                                                                                                                                                                                                                                                                                                                                                ",
"                                                                                                                                                                                                                                                                                                                                                                                                                                                                                                                                                                                                                                                                                                                                                                                                                                                                                                                                                                                                                                                                                                                                                                                                                                                                                                                                ",
"                                                                                                                                                                                                                                                                                                                                                                                                                                                                                                                                                                                                                                                                                                                                                                                                                                                                                                                                                                                                                                                                                                                                                                                                                                                                                                                                ",
"                                                                                                                                                                                                                                                                                                                                                                                                                                                                                                                                                                                                                                                                                                                                                                                                                                                                                                                                                                                                                                                                                                                                                                                                                                                                                                                                ",
"                                                                                                                                                                                                                                                                                                                                                                                                                                                                                                                                                                                                                                                                                                                                                                                                                                                                                                                                                                                                                                                                                                                                                                                                                                                                                                                                ",
"                                                                                                                                                                                                                                                                                                                                                                                                                                                                                                                                                                                                                                                                                                                                                                                                                                                                                                                                                                                                                                                                                                                                                                                                                                                                                                                                ",
"                                                                                                                                                                                                                                                                                                                                                                                                                                                                                                                                                                                                                                                                                                                                                                                                                                                                                                                                                                                                                                                                                                                                                                                                                                                                                                                                ",
"                                                                                                                                                                                                                                                                                                                                                                                                                                                                                                                                                                                                                                                                                                                                                                                                                                                                                                                                                                                                                                                                                                                                                                                                                                                                                                                                ",
"                                                                                                                                                                                                                                                                                                                                                                                                                                                                                                                                                                                                                                                                                                                                                                                                                                                                                                                                                                                                                                                                                                                                                                                                                                                                                                                                ",
"                                                                                                                                                                                                                                                                                                                                                                                                                                                                                                                                                                                                                                                                                                                                                                                                                                                                                                                                                                                                                                                                                                                                                                                                                                                                                                                                ",
"                                                                                                                                                                                                                                                                                                                                                                                                                                                                                                                                                                                                                                                                                                                                                                                                                                                                                                                                                                                                                                                                                                                                                                                                                                                                                                                                ",
"                                                                                                                                                                                                                                                                                                                                                                                                                                                                                                                                                                                                                                                                                                                                                                                                                                                                                                                                                                                                                                                                                                                                                                                                                                                                                                                                ",
"                                                                                                                                                                                                                                                                                                                                                                                                                                                                                                                                                                                                                                                                                                                                                                                                                                                                                                                                                                                                                                                                                                                                                                                                                                                                                                                                ",
"                                                                                                                                                                                                                                                                                                                                                                                                                                                                                                                                                                                                                                                                                                                                                                                                                                                                                                                                                                                                                                                                                                                                                                                                                                                                                                                                ",
"                                                                                                                                                                                                                                                                                                                                                                                                                                                                                                                                                                                                                                                                                                                                                                                                                                                                                                                                                                                                                                                                                                                                                                                                                                                                                                                                ",
"                                                                                                                                                                                                                                                                                                                                                                                                                                                                                                                                                                                                                                                                                                                                                                                                                                                                                                                                                                                                                                                                                                                                                                                                                                                                                                                                ",
"                                                                                                                                                                                                                                                                                                                                                                                                                                                                                                                                                                                                                                                                                                                                                                                                                                                                                                                                                                                                                                                                                                                                                                                                                                                                                                                                ",
"                                                                                                                                                                                                                                                                                                                                                                                                                                                                                                                                                                                                                                                                                                                                                                                                                                                                                                                                                                                                                                                                                                                                                                                                                                                                                                                                ",
"                                                                                                                                                                                                                                                                                                                                                                                                                                                                                                                                                                                                                                                                                                                                                                                                                                                                                                                                                                                                                                                                                                                                                                                                                                                                                                                                ",
"                                                                                                                                                                                                                                                                                                                                                                                                                                                                                                                                                                                                                                                                                                                                                                                                                                                                                                                                                                                                                                                                                                                                                                                                                                                                                                                                ",
"                                                                                                                                                                                                                                                                                                                                                                                                                                                                                                                                                                                                                                                                                                                                                                                                                                                                                                                                                                                                                                                                                                                                                                                                                                                                                                                                ",
"                                                                                                                                                                                                                                                                                                                                                                                                                                                                                                                                                                                                                                                                                                                                                                                                                                                                                                                                                                                                                                                                                                                                                                                                                                                                                                                                ",
"                                                                                                                                                                                                                                                                                                                                                                                                                                                                                                                                                                                                                                                                                                                                                                                                                                                                                                                                                                                                                                                                                                                                                                                                                                                                                                                                ",
"                                                                                                                                                                                                                                                                                                                                                                                                                                                                                                                                                                                                                                                                                                                                                                                                                                                                                                                                                                                                                                                                                                                                                                                                                                                                                                                                ",
"                                                                                                                                                                                                                                                                                                                                                                                                                                                                                                                                                                                                                                                                                                                                                                                                                                                                                                                                                                                                                                                                                                                                                                                                                                                                                                                                ",
"                                                                                                                                                                                                                                                                                                                                                                                                                                                                                                                                                                                                                                                                                                                                                                                                                                                                                                                                                                                                                                                                                                                                                                                                                                                                                                                                ",
"                                                                                                                                                                                                                                                                                                                                                                                                                                                                                                                                                                                                                                                                                                                                                                                                                                                                                                                                                                                                                                                                                                                                                                                                                                                                                                                                ",
"                                                                                                                                                                                                                                                                                                                                                                                                                                                                                                                                                                                                                                                                                                                                                                                                                                                                                                                                                                                                                                                                                                                                                                                                                                                                                                                                ",
"                                                                                                                                                                                                                                                                                                                                                                                                                                                                                                                                                                                                                                                                                                                                                                                                                                                                                                                                                                                                                                                                                                                                                                                                                                                                                                                                ",
"                                                                                                                                                                                                                                                                                                                                                                                                                                                                                                                                                                                                                                                                                                                                                                                                                                                                                                                                                                                                                                                                                                                                                                                                                                                                                                                                ",
"                                                                                                                                                                                                                                                                                                                                                                                                                                                                                                                                                                                                                                                                                                                                                                                                                                                                                                                                                                                                                                                                                                                                                                                                                                                                                                                                ",
"                                                                                                                                                                                                                                                                                                                                                                                                                                                                                                                                                                                                                                                                                                                                                                                                                                                                                                                                                                                                                                                                                                                                                                                                                                                                                                                                ",
"                                                                                                                                                                                                                                                                                                                                                                                                                                                                                                                                                                                                                                                                                                                                                                                                                                                                                                                                                                                                                                                                                                                                                                                                                                                                                                                                ",
"                                                                                                                                                                                                                                                                                                                                                                                                                                                                                                                                                                                                                                                                                                                                                                                                                                                                                                                                                                                                                                                                                                                                                                                                                                                                                                                                ",
"                                                                                                                                                                                                                                                                                                                                                                                                                                                                                                                                                                                                                                                                                                                                                                                                                                                                                                                                                                                                                                                                                                                                                                                                                                                                                                                                ",
"                                                                                                                                                                                                                                                                                                                                                                                                                                                                                                                                                                                                                                                                                                                                                                                                                                                                                                                                                                                                                                                                                                                                                                                                                                                                                                                                ",
"                                                                                                                                                                                                                                                                                                                                                                                                                                                                                                                                                                                                                                                                                                                                                                                                                                                                                                                                                                                                                                                                                                                                                                                                                                                                                                                                ",
"                                                                                                                                                                                                                                                                                                                                                                                                                                                                                                                                                                                                                                                                                                                                                                                                                                                                                                                                                                                                                                                                                                                                                                                                                                                                                                                                ",
"                                                                                                                                                                                                                                                                                                                                                                                                                                                                                                                                                                                                                                                                                                                                                                                                                                                                                                                                                                                                                                                                                                                                                                                                                                                                                                                                ",
"                                                                                                                                                                                                                                                                                                                                                                                                                                                                                                                                                                                                                                                                                                                                                                                                                                                                                                                                                                                                                                                                                                                                                                                                                                                                                                                                ",
"                                                                                                                                                                                                                                                                                                                                                                                                                                                                                                                                                                                                                                                                                                                                                                                                                                                                                                                                                                                                                                                                                                                                                                                                                                                                                                                                ",
"                                                                                                                                                                                                                                                                                                                                                                                                                                                                                                                                                                                                                                                                                                                                                                                                                                                                                                                                                                                                                                                                                                                                                                                                                                                                                                                                ",
"                                                                                                                                                                                                                                                                                                                                                                                                                                                                                                                                                                                                                                                                                                                                                                                                                                                                                                                                                                                                                                                                                                                                                                                                                                                                                                                                ",
"                                                                                                                                                                                                                                                                                                                                                                                                                                                                                                                                                                                                                                                                                                                                                                                                                                                                                                                                                                                                                                                                                                                                                                                                                                                                                                                                ",
"                                                                                                                                                                                                                                                                                                                                                                                                                                                                                                                                                                                                                                                                                                                                                                                                                                                                                                                                                                                                                                                                                                                                                                                                                                                                                                                                ",
"                                                                                                                                                                                                                                                                                                                                                                                                                                                                                                                                                                                                                                                                                                                                                                                                                                                                                                                                                                                                                                                                                                                                                                                                                                                                                                                                ",
"                                                                                                                                                                                                                                                                                                                                                                                                                                                                                                                                                                                                                                                                                                                                                                                                                                                                                                                                                                                                                                                                                                                                                                                                                                                                                                                                ",
"                                                                                                                                                                                                                                                                                                                                                                                                                                                                                                                                                                                                                                                                                                                                                                                                                                                                                                                                                                                                                                                                                                                                                                                                                                                                                                                                ",
"                                                                                                                                                                                                                                                                                                                                                                                                                                                                                                                                                                                                                                                                                                                                                                                                                                                                                                                                                                                                                                                                                                                                                                                                                                                                                                                                ",
"                                                                                                                                                                                                                                                                                                                                                                                                                                                                                                                                                                                                                                                                                                                                                                                                                                                                                                                                                                                                                                                                                                                                                                                                                                                                                                                                ",
"                                                                                                                                                                                                                                                                                                                                                                                                                                                                                                                                                                                                                                                                                                                                                                                                                                                                                                                                                                                                                                                                                                                                                                                                                                                                                                                                ",
"                                                                                                                                                                                                                                                                                                                                                                                                                                                                                                                                                                                                                                                                                                                                                                                                                                                                                                                                                                                                                                                                                                                                                                                                                                                                                                                                ",
"                                                                                                                                                                                                                                                                                                                                                                                                                                                                                                                                                                                                                                                                                                                                                                                                                                                                                                                                                                                                                                                                                                                                                                                                                                                                                                                                ",
"                                                                                                                                                                                                                                                                                                                                                                                                                                                                                                                                                                                                                                                                                                                                                                                                                                                                                                                                                                                                                                                                                                                                                                                                                                                                                                                                ",
"                                                                                                                                                                                                                                                                                                                                                                                                                                                                                                                                                                                                                                                                                                                                                                                                                                                                                                                                                                                                                                                                                                                                                                                                                                                                                                                                ",
"                                                                                                                                                                                                                                                                                                                                                                                                                                                                                                                                                                                                                                                                                                                                                                                                                                                                                                                                                                                                                                                                                                                                                                                                                                                                                                                                ",
"                                                                                                                                                                                                                                                                                                                                                                                                                                                                                                                                                                                                                                                                                                                                                                                                                                                                                                                                                                                                                                                                                                                                                                                                                                                                                                                                ",
"                                                                                                                                                                                                                                                                                                                                                                                                                                                                                                                                                                                                                                                                                                                                                                                                                                                                                                                                                                                                                                                                                                                                                                                                                                                                                                                                ",
"                                                                                                                                                                                                                                                                                                                                                                                                                                                                                                                                                                                                                                                                                                                                                                                                                                                                                                                                                                                                                                                                                                                                                                                                                                                                                                                                ",
"                                                                                                                                                                                                                                                                                                                                                                                                                                                                                                                                                                                                                                                                                                                                                                                                                                                                                                                                                                                                                                                                                                                                                                                                                                                                                                                                ",
"                                                                                                                                                                                                                                                                                                                                                                                                                                                                                                                                                                                                                                                                                                                                                                                                                                                                                                                                                                                                                                                                                                                                                                                                                                                                                                                                ",
"                                                                                                                                                                                                                                                                                                                                                                                                                                                                                                                                                                                                                                                                                                                                                                                                                                                                                                                                                                                                                                                                                                                                                                                                                                                                                                                                ",
"                                                                                                                                                                                                                                                                                                                                                                                                                                                                                                                                                                                                                                                                                                                                                                                                                                                                                                                                                                                                                                                                                                                                                                                                                                                                                                                                ",
"                                                                                                                                                                                                                                                                                                                                                                                                                                                                                                                                                                                                                                                                                                                                                                                                                                                                                                                                                                                                                                                                                                                                                                                                                                                                                                                                ",
"                                                                                                                                                                                                                                                                                                                                                                                                                                                                                                                                                                                                                                                                                                                                                                                                                                                                                                                                                                                                                                                                                                                                                                                                                                                                                                                                ",
"                                                                                                                                                                                                                                                                                                                                                                                                                                                                                                                                                                                                                                                                                                                                                                                                                                                                                                                                                                                                                                                                                                                                                                                                                                                                                                                                ",
"                                                                                                                                                                                                                                                                                                                                                                                                                                                                                                                                                                                                                                                                                                                                                                                                                                                                                                                                                                                                                                                                                                                                                                                                                                                                                                                                ",
"                                                                                                                                                                                                                                                                                                                                                                                                                                                                                                                                                                                                                                                                                                                                                                                                                                                                                                                                                                                                                                                                                                                                                                                                                                                                                                                                ",
"                                                                                                                                                                                                                                                                                                                                                                                                                                                                                                                                                                                                                                                                                                                                                                                                                                                                                                                                                                                                                                                                                                                                                                                                                                                                                                                                ",
"                                                                                                                                                                                                                                                                                                                                                                                                                                                                                                                                                                                                                                                                                                                                                                                                                                                                                                                                                                                                                                                                                                                                                                                                                                                                                                                                ",
"                                                                                                                                                                                                                                                                                                                                                                                                                                                                                                                                                                                                                                                                                                                                                                                                                                                                                                                                                                                                                                                                                                                                                                                                                                                                                                                                ",
"                                                                                                                                                                                                                                                                                                                                                                                                                                                                                                                                                                                                                                                                                                                                                                                                                                                                                                                                                                                                                                                                                                                                                                                                                                                                                                                                ",
"                                                                                                                                                                                                                                                                                                                                                                                                                                                                                                                                                                                                                                                                                                                                                                                                                                                                                                                                                                                                                                                                                                                                                                                                                                                                                                                                ",
"                                                                                                                                                                                                                                                                                                                                                                                                                                                                                                                                                                                                                                                                                                                                                                                                                                                                                                                                                                                                                                                                                                                                                                                                                                                                                                                                ",
"                                                                                                                                                                                                                                                                                                                                                                                                                                                                                                                                                                                                                                                                                                                                                                                                                                                                                                                                                                                                                                                                                                                                                                                                                                                                                                                                ",
"                                                                                                                                                                                                                                                                                                                                                                                                                                                                                                                                                                                                                                                                                                                                                                                                                                                                                                                                                                                                                                                                                                                                                                                                                                                                                                                                ",
"                                                                                                                                                                                                                                                                                                                                                                                                                                                                                                                                                                                                                                                                                                                                                                                                                                                                                                                                                                                                                                                                                                                                                                                                                                                                                                                                ",
"                                                                                                                                                                                                                                                                                                                                                                                                                                                                                                                                                                                                                                                                                                                                                                                                                                                                                                                                                                                                                                                                                                                                                                                                                                                                                                                                ",
"                                                                                                                                                                                                                                                                                                                                                                                                                                                                                                                                                                                                                                                                                                                                                                                                                                                                                                                                                                                                                                                                                                                                                                                                                                                                                                                                ",
"                                                                                                                                                                                                                                                                                                                                                                                                                                                                                                                                                                                                                                                                                                                                                                                                                                                                                                                                                                                                                                                                                                                                                                                                                                                                                                                                ",
"                                                                                                                                                                                                                                                                                                                                                                                                                                                                                                                                                                                                                                                                                                                                                                                                                                                                                                                                                                                                                                                                                                                                                                                                                                                                                                                                ",
"                                                                                                                                                                                                                                                                                                                                                                                                                                                                                                                                                                                                                                                                                                                                                                                                                                                                                                                                                                                                                                                                                                                                                                                                                                                                                                                                ",
"                                                                                                                                                                                                                                                                                                                                                                                                                                                                                                                                                                                                                                                                                                                                                                                                                                                                                                                                                                                                                                                                                                                                                                                                                                                                                                                                ",
"                                                                                                                                                                                                                                                                                                                                                                                                                                                                                                                                                                                                                                                                                                                                                                                                                                                                                                                                                                                                                                                                                                                                                                                                                                                                                                                                ",
"                                                                                                                                                                                                                                                                                                                                                                                                                                                                                                                                                                                                                                                                                                                                                                                                                                                                                                                                                                                                                                                                                                                                                                                                                                                                                                                                ",
"                                                                                                                                                                                                                                                                                                                                                                                                                                                                                                                                                                                                                                                              HXHXHX          HX      HXHXHXHXHXHXlXHXHXHXlXHXHXHXHXHXHX    HXHXHXHXHXHXHXHXHXHXHXHXHXlXlXlXfXlXfXlXlXlXlXlXHXHXHXHXlXkXHXHXlXlXlXlXlXfXlXlXlXlXyXyXyXyXlXHXfXyXlXyXyXyXrXyXfXrXyXyXeXyXeXrXyXfXlXyXlXfXyXyXiXyXyXfXlXrXyXrXyXeXeXeXlXfXHXHXHXHX                                                                                                                                                                                                                                                                                                                                                                                                                ",
"                                                                                                                                                                                                                                                                                                                                                                                                                                                                                                                                                                                                                                                  3.2 2 4 * 2 9 9 2 4 2 2 * * 2 + 2 2 . + 2 4 5 8 9 4 4 4 4 4 4 4 4 4 3 2 * 2 2 * 4 4 2 4 2 4 2 4 2 4 9 8 9 w r w 9 u r a 9 9 8 9 9 9 9 9 u 9 p f 9 r 9 9 4 5 5 5 w 9 4 * 4 4 w 9 9 9 w 9 q q q w 9 f 9 r 9 4 @ @ @ . . + + 1 + + . + * + 2 q 7 f * + 9 9 2 9 . 4.                                                                                                                                                                                                                                                                                                                                                                                                              ",
"                                                                                                                                                                                                                                                                                                                                                                                                                                                                                                                                                                                                                                                  s.2 9 9 9 q 9 2 9 3 9 9 9 8 9 9 9 3 9 9 6 3 9 9 9 9 9 9 q 9 9 9 9 9 7 9 3 3 9 5 9 9 9 9 9 7 9 8 9 9 9 9 9 9 9 9 9 9 q 9 9 9 4 3 7 7 q 9 9 9 9 9 7 9 9 9 4 9 9 8 9 a 9 9 9 4 9 9 3 3 3 4 4 7 7 9 9 7 9 9 9 9 9 4 4 3 3 7 6 7 7 7 7 9 4 9 4 9 3 9 9 9 3 9 9 9 2 s.                                                                                                                                                                                                                                                                                                                                                                                                              ",
"                                                                                                                                                                                                                                                                                                                                                                                                                                                                                                                                                                                                                                                  3.* 5 9 9 9 5 4 9 5 q 9 9 4 4 5 5 9 9 9 9 9 5 4 4 9 5 9 9 5 9 5 9 5 9 5 9 5 4 9 9 9 9 9 9 9 9 4 9 5 5 9 9 9 9 9 9 9 9 4 5 9 4 5 9 9 9 9 9 9 7 9 9 9 9 9 9 9 9 9 9 9 9 9 9 9 4 5 9 4 5 5 4 7 9 9 9 7 9 9 9 9 9 4 4 4 4 9 7 4 4 7 7 5 5 4 3 9 4 4 4 9 9 4 9 7 2 3.                                                                                                                                                                                                                                                                                                                                                                                                              ",
"                                                                                                                                                                                                                                                                                                                                                                                                                                                                                                                                                                                                                                                  4.+ 9 5 5 5 5 9 5 5 9 9 5 5 3 5 5 5 5 5 5 5 5 5 5 5 5 5 9 9 7 q 5 9 5 5 5 9 5 5 5 5 3 5 9 9 0 5 q 3 5 9 0 5 5 5 5 q 9 q 5 5 5 5 9 q 3 9 9 p 7 9 0 9 5 9 9 5 9 9 9 9 9 8 9 9 8 5 3 5 5 5 5 7 7 7 q 9 7 9 3 9 5 9 5 4 4 5 5 5 5 4 9 5 5 4 4 9 5 4 9 7 9 6 9 9 2 3.                                                                                                                                                                                                                                                                                                                                                                                                              ",
"                                                                                                                                                                                                                                                                                                                                                                                                                                                                                                                                                                                                                                                  4.2 2 9 5 9 5 4 5 5 5 5 3 3 5 9 9 q 5 9 5 5 9 5 9 5 3 3 3 9 0 9 5 5 q 9 5 9 5 9 5 9 q q 5 9 5 5 9 5 q 9 9 9 5 9 5 5 5 5 5 5 9 9 5 9 5 7 7 7 7 9 5 9 9 9 9 9 9 9 9 9 9 5 8 9 4 9 3 5 9 5 9 0 7 7 7 7 7 7 5 4 3 4 5 9 9 3 5 3 5 3 5 9 9 5 3 9 5 4 9 9 3 2 2 7 2 3.                                                                                                                                                                                                                                                                                                                                                                                                              ",
"                                                                                                                                                                                                                                                                                                                                                                                                                                                                                                                                                                                                                                                  3.* 3 - 4 5 5 5 5 5 5 5 5 9 7 5 9 3 5 q 3 5 9 q 3 5 q 9 5 9 9 5 5 5 5 9 3 5 0 3 3 5 9 3 5 5 5 9 5 9 5 5 9 5 q 9 5 5 5 7 9 9 5 q 5 5 5 7 9 9 9 9 9 9 9 9 9 9 5 9 5 9 9 2 8 9 9 5 5 3 5 3 3 3 7 7 7 7 9 9 7 5 9 5 4 3 3 5 5 3 3 3 3 5 3 5 4 4 9 4 9 9 2 9 9 2 1 4.                                                                                                                                                                                                                                                                                                                                                                                                              ",
"                                                                                                                                                                                                                                                                                                                                                                                                                                                                                                                                                                                                                                                  3.4 3 q 5 9 5 5 9 5 5 9 5 7 0 5 5 5 5 5 5 5 9 9 5 5 9 5 5 5 3 5 9 5 5 5 9 7 7 q 5 5 5 5 5 9 5 q 9 5 9 5 5 5 9 5 5 5 9 9 7 0 9 3 5 9 5 9 7 9 9 7 7 9 5 5 5 5 9 9 9 5 9 9 9 9 4 3 5 5 5 5 5 9 9 7 7 9 7 7 9 4 5 9 3 4 4 5 3 5 5 5 4 5 4 3 5 4 5 4 9 6 9 8 2 2 1 3.                                                                                                                                                                                                                                                                                                                                                                                                              ",
"                                                                                                                                                                                                                                                                                                                                                                                                                                                                                                                                                                                                                                                  3.9 9 9 9 5 9 q 3 5 5 5 9 5 9 5 9 3 5 5 9 3 5 5 5 5 5 5 9 5 q 5 5 3 9 5 5 3 5 5 9 5 5 9 5 9 3 5 5 5 5 5 5 5 5 5 5 5 9 5 9 5 5 5 5 7 7 7 7 7 9 9 7 7 9 9 9 9 5 7 9 9 9 9 9 6 8 3 3 9 5 9 3 5 7 9 7 q 7 7 5 4 9 5 5 3 4 5 5 5 3 5 5 9 4 9 5 5 5 9 4 9 6 9 2 2 2 3.                                                                                                                                                                                                                                                                                                                                                                                                              ",
"                                                                                                                                                                                                                                                                                                                                                                                                                                                                                                                                                                                                                                                  3.q 2 9 9 9 9 5 5 9 5 5 5 9 5 5 5 9 5 5 5 q 5 5 9 3 q 5 5 5 5 5 9 5 5 5 9 9 5 5 5 5 9 5 5 5 3 9 9 9 7 9 5 9 9 9 9 5 9 5 5 3 q 9 5 0 5 9 9 9 9 9 9 9 7 7 7 9 9 9 9 9 9 7 9 9 7 q 7 7 9 9 3 9 9 7 7 7 7 5 5 3 4 4 4 4 5 3 5 3 9 3 5 3 5 4 9 5 9 4 9 9 9 7 6 9 9 3.                                                                                                                                                                                                                                                                                                                                                                                                              ",
"                                                                                                                                                                                                                                                                                                                                                                                                                                                                                                                                                                                                                                                  J.u 9 9 9 9 5 9 5 5 5 5 5 0 5 5 7 7 5 7 7 5 5 3 q 9 9 5 9 9 7 9 5 5 5 9 3 5 0 5 3 9 7 9 5 9 q 7 3 9 5 9 5 5 5 5 5 9 7 5 7 9 5 5 9 5 9 9 9 9 9 9 9 9 7 9 7 9 7 7 9 7 7 7 7 7 7 7 9 7 7 7 9 7 5 4 5 3 5 5 3 3 5 5 4 3 9 3 5 5 5 9 5 3 5 5 9 5 9 3 9 9 9 6 2 9 4 3.                                                                                                                                                                                                                                                                                                                                                                                                              ",
"                                                                                                                                                                                                                                                                                                                                                                                                                                                                                                                                                                                                                                                  7X7 6 4 9 9 4 5 9 q 3 9 5 7 3 5 0 3 5 5 5 9 5 5 5 5 5 5 9 5 7 0 5 9 5 5 5 7 7 9 5 3 7 0 5 7 7 0 7 7 0 5 9 5 4 5 5 0 7 0 7 3 9 5 5 5 5 9 7 9 9 9 9 7 9 9 9 7 9 7 7 9 7 9 9 7 9 7 7 7 q 7 7 9 5 3 5 3 3 3 5 5 5 3 3 3 3 5 5 5 9 5 5 9 4 5 5 5 5 4 3 7 7 7 2 4 9 3.                                                                                                                                                                                                                                                                                                                                                                                                              ",
"                                                                                                                                                                                                                                                                                                                                                                                                                                                                                                                                                                                                                                                  7Xq 3 9 4 4 3 5 9 9 7 5 3 5 5 5 5 5 5 5 9 5 5 5 5 5 5 9 5 5 5 9 5 9 3 5 7 7 9 5 3 5 5 5 9 9 p 7 7 3 7 4 4 0 w 3 3 3 9 3 q 5 5 5 9 9 4 9 9 9 9 p 9 7 7 7 9 7 7 7 9 9 9 7 9 7 9 7 7 7 9 7 9 7 7 4 5 3 4 3 5 3 3 3 3 3 3 5 5 9 3 5 5 5 4 5 5 3 4 4 4 3 2 7 7 3 6 3.                                                                                                                                                                                                                                                                                                                                                                                                              ",
"                                                                                                                                                                                                                                                                                                                                                                                                                                                                                                                                                                                                                                                HXs.3 2 3 3 4 2 q 3 9 7 4 3 5 5 5 5 3 3 3 5 5 5 5 9 5 9 3 5 5 5 9 5 5 5 5 0 5 5 5 3 9 5 r 9 i i 7 q q 7 w @ @ @ 2 2 3 9 3 3 5 9 5 5 5 4 6 7 7 9 7 7 x + 2 x x 6 x 2 x 7 9 9 7 7 7 9 9 7 7 7 7 7 3 3 3 5 3 * 2 * 5 4 3 3 3 9 9 5 5 5 3 * 2 2 3 0 4 3 2 4 9 7 9 2 3.                                                                                                                                                                                                                                                                                                                                                                                                              ",
"                                                                                                                                                                                                                                                                                                                                                                                                                                                                                                                                                                                                                        HX                  HX  mX3.h h 9 r g g z h F [ { h 9 5 5 5 5 5 9 5 3 3 3 5 3 5 3 5 5 5 3 5 5 5 9 5 5 9 5 9 5 ` 3.4.3.a.3.>.4.,.<.-.;.-.,.#.+ 9 3 5 5 5 5 9 9 4 9 9 9 9 7X3.4.,.,.*.*.,.,.,.4.4.3.4.p p 7 7 7 7 7 7 7 3 3 4 3 q 5.,.,.,.,.5.4.{ 3 5 5 5 5 5 #.#.X.@.@.@.+.#.X.@.+.o.@.+.7XHXHXHXHXkXHXHX                                                                                                                                                                                                                                                                                                                                                                                                ",
"                                                                                                                                                                                                                                                                                                                                                                                                                                                                                                                                                                                                                      ,.,.,.5.X.@.X.#.{ #.X.#.{ { 7XmXcXMXMXMXMXMXmXMXmXmXvX3 3 5 5 9 3 7 q 9 9 9 5 3 5 5 5 3 3 5 3 9 5 5 5 5 9 5 4 * 3.DXZXDXZXDXZXZXCXCXNXNXFXCXvX. 4 3 9 9 3 5 5 9 3 9 9 7 6.nXZXCXNXnXNXNXBXBXnXZXZXZXmXz q 7 7 7 7 7 7 3 3 3 3 3 #.ZXCXCXCXCXCXZX8X3 5 5 9 4 4 MXNXnXCXZXBXBXNXBXCXNXCXZXCXcX4 9 u 4 9 9 4 9 r f l ` m HX                                                                                                                                                                                                                                                                                                                                                                                  ",
"                                                                                                                                                                                                                                                                                                                                                                                                                                                                                                                                                                                                                      9 h f 3 * * * * + 2 3 9 4 * 3.BXnXnXmXnXmXnXmXNXCXnXvXx q 5 7 9 5 5 5 q 5 5 5 5 9 5 5 5 5 5 9 3 7 7 7 7 7 9 3 9 4.ZXCXFXCXVXVXVXVXVXVXVXFXCXyX+ 3 q 3 3 7 7 7 7 7 7 3 q l nXNXBXnXNXnXNXNXnXNXNXBXCXnXz q 7 3 7 7 7 7 7 3 9 4 5 { ZXmXBXmXnXnXVXJ.* 2 3 4 9 4 mXnXnXVXnXnXnXCXNXNXnXBXCXnXcX. 2 7 5 4 3 2 4 9 r r q 2 yX                                                                                                                                                                                                                                                                                                                                                                                  ",
"                                                                                                                                                                                                                                                                                                                                                                                                                                                                                                                                                                                                                      w q 5 5 4 3 3 3 2 3 3 5 3 + 4.VXVXVXnXnXNXnXnXmXNXnXcXx 9 5 0 9 5 5 9 3 3 5 9 5 5 5 9 5 3 3 5 7 7 q 7 7 7 7 6 2 3.ZXFXCXCXVXVXVXVXVXVXVXFXCXcX* 4 5 7 7 7 7 q 7 7 7 0 7 n BXNXBXNXNXNXNXnXNXNXNXCXCXnXf f 7 3 7 3 3 7 3 3 4 4 4 { DXmXBXBXnXnXCXs.2 2 4 5 4 9 mXnXVXnXCXVXCXnXCXNXBXnXCXnXcX+ x 7 4 4 4 9 4 4 9 5 9 8 yX                                                                                                                                                                                                                                                                                                                                                                                  ",
"                                                                                                                                                                                                                                                                                                                                                                                                                                                                                                                                                                                                                      f 9 9 9 5 4 5 4 9 3 4 3 2 + 4.CXnXNXNXnXnXNXNXVXVXBXcX2 q 5 9 5 5 5 5 5 5 5 9 7 9 5 9 5 5 5 3 7 7 q 7 7 7 6 9 8 <.ZXFXCXCXFXVXVXVXVXCXVXVXCXcX2 2 7 7 7 7 q 7 9 7 7 7 7 6.BXNXNXBXNXNXNXNXnXNXnXCXCXmXf 9 7 2 3 7 3 7 7 5 5 4 5 F ZXBXBXBXBXnXCX3.2 3 4 5 4 9 mXNXVXVXnXCXBXCXCXNXNXNXnXnXvX+ 2 3 5 5 4 5 4 4 9 4 9 9 yX                                                                                                                                                                                                                                                                                                                                                                                  ",
"                                                                                                                                                                                                                                                                                                                                                                                                                                                                                                                                                                                                                      9 q 4 5 5 9 4 3 3 9 3 3 6 x 4.CXnXnXnXnXnXmXNXNXNXnXvX2 5 5 3 5 9 5 9 5 5 0 7 5 3 5 3 3 5 5 3 3 7 7 7 9 7 6 6 8 <.ZXCXVXVXVXVXVXVXVXVXCXCXZXcX9 2 7 7 9 9 7 7 7 7 7 7 7 6.BXNXCXBXNXNXNXNXNXNXNXnXnXMX9 7 3 6 7 7 7 7 7 5 5 5 5 F ZXBXnXBXBXNXZX4.3 4 4 9 2 4 mXNXnXVXVXCXCXVXnXCXNXNXBXnXvXX 2 4 9 5 5 4 9 9 9 4 w 4 rX                                                                                                                                                                                                                                                                                                                                                                                  ",
"                                                                                                                                                                                                                                                                                                                                                                                                                                                                                                                                                                                                                    lX9 9 5 5 5 5 9 5 5 3 5 3 3 . 4.CXnXnXnXnXnXNXNXFXmXFXvX4 4 5 3 5 5 9 5 9 5 3 5 4 5 5 3 5 4 4 3 3 7 7 7 9 7 3 3 . 4.nXnXVXZXVXVXVXVXVXVXVXVXZXcX9 9 9 9 9 9 7 7 7 q 7 7 7 l nXnXnXBXnXCXnXnXBXnXBXnXnXMX7 2 2 6 7 7 7 7 3 5 5 5 9 { ZXBXBXBXnXnXCX,.4 4 4 9 3 2 mXnXnXVXVXVXNXCXNXCXnXCXnXnXlX+ 6 7 5 4 9 9 4 9 9 3 9 2 7X                                                                                                                                                                                                                                                                                                                                                                                  ",
"                                                                                                                                                                                                                                                                                                                                                                                                                                                                                                                                                                                                                    yX2 q 3 5 5 5 5 3 5 3 4 3 3 x 4.CXnXnXnXnXnXNXmXFXFXFXkX@ 4 5 9 9 5 0 5 5 3 5 9 5 3 5 9 5 3 5 4 3 7 7 7 7 7 7 3 2 ,.NXnXVXVXVXVXVXVXVXVXVXVXZXcXr 4 9 4 7 7 7 q 7 7 7 7 x p mXnXBXNXBXNXnXNXnXCXNXnXnXMX7 x 2 2 7 7 7 7 9 3 3 5 3 { ZXnXBXBXBXnXBX@.4 4 4 4 3 r MXnXFXVXVXVXCXnXCXnXCXNXnXnXvX* 3 3 9 5 5 5 5 5 4 4 9 2 8X                                                                                                                                                                                                                                                                                                                                                                                  ",
"                                                                                                                                                                                                                                                                                                                                                                                                                                                                                                                                                                                                                    HXw 5 5 5 3 5 5 3 3 3 4 2 3 2 3.VXFXnXFXnXnXNXFXFXmXmXvXX 4 5 9 q 3 9 5 5 5 3 5 7 5 5 9 9 4 5 3 3 3 7 7 9 3 3 3 3 4.CXVXVXVXVXVXVXVXVXVXVXVXZXcXa 4 7 3 7 9 7 7 7 7 7 3 3 n mXNXNXNXNXNXnXNXNXnXnXnXnXMX9 7 x 7 6 7 7 7 3 3 5 5 5 { ZXBXBXBXNXNXZX5.4 4 4 9 3 f MXCXVXVXVXBXCXVXNXBXCXBXnXmXvX2 9 4 5 5 5 5 9 5 4 4 w 2 8X                                                                                                                                                                                                                                                                                                                                                                                  ",
"                                                                                                                                                                                                                                                                                                                                                                                                                                                                                                                                                                                                                    HXr q 4 3 5 5 3 3 4 3 3 4 3 2 2.VXmXmXmXmXFXmXFXFXmXmXxX@ 4 3 5 3 3 7 9 9 3 3 5 3 7 0 3 3 3 3 5 5 4 5 4 4 3 3 4 3 4.CXCXVXVXCXCXZXVXVXZXCXVXZXcX4 9 9 7 7 3 7 7 7 7 3 7 3 n mXnXNXNXNXNXBXnXNXFXNXNXnXMX9 x 7 7 x 7 7 7 5 5 3 3 5 { ZXBXBXBXBXNXZX+.5 4 5 5 4 r MXCXVXVXVXBXNXVXCXnXnXBXnXmXlX2 4 4 4 9 9 9 5 4 4 4 w 2 wX                                                                                                                                                                                                                                                                                                                                                                                  ",
"                                                                                                                                                                                                                                                                                                                                                                                                                                                                                                                                                                                                                    HXf 5 3 4 5 5 3 3 4 4 2 3 3 1 2.VXFXmXFXFXmXnXnXFXFXNXvX2 3 7 7 7 q 3 5 4 3 3 5 3 5 3 3 3 3 3 5 7 3 3 9 3 3 3 4 2 3.ZXFXCXFXFXFXCXCXVXVXVXVXZXcX2 6 7 7 7 7 7 7 7 7 7 7 3 6.mXnXNXNXNXNXnXBXnXNXnXnXmXMX9 x 7 7 7 7 9 7 7 9 5 3 4 { DXBXBXBXBXBXCX{ y 4 4 9 4 q MXBXnXNXBXBXNXCXCXnXNXCXnXmXlX3 5 5 5 9 5 9 9 4 5 3 r 2 eX                                                                                                                                                                                                                                                                                                                                                                                  ",
"                                                                                                                                                                                                                                                                                                                                                                                                                                                                                                                                                                                                                      r q 3 3 5 4 4 3 3 3 - 3 4 1 2.VXFXmXmXFXFXnXnXFXFXnXvXx 3 7 7 7 7 q 5 4 3 4 5 3 5 7 3 3 7 9 7 7 7 9 7 0 3 3 9 2 3.ZXCXCXVXFXCXFXCXVXVXCXZXDXcX2 9 7 7 7 3 7 7 7 q q 7 3 [ nXnXnXBXBXNXNXnXFXNXnXnXmXMX7 x x 3 9 9 p 9 7 q 4 3 4 { ZXBXBXBXBXBXBX{ 4 w 9 5 9 9 MXCXNXBXBXNXCXnXCXnXnXCXnXnXlX* 3 3 5 9 9 9 4 5 4 9 w 2 eX                                                                                                                                                                                                                                                                                                                                                                                  ",
"                                                                                                                                                                                                                                                                                                                                                                                                                                                                                                                                                                                                                    HXg 5 5 3 3 5 5 5 3 3 3 4 4 1 4XFXmXFXFXmXFXnXnXFXmXCXlX. 7 2 7 9 3 3 3 2 3 3 5 5 3 3 x 2 1 2 2 7 3 7 q 9 p 9 6 8 4XZXFXVXFXCXVXCXFXnXnXCXZXDXcX+ 7 9 2 9 p n 7 7 x 3 x x n nXNXmXnXNXCXnXnXNXNXNXnXCXMX7 7 q 9 9 9 7 7 9 p q 9 2 ` ZXBXNXmXBXCXCX5.4 5 5 5 9 4 cXBXNXCXNXNXNXCXnXNXNXCXNXVXlX3 7 3 5 5 4 5 4 5 9 4 9 . eX                                                                                                                                                                                                                                                                                                                                                                                  ",
"                                                                                                                                                                                                                                                                                                                                                                                                                                                                                                                                                                                                                    lX9 5 5 4 4 3 3 5 3 4 3 5 4 1 4XFXmXFXmXmXmXFXmXnXFXnXvXq l h l l l l 9 2 5 3 4 3 3 x j ( n { X.X.X.#.X.+.@.o.o.] 4XCXZXVXFXmXVXVXCXCXCXZXZXDXcX+.o.{ l ~ n 6.[ 6.[ [ +.#.#.MXnXmXmXnXnXnXnXmXmXnXnXnXMXz x 7 9 9 7 7 7 7 7 4 + 2 { DXDXZXZXCXCXCX3.4 5 5 5 9 4 yXCXBXBXNXCXNXBXNXNXNXCXNXBXyX* 7 7 5 9 9 5 9 9 5 5 4 . eX                                                                                                                                                                                                                                                                                                                                                                                  ",
"                                                                                                                                                                                                                                                                                                                                                                                                                                                                                                                                                                                                                      4 9 4 3 4 3 3 4 4 3 3 4 4 = 4.CXFXnXmXmXFXFXmXFXFXMXmXFXFXCXZXCXCXDXlX3 3 3 3 3 3 + rXFXCXVXCXZXZXDXSXSXSXSXSXSXMX2 l r p l h z r f r q f p yXSXZXCXZXCXCXCXCXZXZXCXCXCXcX. . 2 @ 9 w 4 4 p 7 7 p p 1.SXCXCXBXnXBXBXBXBXZXDXDXBXmX@ 2 9 l h a F w 4 5 9 9 7 3 yXCXCXVXVXNXNXBXFXBXNXCXNXNXyX* 4 4 5 5 9 5 5 5 9 4 9 . eX                                                                                                                                                                                                                                                                                                                                                                                  ",
"                                                                                                                                                                                                                                                                                                                                                                                                                                                                                                                                                                                                                      4 5 5 4 3 4 3 3 3 4 3 4 5 3 4.FXnXmXFXFXmXmXmXmXFXFXFXFXFXFXFXFXFXnX7Xx 3 x 3 3 3 X wXnXnXmXmXmXNXFXCXCXNXCXZXZXvX2 2 3 2 3 2 2 * * 2 2 9 7 wXCXCXCXCXBXnXCXCXnXBXBXBXCXcX9 9 4 w 9 5 5 5 6 7 7 7 p :.SXCXCXBXmXmXmXBXmXmXBXBXBXMX* r 9 f w 4 1 9 9 5 9 9 q 3 cXCXVXNXBXVXBXNXNXNXNXCXBXNXyX2 3 3 5 9 4 5 5 9 5 5 4 . rX                                                                                                                                                                                                                                                                                                                                                                                  ",
"                                                                                                                                                                                                                                                                                                                                                                                                                                                                                                                                                                                                                      4 4 3 3 3 4 3 4 3 3 2 4 * 7 3.nXnXmXFXmXmXFXmXFXmXmXmXmXFXnXnXmXFXnXwXx 3 3 3 3 3 x wXnXnXnXnXnXnXnXBXNXCXVXNXZXcX2 3 q 3 3 4 3 4 3 3 3 3 x wXmXFXnXFXBXCXBXCXFXCXBXBXBXGX9 4 5 5 5 9 9 5 6 7 7 6 q a.DXFXCXCXnXmXBXBXBXBXBXBXZXmX4 r q r 9 9 5 9 5 9 9 9 7 3 cXNXCXNXBXFXBXFXNXNXNXBXCXCXlX3 4 4 9 4 9 5 5 5 9 4 3 . rX                                                                                                                                                                                                                                                                                                                                                                                  ",
"                                                                                                                                                                                                                                                                                                                                                                                                                                                                                                                                                                                                                      4 5 3 3 4 - 3 4 3 3 3 3 3 9 3.NXmXFXmXFXmXmXFXmXmXFXFXFXmXmXnXmXmXnXwX7 3 3 3 3 3 x lXBXBXNXNXnXNXNXFXNXNXNXnXnXcX2 3 3 7 5 9 5 5 4 5 4 2 + wXFXCXnXnXnXCXBXFXFXBXnXBXCXlXq 9 w 9 5 9 5 9 7 7 7 6 6 4XZXFXBXBXBXBXBXmXBXBXBXBXnXmX2 9 9 9 9 9 5 9 5 5 5 9 7 * cXNXCXVXVXVXBXNXNXFXBXBXCXCXlX+ 5 4 5 9 9 4 5 9 9 4 2 . rX                                                                                                                                                                                                                                                                                                                                                                                  ",
"                                                                                                                                                                                                                                                                                                                                                                                                                                                                                                                                                                                                                      5 3 4 4 2 3 3 3 3 * 4 5 3 7 1.FXFXmXmXmXFXFXmXnXmXnXmXmXnXnXnXnXnXnXwX7 7 7 7 7 7 7 lXBXnXNXNXNXnXNXNXnXNXNXNXmXlXx 3 7 q 9 q 0 9 5 q 5 3 x 7XmXnXFXBXBXBXBXFXCXBXnXBXCXlXr 9 9 4 9 9 9 9 7 7 q 7 p 1.ZXFXBXBXBXnXBXnXnXmXBXnXnXmX2 r 9 q 9 9 9 9 5 5 5 9 7 3 cXnXVXCXBXBXBXNXNXNXNXNXBXCXlXX 7 3 5 9 4 5 9 9 9 4 3 X yX                                                                                                                                                                                                                                                                                                                                                                                  ",
"                                                                                                                                                                                                                                                                                                                                                                                                                                                                                                                                                                                                                      9 * * 3 3 2 3 3 4 4 4 4 4 x 4XFXFXmXFXFXmXmXmXmXFXmXnXnXnXnXmXmXnXCXwX3 3 7 = 7 7 x lXBXBXVXVXNXnXnXnXCXnXNXnXnXyXx 7 7 7 9 9 9 9 9 5 5 5 + wXFXFXCXFXnXFXBXCXFXFXBXBXCXyX2 9 5 9 9 5 9 9 7 7 7 7 i a.ZXFXBXBXnXBXnXBXBXnXmXBXBXMX2 9 9 q q 9 5 5 9 5 9 9 q x cXnXVXVXBXVXFXNXBXBXNXNXNXNXlXx 3 3 5 9 5 9 5 5 5 9 2 . yX                                                                                                                                                                                                                                                                                                                                                                                  ",
"                                                                                                                                                                                                                                                                                                                                                                                                                                                                                                                                                                                                                      9 2 3 3 3 3 2 3 3 3 3 3 * 7 1.FXFXFXmXFXmXmXnXmXnXnXmXmXnXnXnXnXnXCXrX7 7 7 3 7 7 x lXCXnXCXNXnXBXBXNXnXBXnXnXmXlX+ 7 7 9 9 q 5 5 q 5 5 9 x 9XCXFXFXFXBXBXBXFXBXBXnXCXCXlX4 r 9 9 5 9 9 5 q 7 q 7 q ,.ZXNXBXnXnXBXnXnXBXmXBXnXnXMX* q 9 q 9 q q 5 9 5 4 4 2 2 cXnXVXCXBXNXNXNXNXNXNXNXNXNXlX2 3 9 5 4 4 4 4 5 5 4 * X yX                                                                                                                                                                                                                                                                                                                                                                                  ",
"                                                                                                                                                                                                                                                                                                                                                                                                                                                                                                                                                                                                                      9 * 2 * 3 2 3 * 4 3 3 * 2 3 1.FXFXFXFXFXFXFXmXnXFXmXnXnXFXnXmXmXnXCXlX7 7 3 3 7 7 x lXnXnXFXFXFXnXNXNXnXnXNXnXmXlXx 7 9 9 9 9 q 9 5 5 9 5 x wXBXCXFXBXCXFXBXnXBXFXnXBXCXcX5 q 9 9 9 9 5 9 3 q 7 7 q ,.ZXnXBXnXnXnXBXnXBXBXnXBXBXMX2 r 9 9 9 9 5 5 9 4 9 3 3 = cXnXVXVXNXNXNXNXNXNXNXNXNXNXlX2 2 9 9 4 9 9 9 9 4 5 2 X fX                                                                                                                                                                                                                                                                                                                                                                                  ",
"                                                                                                                                                                                                                                                                                                                                                                                                                                                                                                                                                                                                                      9 * 2 2 2 3 x x 3 3 x 3 3 3 a.FXFXFXFXFXFXFXFXmXFXFXmXnXmXnXnXnXnXFXlX3 7 3 3 3 3 X rXFXFXFXFXFXnXnXBXnXCXFXnXmXlX4 q 5 9 5 0 5 5 9 5 5 q x wXCXFXFXFXFXBXBXnXnXBXBXBXBXcX9 9 5 9 5 5 5 5 7 q 7 7 7 a.ZXnXBXnXnXBXnXnXNXNXnXCXnXMX7 q q 9 q 5 9 5 5 5 5 0 3 3 cXnXnXBXBXNXNXNXNXNXNXNXNXnXyX6 7 7 7 9 9 9 4 9 9 4 2 X yX                                                                                                                                                                                                                                                                                                                                                                                  ",
"                                                                                                                                                                                                                                                                                                                                                                                                                                                                                                                                                                                                                      9 2 2 2 2 7 3 7 3 3 3 3 x x 4XFXFXFXFXnXmXFXmXFXFXFXFXnXFXmXnXnXnXCXrXx 7 3 3 3 3 X lXCXnXFXFXCXFXCXnXCXnXVXVXnXlX2 q q 9 9 9 q 5 9 5 4 5 x wXCXFXBXCXFXBXnXBXBXnXnXBXBXlX9 9 q 5 q 5 9 9 7 7 7 7 i 4XDXFXBXBXnXBXBXNXNXnXNXNXnXmX7 q q 9 9 5 5 5 9 5 5 9 7 3 cXnXNXBXBXBXNXNXNXNXNXNXNXNXlX2 9 7 7 u 9 9 5 5 4 9 2 . rX                                                                                                                                                                                                                                                                                                                                                                                  ",
"                                                                                                                                                                                                                                                                                                                                                                                                                                                                                                                                                                                                                      r 2 * 2 3 3 * x 3 3 3 3 3 6 1.FXFXFXFXFXnXFXFXmXFXFXFXmXmXnXnXnXFXNXrXx 7 7 3 3 = X lXCXFXnXnXCXnXnXBXBXnXVXnXNXlX@ 9 q 5 9 5 q 9 9 5 4 5 + 7XCXBXBXBXFXBXBXBXBXBXBXBXBXlX9 9 q 9 5 0 q 5 q 7 p 7 6 1.DXFXBXBXnXnXNXBXBXnXBXNXBXmX3 9 9 q q 5 5 5 3 5 4 5 3 3 cXBXNXNXBXNXFXNXNXCXNXNXnXnXlX2 9 7 7 9 9 9 9 5 4 9 2 * rX                                                                                                                                                                                                                                                                                                                                                                                  ",
"                                                                                                                                                                                                                                                                                                                                                                                                                                                                                                                                                                                                                      u * 2 3 2 7 7 3 3 3 3 3 3 6 4XFXFXmXmXFXmXFXFXFXnXmXFXFXFXnXnXnXnXCXrXX 3 3 3 3 3 . lXCXFXFXBXnXCXCXCXnXCXVXnXnXlX. 4 9 4 9 9 5 5 q 9 5 3 x wXFXBXBXBXFXBXnXBXnXBXBXBXBXlXq 9 4 9 5 9 9 5 7 7 7 7 6 4XDXFXnXnXBXBXNXNXnXNXnXCXCXMXx 7 q 9 5 5 5 5 5 5 3 5 3 3 cXBXBXNXBXBXNXNXNXNXNXNXNXNXyX2 9 9 7 9 9 7 4 5 4 9 4 * eX                                                                                                                                                                                                                                                                                                                                                                                  ",
"                                                                                                                                                                                                                                                                                                                                                                                                                                                                                                                                                                                                                      f 2 2 2 3 3 3 3 3 3 3 x 7 7 1.FXFXmXnXnXmXnXnXnXnXnXnXnXnXnXnXnXnXBXrXx 3 3 3 3 3 X lXCXFXnXCXnXnXCXnXCXnXNXnXnXlXX 9 9 5 5 5 9 5 5 9 9 5 x wXFXnXnXBXBXCXBXCXnXnXBXBXBXcX9 5 5 5 9 5 5 9 7 7 7 7 7 4.ZXnXnXBXnXNXnXNXnXBXBXNXCXmX+ 4 9 9 q 5 9 5 5 5 3 9 7 * cXNXNXNXVXNXNXNXNXNXNXNXNXNXyX3 7 9 7 9 5 9 9 9 4 4 4 2 eX                                                                                                                                                                                                                                                                                                                                                                                  ",
"                                                                                                                                                                                                                                                                                                                                                                                                                                                                                                                                                                                                                      9 2 2 3 3 3 3 3 3 3 3 7 7 7 3.FXmXFXmXmXFXFXnXnXnXnXnXnXnXnXnXmXnXBXlXx 3 0 3 3 3 X lXCXnXnXnXCXnXnXBXnXBXNXNXnXkX. 4 9 5 9 q 5 5 5 5 5 5 7 wXBXFXCXCXFXnXnXCXnXCXBXnXBXcX4 5 q 5 9 q 9 9 7 7 7 7 3 4.ZXnXNXnXNXBXNXnXnXnXnXNXNXnX. 4 q q 9 5 5 5 3 5 5 5 7 3 cXnXNXCXVXVXNXFXNXNXNXNXNXNXlX7 7 9 9 9 9 5 5 5 4 5 4 2 eX                                                                                                                                                                                                                                                                                                                                                                                  ",
"                                                                                                                                                                                                                                                                                                                                                                                                                                                                                                                                                                                                                      g * 2 3 3 3 3 3 3 7 3 x 7 7 3.FXFXFXmXFXmXFXFXnXnXmXnXnXnXnXnXmXnXCXrXx 3 3 3 3 3 X lXFXFXCXnXBXnXnXBXnXFXVXVXVXlX. 9 9 5 9 5 9 q 9 5 q 4 3 7XCXnXBXnXCXnXnXBXCXnXnXnXmXcX3 4 5 5 5 q q 5 7 p p 6 7 a.ZXnXnXBXNXnXnXNXnXNXnXBXCXmX@ 4 9 q 9 5 9 5 5 5 3 5 7 x cXnXNXCXVXVXNXNXNXNXNXNXNXNXlX9 9 9 9 9 9 5 5 5 9 5 4 2 rX                                                                                                                                                                                                                                                                                                                                                                                  ",
"                                                                                                                                                                                                                                                                                                                                                                                                                                                                                                                                                                                                                      l 2 2 3 3 3 3 3 2 7 7 7 7 7 3.FXFXmXFXmXFXmXnXnXnXnXnXnXnXnXnXnXnXCXrX3 3 3 3 3 3 X lXFXFXnXCXnXCXCXnXnXBXFXVXVXlX. 4 9 e 5 9 5 5 9 5 9 4 7 7XCXnXnXCXnXCXCXnXBXCXCXnXnXcX9 3 q 9 5 9 9 5 7 7 7 6 i 4XZXnXNXnXnXBXnXNXnXnXNXNXCXmX2 9 9 5 q 5 5 9 3 4 4 3 7 + cXNXNXCXBXFXNXNXNXNXNXBXNXVXrX4 3 4 3 9 4 9 5 5 9 5 4 2 eX                                                                                                                                                                                                                                                                                                                                                                                  ",
"                                                                                                                                                                                                                                                                                                                                                                                                                                                                                                                                                                                                                      l 2 2 2 7 2 7 2 3 4 3 4 4 3 3.FXnXmXFXmXmXnXnXnXnXnXnXFXFXnXnXnXnXnXlXx 3 9 4 3 2 X lXVXnXNXNXnXNXNXnXnXNXVXFXFXlX. 7 9 7 5 9 5 9 9 5 9 4 - 7XBXnXBXNXNXNXBXFXBXBXFXnXCXcX9 9 9 9 9 q 5 9 9 9 9 7 9 4XDXFXnXBXnXBXnXnXnXnXnXBXCXmX4 5 q q 9 5 5 5 9 4 3 9 9 * GXCXCXVXVXVXNXNXNXNXVXVXNXVXyX4 4 4 3 9 5 5 9 5 5 5 9 2 rX                                                                                                                                                                                                                                                                                                                                                                                  ",
"                                                                                                                                                                                                                                                                                                                                                                                                                                                                                                                                                                                                                      l 7 7 2 7 7 3 2 2 4 2 4 3 3 4.FXnXmXmXmXFXmXnXnXnXnXnXmXnXnXnXFXmXmXlXx 3 4 3 3 2 X lXVXVXnXNXnXnXNXNXnXNXFXVXVXvX. 8 9 7 9 9 9 9 9 5 5 9 3 8XCXnXBXNXNXNXFXBXFXBXBXBXZXcX9 9 q 9 5 9 5 5 q 9 9 7 7 a.CXFXnXnXnXnXnXnXnXnXnXnXBXnX4 9 5 9 9 5 5 5 3 5 4 4 4 2 cXCXVXVXVXVXNXNXNXNXVXNXVXVXyX4 w 4 4 5 5 5 5 5 3 5 9 3 rX                                                                                                                                                                                                                                                                                                                                                                                  ",
"                                                                                                                                                                                                                                                                                                                                                                                                                                                                                                                                                                                                                      z p 9 2 3 7 2 3 2 2 2 2 2 9 3.nXnXmXmXmXFXmXmXmXnXnXnXnXFXFXFXnXnXnXwX7 7 3 3 3 2 . iXVXnXnXnXnXNXnXNXNXnXnXFXFXlX2 9 9 9 5 5 5 9 9 9 5 4 * wXCXNXNXFXNXNXFXBXFXBXBXnXCXcX3 3 3 9 5 5 5 5 5 9 9 9 6 3.CXFXnXBXnXBXBXnXBXBXnXnXBXmX9 9 q 9 5 5 9 0 3 4 4 5 3 X cXCXVXBXVXVXNXNXNXNXVXVXVXVXyX2 w 4 5 9 9 5 9 5 5 3 9 2 yX                                                                                                                                                                                                                                                                                                                                                                                  ",
"                                                                                                                                                                                                                                                                                                                                                                                                                                                                                                                                                                                                                      z 9 7 2 7 2 2 7 4 2 3 4 3 9 4.nXmXmXmXmXmXmXnXmXnXmXnXnXnXFXFXFXmXCXrX7 7 5 4 3 7 3 rXnXnXnXNXnXNXnXnXNXnXVXnXmXvXX 9 7 9 5 4 q 9 9 9 5 4 4 8XCXNXBXCXBXBXBXFXBXFXnXBXFXcX7 9 9 q q 5 9 5 5 5 9 9 6 4XFXFXnXnXnXnXnXnXnXnXnXnXmXmX4 5 9 9 9 9 7 7 5 4 5 4 3 . cXCXVXVXVXVXNXNXNXVXNXNXVXVXlX1 4 - 4 5 5 5 5 5 q 3 9 * yX                                                                                                                                                                                                                                                                                                                                                                                  ",
"                                                                                                                                                                                                                                                                                                                                                                                                                                                                                                                                                                                                                      f 9 3 2 3 7 2 2 3 2 2 4 5 7 3.FXmXmXmXmXFXmXnXmXnXmXnXnXnXFXmXFXFXmXrXx 7 3 5 3 4 3 lXnXnXnXnXnXnXnXNXNXNXFXmXmXvX1 9 3 9 5 5 9 9 9 5 9 4 * 7XnXnXFXCXCXNXFXFXCXBXFXCXmXcX9 7 9 q 5 5 9 q 7 7 7 7 6 a.ZXFXBXnXnXBXNXnXnXNXnXnXMXnX; 3 9 q 5 5 0 7 7 3 3 9 7 + cXBXVXVXFXnXFXVXFXVXVXVXCXCXyX2 4 4 5 5 4 9 5 9 4 4 9 * lX                                                                                                                                                                                                                                                                                                                                                                                  ",
"                                                                                                                                                                                                                                                                                                                                                                                                                                                                                                                                                                                                                      l 3 3 3 3 2 3 3 2 3 4 5 5 p 1.FXmXmXmXmXmXmXmXmXnXnXnXmXBXmXFXmXFXFXlX7 7 9 4 7 9 3 yXVXnXNXnXnXNXnXNXnXnXnXmXmXlX1 9 3 4 5 9 5 5 5 5 4 9 + 7XmXnXCXBXCXNXBXBXBXBXFXFXnXcX9 9 5 9 5 9 5 9 7 7 p 7 7 3.CXFXnXnXnXnXnXNXnXnXnXnXmXnX3 q q 9 9 3 5 9 9 4 9 4 6 3 cXCXFXBXBXBXVXFXVXFXFXVXCXZXrX* 3 4 5 5 5 9 3 5 4 3 4 * lX                                                                                                                                                                                                                                                                                                                                                                                  ",
"                                                                                                                                                                                                                                                                                                                                                                                                                                                                                                                                                                                                                      l 5 4 3 3 3 3 3 7 7 2 4 9 7 4.FXmXmXmXmXmXmXBXmXmXmXnXnXmXFXFXFXFXFXrXp 7 9 4 9 3 8 yXNXNXNXnXnXNXnXnXnXNXnXmXmXlX2 9 5 4 5 5 5 9 5 5 3 4 x wXnXnXNXNXNXNXCXBXFXBXCXCXCXcXq 9 9 5 9 5 9 5 7 7 7 7 7 4XZXFXnXnXnXnXnXnXnXNXnXnXBXBX3 q 9 9 5 5 5 5 4 4 4 4 6 2 cXCXBXBXFXBXFXVXVXFXFXVXCXZXrX2 4 5 5 5 5 5 4 5 9 4 4 1 HX                                                                                                                                                                                                                                                                                                                                                                                  ",
"                                                                                                                                                                                                                                                                                                                                                                                                                                                                                                                                                                                                                      h q 4 3 3 3 3 8 3 7 3 3 4 3 3.FXmXmXmXmXmXmXmXmXnXnXmXmXnXmXFXmXFXFXlXp 7 6 6 9 7 4 lXNXNXmXnXnXnXnXNXnXnXnXVXVXlX9 q 3 9 9 5 5 5 5 5 3 9 2 eXCXNXCXCXNXCXFXBXCXBXCXFXCXGXf 9 q 5 q 5 q 5 0 9 7 7 p 4XCXFXnXBXnXnXNXNXNXNXnXnXnXBX5 q q 9 5 3 9 5 9 3 5 3 2 3 cXBXVXBXNXFXVXVXFXFXVXVXVXZXeX2 4 5 3 5 4 5 3 4 4 3 4 * HX                                                                                                                                                                                                                                                                                                                                                                                  ",
"                                                                                                                                                                                                                                                                                                                                                                                                                                                                                                                                                                                                                      h 9 9 5 5 3 4 7 2 3 3 3 5 7 3.FXmXmXmXmXmXmXmXnXmXnXmXnXnXnXmXmXnXFXrX2 2 2 9 2 6 7 lXnXnXNXNXnXnXnXNXNXNXnXnXnXlXw 9 9 5 9 9 5 5 0 7 7 5 6 rXCXCXCXNXCXCXCXCXNXNXnXCXnXcXr 9 9 9 9 5 q 5 7 7 5 9 q 7XZXnXnXnXnXnXBXnXNXnXnXnXmXnXp r q 5 5 5 5 5 5 5 5 4 2 9 MXBXnXBXnXBXNXNXNXNXNXnXVXVXeX2 5 5 5 5 9 4 5 4 9 4 4 @ yX                                                                                                                                                                                                                                                                                                                                                                                  ",
"                                                                                                                                                                                                                                                                                                                                                                                                                                                                                                                                                                                                                      a 9 r 5 4 4 4 3 7 3 4 3 3 i a.mXmXmXmXmXnXmXmXmXnXnXnXnXmXnXmXnXnXnXrX9 9 8 9 8 9 2 wXFXmXmXnXnXnXNXmXmXnXnXVXFXlX9 q 9 4 5 5 9 5 5 5 4 9 7 rXCXnXCXBXNXnXNXNXCXCXCXCXCXcX2 q q 9 9 5 5 3 9 9 9 5 5 s.CXnXnXnXnXnXnXnXnXNXnXnXmXnX2 9 9 5 5 9 5 9 4 4 4 5 2 4 cXZXnXBXBXBXVXNXVXVXVXNXVXVX9X3 9 4 3 4 5 4 4 3 5 3 2 X yX                                                                                                                                                                                                                                                                                                                                                                                  ",
"                                                                                                                                                                                                                                                                                                                                                                                                                                                                                                                                                                                                                      a 4 2 4 4 3 4 3 7 9 3 4 3 6 2.mXmXnXmXnXmXnXmXmXmXmXmXnXnXnXnXnXnXBXwX2 6 3 8 2 2 . 0XnXmXnXnXnXVXNXnXmXnXnXFXVXvX9 9 7 3 5 5 5 5 5 9 9 9 7 rXZXCXCXCXCXCXCXBXNXNXBXBXBXvX2 9 q 9 5 5 9 q 9 9 5 5 / a.CXBXnXnXnXBXBXNXNXNXBXnXnXCX3 4 5 q 3 5 5 9 5 5 4 4 9 5 cXCXCXCXnXBXVXNXVXVXVXNXVXVXwX2 9 3 5 9 4 4 4 4 4 3 2 X wX                                                                                                                                                                                                                                                                                                                                                                                  ",
"                                                                                                                                                                                                                                                                                                                                                                                                                                                                                                                                                                                                                      9 2 3 3 3 4 3 3 7 3 9 4 2 6 4XmXmXmXmXmXnXnXBXMXnXnXnXBXBXnXmXmXnXnXrX2 9 2 9 7 2 + 7XmXmXmXmXmXmXNXVXVXVXVXVXCXvX4 9 3 7 5 5 5 q 5 5 9 4 q wXZXZXZXZXCXZXCXnXnXnXnXnXnXvX4 9 7 0 9 5 5 5 9 5 5 5 6 3.CXnXnXnXNXNXBXBXBXBXnXnXnXZX2 4 9 4 3 q 5 9 5 5 5 9 4 f MXZXZXCXnXnXnXnXnXmXFXFXVXVX8X2 9 3 5 5 9 2 4 2 3 3 2 X eX                                                                                                                                                                                                                                                                                                                                                                                  ",
"                                                                                                                                                                                                                                                                                                                                                                                                                                                                                                                                                              HX  HX                                                  a 2 7 7 2 7 7 7 7 9 2 2 6 . *.MXcXMXMXMXmXmXMXmXMXMXMXMXmXMXMXMXMXMXwX+ 9 3 4 3 2 1 4XMXMXMXMXMXMXMXnXmXnXnXmXnXlX6 7 9 9 9 5 3 3 5 9 9 3 7 7XVXnXnXnXnXnXnXmXmXmXMXMXmXlX3 3 9 9 q 5 3 5 5 9 q 3 6 1.FXMXmXmXmXmXmXnXnXnXmXmXnXmX* 3 4 q 5 9 5 9 9 9 5 9 9 9 cXnXnXBXmXnXmXnXmXmXmXnXnXVX7Xx 9 3 2 9 8 9 9 9 9 2 2 X wX                                                                                                                                                                                                                                                                                                                                                                                  ",
"                                                                                                                                                                                                                                                                                                                                                                                                                                                                                                                                                            wXX @ * 3 g f h g t r f q r g f f r f g f h m f 9 f 2 7 1 x 2 2 7 3 3 7 7 9 2 6 8 9 2 1 + 2 + 7 r z l z 9 9 p 9 p z p 3 x 2 3 3 7 9 4 4 3 3 1 x x + . 2 2 2 9 g l g z z z z 9 7 9 7 5 5 q 5 5 5 3 7 7 3 z f q p u 9 3 3 2 2 3 x 2 x x 9 9 9 5 9 5 9 5 5 3 5 x x 7 6 g f q r g f r r 3 9 4 = . 3 9 5 5 5 5 5 5 9 9 5 q w h f f f 4 4 8 9 2 2 . 8 f 9 p 2 2 9 9 6 7 9 9 3 9 2 6 1 2 2 4 4 4 z f g m h l g g l a w 9 9 9 w 9 9 4 5 w 8 9 w f g g f g f f f f f g g g g g g w 9 w 9 9 9 9 8 9 w 9 w w 9 4 w a g l g r w a a w g g w w w w w w w 2 @ @ 4 4 * 4 4 2 2 4 2 8 w g r w 9 9 4 * @ 4.                                                                                                                                                                          ",
"                                                                                                                                                                                                                                                                                                                                                                                                                                                                                                                                                            0XX 9 4 9 r 9 r 9 9 4 3 4 5 4 9 5 5 4 5 9 5 9 9 9 9 7 x 7 3 7 2 7 7 7 7 7 7 2 7 2 9 6 2 2 2 + 3 9 9 9 9 9 9 9 9 7 7 7 q 7 9 9 9 5 3 5 5 4 3 2 6 6 2 2 2 2 9 9 6 6 7 7 6 9 9 6 7 7 9 9 5 9 5 5 5 9 9 3 3 9 9 9 p q 9 9 9 9 6 7 7 2 7 7 3 q 3 5 5 9 5 9 5 3 9 7 + 7 7 3 5 5 5 5 q q 9 9 9 5 5 5 3 5 9 3 5 5 q 5 9 4 4 4 w 9 9 u 9 9 9 9 9 9 8 2 4 9 9 8 2 2 9 4 9 2 9 6 9 9 7 8 2 2 2 2 2 4 q 9 r 4 9 9 9 9 9 2 7 7 7 8 2 8 4 9 4 4 4 5 5 9 9 w 9 9 9 p 9 u 9 9 9 9 r w w w w w w 5 w w 9 9 w w 9 4 9 w 5 9 5 4 4 4 9 4 4 5 9 9 5 4 4 4 4 4 4 5 5 w w 9 w 9 5 4 5 9 4 5 9 5 4 9 9 5 5 4 4 4.                                                                                                                                                                          ",
"                                                                                                                                                                                                                                                                                                                                                                                                                                                                                                                                                            rXX 2 4 5 9 9 5 9 4 5 5 9 3 3 3 3 5 5 5 3 5 4 2 9 3 7 2 6 7 7 7 7 7 7 7 3 9 8 9 2 3 7 4 7 7 7 0 3 3 2 6 7 7 3 3 7 7 7 7 7 7 3 3 5 5 5 5 3 4 8 6 6 6 9 6 8 9 9 9 9 9 9 9 9 9 7 9 9 7 5 3 5 5 9 5 5 9 7 9 7 9 9 9 7 9 9 7 9 9 7 7 7 7 3 7 9 3 5 3 5 5 5 5 5 9 7 7 7 7 3 3 5 5 5 5 3 q 9 7 0 5 3 3 5 9 5 5 5 3 5 9 9 4 2 9 9 2 9 9 2 9 9 9 9 9 9 2 7 2 9 9 2 6 7 8 9 6 9 2 2 8 9 3 4 4 4 3 4 5 9 4 4 5 5 5 5 9 9 3 7 7 8 3 4 4 5 9 9 5 5 5 4 9 9 9 9 9 9 9 7 9 7 9 4 4 9 5 4 9 5 5 5 4 4 w 5 5 5 9 5 5 4 4 4 4 5 4 5 9 5 5 5 4 4 4 5 9 5 9 9 5 5 w 5 4 9 5 5 5 9 5 5 4 5 4 4 5 9 5 4 4 4 2 3.                                                                                                                                                                          ",
"                                                                                                                                                                                                                                                                                                                                                                                                                                                                                                                                                            eXX 3 3 9 5 5 q 5 5 7 7 q 7 7 7 9 7 5 9 7 7 7 9 4 7 3 7 6 8 7 7 7 7 7 7 7 9 9 6 2 3 9 4 4 9 5 5 5 3 7 7 7 7 7 7 7 7 7 7 7 7 7 7 3 4 5 3 5 3 9 7 7 9 8 3 9 9 8 9 7 9 9 9 9 7 9 7 9 7 5 3 3 3 3 3 7 7 9 9 8 9 9 9 7 7 7 7 9 7 9 7 7 7 7 7 9 3 5 3 5 5 9 4 5 5 5 3 3 5 9 7 0 7 5 3 q 5 9 5 9 5 5 3 3 4 3 5 5 5 5 5 9 4 5 4 9 9 9 7 7 9 3 9 9 9 6 8 3 8 9 2 9 4 9 7 9 9 8 3 2 9 7 5 4 9 3 5 3 9 3 5 5 9 5 4 9 7 9 7 7 3 7 3 5 9 9 5 4 9 9 5 4 9 9 9 9 9 9 9 8 8 4 9 5 5 9 5 9 5 5 9 5 9 5 5 5 9 5 9 5 5 4 4 9 5 5 4 5 5 5 9 5 5 5 5 5 5 9 5 9 5 5 9 5 5 4 9 5 5 7 9 7 7 7 7 9 7 8 7 3 3 4 2 3.                                                                                                                                                                          ",
"                                                                                                                                                                                                                                                                                                                                                                                                                                                                                                                                                            wX. 3 9 3 5 5 5 9 3 7 7 7 7 7 7 7 7 7 7 7 7 7 9 6 3 7 3 7 2 6 3 7 7 7 7 7 4 3 9 9 8 9 7 4 4 5 3 5 9 7 7 7 7 7 7 3 7 7 7 7 7 9 4 4 4 3 9 5 3 7 3 2 7 7 7 7 7 7 7 7 9 9 7 9 7 7 7 7 7 9 5 5 q 9 q 9 7 2 6 9 9 8 7 7 7 7 9 7 7 9 7 7 7 7 9 7 5 5 9 5 5 5 3 5 3 5 5 5 5 5 5 9 7 5 9 3 3 5 5 5 5 3 5 5 5 5 9 5 9 3 5 4 3 3 5 9 7 9 7 7 7 7 9 7 7 7 7 7 3 7 8 8 6 3 8 2 8 7 8 9 6 9 9 4 4 9 4 4 4 4 5 3 4 9 9 4 9 7 7 9 9 7 9 5 4 5 4 9 4 9 5 9 4 4 9 3 7 9 9 9 9 9 4 9 4 5 4 3 5 5 9 5 5 5 9 5 9 5 5 9 5 4 4 5 9 5 5 5 9 9 4 9 5 9 5 9 5 5 5 4 9 5 5 9 5 3 9 4 9 9 3 9 7 9 4 6 9 3 9 6 9 4 2 4.                                                                                                                                                                          ",
"                                                                                                                                                                                                                                                                                                                                                                                                                                                                                                                                                            8XX 3 3 9 9 9 9 9 7 q 7 7 7 7 7 7 9 9 9 7 9 8 7 7 7 7 7 7 7 3 7 7 7 7 7 9 7 9 7 3 9 9 3 4 9 5 3 5 9 7 7 7 9 9 7 7 9 9 9 7 9 9 3 9 2 3 9 4 5 9 3 7 7 7 7 7 7 7 7 9 7 7 7 p 7 9 7 7 7 5 5 7 3 9 5 7 7 9 8 9 7 3 9 7 7 7 9 9 9 7 9 q 3 7 9 7 9 5 5 9 9 9 7 4 3 9 5 3 9 3 9 7 3 7 7 7 7 3 5 9 3 3 5 9 9 5 5 5 9 5 3 4 4 9 5 4 9 7 9 3 9 7 7 9 7 9 7 9 7 9 7 7 9 9 7 9 9 4 9 2 9 7 9 4 9 5 4 3 9 5 4 5 9 4 5 8 7 9 9 9 6 9 9 4 9 9 5 2 9 5 9 4 4 9 2 9 8 8 9 9 9 9 9 3 4 9 3 4 5 9 4 5 5 5 4 5 5 4 5 3 9 5 9 5 4 9 5 9 5 4 9 5 5 9 4 9 4 9 5 9 3 3 9 4 7 9 3 9 4 7 7 9 4 2 9 9 3 4 9 4 5 4 2 3.                                                                                                                                                                          ",
"                                                                                                                                                                                                                                                                                                                                                                                                                                                                                                                                                            eX2 9 4 5 5 3 5 5 5 7 7 9 7 7 7 7 7 7 7 7 7 7 3 7 3 7 7 2 2 6 2 6 4 2 9 4 3 3 9 4 4 3 9 7 7 7 7 7 7 7 7 7 7 7 9 9 7 2 6 9 2 9 7 7 3 3 7 7 7 4 6 7 8 9 2 9 7 7 9 7 7 7 9 7 7 9 7 9 7 7 9 9 7 7 7 9 7 7 7 7 7 7 7 6 9 9 7 9 7 9 9 7 7 7 7 7 7 9 7 7 9 9 7 9 9 7 7 7 7 7 7 9 7 7 7 7 9 7 7 7 7 7 5 5 3 3 9 5 5 9 4 5 9 5 4 9 5 9 4 5 9 4 9 3 9 2 9 6 9 6 7 7 7 7 7 7 6 9 6 9 9 8 3 9 9 9 9 9 9 5 9 4 5 5 9 9 9 9 7 9 8 7 9 7 9 9 9 9 9 9 9 9 8 9 9 9 9 9 8 9 4 9 9 4 9 4 4 5 9 5 4 4 5 5 9 9 4 9 9 5 4 4 5 9 9 5 4 4 4 5 5 4 5 3 5 4 3 4 4 5 5 5 5 4 4 4 4 3 3 4 4 3 4 4 3 4 4 4 3 3 5 4 4 4.                                                                                                                                                                          ",
"                                                                                                                                                                                                                                                                                                                                                                                                                                                                                                                                                            rX* q 5 5 5 3 q 3 9 9 9 9 7 7 7 7 7 7 7 7 7 7 7 3 7 7 7 6 7 6 4 8 2 6 8 9 3 4 4 3 3 3 7 7 7 7 7 7 7 7 7 7 7 3 7 7 7 9 8 9 8 3 7 7 7 7 7 7 7 7 8 3 9 6 8 4 7 7 7 7 7 7 9 7 9 7 9 7 7 9 9 7 7 9 9 9 7 3 7 7 7 7 9 9 7 9 7 9 7 7 7 9 7 7 7 3 8 7 9 6 9 7 7 7 7 7 7 7 7 7 7 7 7 7 7 9 7 7 7 7 7 7 9 3 5 3 5 9 5 9 5 4 5 5 9 9 5 4 5 5 4 4 4 8 7 8 9 8 7 7 7 7 7 7 7 9 3 2 9 9 8 9 8 3 9 9 7 9 7 5 9 5 9 4 5 9 9 8 3 9 9 9 9 8 9 2 9 9 8 9 9 9 9 8 8 3 9 9 9 8 8 4 4 4 w 4 5 5 9 4 5 4 9 5 9 5 4 5 9 4 4 5 4 9 5 4 4 4 4 3 4 4 9 4 3 4 9 4 3 4 4 4 5 3 4 4 3 4 5 4 4 4 4 4 7 4 4 5 5 3 3 9 9 s.                                                                                                                                                                          ",
"                                                                                                                                                                                                                                                                                                                                                                                                                                                                                                                                                            yX2 9 9 5 9 7 7 3 5 7 9 7 9 7 7 9 7 7 7 7 7 7 7 7 2 7 7 7 3 7 6 3 2 2 2 2 7 7 7 7 3 7 7 7 7 7 7 7 7 7 9 7 7 7 7 7 7 4 7 2 9 9 7 7 6 2 7 7 7 8 7 4 6 9 3 7 7 7 9 7 3 7 7 7 7 7 9 7 9 7 7 9 7 7 9 7 9 7 9 7 7 9 6 9 8 7 7 7 7 7 7 7 7 7 7 7 3 9 3 9 2 9 7 7 7 7 7 7 7 7 7 7 7 7 7 7 7 7 7 9 7 7 5 3 5 5 5 5 5 4 5 5 9 5 4 4 9 4 3 3 4 7 4 7 4 9 2 8 7 7 7 7 3 7 7 7 9 9 9 9 9 2 9 8 7 9 7 4 6 4 4 4 5 9 5 7 9 9 8 6 9 3 9 9 2 8 9 9 9 9 6 9 2 9 9 9 9 9 9 9 9 8 4 4 0 5 4 5 5 4 9 9 4 3 5 4 9 5 5 4 3 4 5 4 5 4 0 4 w 9 4 4 5 4 5 4 4 5 4 9 9 9 4 4 5 5 4 5 4 3 4 3 4 4 4 3 5 4 4 4 5 4 * 4.                                                                                                                                                                          ",
"                                                                                                                                                                                                                                                                                                                                                                                                                                                                                                                                                            lX5 q 3 0 7 7 7 7 9 7 q 9 7 7 9 7 7 7 7 7 7 7 2 7 7 3 7 7 7 2 8 2 9 9 2 9 3 3 7 6 7 7 7 7 9 7 9 9 7 7 7 7 7 9 7 7 9 9 9 6 6 6 3 7 3 7 7 6 3 3 8 9 6 9 8 7 7 7 7 7 9 7 7 7 7 7 7 7 9 7 7 7 7 9 7 9 7 7 7 7 9 9 9 9 6 7 9 9 9 7 9 9 9 9 7 9 9 9 6 9 8 7 7 7 7 9 7 9 7 9 7 9 q 7 7 9 7 7 9 9 7 7 3 5 5 5 3 4 5 5 5 9 4 9 9 5 4 4 9 5 9 4 9 6 9 9 2 3 8 7 7 7 7 3 7 9 7 6 9 7 9 9 6 9 3 9 9 9 9 4 9 4 9 4 9 4 9 9 9 9 6 6 9 9 9 9 4 8 5 2 8 8 9 6 9 8 3 9 4 9 8 9 4 4 8 9 4 9 9 9 5 4 3 4 9 4 5 9 5 9 5 5 4 5 5 4 5 8 8 3 5 3 3 5 9 3 3 9 5 3 4 4 4 5 3 5 3 4 3 3 4 3 3 3 5 9 3 4 3 4 4 4 * 4.                                                                                                                                                                          ",
"                                                                                                                                                                                                                                                                                                                                                                                                                                                                                                                                                            lX9 q 9 9 7 0 q 7 7 7 7 9 7 7 7 7 7 7 7 7 2 7 7 7 7 7 7 7 3 8 3 9 4 9 6 6 7 7 3 7 7 7 3 7 7 7 7 7 7 7 7 7 7 9 7 7 9 6 9 4 9 8 3 7 7 7 7 3 3 8 9 2 9 2 9 7 7 7 9 9 9 9 9 7 9 9 9 9 9 7 q 7 7 7 7 9 9 7 7 9 7 7 9 9 7 8 7 9 9 7 9 9 5 9 7 7 8 9 9 9 9 9 7 7 7 q 7 9 9 7 9 7 7 7 7 9 7 7 7 7 7 9 9 5 5 5 5 5 5 4 9 5 5 4 5 5 3 9 5 5 4 4 3 4 9 6 9 9 9 7 7 7 7 7 7 3 9 9 2 9 8 9 8 9 9 8 9 9 6 9 3 4 4 4 3 4 7 2 9 9 9 4 9 9 6 9 9 4 5 7 9 9 9 9 9 9 8 4 8 9 9 9 9 8 8 5 3 5 4 5 5 9 5 4 5 9 5 5 4 9 5 9 5 4 4 5 8 4 4 4 4 4 9 3 4 4 9 7 9 9 7 9 3 9 4 4 4 4 3 4 4 4 4 4 4 4 3 3 3 3 2 4 2 4.                                                                                                                                                                          ",
"                                                                                                                                                                                                                                                                                                                                                                                                                                                                                                                                                            lX9 q 9 9 5 5 4 5 5 9 9 9 9 3 9 6 7 7 7 7 7 7 7 7 3 7 3 7 7 9 9 4 9 4 4 4 5 7 4 9 9 7 9 3 7 7 7 7 7 4 5 5 5 9 7 4 4 9 9 4 4 8 9 9 9 7 9 7 7 4 4 7 3 6 9 4 7 w 4 4 8 7 9 9 9 7 9 7 9 9 9 5 9 9 q 9 9 9 7 4 9 9 9 9 4 4 8 9 9 8 9 4 5 7 9 9 9 4 9 9 9 9 4 5 9 9 9 9 9 3 9 3 3 9 7 9 4 7 7 9 9 9 4 5 5 5 5 5 5 5 5 4 4 5 4 5 5 8 4 5 4 4 4 9 9 4 4 9 9 4 4 5 3 5 9 9 4 6 9 5 9 9 4 9 4 4 9 8 9 4 5 2 9 4 4 9 6 9 9 9 4 4 4 9 9 9 4 5 5 9 9 9 9 4 4 9 9 9 9 9 9 4 4 4 4 5 4 5 4 5 5 5 4 9 9 9 4 9 5 4 5 4 4 4 4 4 4 4 4 4 4 4 4 4 4 4 4 9 9 3 9 4 4 4 4 5 5 5 4 4 4 4 3 3 4 4 3 4 5 5 3 5 2 4.                                                                                                                                                                          ",
"                                                                                                                                                                                                                                                                                                                                                                                                                                                                                                                                                            HX5 q 9 9 9 9 q 9 q 9 4 5 9 5 9 9 2 9 9 9 7 7 4 4 5 q 5 0 5 4 9 9 9 5 q 9 4 5 9 4 9 5 5 3 q 3 5 4 5 4 4 4 5 5 5 4 4 5 9 9 4 9 9 9 5 9 9 9 9 w 9 4 4 4 4 4 3 4 @ 4 4 7 7 4 4 9 9 5 3 9 4 9 9 9 7 9 5 9 9 w 5 4 4 4 5 w 5 5 5 9 4 w 4 9 9 5 9 5 4 5 9 9 w 9 q 9 9 4 9 9 5 9 4 3 5 4 4 3 q 5 5 5 q 9 q 9 9 w 9 9 w 5 4 5 5 5 5 4 0 5 4 5 5 5 5 4 w q 5 9 q 0 q 9 5 5 5 4 4 5 5 q 5 9 9 9 9 9 5 9 5 2 6 5 5 2 6 2 2 2 2 4 4 5 5 5 5 5 9 4 9 9 9 w 5 9 w 9 9 w 9 w 4 4 w w w 9 5 w 9 5 4 5 5 9 9 4 5 5 3 4 4 4 4 4 4 - 4 w 5 5 - 4 - 4 4 4 4 4 4 4 4 5 5 5 5 5 5 4 4 4 3 3 4 = 4 5 5 5 5 5 * 3.                                                                                                                                                                          ",
"                                                                                                                                                                                                                                                                                                                                                                                                                                                                                                                                fXyXeXyXeXlXHXlXlXlXlXHXHX  9X- > > + O + $ $ & # % # @ + O o o O O O + % # # ; & & $ $ < $ ; % $ & # # $ & # $ $ O & O # # & & & % % # O % O + # % # ; & % % % % # & % & % & % # # & # ; ; # # & # & & + + & + % . @ % + + + & & % # # % % & # % & % # # & & # # O O + O % # X + + & & % & & % + & # % + & % & & % # & % % + & + O + o + O + & & O + & # ; # ; # # & & # # ; % # & & + & # % % & # # O > & & & & & & % % o o o O o o + + + + O X % O @ O & & # ; # $ ; > > # ; & % ; ; ; ; % ; & % % % + O X X + + O O O o O + o # % % ; # ; ; % O % % % # ; ; & & & # # % % O O O O O + O O O O & O # + % O O % O 4.                                                                                                                                                                          ",
"                                                                                                                                                                                                                                                                                                                                                                                                                                                                                                                              lX. X . . X @ 2 @ @ @ 2 9 2 % R 2XOXXXXXD.XXD.F.XXOXF.F.F.OXOXXXOXF.F.F.XXF.F.F.G./.F.F.F.D.F.F.F.XXOXOXXXOXOXF.OXOXOXOXOXF.F.F.XXF.F.F.XXOXXXOXF.F.F.F.F.XXF.OXF.F.XXF.F.F.F.F.F.F.F.OXXXF.F.F.F.XXXXOXF.XXOXOXOXOXOXOXF.OXOXOXXXOXXXXXF.XXF.F.XXF.F.F.G.F.F.XXF.XXOXOXOXOXOXOXOXOXOXOXOXF.F.].F.F.XXF.F.F.XXF.F.XXF.F.F.G.F.].XXXXF.OXOXXX].F.F.XXXXF.F.F.F.G.H.F.F.XXXXF.F.F.H.F.F.].XXF.OXF.F.OXXXOXOX/.F.F.XXXXF.F.F.OXOXOXOXOXOXXXOXOXOXOXOXOXOXOXF.OXOXOXXXOXXXOXXXF.F.F.H.XXOXF./.F.F.F.H.F.OXF.XXOXOXOXOXOXOXOXOXOXOXOXOXOXOXOXH.F.F.F.F.OXOXOXF.OXOXF.F.OXOXOXOXOX<XOXOXOX+XOX+X<XOX+XOXOX].OXOXOXOX+X<X<X,Xm.+ 2 * * * 2 2 * 2 * * @ 2 g                                                                                                                                               ",
"                                                                                                                                                                                                                                                                                                                                                                                                                                                                                                                              lX9 3 3 3 4 2 4 4 3 4 4 9 9 , d.:Xz.l.z.z.j.l.z.:Xz.v.z.].z.z.].n.:X:X:Xz.z.:Xz.z.z.l.j.z.].z.j.j.z.l.z.{.z.{.].j.z.{.z.{.z.{.z.{.{.z.:X:X:X{.n.:X:Xz.{.z.{.z.:Xz.n.n.z.:Xz.z.{.z.{.z.{.{.z.z.z.].z.].z.z.x.z.{.z.l.n.z.].{.z.{.z.{.{.{.z.z.{.z.{.z.{.z.{.z.{.{.z.z.z.z.z.{.z.z.{.z.z.z.{.z.{.z.{.n.{.:Xz.{.z.:X{.{.z.{.z.{.z.}.:Xz.{.:Xz.:Xz.{.{.n.z.{.{.F.n.n.j.z.z.{.z.l.z.].z.z.{.z.{.z.{.n.z.].z.].z.n.{.z.z.z.z.z.z.z.{.x.:X{.{.n.{.{.{.z.{.].z.].z.z.].z.l.l.j.].j.z.z.].j.j.j.z.].z.z.v.j.z.j.z.].{.z.:Xz.z.{.z.{.j.{.z.{.].n.j.].z.:Xn.{.l.{.z.].{.z.].j.z.z.j.l.z.z.z.].j.j.z.{.z.z.{.z.{.z.l.j.z.z.l.z.z.].f.- 4 2 2 2 * 3 4 * 2 * 4 * F                                                                                                                                               ",
"                                                                                                                                                                                                                                                                                                                                                                                                                                                                                                                              yX* 5 3 5 4 4 4 3 3 5 4 - 4 e E :Xz.z.z.z.z.z.z.j.z.z.z.z.z.j.n.z.x.k.z.z.z.j.z.z.z.n.j.j.j.n.j.j.z.k.z.j.z.z.j.j.z.z.z.z.n.z.z.z.z.z.z.z.k.z.z.x.n.z.{.z.z.z.j.z.z.z.z.n.n.z.z.z.z.z.z.z.j.n.j.j.z.z.z.z.z.z.z.z.z.z.z.z.z.z.z.z.z.z.z.z.z.j.j.j.j.j.z.z.z.z.z.z.z.z.z.j.n.z.j.j.z.z.z.z.z.z.z.z.z.z.z.z.z.z.j.j.j.n.z.j.j.j.j.j.z.z.k.j.x.}.x.x.z.z.z.z.j.j.j.n.z.z.z.z.z.{.z.z.x.z.z.:Xz.z.].z.n.z.n.j.z.z.z.l.x.z.l.z.z.z.z.z.z.z.z.z.z.z.z.j.z.z.n.n.z.z.z.j.j.j.z.z.j.z.z.z.z.z.z.n.z.n.j.n.z.n.j.n.z.z.j.z.z.z.z.n.z.z.z.z.n.n.j.j.z.z.z.z.z.z.z.z.z.z.n.n.z.z.z.n.z.z.z.z.z.z.{.z.z.z.z.z.l.z.z.{.x.x.n.{.z.:XM.; 4 4 4 7 4 4 3 4 4 4 4 * `                                                                                                                                               ",
"                                                                                                                                                                                                                                                                                                                                                                                                                                                                                                                              lX2 5 4 9 5 3 4 5 5 4 4 4 0 0 E :Xj.z.z.z.z.z.z.z.n.z.z.z.z.z.z.n.n.x.j.j.j.z.z.z.z.j.z.j.n.j.j.n.j.j.j.j.z.z.j.j.j.j.z.z.z.z.{.z.z.n.z.n.k.k.z.z.z.n.z.z.n.j.z.j.z.j.z.n.{.z.z.n.z.z.z.z.].z.z.z.z.z.z.z.z.z.l.z.j.z.z.j.z.j.j.z.z.z.j.z.j.z.z.n.z.n.z.z.z.z.n.j.j.j.j.j.z.z.z.z.z.j.k.z.z.j.z.j.n.z.x.z.n.z.z.z.z.z.z.x.z.z.j.k.z.k.z.z.z.x.z.z.z.z.z.z.z.z.j.n.z.z.z.z.n.z.z.z.z.z.z.z.z.z.n.z.n.j.j.j.n.z.n.z.z.z.z.x.z.z.z.x.x.z.z.l.z.z.z.z.z.z.z.z.z.z.j.j.z.z.z.z.z.v.n.z.z.n.z.z.z.n.n.n.z.z.z.z.z.z.z.z.z.z.z.z.z.z.z.z.v.n.v.n.z.z.z.z.z.z.z.z.z.j.z.z.z.z.].z.].z.z.z.{.z.z.z.{.z.z.z.z.z.z.z.z.z.z.z.}.|.f.& 4 * = 2 4 3 2 3 3 2 4 * {                                                                                                                                               ",
"                                                                                                                                                                                                                                                                                                                                                                                                                                                                                                                              yX* 9 5 9 5 5 9 5 5 5 4 8 - - R :Xj.z.z.z.z.z.z.z.v.z.z.z.z.z.z.z.k.x.n.z.z.n.n.z.z.n.j.n.j.j.j.j.j.j.j.n.z.z.z.z.j.z.z.z.z.z.n.z.z.z.z.z.z.x.z.z.k.j.n.j.k.j.z.z.z.z.z.j.z.z.z.z.n.z.z.n.n.j.n.j.j.z.j.j.j.j.j.j.j.n.z.z.z.z.z.j.n.z.z.z.n.j.z.j.z.z.z.z.z.z.j.j.n.j.j.n.j.j.j.j.j.z.z.z.z.z.z.n.j.k.j.z.j.j.j.z.z.j.j.z.j.j.j.j.j.j.j.j.z.z.z.j.z.z.z.z.z.z.z.j.z.z.z.n.j.z.n.z.z.z.n.z.z.z.j.n.n.j.n.z.j.z.z.z.z.n.z.z.z.{.{.z.z.z.j.j.z.j.z.j.z.z.z.z.j.j.z.z.z.z.z.z.z.n.n.z.z.z.z.z.v.n.z.].z.z.j.z.z.z.z.z.z.z.z.z.n.z.z.n.n.n.n.z.z.z.n.z.z.n.z.z.z.z.n.z.n.z.n.j.n.j.n.z.z.z.z.z.z.j.z.z.z.z.z.z.z.z.z.z.z.{.g.> 4 4 3 3 3 3 = 4 2 3 4 * {                                                                                                                                               ",
"                                                                                                                                                                                                                                                                                                                                                                                                                                                                                                                              rX2 4 3 4 5 5 3 5 9 5 5 5 3 ; R >Xz.j.l.j.z.z.z.j.z.j.z.z.j.z.z.j.z.n.z.z.j.n.z.z.z.j.j.z.z.j.j.x.z.z.z.j.j.z.j.z.z.j.j.z.z.z.n.j.j.z.z.j.z.n.z.z.n.z.n.z.z.z.z.j.z.j.z.z.z.j.z.z.z.z.n.z.z.j.n.j.z.z.z.z.z.j.z.j.z.z.j.z.j.j.j.j.z.j.z.z.z.z.z.z.z.n.z.j.z.n.j.j.z.z.z.j.z.j.z.j.n.z.z.z.z.n.z.z.z.z.z.z.z.z.z.z.z.j.z.j.z.z.z.z.j.j.j.n.j.j.n.j.j.].n.n.n.n.n.j.n.n.j.j.v.j.n.v.j.z.z.j.j.j.j.j.j.j.j.j.z.z.j.z.z.j.z.j.z.z.z.z.z.z.j.z.j.z.j.z.z.j.z.j.z.z.j.j.j.z.z.z.j.z.z.j.j.z.z.z.j.z.n.z.z.z.z.z.z.z.n.z.z.z.z.z.z.z.n.z.z.z.z.z.z.z.j.z.z.z.z.j.z.z.n.z.z.z.n.z.z.z.j.n.z.j.n.j.j.n.z.z.n.z.z.z.z.z.z.z.z.:Xh.; 4 1 8 2 4 3 3 2 4 * 4 2 [                                                                                                                                               ",
"                                                                                                                                                                                                                                                                                                                                                                                                                                                                                                                              yX9 9 5 5 3 5 5 5 5 3 5 5 5 ; T >Xz.j.j.j.z.j.z.z.z.z.z.z.z.z.z.n.z.z.z.j.z.z.x.j.z.n.z.z.z.n.z.z.z.z.z.z.z.j.z.j.j.z.z.z.z.z.z.z.n.z.z.z.j.z.z.z.j.x.z.z.z.j.z.n.z.n.z.z.z.n.z.z.z.z.j.z.z.z.z.z.z.z.j.n.n.z.j.z.z.z.z.j.z.z.j.j.j.z.z.z.n.z.z.j.z.j.z.z.z.z.z.z.z.z.z.n.z.z.z.n.j.z.z.z.j.j.z.z.z.z.n.z.z.z.j.n.z.z.j.z.z.z.z.j.j.n.v.n.n.v.v.j.j.j.j.n.].j.j.j.n.].j.n.n.j.n.z.z.j.z.z.j.j.j.j.j.j.z.j.z.j.z.z.z.z.j.j.z.z.n.z.z.z.n.j.z.j.z.j.j.z.z.z.j.j.z.j.z.j.z.z.z.n.z.z.z.j.z.z.z.z.j.z.z.n.z.z.z.z.j.z.z.z.j.n.z.z.n.z.z.z.n.j.z.j.n.z.z.z.z.j.z.j.z.z.z.z.j.z.z.z.z.z.z.z.z.z.z.z.j.z.z.z.z.z.z.{.z.:Xz.|.B.- 4 4 3 4 4 4 2 2 4 2 * 4 m                                                                                                                                               ",
"                                                                                                                                                                                                                                                                                                                                                                                                                                                                                                                            HXlX9 q 9 5 4 5 5 3 5 4 5 4 4 - R >Xz.j.z.j.j.z.z.j.j.n.z.z.j.z.j.j.j.z.z.z.z.z.z.z.z.z.z.j.z.z.z.z.z.z.z.n.z.z.z.z.z.z.z.j.j.z.z.z.z.z.j.n.z.z.z.j.n.z.x.z.n.z.z.z.z.z.j.z.z.z.z.z.z.z.z.z.z.z.z.z.z.z.z.z.z.j.z.j.z.z.z.z.z.z.z.z.z.j.j.z.j.z.z.n.z.j.z.z.z.z.z.z.j.n.z.z.n.j.z.z.z.z.j.z.z.z.j.z.z.z.j.j.j.z.z.j.j.z.j.j.z.j.z.z.j.].j.j.j.j.j.j.n.v.j.v.j.j.j.j.j.j.j.j.n.j.z.j.j.z.z.j.j.z.].j.z.z.j.z.j.z.j.j.z.z.n.z.j.j.j.z.z.z.z.z.z.z.z.z.z.z.z.z.n.j.z.j.z.j.z.z.z.z.z.j.z.z.j.z.z.z.z.z.z.z.z.z.z.z.z.j.n.z.j.z.z.z.j.z.z.z.z.z.z.z.z.z.z.n.n.z.z.n.z.z.z.z.j.z.z.z.z.z.z.z.z.z.z.z.j.z.z.z.z.n.z.z.z.{.n.{.f.; 4 3 4 3 4 * 4 2 2 * 4 4 `                                                                                                                                               ",
"                                                                                                                                                                                                                                                                                                                                                                                                                                                                                                                              lX5 5 5 3 3 3 5 5 3 3 5 3 4 - W >X:Xz.z.j.z.j.j.z.z.z.j.z.n.z.z.j.z.z.n.j.z.z.j.n.z.z.z.n.j.z.z.z.z.z.z.j.z.j.n.z.z.z.z.z.z.n.z.j.z.z.z.z.z.z.z.n.z.n.z.z.j.z.z.z.z.z.z.n.z.j.z.j.j.n.j.z.z.n.z.z.z.z.z.j.z.z.z.z.z.j.n.z.j.j.z.z.z.n.z.z.z.z.z.z.z.n.z.z.z.j.n.z.z.z.z.z.z.z.z.z.j.z.n.z.z.z.n.z.n.z.z.z.z.z.z.j.z.z.z.n.n.z.z.z.j.j.j.j.j.j.].n.j.j.n.n.j.n.j.n.j.j.j.j.j.j.z.j.z.z.z.j.z.j.j.z.z.z.z.z.z.z.z.n.z.z.j.z.z.z.z.z.j.n.z.z.z.z.j.z.z.z.j.z.z.z.z.z.z.z.j.n.z.z.z.z.z.z.n.z.j.z.z.z.z.n.z.z.j.z.n.z.j.z.z.z.z.z.z.z.j.n.z.z.n.j.z.z.z.z.z.z.z.z.z.j.j.n.z.z.j.n.z.z.n.z.z.z.z.j.z.z.z.z.z.z.z.n.z.z.z.{.f.% 4 2 3 2 2 2 2 2 2 3 2 4 F                                                                                                                                               ",
"                                                                                                                                                                                                                                                                                                                                                                                                                                                                                                                              lXq 5 5 3 3 3 5 3 4 3 4 3 9 - R +Xn.j.j.j.j.j.z.j.z.z.z.z.z.z.n.n.n.z.z.z.z.z.z.z.n.z.z.j.z.z.z.z.j.n.z.z.z.z.z.z.z.z.n.z.z.z.z.n.z.z.j.z.j.n.z.z.j.z.n.z.j.z.n.j.z.z.z.j.z.j.z.n.z.z.j.z.z.z.z.z.n.j.z.z.z.z.n.j.j.z.z.j.z.j.z.z.n.z.j.z.z.z.z.z.z.z.z.z.z.z.z.z.j.z.z.n.z.n.j.z.z.j.z.z.z.z.z.z.j.z.n.j.z.z.x.n.j.n.z.z.z.z.z.z.n.j.j.j.n.].j.j.j.j.n.j.j.n.v.n.j.j.j.z.j.z.n.z.z.z.z.j.j.z.j.j.j.j.z.z.z.z.z.z.z.j.z.z.z.z.n.j.z.z.n.z.z.z.j.z.z.z.j.z.z.z.z.z.n.z.z.z.z.z.z.z.n.z.z.z.j.z.z.z.z.z.j.z.z.z.z.z.j.n.z.z.j.z.j.z.z.j.n.z.n.z.z.z.j.z.z.z.z.z.j.n.z.z.z.z.z.j.z.j.j.z.z.z.z.j.z.z.z.z.z.z.z.z.z.z.j.z.f.% 4 2 3 3 2 2 2 3 2 2 2 4 )                                                                                                                                               ",
"                                                                                                                                                                                                                                                                                                                                                                                                                                                                                                                              rX2 3 4 4 4 4 4 4 5 5 4 3 4 + W >X].z.j.j.z.l.j.z.z.z.z.j.z.z.v.z.j.j.z.z.j.n.z.z.j.z.z.z.z.j.n.j.z.z.z.z.j.n.z.z.z.z.j.z.z.z.z.j.n.j.z.z.z.x.z.j.z.z.j.z.z.z.z.z.n.j.z.z.z.j.z.z.z.z.z.n.z.n.z.n.z.z.j.z.z.z.z.z.z.z.z.z.z.z.z.z.z.z.z.z.z.z.z.j.z.j.z.z.j.n.z.j.z.z.z.j.z.z.z.z.z.n.z.z.j.n.z.z.z.z.z.z.z.z.z.z.z.z.z.j.j.z.z.z.n.v.j.j.j.j.j.j.j.j.n.v.v.j.n.j.n.j.z.z.z.z.z.z.z.z.z.j.z.j.z.z.j.j.j.z.j.z.z.z.z.n.z.z.z.z.z.z.j.z.j.z.n.z.z.z.n.z.z.z.n.z.z.z.j.z.z.z.z.z.n.j.j.z.z.z.z.z.n.j.z.n.z.z.n.z.z.j.z.z.z.z.n.z.z.z.z.z.z.j.j.z.z.z.z.z.z.j.j.z.z.z.z.z.n.j.z.z.n.z.z.z.n.z.j.z.z.z.z.z.z.z.n.z.z.z.l.].g.% 4 2 3 2 4 4 4 2 2 4 2 4 {                                                                                                                                               ",
"                                                                                                                                                                                                                                                                                                                                                                                                                                                                                                                              iX* * 4 4 5 3 3 3 3 5 4 4 4 X P |.z.z.z.z.j.z.z.j.z.z.j.j.z.z.j.j.j.j.z.z.z.z.z.j.z.z.n.j.n.z.z.n.j.z.z.j.z.j.z.j.z.z.z.z.n.j.z.z.z.z.z.j.z.z.z.z.z.j.z.z.z.z.j.x.z.z.z.n.z.n.z.z.z.z.j.z.j.z.z.n.z.z.z.z.n.z.z.z.n.j.n.z.z.z.z.z.z.z.z.z.n.j.z.n.z.z.z.j.z.z.j.z.j.n.z.z.j.z.j.z.z.z.z.z.z.z.z.j.z.n.j.z.z.z.z.z.z.z.j.z.z.z.n.j.j.n.v.n.j.j.v.n.].n.j.n.n.j.n.j.n.j.z.z.z.z.z.z.z.z.z.z.j.z.z.j.j.n.z.j.z.n.j.z.j.z.z.z.z.z.j.z.z.z.z.z.j.z.j.z.j.z.z.n.j.z.z.j.z.z.z.n.z.z.z.j.z.z.n.j.z.z.z.z.z.z.z.z.j.z.z.n.z.z.j.z.z.z.z.n.z.z.z.z.z.z.j.z.z.z.z.z.z.n.j.z.z.n.z.j.z.z.n.z.z.z.j.z.z.z.z.z.z.z.z.z.z.z.{.n.z.{.d.& 4 2 3 2 4 4 2 - 4 * * 4 (                                                                                                                                               ",
"                                                                                                                                                                                                                                                                                                                                                                                                                                                                                                                              pX* = & - : : - : - 0 : 5 - * R |.j.z.z.n.j.z.z.j.z.z.z.j.j.z.z.z.z.n.z.z.z.z.z.z.n.z.z.z.z.z.z.z.z.z.z.n.z.z.z.n.z.n.j.z.z.z.z.z.z.z.z.n.z.z.n.j.z.n.z.z.n.z.z.z.z.z.z.j.z.z.z.j.n.z.z.z.n.z.z.z.z.z.n.j.j.j.z.z.z.z.z.z.z.z.j.n.j.z.j.j.z.z.z.z.z.n.z.n.z.z.z.n.z.z.z.z.z.z.n.z.z.z.j.n.z.j.z.n.z.z.z.z.j.n.j.z.z.z.n.z.z.z.z.z.j.n.n.z.j.j.j.n.n.n.j.j.n.j.j.j.z.z.z.z.j.z.n.z.j.z.j.z.z.z.z.z.z.v.z.n.z.z.z.z.z.z.j.n.z.z.z.z.j.n.z.z.z.z.n.z.z.z.z.j.z.z.z.n.z.j.z.j.j.n.z.z.n.z.z.z.z.j.n.z.z.z.z.n.z.z.z.z.j.z.n.z.z.z.z.j.j.n.z.z.z.j.n.z.n.j.j.z.z.z.z.z.z.z.z.z.z.z.z.j.n.j.z.z.j.z.j.j.z.z.z.z.z.z.z.z.n.l.d.% * & = * % - - 5 - 5 4 - F                                                                                                                                               ",
"                                                                                                                                                                                                                                                                                                                                                                                                                                                                                                    eXeXeXwXwX8X8XeXwXeXeXeXrXJ.S D D G I I I I G D D D N M f.l.z.z.z.j.z.j.j.z.z.z.j.z.j.z.z.z.z.z.n.j.z.z.z.z.z.n.z.z.z.z.z.z.z.z.n.z.z.z.j.n.z.j.z.z.z.j.z.z.z.z.z.z.z.z.z.z.n.z.z.j.n.z.z.j.z.z.z.n.j.z.z.z.z.z.z.n.z.z.z.z.z.z.z.n.z.z.z.j.z.z.n.j.z.z.z.z.j.z.j.j.z.z.j.z.z.z.j.n.j.z.z.j.z.z.z.n.z.z.z.z.z.z.z.z.n.j.z.z.z.z.z.n.z.z.z.j.z.n.z.z.z.z.j.z.z.z.j.j.z.j.n.n.z.z.j.n.z.j.j.n.z.j.n.j.z.z.j.z.j.z.j.z.z.z.z.z.z.j.z.z.z.z.z.j.z.j.z.n.j.z.z.z.z.z.z.z.z.z.z.z.z.j.z.j.n.z.z.j.z.z.z.z.z.j.z.z.n.j.z.z.z.z.z.z.z.j.z.z.z.z.z.z.z.n.z.j.z.n.j.z.z.z.z.z.z.z.z.z.z.z.z.z.z.n.z.z.z.j.n.j.z.z.j.z.z.z.n.z.z.z.z.n.j.z.z.z.z.z.n.z.z.{.g.B B N B Z S D Z Z M Z b Z F 8X8X8X8X8XrXeX7X7X8X8XwXwX8X0XwX8X8X8XyXeX8X7Xs.7X8X8Xs.                                                                                      ",
"                                                                                                                                                                                                                                                                                                                                                                                                                                                                                                  eX1 9 5 5 4 5 4 2 2 2 2 * 2 , 2X<X:X].+X+X<X,X+X,X,X;X>X+X|.z.j.z.j.j.j.z.j.j.j.j.z.j.z.z.z.j.z.z.z.z.z.j.j.n.z.z.z.z.z.n.z.z.n.z.z.z.z.z.z.z.n.z.z.j.z.n.z.z.n.z.z.n.z.z.z.z.j.z.z.z.z.z.z.n.j.n.z.z.z.z.j.z.z.j.j.z.z.z.z.j.z.z.j.z.z.z.z.n.z.z.z.z.z.z.j.n.z.z.z.z.z.z.z.z.z.z.z.z.z.z.z.n.j.z.z.z.z.j.z.z.j.z.z.z.z.z.z.z.z.j.z.j.z.z.z.n.z.j.z.j.z.j.z.j.z.z.z.z.j.z.v.z.z.z.z.z.z.z.z.z.z.z.z.z.z.z.z.n.z.j.z.z.j.n.z.j.j.j.z.z.z.j.n.z.z.z.z.z.z.z.j.z.z.z.n.j.z.z.z.z.z.n.z.z.z.z.z.z.z.n.n.j.z.z.n.z.z.z.z.z.n.z.z.j.z.z.n.n.j.z.z.j.z.j.n.z.z.z.z.z.z.z.n.j.n.z.j.z.n.z.z.z.z.z.z.z.z.z.z.z.z.z.z.n.z.z.j.z.z.j.z.z.n.z.z.z.j.z.j.z.z.z.].OX].].+XOXOX+XOX<X+XOXOX2Xa.; * 4 2 4 4 * 4 2 4 4 2 2 2 2 * 4 2 @ 4 @ 4 * * 2 @ 2 X HX                                                                                    ",
"                                                                                                                                                                                                                                                                                                                                                                                                                                                                                                  rX@ 2 3 * 2 2 * 2 2 2 3 2 7 > OXz.n.j.z.z.j.x.}.x.x.k.x.x.j.j.z.z.z.j.z.l.z.j.z.z.z.z.j.z.j.z.z.n.z.z.z.z.z.n.n.j.z.z.j.n.j.n.j.z.z.z.z.j.z.z.z.z.j.z.z.z.z.z.z.j.z.z.n.x.n.z.z.n.n.z.z.z.j.z.z.z.j.z.z.z.n.z.z.n.z.z.j.z.z.n.n.z.z.j.z.n.z.z.z.z.z.z.z.z.z.j.z.j.j.n.z.z.z.n.z.n.z.z.n.z.z.z.z.j.z.j.z.z.n.j.z.n.z.n.n.z.z.n.z.n.z.z.z.n.z.z.z.j.z.n.z.z.z.z.z.j.z.z.z.z.n.z.j.n.z.z.z.n.z.z.z.j.z.z.z.z.j.z.z.z.z.j.z.z.z.n.z.z.z.z.z.z.z.z.z.z.z.z.z.z.n.z.z.z.z.z.n.z.z.z.z.z.z.z.z.z.n.z.z.z.n.z.n.z.z.z.z.z.n.j.j.z.j.n.z.z.z.z.n.z.z.n.z.z.z.z.z.j.z.z.z.j.z.z.j.z.z.n.j.z.n.z.z.z.z.z.z.j.z.z.n.z.j.z.z.z.z.z.n.z.z.z.j.z.z.j.j.z.z.z.z.z.{.z.z.z.n.n.z.z.{.{.{.{.{.>Xm.@ * 4 2 3 3 * 2 2 2 4 2 4 2 * 2 2 4 4 4 w 4 4 4 3 4 2 X HX                                                                                    ",
"                                                                                                                                                                                                                                                                                                                                                                                                                                                                                                  yX* 2 3 2 3 4 4 4 2 2 3 3 3 v <Xj.j.z.j.j.n.j.x.k.k.x.k.k.k.k.z.z.j.j.j.z.z.j.z.z.z.j.z.z.n.z.z.j.z.z.z.z.z.z.z.z.z.z.z.z.z.z.z.z.z.j.z.n.z.z.z.z.z.n.j.j.n.z.z.n.z.z.j.z.z.z.z.z.j.z.z.z.z.z.n.z.z.z.z.z.j.z.z.z.z.z.z.n.z.z.j.z.z.z.z.j.z.j.n.j.z.z.z.z.z.z.j.z.z.z.z.z.z.j.z.j.z.z.z.j.z.z.n.z.z.z.z.z.z.z.z.z.j.z.z.z.z.z.z.j.z.z.z.j.z.z.z.z.z.z.z.j.n.z.z.j.z.z.z.z.j.z.z.z.z.z.z.j.z.z.z.n.z.z.n.z.z.z.z.z.z.n.z.z.z.j.z.n.z.j.n.z.z.j.n.j.z.n.z.z.j.z.j.n.z.z.j.z.n.j.z.z.j.n.z.z.j.z.z.z.j.z.j.z.j.z.j.z.z.z.z.z.z.z.z.z.z.z.j.z.z.z.z.z.n.z.z.n.z.z.z.z.z.n.z.z.z.z.z.z.z.z.z.z.z.z.z.n.z.z.z.z.z.z.z.j.n.z.z.j.z.j.j.z.z.z.j.z.z.z.z.z.z.j.j.j.j.j.j.n.z.z.j.l.z.+Xm.% = 2 * 2 2 2 * 4 2 * 4 4 4 2 2 2 * 4 4 * 2 2 2 2 4 4 X                                                                                       ",
"                                                                                                                                                                                                                                                                                                                                                                                                                                                                                                  eX@ 5 4 2 2 * 4 3 2 2 2 = * < ,Xz.z.z.z.k.x.k.z.z.n.z.j.j.j.j.j.j.j.j.j.z.z.j.z.z.z.j.z.z.z.j.z.j.z.z.j.z.z.n.z.j.z.j.z.z.z.z.z.z.j.z.z.z.z.z.z.z.j.z.z.n.j.z.z.j.z.j.z.z.z.n.z.z.z.j.z.z.n.z.n.z.z.n.n.z.z.z.j.z.z.j.j.z.j.z.z.z.z.z.z.z.n.z.n.z.z.z.n.z.z.z.z.j.z.z.z.z.z.z.z.z.z.n.z.n.j.z.z.n.z.z.n.z.z.j.z.z.n.z.z.z.z.z.z.z.z.z.z.z.z.z.z.j.n.z.z.z.n.j.z.z.z.z.z.z.j.n.j.z.z.n.n.z.n.z.n.z.z.z.j.z.z.z.z.z.z.z.j.z.j.z.z.j.z.z.z.z.z.n.z.z.z.n.n.z.z.z.z.j.z.n.z.z.n.z.n.z.z.z.n.j.z.z.j.n.z.z.z.z.n.z.n.j.z.z.j.n.z.z.n.z.z.z.z.n.j.z.z.j.z.n.z.z.n.z.z.j.j.l.z.z.z.z.z.z.z.j.z.z.z.z.n.z.z.z.z.z.z.z.z.n.z.j.z.z.z.j.z.z.z.z.z.j.z.z.z.x.n.x.z.{.z.z.j.j.l.z.z.z.z.:Xm.- @ 4 4 2 * 2 2 * 2 2 * 2 2 * * 4 2 * 2 2 4 4 2 2 7 2 . HX                                                                                    ",
"                                                                                                                                                                                                                                                                                                                                                                                                                                                                                                  eX@ 2 2 4 2 3 3 3 = 4 2 3 - v ,Xz.j.z.z.z.z.z.z.z.z.z.z.z.z.z.z.j.l.z.z.z.j.z.j.z.j.z.j.z.z.z.z.n.z.z.z.z.z.j.z.z.n.z.z.j.z.n.n.z.n.z.j.z.n.j.z.z.z.n.z.z.z.z.z.z.z.n.z.j.z.j.z.z.n.z.z.z.j.z.z.z.z.z.j.z.z.z.z.z.z.n.z.n.z.z.z.n.z.z.z.z.j.z.j.z.z.z.j.z.z.z.z.z.z.j.n.z.z.z.j.z.z.j.z.z.z.z.z.j.z.z.j.z.z.z.z.z.j.z.z.j.n.z.z.z.j.n.z.z.j.j.z.j.z.j.z.z.z.j.j.z.j.z.j.z.z.z.z.z.z.z.j.z.z.z.j.z.z.j.z.z.z.j.j.n.j.z.z.z.n.z.z.z.j.n.z.z.z.z.z.z.z.z.j.z.z.z.z.n.z.z.z.z.j.z.j.z.z.z.z.z.z.z.z.z.z.z.z.z.j.z.z.z.z.z.z.z.z.z.j.z.j.z.z.j.z.z.z.z.z.z.z.j.z.j.j.j.j.j.z.j.z.n.z.n.z.z.z.z.n.z.z.z.z.{.n.z.z.z.z.z.z.z.z.z.z.z.z.z.z.z.z.z.n.j.z.k.j.x.z.z.z.z.z.z.z.z.z.j.j.].a.- 4 4 2 4 4 3 2 2 2 * 4 4 4 4 2 2 2 2 2 2 2 2 2 2 2 9 . HX                                                                                    ",
"                                                                                                                                                                                                                                                                                                                                                                                                                                                                                                  yX2 2 4 2 4 3 2 4 3 2 2 3 5 < ,X{.n.j.z.z.j.z.j.z.z.z.z.z.j.z.z.j.j.j.j.z.z.j.z.j.z.z.z.z.z.j.j.z.z.z.z.j.z.z.j.z.z.z.z.n.z.z.z.z.j.z.j.z.z.z.n.j.z.j.z.j.z.z.n.j.z.z.z.n.z.z.z.z.j.z.z.z.z.z.z.z.j.z.j.z.n.j.n.j.z.z.z.z.z.z.z.z.n.j.z.z.n.j.z.z.j.z.z.z.z.n.z.z.z.z.j.z.z.z.n.z.z.z.z.j.z.z.j.z.j.z.z.z.n.j.z.z.z.z.z.n.z.z.n.z.z.z.z.j.z.j.j.z.z.z.n.z.z.z.z.j.z.j.z.n.z.z.j.n.j.z.z.z.n.z.z.z.z.n.j.z.z.j.z.z.z.j.z.z.z.z.z.z.z.z.n.j.z.z.n.j.n.j.j.z.n.j.z.j.z.j.z.z.j.z.z.z.j.n.z.z.j.n.z.z.n.j.z.z.z.z.z.z.j.n.z.z.z.z.z.z.n.z.z.z.z.n.z.n.z.z.n.z.z.z.z.z.z.j.j.z.z.x.{.z.z.z.z.z.x.{.z.z.z.z.z.z.z.z.z.j.z.z.n.j.n.j.z.z.n.j.z.z.z.x.z.x.z.z.z.z.z.z.z.z.z.z.z.z.j.<Xm.; 4 4 2 * 2 2 2 2 2 2 * 2 2 2 2 4 2 2 2 2 2 * 2 4 2 9 @ HX                                                                                    ",
"                                                                                                                                                                                                                                                                                                                                                                                                                                                                                                  yX@ 2 3 = 4 3 3 * 3 3 4 3 - M ,Xz.j.j.z.z.z.j.z.z.x.j.z.z.z.z.z.j.j.j.z.j.j.z.z.z.z.j.j.z.z.n.x.z.z.j.n.z.z.z.n.z.z.z.z.j.z.j.n.z.z.z.n.z.z.z.z.z.z.z.z.n.z.z.z.z.z.z.z.j.z.z.z.n.z.z.z.j.n.z.z.j.z.n.z.z.z.z.z.z.z.n.z.z.j.n.z.z.z.z.j.z.z.z.z.z.n.z.z.z.z.j.z.z.j.j.z.j.j.j.j.z.z.z.z.z.n.j.z.z.n.z.z.z.z.z.z.z.j.z.j.j.z.z.j.z.j.z.z.z.j.z.z.z.z.z.j.z.z.z.z.z.j.z.j.z.z.z.z.z.z.z.z.z.j.z.z.z.z.z.z.z.z.n.z.z.z.n.z.z.z.j.n.z.z.z.j.z.z.z.z.z.z.z.z.z.z.z.z.z.z.n.z.z.n.z.z.j.z.z.z.z.z.z.z.j.z.z.z.z.n.z.z.z.z.z.z.j.j.n.z.z.j.z.z.z.z.z.z.j.j.z.z.j.z.z.j.z.j.z.j.z.z.z.z.z.z.n.z.n.x.z.z.z.z.n.z.z.j.n.z.n.j.z.z.z.z.z.z.z.z.j.z.j.n.j.z.z.z.z.z.z.n.z.j.z.z.z.z.z.n.:XB.; @ 4 2 4 * 2 4 * 4 2 4 2 4 2 2 2 4 * 2 2 2 2 2 2 4 9 . HX                                                                                    ",
"                                                                                                                                                                                                                                                                                                                                                                                                                                                                                                  yX@ 2 = 3 3 4 3 2 3 3 2 4 - M 2Xz.j.z.j.z.j.z.z.z.z.z.j.n.j.z.z.z.z.j.z.z.z.j.z.z.z.z.z.z.z.z.z.z.z.z.x.z.x.z.z.z.z.n.z.z.j.z.z.n.j.z.z.n.z.n.z.z.z.z.z.z.z.n.j.z.z.z.j.z.z.n.z.n.z.z.z.z.z.j.z.n.z.z.z.j.z.z.z.n.j.z.z.z.z.z.z.z.n.j.z.z.j.z.z.z.z.n.j.z.z.z.z.z.j.z.j.z.j.j.z.z.z.z.j.n.z.z.z.z.n.j.z.z.j.z.z.z.j.j.j.z.z.z.z.z.z.z.n.j.z.z.z.z.j.z.z.z.z.z.z.j.z.z.z.z.z.z.z.z.n.j.z.z.n.z.j.z.z.z.z.z.z.n.z.z.z.z.n.j.z.z.z.j.z.z.z.j.n.z.z.z.z.z.z.j.j.n.z.j.z.n.j.z.z.z.z.n.z.z.n.j.j.j.j.n.z.z.z.z.z.z.z.n.j.z.j.z.z.n.j.z.z.z.z.z.n.z.z.z.z.z.z.j.n.z.j.j.z.z.z.j.z.z.n.z.z.z.z.z.z.z.z.z.z.z.z.z.z.n.j.z.z.z.z.z.z.z.z.j.z.j.z.n.j.z.z.z.z.z.z.z.z.z.j.z.n.z.z.j.j.].B.# 4 = 4 2 2 * 2 2 2 2 * 2 4 2 4 2 4 * 4 4 4 2 4 2 4 4 @                                                                                       ",
"                                                                                                                                                                                                                                                                                                                                                                                                                                                                                                  yX2 2 4 4 3 3 2 2 3 3 4 4 ; M ,X:Xj.n.n.z.z.z.n.z.z.j.z.z.j.z.z.z.j.z.j.j.j.z.z.j.z.j.j.z.j.z.z.z.z.z.j.z.j.n.n.z.z.z.z.j.n.z.z.z.z.z.z.z.j.z.z.z.z.z.z.z.z.j.n.z.z.n.z.z.z.z.j.z.j.z.n.z.z.z.j.z.z.z.z.n.z.z.z.z.z.z.n.j.j.n.z.z.z.j.z.z.x.z.j.n.z.z.z.z.n.z.z.z.j.z.z.z.n.z.z.z.z.z.z.z.z.j.z.z.z.z.z.z.z.n.z.z.z.n.z.z.j.j.z.z.j.n.z.z.z.z.j.n.n.z.z.z.j.n.z.z.z.j.z.j.j.z.z.z.z.j.z.z.j.z.z.z.z.j.z.j.z.j.z.j.z.z.z.z.z.z.n.z.n.z.j.z.z.z.j.z.z.z.z.z.z.z.z.j.z.z.z.z.n.z.z.z.z.n.n.n.j.j.z.z.z.n.n.z.z.n.z.z.z.z.n.z.z.z.z.z.n.z.z.z.j.z.j.n.z.z.z.z.z.j.z.n.z.j.z.z.z.j.z.z.z.z.n.z.{.z.z.:Xz.z.x.z.z.z.n.z.z.z.j.n.z.z.z.n.z.z.j.z.z.j.z.z.z.z.n.j.z.z.z.z.j.z.z.z.j.{.M.; 4 * 4 * 2 2 4 4 2 2 2 4 4 2 4 * 2 4 2 4 2 * 2 2 4 9 .                                                                                       ",
"                                                                                                                                                                                                                                                                                                                                                                                                                                                                                                  eX* 2 4 4 3 3 4 3 3 4 4 4 = < ,Xz.j.n.z.z.j.z.j.z.z.n.z.z.z.j.z.z.j.j.j.j.l.z.j.n.z.z.z.j.z.z.z.z.z.x.n.z.z.z.z.z.z.z.z.n.z.z.z.j.z.n.z.z.z.z.z.n.z.n.z.n.z.j.z.z.z.z.z.z.j.z.z.j.z.z.z.j.z.j.z.z.z.z.z.z.n.j.j.z.z.z.z.z.z.z.n.z.z.z.z.n.x.x.z.x.x.z.n.z.j.z.j.z.j.j.z.z.j.z.j.z.n.j.z.z.z.z.z.z.z.z.z.z.j.z.z.z.z.z.z.z.j.n.z.z.z.z.j.j.j.j.z.z.z.z.n.z.z.z.z.z.z.j.j.z.j.z.n.z.z.z.z.z.z.z.z.j.j.z.j.n.z.z.z.n.j.j.z.z.n.z.z.z.j.z.j.z.j.j.n.z.j.n.z.z.z.z.z.n.j.n.z.z.n.j.z.n.j.z.].n.n.j.z.z.z.z.z.z.z.n.z.z.z.z.z.z.z.z.z.z.j.z.j.j.j.n.z.z.j.j.j.z.j.z.z.z.l.j.j.z.z.z.z.z.{.z.{.z.z.z.z.z.z.z.n.z.z.z.z.z.z.z.z.z.z.j.z.j.z.z.z.z.z.z.z.j.n.j.j.z.z.n.z.z.n.z.z.j.z.{.B.; 4 = 4 2 2 2 2 = 4 2 2 4 2 4 2 2 4 2 4 2 * 2 2 2 4 4 .                                                                                       ",
"                                                                                                                                                                                                                                                                                                                                                                                                                                                                                                  eX2 3 3 4 3 3 4 3 3 3 4 4 ; v +Xj.j.j.z.z.z.n.z.z.z.z.z.z.j.z.l.j.j.j.j.j.z.z.j.z.z.z.z.j.z.z.z.z.j.z.j.z.j.z.n.z.z.n.z.z.z.z.n.z.z.z.z.j.n.j.z.j.j.z.z.z.z.z.z.z.n.n.z.n.z.z.z.n.z.z.n.z.z.j.z.z.n.j.j.j.z.z.n.z.j.z.z.j.z.z.j.z.z.z.j.x.n.z.n.z.n.z.z.z.j.z.z.j.j.j.z.z.z.z.z.z.z.z.z.n.z.z.n.j.j.z.n.z.z.z.j.n.z.j.z.z.z.z.n.z.z.z.j.j.n.n.z.j.j.z.j.j.z.z.z.z.j.z.z.j.z.z.j.z.z.z.j.n.z.z.z.n.z.z.z.z.z.z.z.z.j.j.j.z.j.z.z.n.z.z.j.n.j.n.z.z.j.z.z.n.j.j.z.z.z.n.z.z.z.z.z.z.z.z.j.j.j.j.n.j.j.z.z.z.j.z.z.n.z.z.n.z.j.z.n.j.z.z.j.n.j.n.z.z.z.z.j.z.z.z.z.z.z.j.z.z.z.z.z.n.z.z.z.z.z.z.z.z.z.:Xz.z.z.z.z.z.j.n.z.j.z.n.z.n.z.z.z.j.n.z.z.z.z.z.z.z.z.j.z.z.j.z.n.z.j.{.g.# 4 = 4 2 4 2 4 4 2 2 4 4 4 * 4 2 2 2 2 2 4 2 2 2 2 2 X                                                                                       ",
"                                                                                                                                                                                                                                                                                                                                                                                                                                                                                                  eX* 4 2 4 3 4 4 4 5 5 4 4 - M <Xj.j.z.x.z.z.z.z.z.z.j.z.j.j.j.j.j.j.j.j.z.z.j.z.j.z.z.z.z.k.z.j.j.c.z.z.z.j.z.z.z.z.z.j.j.j.j.j.j.z.j.j.l.j.z.j.j.j.j.j.n.z.n.n.n.n.n.n.n.n.n.z.z.j.n.j.j.n.n.j.n.z.n.n.j.z.z.j.n.j.j.z.z.z.z.z.z.j.z.j.j.z.:Xn.n.z.z.n.z.n.z.n.:Xj.n.n.n.n.n.n.z.n.n.j.n.j.z.j.j.n.n.z.z.z.z.n.j.n.z.z.n.n.z.j.j.n.n.n.j.n.n.z.z.z.z.j.j.j.l.z.z.l.z.j.z.z.z.z.z.n.j.j.z.n.j.z.z.z.z.z.j.j.n.z.z.n.n.n.z.z.n.z.n.n.n.j.j.j.j.j.n.n.n.z.j.n.j.n.n.j.n.z.z.z.n.z.z.n.j.z.z.n.n.j.j.j.n.j.j.j.j.n.n.n.j.j.z.z.z.j.z.n.n.j.n.n.n.z.n.j.n.j.j.j.j.j.j.j.j.z.z.z.z.l.n.z.n.j.z.z.z.z.z.z.z.:Xz.z.x.z.z.z.j.z.z.x.z.z.z.j.z.z.z.z.z.j.z.z.z.z.z.z.z.z.j.z.z.z.z.z.{.B.< 4 4 - 2 2 2 3 3 2 - * 2 * * 2 6 4 2 4 4 4 2 * 2 2 2 X                                                                                       ",
"                                                                                                                                                                                                                                                                                                                                                                                                                                                                                                  eX* - + 3 = 4 0 5 q - e @ - M <Xj.j.z.j.n.z.z.z.z.z.z.j.n.:Xz.:X{.{.|.|.|.|.|.:X|.|.>X>X,X,X,X,X,X>X>X>X|.:X|.|.|.].:X;X<X:X;X:X:X:X|.{.<X|.<X<X;X<X,X,X>X>X,X,X,X,X,X,X,X,X,X,X,X,X<X<X,X<X:X].].<X:X:Xn.z.z.j.z.j.j.j.n.j.z.z.j.j.:X<X,X:X<X<X;X<X>X>X<X,X,X<X:X,X<X<X;X,X>X>X<X>X,X:X<X:X<X<X:X<X<X<X;X;X<X:X<X<X:X<X:X<X:X>X<X<X:X:X<X<X:X,X;X<X>X<X:X|.<X;X|.:X<X<X;X<X:X;X<X;X>X<X;X>X;X+X|.:X;X<X:X:X:X;X;X<X|.].:X].:X:X{.:X:X:X].:X:X].].j.n.].:X:X].].:Xn.v.{.z.:X:X:X].].n.n.].].n.{.:X<X>X<X:X<X:X>X;X:X:X;X:X:X|.:X:X:X:X:X:X:X:X:X:X:X:X:X].n.:X{.{.{.{.{.{.{.{.{.:X{.:X].z.n.z.z.z.z.{.x.z.z.z.j.n.z.z.z.n.z.z.z.z.n.z.z.z.z.j.z.j.n.z.n.j.z.z.j.z.z.z.z.z.z.z.B.# ; % % ; # ; & ; & & - - % 4 1 4 2 2 2 * 2 2 2 2 4 * .                                                                                       ",
"                                                                                                                                                                                                                                                                                                                                                                                                                                                                        HXHXHX                    J.c N N N B B B B B M M N B C :Xz.z.z.z.z.z.z.z.z.j.z.j.;Xi.E E R T T I T T W I I I I G G I I I G G I W W I W I I I I I I K W I W W W W W W I I I I I I G I D G D I D D D D D D D D G W I I D D I I I C <Xz.z.n.j.z.j.z.z.z.z.z.z.:Xg.B B D D D D B D D D D D D D D D I D G G I I I I I I I I D I I I I G I I I I I I I G I I I I I I I D I I W I I I W I I I W I W T W W W I I I I W I I W W W W T W W E W R W R E E E E E E R E E R E E E T E E E E E E E E t.t.E E E E E t.E E t.t.E E E E a.t.d.E t.E E E E E E E t.t.t.t.E E d.E E E t.E E E t.d.d.d.t.m.m.m.m.f.m.m.f.d.m.d.d.M.M.h.n.j.{.z.n.z.z.z.z.z.z.z.z.z.z.z.z.z.x.j.z.z.z.z.z.n.z.z.z.z.z.z.z.z.j.z.j.z.z.z.x.z.v.d.d.E i.t.i.E t.d.t.d.E E W + = 4 4 * 4 2 4 2 2 2 2 2 .                                                                                       ",
"                                                                                                                                                                                                                                                                                                                                                                                                                                                                      @.g r a l m l m l m l l g t Z 3X<X;X|.>X>X>X>X,X}.:X>X<X<Xn.k.k.j.j.z.j.j.j.z.j.n.j.,XN Z t g t h r t h h g g h t h r h h h g g g g g h g m l F m m l l n m m m l m m F l h g g g f t g g f g f g g h g l l g m g g g f g g m m m M F.{.z.j.j.z.n.z.z.z.j.z.n.:XE m t m g h h g l h m g g g s m g g g r a r f a r g l k m m m m m m m m m m m m m m m m g m g r m m m m r g g g g l h m h m m h h m m l n m m m g m g g m g m m g m g g m g g g g g g g g g g s m m w m m m m e m m w m m e m m g m m m g m m m m m m m m g g e w m r y m y t m g t g t g t g r y w g w m w m g w r r w i w r r r r 5 w w w m y m Z t.:Xn.z.z.z.z.z.j.n.x.z.z.z.n.z.z.z.z.n.j.z.z.j.n.z.z.z.z.j.z.j.z.j.n.z.z.z.n.z.z.k.j.n.:Xj.j.j.{.z.{.:X:X;X:X:X,XP.+ 4 4 4 4 2 2 * 2 2 2 2 4 @                                                                                       ",
"                                                                                                                                                                                                                                                                                                                                                                                                                                                                      [ @ @ @ 4 9 w 9 9 a a 9 6 4 N >Xk.n.k.x.n.z.v.n.n.].n.j.j.j.j.j.j.j.j.j.j.z.j.j.j.j.,XN l j l m l k l k j k k l k ! k k g k k k k l l l l ^ l j ^ l ^ l j ^ l k ~ l l l l l l l k ~ l k ^ ! k k ! l ^ k ~ k ~ ~ l ~ ! ~ ~ ! ! ~ ~ c OXz.z.z.z.z.z.j.j.z.n.j.n.:XE m k d m k k k k k s k k k k ! ! ! ^ ^ ^ ^ ! ^ ^ ! ^ ! ! m k / k l l ! l k l k k k k ! ( ~ l ~ k k l ~ k ! ^ ! k k k k k k k ^ l l l ^ k ~ l k ~ ~ ~ ~ ! ! ! k k k k k k ! k ! k k k d k k k s k k k k m d m k k s s m k k s m k k k k k k s k s k k k s d s g k j j k k k k l j k j j k k j j k s m m k m d m d k s k k k k z j j j k g k l g ! l e.|.z.x.z.z.z.z.z.z.z.z.z.z.z.z.z.n.n.n.z.z.z.z.z.n.z.z.n.j.j.z.z.z.z.n.j.z.z.j.z.j.z.z.{.n.z.n.j.n.z.k.j.k.z.n.:XZ.% 4 4 4 4 2 * 2 2 2 2 3 4 .                                                                                       ",
"                                                                                                                                                                                                                                                                                                                                                                                                                                                                      { @ @ * @ 2 2 9 9 4 4 9 9 % N ;Xj.k.k.z.z.z.j.n.v.n.n.j.j.j.j.j.v.j.j.j.j.z.j.j.z.j.,XZ m k ( ! k l ! ! k l l l l l ~ ~ ! ~ ~ l ^ ^ l l l l j ^ l l k l l l l k k j l k k k ~ ~ ! ^ l ^ k ! m k ! l k ! k ! k k ! l k k k ! k ~ z M OXj.z.n.z.z.z.j.n.z.z.n.j.:XE t m s k k g l l k l k l l ! k ! k ! ~ ^ ! j ^ ! ^ ! k k d m k j k j l k k k k l k ! l k ! ~ ~ k ^ ~ k ! k l ~ k k ^ ^ ~ ~ ^ l ^ ^ j k k k l ! ! k k k / l l l l l ! ! ~ ^ k k ! ( ! ! l k / m m m k / ! m d k ( ( k k / k ! k ! l k k ! l k k d s m s k l l k l k k k k g k k k k k ^ k ! ! k k k k s k m s k k k k k k k k k k k l k k k z ! ^ f t.|.z.:Xz.x.z.n.z.z.z.z.n.z.n.z.z.z.z.z.x.z.z.j.z.j.z.z.j.z.z.z.z.j.n.z.z.z.z.z.n.n.j.z.z.j.z.j.j.j.j.j.j.j.z.n.v.Z.% 4 @ 4 4 2 2 2 2 2 2 2 4 .                                                                                       ",
"                                                                                                                                                                                                                                                                                                                                                                                                                                                                      @.@ 2 4 2 2 6 2 6 3 9 8 9 9 N ;Xj.z.j.z.x.j.j.n.v.j.j.n.j.j.z.j.j.j.j.j.j.j.j.j.j.n.,XM m k ! m k l k ! ( m ! l k l l ! k k ^ l l k ~ k l l l l l ^ l k ^ l l ^ z l j k k k k k ! l ! l k ( d ! k k l ! k k k ! k ! k k ^ k ^ k k , OXj.j.j.j.j.z.j.j.n.j.j.j.:XE g k k s k l k k k s s k d k k ( ! k k k k k ! k k k k k m s k k k ! k k k k k k k m m k j k k k g ! k l k k k k l ^ k l k k k k j k k k k ! k k k k k m k k k k k / k k l k k ! k k k k k k / k ! k k k m d d d k k k k k k k / k k k k k k k ( k k k k k k k k k k s k j k k k k j k j j j k k k k k k s s k d k s k k k k k k l k ! k ! j ^ f r E |.z.n.x.z.z.z.z.z.z.x.z.z.z.z.z.z.x.z.z.z.n.z.z.z.z.z.z.z.z.j.z.z.z.z.z.n.z.j.z.z.k.z.z.z.z.j.j.z.x.x.x.x.x.n.n.B.% - 4 - 4 2 2 2 2 2 2 2 4 .                                                                                       ",
"                                                                                                                                                                                                                                                                                                                                                                                                                                                                      ] @ * 4 2 2 2 2 2 4 2 2 9 q B >Xn.k.k.z.z.j.j.j.j.j.j.j.j.j.j.j.j.j.j.j.v.j.j.j.j.n.>XM m k k ! k k m k k ( k ( ! l ! l ! k j j ^ k k l ^ j ^ l j k ~ k k ^ j j k j j k k ! k ~ k k k ~ k k k k k ! k l k k k k k k k k j k k k k , OXc.j.j.n.j.j.j.j.j.j.j.j.:XE y k l g ! k k k k k k k m k d k ! ! ! ! ! ! k ! k k k k s k k k k k k k ! k k k k k / k k ! ! k k k k k ~ k k k k j k j k k k ^ k ^ k ~ k k k k ! k k k k ! / m m k ! k k k k l l k k k k k k k k k k k d m m d k k k k k k ! m k k k k k k k k k k k k k s k k k j k k k k k k ^ j j j k k j k k k k j s m k m m l s g z k ^ j k k k k k ^ l k r I |.z.z.x.{.z.x.z.z.x.z.x.{.z.z.z.n.z.z.z.z.z.j.n.z.z.z.z.n.j.n.z.z.z.z.z.j.z.z.z.z.z.z.z.n.z.j.j.x.z.z.z.x.x.n.n.B.# @ 4 1 4 2 * 2 2 2 2 2 4 *                                                                                       ",
"                                                                                                                                                                                                                                                                                                                                                                                                                                                                      #.@ 2 2 2 2 2 2 2 6 2 2 6 w C >Xz.z.c.z.z.z.j.z.j.j.j.j.z.j.j.z.j.j.j.j.j.j.j.j.j.k.>XN l ( k k k k k k l k m / ! k k ( k k k k k ^ k k l ^ j k k k ^ ^ k j l j k k k k k ! k / m ! ! k ! k m / ! k k k k k k ! k k k k k k k k k c OXz.j.n.j.n.j.j.j.j.j.j.j.:XR y s k s k k k s k s k m k s k k l ! ! k ! k ! ! k k k k m s k k k k k l k k k ! k k k k k ! k k j ! k ! ^ k k ^ k k k k ! k k k k k l ! ! k ! k k / k ! m / k ! k k d ! l k k k k m m / k k k k m / k k / m k s k / d ! k k k k k k ( k s k k k k k k k k k k k k s k k k j k k j k j ^ k k j k j k g k k k k j k j k s k k k l k k k k k ! k l r W ].z.z.{.z.x.z.{.:Xz.n.z.x.z.z.z.z.{.n.z.{.n.j.z.x.z.z.z.n.z.z.z.z.z.z.z.z.z.z.j.z.z.z.n.z.z.z.x.n.n.x.j.z.n.x.z.M.; 4 4 4 4 4 2 2 * 2 2 * 2 .                                                                                       ",
"                                                                                                                                                                                                                                                                                                                                                                                                                                                                      @.* 8 2 2 2 1 2 2 2 2 9 9 e G ,Xx.k.k.z.j.j.z.v.n.j.l.j.j.z.z.j.z.j.j.j.j.j.j.j.j.z.>XZ h k k m ! k ! m ! k k m l ( k k k ^ k k ^ k l ^ k k ^ ^ j j l j l j ^ k j k k k ^ k ! k / k l k k / k k k k / k k k k k k k k ^ k j k k z , OXz.j.j.j.j.j.j.j.j.n.j.z.:XE g k g k k k k m k k s s k k k k k k ! ! k ! ! j / k k k k k k k k k k k k ! k k m k k ! k k k k ! j k j k k j j k j j ^ k k k k k ( k k l k ! k k ( m / k k k k k k k k k l k l k k k k ( k ( d k k / k k k k k k m k k k k d k k k d k m k d k k k d k s k s k k m k k j ! k k j j j k k j k j k j s k g s k k s k k k k k j ^ k ^ k ^ k ~ k z f W |.x.z.n.z.z.z.x.z.z.z.z.z.z.}.z.z.z.z.x.x.x.z.z.n.z.z.z.j.z.z.j.n.z.z.z.j.z.z.n.z.z.z.x.n.z.z.n.z.z.n.z.j.z.n.z.M.% - 4 4 4 4 2 2 2 2 2 2 4 @                                                                                       ",
"                                                                                                                                                                                                                                                                                                                                                                                                                                                                      @.4 4 2 2 2 2 2 2 2 2 2 2 w B 1X}.z.j.j.c.j.j.j.j.z.z.j.z.z.z.z.j.j.j.j.j.j.j.j.j.j.>XZ m k l ! m ( k l k l k ! k l l ! k k l l j k ^ k ^ k ^ k j k ^ k k j j k k k ! ! l ! k k k k k k ( k k ! k ! k k ! k / k k ^ k k k k j ^ l b +Xz.j.n.n.j.n.j.j.j.j.n.n.:XR g k k k s m k k k k k g j j k s k k / ! k ! ! k k k k k s s k k k k k j k k k ! / k k k k k k k k k j j j k k k j k j k k s k / k k k / k k k k k k k k ! k k ! ( m / k k k j k k k k / ( d k k k k k ! / k k k k k k k k / ( d k k k k k k ( k / k k k m k k m k k k k k k k ^ ^ j k j j j ! j s k s g j j g k k j k k j k k k k k k j k k k j t I |.z.z.:Xx.z.n.z.{.z.{.x.z.z.z.z.z.n.:Xz.z.n.z.n.x.z.z.n.z.z.n.z.j.z.j.z.j.z.z.z.z.z.z.z.z.z.x.z.z.z.z.z.z.z.z.{.S.O 4 4 4 2 2 2 2 2 2 2 2 4 *                                                                                       ",
"                                                                                                                                                                                                                                                                                                                                                                                                                                                                      +.9 * 3 4 2 2 1 2 2 2 2 2 0 B 1X{.z.j.j.j.z.n.v.j.j.z.j.j.z.z.l.z.j.j.j.j.j.j.j.j.x.,XN h l ! k k k k k / m ! l k ! k l k k l ^ j l j l j k k l l l j j k ^ k k k l k k k ! ! k ( d k k k k k k k k k k k k k k k k j k k k k k k , OXl.n.j.j.j.j.n.j.j.j.n.n.:XE t j g k k d s m s k k k j k k k k k k k k ! k k k k k k m k k k k k k k k k k k k / k k k k k k k k ^ j l k j k ^ j k j k k k k k k / m k ! k k k ! k k k k k k d k k k k k k k k k k k k k k k ! k k k k k ! d k k k k k k k k k k k ! k d k k k k k k s k k s k d k j j ! k k k k k j ! k ~ ! ! m k k k k k s k g k k j l l k k ^ k k ~ ! k k h D >Xz.z.x.z.x.z.z.x.z.z.z.z.:Xn.z.{.x.x.z.z.z.j.n.z.z.j.z.z.z.j.z.z.z.z.z.j.n.z.j.z.z.n.z.z.x.x.z.z.z.z.z.j.n.z.{.B.@ - 4 2 2 2 4 * 2 * 3 4 4 2                                                                                       ",
"                                                                                                                                                                                                                                                                                                                                                                                                                                                                      +.5 3 3 2 2 2 2 2 2 2 2 6 0 B 1X}.}.x.z.z.j.j.j.j.z.z.j.j.z.j.j.z.j.j.j.j.j.j.j.j.z.>XD m k ! k ! l l k m l l l k k l m / k ! k k k k k k ^ k k k k k k k k k k k k k k ! ! k ! k k k ! k k ! k k k k s m k k k k j ! k k k k k l b OXz.k.j.n.j.n.j.j.j.k.n.j.:XE m m d k s k k k k k k k k g k k k k ! k k k k k k k k k l k j k k l k k k k k k k k k k k k k k k k k k k j k k k j j k k j j k k k k k k k ! k k k ! k k k k k k k k k k j k k k k k k k d k k k k k m k k k k k k k k k k k k d k k k k s k k k k k k k k s k k s j k k j k j j k k k k k k ! k k k k k g k s k k k k k k k k k ^ k k ! ! k k h G ,Xn.}.z.z.z.{.z.z.z.z.x.z.x.{.z.z.n.z.z.z.z.z.z.z.n.z.n.z.z.z.j.z.z.j.z.z.z.z.n.j.z.z.z.n.z.n.j.z.z.z.z.z.z.j.z.Z.O 2 - 2 4 2 4 2 2 2 2 4 9 4 HX                                                                                    ",
"                                                                                                                                                                                                                                                                                                                                                                                                                                                                    HX5.q 3 2 2 2 2 3 4 2 3 2 2 5 c ,X}.z.z.z.z.z.j.z.l.z.z.j.z.z.z.z.n.j.j.j.j.j.z.j.z.j.;XD g k k l l k k k k k k k l l ! k k k k k ! k k k ! k k k k k k ^ k k k k k k k k k k k k k k k k k k k k k ! d k k s k k k j k k ^ k k k j , OXz.j.k.j.j.j.j.j.n.j.j.j.n.E e s g g g k k k k k k s k k k k k k / k k ( / ! ! ! k k s s k m k j k k k k k ! ! k ! ! / ! k k k ! ! ! k ! k k ! k ^ ! ! k ! j k / k / ! k ! k k / k ! ! k ! k ! ! j ! k k k / ! l ! k k ! ! ! / k k / d ( ! / k ! k / ! / k k k ! m k k k k k k k k ! s s k k k k k s k k k k ! j k k k k z j k k k k k k l s l g k k k k k k k k k k z k l f t I >Xn.x.z.x.z.k.z.z.z.z.{.x.x.x.x.z.z.n.x.z.z.z.z.z.z.z.z.j.z.z.z.z.z.j.n.z.j.z.z.z.j.j.z.z.z.z.z.k.k.n.z.z.z.n.j.Z.@ - 4 2 2 2 2 2 4 2 2 4 5 2                                                                                       ",
"                                                                                                                                                                                                                                                                                                                                                                                                                                                                      ,.4 5 9 6 * 2 4 * 4 * 2 2 3 c ,Xz.x.z.z.z.z.z.z.z.z.z.j.j.z.j.j.v.j.j.j.j.z.z.z.z.k.;XD l ^ ! k l ! m k k k k k k ! l k l l k l k l k j g z l z k k k k k k k k l l l k ! k k k k k z k k k k ! k k s k k ! k k / j ^ k ^ ! j l k , OXn.z.k.j.k.j.j.n.j.j.j.j.:XE r k j k j k k k k g s k g l k k k k k k k k k ! k k k k l k k s j k j l k k d ! k k k k k k j k k k k k j k k s k l k k l k k ! k k k k k k k k m ! ! k k k k k j k k j k k k k k k k ! ( m k k k ! ! k k k m d k k k k k k k m k m d ( k k k d d k k d m k k k k j k k k k k k j k k k k k j j k k k k k k k k j j k k g l k k ^ ! k k j ! k l F G ,Xn.{.z.z.n.z.x.z.z.z.z.x.k.k.x.z.z.j.n.z.n.n.z.z.z.z.z.z.j.j.z.z.j.z.z.z.n.z.z.z.j.z.j.z.z.z.x.j.x.z.z.z.z.z.v.Z.O 2 4 4 3 * 4 2 * 2 2 2 4 2                                                                                       ",
"                                                                                                                                                                                                                                                                                                                                                                                                                                                                      ,.9 4 * = + * 5 - 5 4 * @ X v ].z.x.x.x.z.z.z.z.z.z.z.l.j.n.n.j.n.n.].n.z.j.j.j.j.j.|.D j ! k k k k k k ! ~ g l k ! l ! k k j k k k k ^ j k l l k k k k / z k k k k k j s s k k k k ^ k k k k ! / k k k k k d m k k k ^ j j ^ j l , OXn.k.k.j.k.j.j.j.j.n.j.n.].E y k j g s g k k k k m k k k ! l k ( d m k k k k k k k k s m k k k l ! ! m k m k k ( l ( ! k k ! l l k k k k k k ! k k l k l l k k k l k k k k k k k l / k j k l ! k k k k k k k / m l k s k k k ! m k ! ( d ( ( k ( ( m ( ! ( k k k k s k k / / k k d m k k k k k k ! / k ! k k k ! ! ^ k k k l k k k ! m / ! ! l k ( ( l l l h z k l g k l l l h I ;Xx.x.n.}.n.}.x.x.{.x.x.x.n.n.x.z.j.z.z.z.z.z.z.z.z.j.z.n.z.z.z.z.n.z.z.z.z.n.z.z.z.z.j.z.z.z.z.x.x.z.z.z.j.n.z.Z.O * 2 * 2 2 2 4 2 2 2 2 * 2                                                                                       ",
"                                                                                                                                                                                                                                                                                                                                                                                                                                                                    HX5.< < < < $ $ < , # O O O O v ;Xz.z.l.z.z.z.z.z.z.{.j.n.:X<XF.<XF.H.F.F.<XOX<X2X+XOX2XL g ! k k k k k ( s k l k ( _ ..-.;.| / | ..&.-._ / ^ ) ) ) d / d d s / / ) ) ) / i &.........-...%...;.4X;.;.&.( k k k k k k ! ^ k ! j ^ j , OXn.k.k.j.n.j.j.j.j.j.j.n.:XE g s l k s k l k k k k k k k -.&.;._ d d _ *.-.-.) ) / _ _ | _ d i d d d d / d d d d d d k d d ) ) d ) _ _ _ _ | | _ ) ) ) _ _ _ ) ) ) ) _ ) ) d d d d d d i i d d d d d d d d d i d d d d d ) _ .._ ) d ) ) ) ) ) _ ..) / / _ _ _ ..d d i d / d / ) / ) ) ) ) ) _ ..-.-.-.<.2.6X6X2...| d ) d ^ j ^ l k k l k ! m k s t y M y y , - - , : > : : , K ,X;X:X;X>X;X>X|.{.{.{.{.l.{.:Xn.j.n.z.z.j.z.z.z.n.z.z.z.z.z.z.j.z.z.z.n.z.z.j.z.z.z.z.z.z.j.z.z.z.z.z.z.x.x.z.j.Z.# 4 4 2 2 2 2 2 2 2 2 2 * 2                                                                                       ",
"                                                                                                                                                                                                                                                                                                                                                                                                                                          fXyXwXeXwX7X7XeXyXiXrXeX8X9X%X$X2X%X+XOXOX$X%X$XOX#X).F.D.:Xk.z.j.z.z.j.{.z.z.j.j.n.h.< y , > ; , , , , , , > ; , g ! ! k ! k k k k l k k j AXAXAXAXAXAXAXAXAXAXAXAXAXAXAXAXAXAXAXAXAXAXAXAXAXAXAXAXAXAXAXAXAXAXAXAXAXAXAXAXAXAXAXMXk d k k ! k k k ^ j ^ j j , OXn.n.k.k.k.k.n.k.j.j.j.n.:XE g g j g g k j k k k s m d -.AXAXAXAXAXAXAXAXAXAXSXAXAXAXAXAXAXAXAXAXAXAXAXAXAXAXAXAXAXAXAXAXAXAXAXAXAXAXAXAXAXAXAXAXAXAXAXAXAXAXSXAXAXAXAXAXAXAXAXAXAXAXAXAXAXAXAXAXAXAXAXAXAXAXAXAXAXAXAXAXAXAXAXAXAXAXAXAXAXAXAXAXAXAXAXAXAXAXAXAXAXAXAXAXAXAXAXAXAXAXAXAXAXAXAXAXAXAXAXAXAXAXAXAXAXAXAXAX<.^ ~ ! ! k k ! ! ! ! k m K.G.OXF.F.F.G.G.H.H.G.G.F.F.B.m.f.m.d.M.S.B.M.N.m.d.d.m.f.g.:Xj.j.z.z.z.n.z.z.z.z.n.z.z.j.z.n.z.j.z.j.z.z.z.z.z.j.z.j.z.n.z.z.z.z.z.z.x.x.j.n.M.@ 5 - 2 4 4 * * 4 2 2 4 * 2                                                                                       ",
"                                                                                                                                                                                                                                                                                                                                                                                                                                          %.. X X X @ @ @ 2 8 6 4 - # $X:X;X}.x.}.}.{.}.{.:Xz.z.j.j.j.n.z.z.z.z.l.z.z.z.j.z.{.H.m m ( l g k m m m g l g d k l l g j m k k k k k k l k AXAXAXAXAXAXAXAXAXAXAXAXAXAXAXAXAXAXAXAXAXAXAXAXAXAXAXAXAXAXAXAXAXAXAXAXAXAXAXAXAXAXAXAX) ( m / k k ! k k ! j ! j , +Xn.k.k.j.k.j.j.j.j.j.j.n.].E g j k k j k k k k k j s ( 5XAXAXAXAXAXAXAXAXAXAXAXAXAXAXAXAXAXAXAXAXAXAXAXAXAXAXAXAXAXAXAXAXAXAXAXAXAXAXAXAXAXAXAXAXAXAXAXAXAXAXAXAXAXAXAXAXAXAXAXAXAXAXAXAXAXAXAXAXAXAXAXAXAXAXAXAXAXAXAXAXAXAXAXAXAXAXAXAXAXAXAXAXAXAXAXAXAXAXAXAXAXAXAXAXAXAXAXAXAXAXAXAXAXAXAXAXAXAXAXAXAXAXAXAXAXAXAXAXiX/ ! ! k ! ! ! ! ! ^ ! g m.|.z.z.z.{.{.{.l.l.{.:X;X|.H.# & & > : - - - % = ; % @ ; B >Xj.k.z.n.j.z.z.z.z.z.j.z.j.n.z.z.j.z.j.z.j.z.z.z.n.j.z.z.n.z.z.z.j.l.x.k.x.x.z.].B.% 4 2 2 2 2 3 2 4 2 2 2 2 2                                                                                       ",
"                                                                                                                                                                                                                                                                                                                                                                                                                                          *.1 1 2 4 1 4 4 9 9 9 q q > 2X;Xx.k.n.k.k.n.z.}.{.z.z.n.v.j.z.z.{.z.j.z.z.z.z.z.z.{.H.m m s k k / m d k l l l ! k l ! k k k k k k ! m g l ! AXAXAXAXAXAXAXAXAXAXAXAXAXAXAXAXAXAXAXAXAXAXAXAXAXAXAXAXAXAXAXAXAXAXAXAXAXAXAXAXAXAXAXAX..k d k k ! k ^ k j ^ j k , OXj.k.k.j.n.j.n.j.k.j.j.z.:XE t g l s k k k s g k k ! / 4XAXAXAXAXAXAXAXAXAXAXAXAXAXAXAXAXAXAXAXAXAXAXAXAXAXAXAXAXAXAXAXAXAXAXAXAXAXAXAXAXAXAXAXAXAXAXAXAXAXAXAXAXAXAXAXAXAXAXAXAXAXAXAXAXAXAXAXAXAXAXAXAXAXAXAXAXAXAXAXAXAXAXAXAXAXAXAXAXAXAXAXAXAXAXAXAXAXAXAXAXAXAXAXAXAXAXAXAXAXAXAXAXAXAXAXAXAXAXAXAXAXAXAXAXAXAXAXAXqX^ ! ! ! ! ( ! ! ! ( ! g N.{.x.z.z.n.{.z.:Xz.x.k.}.[.G.# 4 4 9 9 5 9 4 4 8 1 5 w r B <Xj.k.z.z.z.z.j.n.j.z.z.z.z.z.z.z.z.j.z.z.n.z.z.z.z.z.z.z.j.z.z.z.j.z.z.x.z.x.j.j.Z.O - 4 * 4 4 2 2 * 4 2 2 2 2                                                                                       ",
"                                                                                                                                                                                                                                                                                                                                                                                                                                          ,.4 4 2 9 9 4 6 4 7 8 9 0 & $Xx.x.n.z.x.k.z.x.x.z.z.z.z.z.z.z.z.z.z.j.z.z.z.z.z.n.z.B.: m d s ( k m k k ! k k k ( k k l k l k k k l k g ~ ' AXAXAXAXAXAXAXAXAXAXAXAXAXAXAXAXAXAXAXAXAXAXAXAXAXAXAXAXAXAXAXAXAXAXAXAXAXAXAXAXAXAXAXAX| ^ j k k k j ^ j ! ^ k j > +Xx.x.k.k.k.j.k.j.n.j.j.z.{.E g j k k g k s k k l k m j 3.AXAXAXAXAXAXAXAXAXAXAXAXAXAXAXAXAXAXAXAXAXAXAXAXAXAXAXAXAXAXAXAXAXAXAXAXAXAXAXAXAXAXAXAXAXAXAXAXAXAXAXAXAXAXAXAXAXAXAXAXAXAXAXAXAXAXAXAXAXAXAXAXAXAXAXAXAXAXAXAXAXAXAXAXAXAXAXAXAXAXAXAXAXAXAXAXAXAXAXAXAXAXAXAXAXAXAXAXAXAXAXAXAXAXAXAXAXAXAXAXAXAXAXAXAXAXAXAXMX^ ^ ^ ~ ^ / ! ! ! ! ( r m.:Xx.x.z.z.x.z.}.x.n.x.x.{.D.; 4 4 9 9 3 2 4 4 8 6 6 4 5 D ,Xz.k.z.j.j.j.z.z.z.n.j.z.z.z.z.z.z.z.z.j.z.z.z.z.z.z.z.j.j.z.z.z.z.z.z.z.z.z.n.{.Z.O 4 4 4 * 4 2 2 4 2 2 2 4 @                                                                                       ",
"                                                                                                                                                                                                                                                                                                                                                                                                                                          ,.4 8 2 3 6 8 8 4 8 7 7 5 O OXx.x.j.z.x.x.x.x.n.z.n.x.z.z.z.z.l.z.].z.z.z.z.z.z.z.{.M.: m s m k k k ! k m k k l k k k k l k k k l k l ! l ~ AXAXAXAXAXAXAXAXAXAXAXAXAXAXAXAXAXAXAXAXAXAXAXAXAXAXAXAXAXAXAXAXAXAXAXAXAXAXAXAXAXAXAXAX) j k k k j k k ^ ^ j ^ k , $Xx.x.n.j.k.j.j.n.j.j.j.n.:XE r j j k j k k k s k k k ! -.AXAXAXAXAXAXAXAXAXAXAXAXAXAXAXAXAXAXAXAXAXAXAXAXAXAXAXAXAXAXAXAXAXAXAXAXAXAXAXAXAXAXAXAXAXAXAXAXAXAXAXAXAXAXAXAXAXAXAXAXAXAXAXAXAXAXAXAXAXAXAXAXAXAXAXAXAXAXAXAXAXAXAXAXAXAXAXAXAXAXAXAXAXAXAXAXAXAXAXAXAXAXAXAXAXAXAXAXAXAXAXAXAXAXAXAXAXAXAXAXAXAXAXAXAXAXAXAXFX^ ^ ^ ^ ^ ! ! ! ) ! ( m $.:Xx.x.x.x.{.z.n.x.}.x.x.{.D.; 4 2 9 8 6 4 4 8 2 8 4 4 5 N ,Xj.j.j.n.j.z.z.z.z.x.j.z.n.z.z.n.z.z.z.n.z.z.z.z.n.j.z.z.j.z.z.z.j.z.z.x.z.z.x.z.B.@ 4 - 4 4 2 4 2 2 2 2 2 4 @                                                                                       ",
"                                                                                                                                                                                                                                                                                                                                                                                                                                          ,.8 8 9 9 3 8 7 8 2 9 7 3 O OXz.x.z.z.k.x.x.x.x.z.z.z.n.z.z.z.z.z.z.z.z.z.z.{.z.{.{.B.- k m ( k k k ! k l ( s k ! k k k l l l k k k l j l 2.AXAXAXAXAXAXAXAXAXAXAXAXAXAXAXAXAXAXAXAXAXAXAXAXAXAXAXAXAXAXAXAXAXAXAXAXAXAXAXAXAXAXAXAXm k k ! k ^ j k k j ^ k j , +Xz.x.k.k.k.j.j.j.n.j.j.j.:Xt.w k k j l s l k k g s j ! / AXAXAXAXAXAXAXAXAXAXAXAXAXAXAXAXAXAXAXAXAXAXAXAXAXAXAXAXAXAXAXAXAXAXAXAXAXAXAXAXAXAXAXAXAXAXAXAXAXAXAXAXAXAXAXAXAXAXAXAXAXAXAXAXAXAXAXAXAXAXAXAXAXAXAXAXAXAXAXAXAXAXAXAXAXAXAXAXAXAXAXAXAXAXAXAXAXAXAXAXAXAXAXAXAXAXAXAXAXAXAXAXAXAXAXAXAXAXAXAXAXAXAXAXAXAXAXAXZX) ) ^ ^ ~ ! ~ ^ ^ ( ! m m.}.x.z.z.z.:Xx.x.x.x.x.:X{.G., 9 4 3 2 9 4 4 4 4 4 8 4 4 D ,Xx.x.j.n.x.z.n.j.z.z.n.z.j.z.z.z.z.z.z.z.z.z.j.z.z.j.n.z.z.z.z.z.z.z.z.z.z.z.z.j.Z.O 4 = 2 4 2 * 4 4 2 2 2 4 @                                                                                       ",
"                                                                                                                                                                                                                                                                                                                                                                                                                                          ,.4 9 2 7 8 8 9 4 9 6 7 4 + $Xc.z.n.z.k.x.x.x.z.n.z.z.].z.z.z.z.z.z.z.j.{.z.z.z.z.{.B.- k k / ( k k m k k ! m ! m l k k ! k l ( k k k k ! ^ AXAXAXAXAXAXAXAXAXAXAXAXAXAXAXAXAXAXAXAXAXAXAXAXAXAXAXAXAXAXAXAXAXAXAXAXAXAXAXAXAXAXAXAXs ! k k k j ! ^ j ! k k k , $Xz.k.k.k.j.j.j.j.j.j.z.n.{.t.r s j k k m k k k k l j k i AXAXAXAXAXAXAXAXAXAXAXAXAXAXAXAXAXAXAXAXAXAXAXAXAXAXAXAXAXAXAXAXAXAXAXAXAXAXAXAXAXAXAXAXAXAXAXAXAXAXAXAXAXAXAXAXAXAXAXAXAXAXAXAXAXAXAXAXAXAXAXAXAXAXAXAXAXAXAXAXAXAXAXAXAXAXAXAXAXAXAXAXAXAXAXAXAXAXAXAXAXAXAXAXAXAXAXAXAXAXAXAXAXAXAXAXAXAXAXAXAXAXAXAXAXAXAXAXAX) ^ ~ ) ^ ~ ^ ) ^ / / r m.:X:Xz.z.z.x.z.z.x.}.{.z.z.G.> q 4 4 9 2 4 4 4 8 8 4 5 w B ,Xx.z.j.j.k.z.z.z.z.z.j.z.z.z.z.z.z.z.j.z.j.n.n.z.z.z.j.z.z.z.z.z.z.z.z.z.z.}.z.z.Z.o 4 = 2 2 2 4 2 2 2 2 2 4 @                                                                                       ",
"                                                                                                                                                                                                                                                                                                                                                                                                                                          :.2 9 8 7 8 4 9 8 2 8 9 5 # $X:Xx.x.z.z.z.z.z.z.z.z.z.].n.j.z.z.l.z.z.z.z.z.z.j.{.l.Z.- l k ! k l k k ( k l m / k l k k l k m ! k k k k l ^ AXAXAXAXAXAXAXAXAXAXAXAXAXAXAXAXAXAXAXAXAXAXAXAXAXAXAXAXAXAXAXAXAXAXAXAXAXAXAXAXAXAXAXAXk k k k j k ! k ^ ^ k k l , 2Xz.z.k.j.k.k.j.j.j.j.j.n.:Xt.r s g j k k k k g k s m k d AXAXAXAXAXAXAXAXAXAXAXAXAXAXAXAXAXAXAXAXAXAXAXAXAXAXAXAXAXAXAXAXAXAXAXAXAXAXAXAXAXAXAXAXAXAXAXAXAXAXAXAXAXAXAXAXAXAXAXAXAXAXAXAXAXAXAXAXAXAXAXAXAXAXAXAXAXAXAXAXAXAXAXAXAXAXAXAXAXAXAXAXAXAXAXAXAXAXAXAXAXAXAXAXAXAXAXAXAXAXAXAXAXAXAXAXAXAXAXAXAXAXAXAXAXAXAXAXVX) ^ ~ ^ ^ ^ ^ ! ) ! ( g a.}.x.z.z.z.z.n.z.z.z.}.z.{.H.: 9 4 9 9 4 3 4 9 2 8 8 9 w G 1Xn.x.x.j.k.x.z.z.z.j.z.z.z.z.z.n.z.z.z.z.z.z.z.z.j.z.z.z.z.z.z.z.z.z.j.j.z.z.z.z.Z.@ - 4 2 2 4 * 2 4 2 2 2 2 @                                                                                       ",
"                                                                                                                                                                                                                                                                                                                                                                                                                                          ,.8 6 7 9 3 8 8 4 9 2 3 3 # $X}.x.z.z.z.z.z.n.z.n.z.z.z.z.j.j.z.z.z.z.z.z.z.{.z.{.{.H.0 l m k ! k k ( k k k k ! l k / k k ! l k k k k g ~ | AXAXAXAXAXAXAXAXAXAXAXAXAXAXAXAXAXAXAXAXAXAXAXAXAXAXAXAXAXAXAXAXAXAXAXAXAXAXAXAXAXAXAXAXs k j j ! j k ^ j j k ^ ! > OXn.j.k.j.j.j.n.j.j.n.j.j.:XE r k k g k k k k k k k l s d AXAXAXAXAXAXAXAXAXAXAXAXAXAXAXAXAXAXAXAXAXAXAXAXAXAXAXAXAXAXAXAXAXAXAXAXAXAXAXAXAXAXAXAXAXAXAXAXAXAXAXAXAXAXAXAXAXAXAXAXAXAXAXAXAXAXAXAXAXAXAXAXAXAXAXAXAXAXAXAXAXAXAXAXAXAXAXAXAXAXAXAXAXAXAXAXAXAXAXAXAXAXAXAXAXAXAXAXAXAXAXAXAXAXAXAXAXAXAXAXAXAXAXAXAXAXAXAXMX^ ^ ) ^ ~ ^ ! ! ^ ! ! a m.|.x.z.}.z.{.z.z.x.n.x.{.z.H.; 9 4 9 9 9 4 4 9 8 8 8 9 r G ,Xn.x.x.j.k.z.z.z.n.z.z.z.j.j.z.j.z.z.j.z.j.z.z.z.n.z.z.z.z.j.j.z.z.z.z.n.].n.n.l.B.o 4 4 4 2 2 4 2 2 2 * 2 * @                                                                                       ",
"                                                                                                                                                                                                                                                                                                                                                                                                                                          ,.9 8 9 4 4 6 8 8 2 7 9 4 O $X:Xx.z.z.j.n.z.z.z.j.z.z.z.z.n.j.z.z.z.z.l.z.z.z.z.z.j.H.0 l l k l ! k k k ! k k k l k k m l k k k ( k m k ~ o.AXAXAXAXAXAXAXAXAXAXAXAXAXAXAXAXAXAXAXAXAXAXAXAXAXAXAXAXAXAXAXAXAXAXAXAXAXAXAXAXAXAXAXAXs ! j k ! j ! ^ j j ^ k k , OXz.z.n.j.j.n.j.j.j.j.j.j.:Xt.e d s k s k k k s k g k j ..AXAXAXAXAXAXAXAXAXAXAXAXAXAXAXAXAXAXAXAXAXAXAXAXAXAXAXAXAXAXAXAXAXAXAXAXAXAXAXAXAXAXAXAXAXAXAXAXAXAXAXAXAXAXAXAXAXAXAXAXAXAXAXAXAXAXAXAXAXAXAXAXAXAXAXAXAXAXAXAXAXAXAXAXAXAXAXAXAXAXAXAXAXAXAXAXAXAXAXAXAXAXAXAXAXAXAXAXAXAXAXAXAXAXAXAXAXAXAXAXAXAXAXAXAXAXAXAXVX/ ^ ^ ^ ^ ) ^ ! ^ / ! r N.:Xx.z.x.z.z.z.x.x.x.x.}.[.B.; 9 4 9 9 4 4 4 4 2 8 4 9 e G >Xx.z.x.j.j.j.n.j.z.j.j.n.j.j.z.z.z.z.z.j.z.j.n.z.z.z.z.j.j.z.z.z.z.z.z.z.z.z.n.z.B.@ 4 = 2 4 4 2 2 2 2 * 2 2 @                                                                                       ",
"                                                                                                                                                                                                                                                                                                                                                                                                                                          ,.9 8 2 4 6 7 8 4 8 7 4 3 + F.{.n.z.z.z.z.z.z.z.z.n.z.z.z.z.j.].z.j.z.l.z.z.z.z.z.j.Z.- g g l k m k k m k k k k k m k k / k k k k k s ! k ) AXAXAXAXAXAXAXAXAXAXAXAXAXAXAXAXAXAXAXAXAXAXAXAXAXAXAXAXAXAXAXAXAXAXAXAXAXAXAXAXAXAXAXAXd k k k j j ^ j k ^ k ! ~ , OXz.j.k.j.j.j.j.j.j.j.j.n.{.t.r m l k k g j k k k k k j ) AXAXAXAXAXAXAXAXAXAXAXAXAXAXAXAXAXAXAXAXAXAXAXAXAXAXAXAXAXAXAXAXAXAXAXAXAXAXAXAXAXAXAXAXAXAXAXAXAXAXAXAXAXAXAXAXAXAXAXAXAXAXAXAXAXAXAXAXAXAXAXAXAXAXAXAXAXAXAXAXAXAXAXAXAXAXAXAXAXAXAXAXAXAXAXAXAXAXAXAXAXAXAXAXAXAXAXAXAXAXAXAXAXAXAXAXAXAXAXAXAXAXAXAXAXAXAXAXFX^ ^ ~ ^ ~ ! ! ! ) ^ ! g N.{.:Xz.z.z.{.x.x.x.j.:Xz.{.H.# 9 4 4 4 8 4 2 8 7 4 8 8 w D ,X}.k.z.k.n.j.j.k.k.x.n.j.j.n.j.z.z.z.z.z.z.n.j.z.z.z.z.n.z.j.j.z.z.z.n.z.z.z.z.z.B.o 4 - 2 2 3 2 4 2 2 2 2 2 .                                                                                       ",
"                                                                                                                                                                                                                                                                                                                                                                                                                                          ,.w 8 6 4 4 9 7 3 3 6 5 4 # XXj.j.{.z.{.z.z.n.z.z.z.z.z.z.j.j.j.l.j.z.l.z.z.z.{.x.{.Z.- l k k m d m d k k k k k k l k k k k k l k k k l j -.AXAXAXAXAXAXAXAXAXAXAXAXAXAXAXAXAXAXAXAXAXAXAXAXAXAXAXAXAXAXAXAXAXAXAXAXAXAXAXAXAXAXAXAXd k k k k k k / j j ^ ^ z , OXz.z.j.j.n.j.j.n.n.j.j.n.:Xd.r k g k g k k k k s g l j ) AXAXAXAXAXAXAXAXAXAXAXAXAXAXAXAXAXAXAXAXAXAXAXAXAXAXAXAXAXAXAXAXAXAXAXAXAXAXAXAXAXAXAXAXAXAXAXAXAXAXAXAXAXAXAXAXAXAXAXAXAXAXAXAXAXAXAXAXAXAXAXAXAXAXAXAXAXAXAXAXAXAXAXAXAXAXAXAXAXAXAXAXAXAXAXAXAXAXAXAXAXAXAXAXAXAXAXAXAXAXAXAXAXAXAXAXAXAXAXAXAXAXAXAXAXAXAXAXVX/ ^ ! ! ~ ~ ^ ^ ) ^ ! t N.|.z.z.z.z.z.n.{.}.z.z.z.z.H.% 4 4 4 8 8 8 4 4 6 4 8 9 r B ,X:Xx.k.x.x.z.z.z.z.z.z.z.j.n.z.z.x.z.j.n.z.z.z.z.z.z.z.z.z.j.j.z.z.j.j.z.z.z.n.j.M.o 4 4 1 4 4 2 4 2 2 2 * 2 @                                                                                       ",
"                                                                                                                                                                                                                                                                                                                                                                                                                                          =.1 9 2 8 4 4 9 8 2 6 5 4 # OXj.n.z.z.l.z.{.z.z.n.z.j.n.z.j.j.j.j.l.l.z.z.{.z.z.z.n.H.0 j k / / ( / m ( m k s l k l ! k k ! ! ! k ! k j / &.AXAXAXAXAXAXAXAXAXAXAXAXAXAXAXAXAXAXAXAXAXAXAXAXAXAXAXAXAXAXAXAXAXAXAXAXAXAXAXAXAXAXAXAXg s l k k j ! j ^ ^ j k k b OXx.j.j.j.j.j.j.j.j.j.j.z.z.t.y k j k s k j k k k k s j ^ AXAXAXAXAXAXAXAXAXAXAXAXAXAXAXAXAXAXAXAXAXAXAXAXAXAXAXAXAXAXAXAXAXAXAXAXAXAXAXAXAXAXAXAXAXAXAXAXAXAXAXAXAXAXAXAXAXAXAXAXAXAXAXAXAXAXAXAXAXAXAXAXAXAXAXAXAXAXAXAXAXAXAXAXAXAXAXAXAXAXAXAXAXAXAXAXAXAXAXAXAXAXAXAXAXAXAXAXAXAXAXAXAXAXAXAXAXAXAXAXAXAXAXAXAXAXAXAXDX/ ^ ! ! ! ^ ^ ^ ) ^ ^ g N.|.z.z.z.x.{.z.x.{.z.z.x.j.B.% 4 4 4 8 4 w 4 4 4 2 2 @ * N :Xx.z.x.}.x.k.x.x.x.x.z.j.j.j.z.z.z.z.z.z.z.z.n.z.z.z.z.z.j.z.j.j.z.j.j.z.z.z.n.].B.@ - @ 4 - 4 2 2 2 2 4 2 4 @                                                                                       ",
"                                                                                                                                                                                                                                                                                                                                                                                                                                          ,.* w 4 3 9 5 9 w 9 9 4 - # XXj.n.z.z.n.{.z.z.z.z.z.j.j.:X:X|.:X:X<X;X:X|.|.|.>X<X+XH.r m *.4X0X6X6X5X2.5X5X2.2.2.2.<.5X<.1.2.2.4X-.) ..;.;.AXAXAXAXAXAXAXAXAXAXAXAXAXAXAXAXAXAXAXAXAXAXAXAXAXAXAXAXAXAXAXAXAXAXAXAXAXAXAXAXAXAXAXAXs ! j k s k j j ^ j j ! k c OXz.j.j.z.j.j.j.n.j.j.j.n.].t.m s k k j k g s k g j k j d AXAXAXAXAXAXAXAXAXAXAXAXAXAXAXAXAXAXAXAXAXAXAXAXAXAXAXAXAXAXAXAXAXAXAXAXAXAXAXAXAXAXAXAXAXAXAXAXAXAXAXAXAXAXAXAXAXAXAXAXAXAXAXAXAXAXAXAXAXAXAXAXAXAXAXAXAXAXAXAXAXAXAXAXAXAXAXAXAXAXAXAXAXAXAXAXAXAXAXAXAXAXAXAXAXAXAXAXAXAXAXAXAXAXAXAXAXAXAXAXAXAXAXAXAXAXAXAXVX^ ^ ^ ^ ^ ^ ~ ^ ^ ^ ! r N.:Xz.z.z.z.z.z.z.n.j.x.n.j.H.O o @ % - - 4 ; - - - e % , N ,Xn.z.|.}.z.{.{.}.n.{.{.z.n.n.z.z.j.z.z.z.z.j.j.z.z.j.z.j.z.z.z.z.z.n.z.z.z.n.n.z.B.o 4 4 4 4 4 2 2 2 2 * * 2 .                                                                                       ",
"                                                                                                                                                                                                                                                                                                                                                                                                                    HX                    ,.# # $ < < $ $ $ < < < < < ].l.z.z.z.j.z.z.z.z.z.z.z.z.F.T T W W W W T E R E E E $.vXAXAXAXAXAXAXAXAXAXAXAXAXAXAXAXAXAXAXAXAXAXAXAXAXAXAXAXAXAXAXAXAXAXAXAXAXAXAXAXAXAXAXAXAXAXAXAXAXAXAXAXAXAXAXAXAXAXAXAXAXAXAXAXAXAXAXAXAXAXAXAXd k k k k k s ^ j ^ j ^ k , OXj.j.j.j.n.n.j.j.j.j.j.j.z.d.y m g k k j k j k k g l s i AXAXAXAXAXAXAXAXAXAXAXAXAXAXAXAXAXAXAXAXAXAXAXAXAXAXAXAXAXAXAXAXAXAXAXAXAXAXAXAXAXAXAXAXAXAXAXAXAXAXAXAXAXAXAXAXAXAXAXAXAXAXAXAXAXAXAXAXAXAXAXAXAXAXAXAXAXAXAXAXAXAXAXAXAXAXAXAXAXAXAXAXAXAXAXAXAXAXAXAXAXAXAXAXAXAXAXAXAXAXAXAXAXAXAXAXAXAXAXAXAXAXAXAXAXAXAXAXZX/ ) ^ ^ ^ ) ^ ~ ^ ) ! f N.|.z.{.z.z.z.z.{.j.z.z.z.n.].d.d.d.d.E M.N.N.m.m.m.t.E e.t.Z.H.H.H.Z.C.H.H.H.H.H.G.H.b.:Xz.z.z.z.z.z.z.z.j.z.j.j.j.z.z.z.z.z.z.j.z.z.z.j.n.n.Z.% 4 4 4 4 2 2 2 2 2 2 4 2 X                                                                                       ",
"                                                                                                                                                                                                                                                                                                                                                                                                                ] F ) l m h l l f 9 2 * @ N.2X2XOXOXOXOX+X+XOXOX2X,X<X:Xz.j.z.z.z.z.z.z.n.z.z.n.n.H.; m m s m r a w g g r g l xXAXAXAXAXAXAXAXAXAXAXAXAXAXAXAXAXAXAXAXAXAXAXAXAXAXAXAXAXAXAXAXAXAXAXAXAXAXAXAXAXAXAXAXAXAXAXAXAXAXAXAXAXAXAXAXAXAXAXAXAXAXAXAXAXAXAXAXAXAXAXAXg k j j k k ^ j ! ! l k l Z OXn.j.z.z.z.j.n.z.z.j.j.j.].t.y m s k s k g s s k g s j i AXAXAXAXAXAXAXAXAXAXAXAXAXAXAXAXAXAXAXAXAXAXAXAXAXAXAXAXAXAXAXAXAXAXAXAXAXAXAXAXAXAXAXAXAXAXAXAXAXAXAXAXAXAXAXAXAXAXAXAXAXAXAXAXAXAXAXAXAXAXAXAXAXAXAXAXAXAXAXAXAXAXAXAXAXAXAXAXAXAXAXAXAXAXAXAXAXAXAXAXAXAXAXAXAXAXAXAXAXAXAXAXAXAXAXAXAXAXAXAXAXAXAXAXAXAXAXAXZX/ ^ ~ ! ! ^ ! ! / ! ! t N.;Xz.z.z.z.z.z.z.z.l.z.j.n.j.:X:X{.|.{.|.:X:X;X:X>X;X;X>XH.> - e e e e e - 0 : 0 e , t.;Xk.k.k.z.z.z.z.j.z.z.z.n.z.z.n.j.n.z.z.z.z.n.z.z.n.v.B.% 4 3 4 4 4 * 4 4 2 4 2 2 X                                                                                       ",
"                                                                                                                                                                                                                                                                                                                                                                                                                9 2 8 8 9 9 9 7 9 4 9 4 X M.].z.k.z.{.}.:X:X:X:X{.z.z.z.z.j.z.z.n.z.z.z.z.z.j.z.n.F.: m s m m s j j g k j j j mXAXAXAXAXAXAXAXAXAXAXAXAXAXAXAXAXAXAXAXAXAXAXAXAXAXAXAXAXAXAXAXAXAXAXAXAXAXAXAXAXAXAXAXAXAXAXAXAXAXAXAXAXAXAXAXAXAXAXAXAXAXAXAXAXAXAXAXAXAXAXAXs k ! k ^ k j j ^ k s k s c OXj.n.z.z.j.z.j.z.z.z.z.j.:Xd.t k k g l k k l k j j g s i AXAXAXAXAXAXAXAXAXAXAXAXAXAXAXAXAXAXAXAXAXAXAXAXAXAXAXAXAXAXAXAXAXAXAXAXAXAXAXAXAXAXAXAXAXAXAXAXAXAXAXAXAXAXAXAXAXAXAXAXAXAXAXAXAXAXAXAXAXAXAXAXAXAXAXAXAXAXAXAXAXAXAXAXAXAXAXAXAXAXAXAXAXAXAXAXAXAXAXAXAXAXAXAXAXAXAXAXAXAXAXAXAXAXAXAXAXAXAXAXAXAXAXAXAXAXAXAXVX/ ^ ^ ! ^ ! ) ! ! ! ! h N.|.z.z.z.z.z.z.z.z.n.z.j.z.n.n.z.j.j.j.z.z.n.z.z.z.z.x.{.Z.t g z k k l g j a g k l e d.:Xx.j.k.z.z.n.z.z.z.z.z.z.z.z.z.z.j.z.z.z.z.j.z.z.z.z.B.% - 2 9 3 4 4 2 2 2 2 * 2 X                                                                                       ",
"                                                                                                                                                                                                                                                                                                                                                                                                                2 2 8 2 2 2 2 2 2 2 2 4 % M.{.z.k.k.n.}.z.n.n.k.n.z.z.z.z.z.z.n.z.z.z.z.z.j.z.z.].H., k k k s k k k ^ k j j s FXAXAXAXAXAXAXAXAXAXAXAXAXAXAXAXAXAXAXAXAXAXAXAXAXAXAXAXAXAXAXAXAXAXAXAXAXAXAXAXAXAXAXAXAXAXAXAXAXAXAXAXAXAXAXAXAXAXAXAXAXAXAXAXAXAXAXAXAXAXAXAX) k ! ^ j ! j j j k k d m c OXj.j.z.z.z.j.j.z.n.j.z.z.].d.t k l k k k k k k k k k j i AXAXAXAXAXAXAXAXAXAXAXAXAXAXAXAXAXAXAXAXAXAXAXAXAXAXAXAXAXAXAXAXAXAXAXAXAXAXAXAXAXAXAXAXAXAXAXAXAXAXAXAXAXAXAXAXAXAXAXAXAXAXAXAXAXAXAXAXAXAXAXAXAXAXAXAXAXAXAXAXAXAXAXAXAXAXAXAXAXAXAXAXAXAXAXAXAXAXAXAXAXAXAXAXAXAXAXAXAXAXAXAXAXAXAXAXAXAXAXAXAXAXAXAXAXAXAXAXVX/ ^ ^ ) ) ! ^ ( ! / ( t N.{.z.z.z.z.z.z.z.z.z.z.z.z.z.z.z.n.j.z.n.x.z.z.z.z.z.z.z.H.e g l k k j j j ! k k k r m.{.z.z.z.j.j.n.z.z.z.j.z.z.j.n.z.z.z.z.j.z.z.z.z.z.n.v.B.X 4 3 2 4 2 4 2 4 2 2 2 2 .                                                                                       ",
"                                                                                                                                                                                                                                                                                                                                                                                                                2 9 9 8 2 8 4 6 8 4 2 2 o M.{.z.k.x.z.x.z.x.x.k.z.z.z.n.z.z.z.z.z.z.j.z.z.z.z.z.n.F.: m s k j k k k j j j ! j CXAXAXAXAXAXAXAXAXAXAXAXAXAXAXAXAXAXAXAXAXAXAXAXAXAXAXAXAXAXAXAXAXAXAXAXAXAXAXAXAXAXAXAXAXAXAXAXAXAXAXAXAXAXAXAXAXAXAXAXAXAXAXAXAXAXAXAXAXAXAXAX) / j j ! j ^ ! ^ k s g m m F.j.n.z.z.z.j.z.z.z.z.z.j.n.d.t j g g k l s k k j g j s i AXAXAXAXAXAXAXAXAXAXAXAXAXAXAXAXAXAXAXAXAXAXAXAXAXAXAXAXAXAXAXAXAXAXAXAXAXAXAXAXAXAXAXAXAXAXAXAXAXAXAXAXAXAXAXAXAXAXAXAXAXAXAXAXAXAXAXAXAXAXAXAXAXAXAXAXAXAXAXAXAXAXAXAXAXAXAXAXAXAXAXAXAXAXAXAXAXAXAXAXAXAXAXAXAXAXAXAXAXAXAXAXAXAXAXAXAXAXAXAXAXAXAXAXAXAXAXAXVX) ^ ^ / ! ! ) ! ! ! ( g N.|.z.z.n.z.z.z.z.z.z.z.z.z.z.z.n.n.z.z.z.z.z.z.n.z.z.z.n.B.m l k k g k k j k k k k t t.{.z.z.z.z.z.z.z.z.n.z.j.z.z.z.z.z.j.z.z.z.z.j.n.j.z.v.Z.X 5 * 4 3 4 4 2 2 2 2 2 2 .                                                                                       ",
"                                                                                                                                                                                                                                                                                                                                                                                                                2 2 6 9 8 2 3 6 2 4 2 2 o f.].z.k.k.z.z.:Xn.x.x.z.z.z.z.z.z.z.z.z.z.n.z.n.z.z.n.j.I., m j k k k k k k j k ^ k SXAXAXAXAXAXAXAXAXAXAXAXAXAXAXAXAXAXAXAXAXAXAXAXAXAXAXAXAXAXAXAXAXAXAXAXAXAXAXAXAXAXAXAXAXAXAXAXAXAXAXAXAXAXAXAXAXAXAXAXAXAXAXAXAXAXAXAXAXAXAXAX( j ^ ! j ! j ^ j k k k k c <Xn.j.j.j.j.j.z.z.z.z.n.v.].d.m d m s k k s k k g j g k i AXAXAXAXAXAXAXAXAXAXAXAXAXAXAXAXAXAXAXAXAXAXAXAXAXAXAXAXAXAXAXAXAXAXAXAXAXAXAXAXAXAXAXAXAXAXAXAXAXAXAXAXAXAXAXAXAXAXAXAXAXAXAXAXAXAXAXAXAXAXAXAXAXAXAXAXAXAXAXAXAXAXAXAXAXAXAXAXAXAXAXAXAXAXAXAXAXAXAXAXAXAXAXAXAXAXAXAXAXAXAXAXAXAXAXAXAXAXAXAXAXAXAXAXAXAXAXAXnX) ! / ! / ! ^ ^ ^ ! ! h N.{.z.z.z.z.z.z.z.j.z.j.z.z.z.z.n.z.z.z.n.n.z.z.n.j.z.x.{.B.F k j j k j ^ k k k k k y a.;Xj.j.z.z.z.z.n.z.z.j.z.z.z.n.j.z.j.z.n.j.z.z.z.z.z.z.Z.# 9 4 3 4 3 3 2 2 2 2 2 2 @                                                                                       ",
"                                                                                                                                                                                                                                                                                                                                                                                                                x 2 2 2 2 6 2 6 2 2 2 2 @ t.:Xn.x.x.n.z.x.x.n.z.z.z.z.z.n.z.z.z.z.z.z.z.z.z.z.z.n.F.; d s k k k k k k j j k } AXAXAXAXAXAXAXAXAXAXAXAXAXAXAXAXAXAXAXAXAXAXAXAXAXAXAXAXAXAXAXAXAXAXAXAXAXAXAXAXAXAXAXAXAXAXAXAXAXAXAXAXAXAXAXAXAXAXAXAXAXAXAXAXAXAXAXAXAXAXAXAXs ! j ^ ! j ! j ^ ! k j z c F.n.n.j.j.j.j.n.z.j.z.n.n.n.d.w m g g j k l k k s k k j i AXAXAXAXAXAXAXAXAXAXAXAXAXAXAXAXAXAXAXAXAXAXAXAXAXAXAXAXAXAXAXAXAXAXAXAXAXAXAXAXAXAXAXAXAXAXAXAXAXAXAXAXAXAXAXAXAXAXAXAXAXAXAXAXAXAXAXAXAXAXAXAXAXAXAXAXAXAXAXAXAXAXAXAXAXAXAXAXAXAXAXAXAXAXAXAXAXAXAXAXAXAXAXAXAXAXAXAXAXAXAXAXAXAXAXAXAXAXAXAXAXAXAXAXAXAXAXAXZX) ! ) ^ ) ! ) ) ! ! ( m M.|.c.z.z.j.j.j.j.j.j.z.j.z.z.z.z.z.n.z.z.z.z.z.j.j.j.x.{.B.t z j j k k k k k ^ j l r t.:Xj.j.z.z.z.z.j.z.z.z.n.z.z.z.z.z.z.z.z.z.z.z.z.j.z.j.Z.# 5 4 4 3 3 4 2 4 3 2 2 * 2                                                                                       ",
"                                                                                                                                                                                                                                                                                                                                                                                                                2 2 6 2 2 2 2 6 6 4 4 4 % d.{.z.x.z.z.z.{.n.z.z.z.n.z.n.z.z.z.z.z.z.z.n.z.z.z.z.:X<X< w j k k k k k k k k ^ O.AXAXAXAXAXAXAXAXAXAXAXAXAXAXAXAXAXAXAXAXAXAXAXAXAXAXAXAXAXAXAXAXAXAXAXAXAXAXAXAXAXAXAXAXAXAXAXAXAXAXAXAXAXAXAXAXAXAXAXAXAXAXAXAXAXAXAXAXAXAXAXAXd k ! ^ j ! j j ! k ^ ! g m <Xn.j.j.l.j.z.z.z.j.z.j.j.].d.r k j l j k k s k k j j j i AXAXAXAXAXAXAXAXAXAXAXAXAXAXAXAXAXAXAXAXAXAXAXAXAXAXAXAXAXAXAXAXAXAXAXAXAXAXAXAXAXAXAXAXAXAXAXAXAXAXAXAXAXAXAXAXAXAXAXAXAXAXAXAXAXAXAXAXAXAXAXAXAXAXAXAXAXAXAXAXAXAXAXAXAXAXAXAXAXAXAXAXAXAXAXAXAXAXAXAXAXAXAXAXAXAXAXAXAXAXAXAXAXAXAXAXAXAXAXAXAXAXAXAXAXAXAXAXVX) ! ! ^ ^ ^ / ) ! ! ( t N.{.k.z.z.z.z.j.j.z.z.z.z.z.z.z.n.z.z.z.z.z.j.n.j.j.n.z.z.Z.t z j j k k j j k j k k r t.|.z.z.j.z.j.z.z.z.z.z.j.z.z.z.z.z.z.z.z.z.n.j.z.n.n.v.B.@ - 4 4 4 3 4 2 2 4 2 2 4 2                                                                                       ",
"                                                                                                                                                                                                                                                                                                                                                                                                                1 2 8 2 2 2 2 6 2 4 4 4 # d.:X{.z.z.z.:Xx.z.z.x.z.n.z.z.z.z.n.z.z.z.z.z.z.z.z.z.n.F., d s j k k j j ! j k k ..AXAXAXAXAXAXAXAXAXAXAXAXAXAXAXAXAXAXAXAXAXAXAXAXAXAXAXAXAXAXAXAXAXAXAXAXAXAXAXAXAXAXAXAXAXAXAXAXAXAXAXAXAXAXAXAXAXAXAXAXAXAXAXAXAXAXAXAXAXAXAXAX( ! j j ^ k ! k k k j j k c F.j.j.j.j.j.j.j.z.z.z.j.j.].d.y m k j g k k k k g k g s i AXAXAXAXAXAXAXAXAXAXAXAXAXAXAXAXAXAXAXAXAXAXAXAXAXAXAXAXAXAXAXAXAXAXAXAXAXAXAXAXAXAXAXAXAXAXAXAXAXAXAXAXAXAXAXAXAXAXAXAXAXAXAXAXAXAXAXAXAXAXAXAXAXAXAXAXAXAXAXAXAXAXAXAXAXAXAXAXAXAXAXAXAXAXAXAXAXAXAXAXAXAXAXAXAXAXAXAXAXAXAXAXAXAXAXAXAXAXAXAXAXAXAXAXAXAXAXAXSX) ^ ^ ! ! ! ) ^ ! ! ( g N.|.z.z.z.z.j.c.j.j.z.z.z.j.n.z.n.n.n.z.z.z.z.j.k.j.z.x.{.B.t j j k k k k ^ k j k k r t.{.n.j.x.z.n.z.z.j.j.z.z.z.z.j.n.z.n.j.z.z.z.z.z.z.z.n.M.# 4 4 4 5 4 3 3 4 2 4 * 2 4 HX                                                                                    ",
"                                                                                                                                                                                                                                                                                                                                                                                                                2 2 9 2 2 2 6 3 2 2 4 8 - m.|.z.z.z.z.z.n.x.n.z.z.n.z.z.n.z.z.n.n.j.j.z.z.z.z.z.j.F.# d s m j k ! k k j j ~ =.AXAXAXAXAXAXAXAXAXAXAXAXAXAXAXAXAXAXAXAXAXAXAXAXAXAXAXAXAXAXAXAXAXAXAXAXAXAXAXAXAXAXAXAXAXAXAXAXAXAXAXAXAXAXAXAXAXAXAXAXAXAXAXAXAXAXAXAXAXAXAXAXs k s ! j k k / s j j k k M F.z.j.j.z.j.z.z.z.j.n.n.v.<Xm.y m d s k k g k j k j g s i AXAXAXAXAXAXAXAXAXAXAXAXAXAXAXAXAXAXAXAXAXAXAXAXAXAXAXAXAXAXAXAXAXAXAXAXAXAXAXAXAXAXAXAXAXAXAXAXAXAXAXAXAXAXAXAXAXAXAXAXAXAXAXAXAXAXAXAXAXAXAXAXAXAXAXAXAXAXAXAXAXAXAXAXAXAXAXAXAXAXAXAXAXAXAXAXAXAXAXAXAXAXAXAXAXAXAXAXAXAXAXAXAXAXAXAXAXAXAXAXAXAXAXAXAXAXAXAXAX<.) ! ^ ! ) / ! ! ! ) g m.|.x.z.x.z.j.j.z.z.z.v.n.j.j.z.z.z.z.x.x.k.z.z.j.j.n.x.{.B.t k ^ ^ j k j j j k k k r t.{.n.z.z.z.z.z.z.z.z.z.z.z.z.n.j.j.z.z.z.n.z.z.z.n.z.{.S.# 4 4 8 3 3 3 3 4 4 4 * 2 2                                                                                       ",
"                                                                                                                                                                                                                                                                                                                                                                                                                2 2 8 2 6 2 2 2 6 1 2 7 % m.:X{.z.j.:Xn.z.x.x.n.z.z.z.z.z.n.l.z.z.z.z.z.{.z.z.z.:XH.@ m k s k k k k k j j k / FXAXAXAXAXAXAXAXAXAXAXAXAXAXAXAXAXAXAXAXAXAXAXAXAXAXAXAXAXAXAXAXAXAXAXAXAXAXAXAXAXAXAXAXAXAXAXAXAXAXAXAXAXAXAXAXAXAXAXAXAXAXAXAXAXAXAXAXAXAXAXAXs k k k k k k k k j ! j k m OXz.j.l.z.j.z.n.z.z.z.n.j.z.m.r m j j k s j k k k k k f i AXAXAXAXAXAXAXAXAXAXAXAXAXAXAXAXAXAXAXAXAXAXAXAXAXAXAXAXAXAXAXAXAXAXAXAXAXAXAXAXAXAXAXAXAXAXAXAXAXAXAXAXAXAXAXAXAXAXAXAXAXAXAXAXAXAXAXAXAXAXAXAXAXAXAXAXAXAXAXAXAXAXAXAXAXAXAXAXAXAXAXAXAXAXAXAXAXAXAXAXAXAXAXAXAXAXAXAXAXAXAXAXAXAXAXAXAXAXAXAXAXAXAXAXAXAXAXAXVX) ^ ^ ! ) ! ( ^ ( ( d r d.{.z.k.k.z.j.z.z.n.z.n.n.n.z.n.j.n.x.x.z.x.z.z.k.j.j.z.{.G.t f k j ^ k k k j j k k y m.>Xj.z.z.z.n.z.z.j.n.j.z.z.z.z.z.z.z.z.z.z.z.z.z.z.z.{.M.@ 5 3 7 2 4 4 4 4 4 4 9 4 *                                                                                       ",
"                                                                                                                                                                                                                                                                                                                                                                                                                2 2 6 8 8 9 6 7 2 2 2 3 % m.;Xz.z.z.{.z.z.z.n.z.z.n.z.n.z.n.z.z.z.n.z.{.z.n.n.z.j.F.w w j k k k k j k k j k s VXAXAXAXAXAXAXAXAXAXAXAXAXAXAXAXAXAXAXAXAXAXAXAXAXAXAXAXAXAXAXAXAXAXAXAXAXAXAXAXAXAXAXAXAXAXAXAXAXAXAXAXAXAXAXAXAXAXAXAXAXAXAXAXAXAXAXAXAXAXAXAXs k ! j ! k d s k k k k j M OXn.j.z.z.z.j.j.j.z.z.j.j.z.m.y k j j g k j k s k j j f i AXAXAXAXAXAXAXAXAXAXAXAXAXAXAXAXAXAXAXAXAXAXAXAXAXAXAXAXAXAXAXAXAXAXAXAXAXAXAXAXAXAXAXAXAXAXAXAXAXAXAXAXAXAXAXAXAXAXAXAXAXAXAXAXAXAXAXAXAXAXAXAXAXAXAXAXAXAXAXAXAXAXAXAXAXAXAXAXAXAXAXAXAXAXAXAXAXAXAXAXAXAXAXAXAXAXAXAXAXAXAXAXAXAXAXAXAXAXAXAXAXAXAXAXAXAXAXAXzX! ! ! ! ! ! ! ! k ! ! y M.{.x.k.x.z.z.z.n.j.j.j.n.n.j.z.z.j.n.x.x.x.z.z.j.j.n.z.{.H.t h k ^ j j j ^ j j ^ k g t.|.j.z.z.z.j.z.j.z.z.j.j.z.j.z.z.z.z.z.z.z.z.z.].n.j.z.M.% 0 - 5 - 4 5 4 5 4 4 8 4 1                                                                                       ",
"                                                                                                                                                                                                                                                                                                                                                                                                                2 2 6 6 2 2 2 3 6 2 2 6 % f.<Xz.z.j.z.n.z.n.x.z.j.z.n.z.n.z.n.j.z.z.z.n.z.n.j.j.z.H.e m s l k k k z ! j j ! j AXAXAXAXAXAXAXAXAXAXAXAXAXAXAXAXAXAXAXAXAXAXAXAXAXAXAXAXAXAXAXAXAXAXAXAXAXAXAXAXAXAXAXAXAXAXAXAXAXAXAXAXAXAXAXAXAXAXAXAXAXAXAXAXAXAXAXAXAXAXAXAXs j ! j j k k k k s k k s c OXj.j.z.z.n.z.j.z.z.z.j.j.:Xm.e k j k k k k k k g j j s i AXAXAXAXAXAXAXAXAXAXAXAXAXAXAXAXAXAXAXAXAXAXAXAXAXAXAXAXAXAXAXAXAXAXAXAXAXAXAXAXAXAXAXAXAXAXAXAXAXAXAXAXAXAXAXAXAXAXAXAXAXAXAXAXAXAXAXAXAXAXAXAXAXAXAXAXAXAXAXAXAXAXAXAXAXAXAXAXAXAXAXAXAXAXAXAXAXAXAXAXAXAXAXAXAXAXAXAXAXAXAXAXAXAXAXAXAXAXAXAXAXAXAXAXAXAXAXAXzX! ^ ~ ~ ! ^ ! ) ! ! ! 9 Z.|.z.j.z.z.z.z.z.z.].j.j.n.z.z.z.z.z.x.x.x.k.x.j.j.j.z.z.Z.e g ^ l ^ k k j j k k l t E |.n.z.z.z.j.z.z.z.z.z.j.z.z.z.z.z.j.:X{.z.z.n.j.j.n.j.g.% 4 2 4 - 5 4 5 = 4 2 4 * @                                                                                       ",
"                                                                                                                                                                                                                                                                                                                                                                                                                2 6 7 2 7 7 6 6 2 2 2 6 % d.;Xz.z.z.z.n.z.n.z.z.z.z.x.z.}.|.x.:Xx.}.:X:X X}.}.l.].H.5 s s f k ^ ^ ( ~ ^ ^ ^ / ZXAXAXAXAXAXAXAXAXAXAXAXAXAXAXAXAXAXAXAXAXAXAXAXAXAXAXAXAXAXAXAXAXAXAXAXAXAXAXAXAXAXAXAXAXAXAXAXAXAXAXAXAXAXAXAXAXAXAXAXAXAXAXAXAXAXAXAXAXAXAXAXs j k j ! k k d k k s k d m OXz.n.z.z.n.z.z.z.j.n.j.j.D.f.y m s k k j k k g j k g f i AXAXAXAXAXAXAXAXAXAXAXAXAXAXAXAXAXAXAXAXAXAXAXAXAXAXAXAXAXAXAXAXAXAXAXAXAXAXAXAXAXAXAXAXAXAXAXAXAXAXAXAXAXAXAXAXAXAXAXAXAXAXAXAXAXAXAXAXAXAXAXAXAXAXAXAXAXAXAXAXAXAXAXAXAXAXAXAXAXAXAXAXAXAXAXAXAXAXAXAXAXAXAXAXAXAXAXAXAXAXAXAXAXAXAXAXAXAXAXAXAXAXAXAXAXAXAXAXsXs ^ 2.2.<.-.-.<.^ ^ ^ k S.<X;X;X:Xj.:X>X>X>X>X,X>X:X:Xn.j.x.x.x.x.x.x.z.k.z.z.z.z.Z.y j ^ ^ j l j j l j j ^ r E |.z.x.x.z.z.z.n.z.z.z.z.z.z.z.z.z.z.n.z.z.z.].z.n.z.v.M.@ 5 w 5 4 9 5 w - 4 9 9 2 *                                                                                       ",
"                                                                                                                                                                                                                                                                                                                                                                                                                . 2 7 6 2 7 x x 2 2 2 9 % d.<Xz.z.n.z.z.z.z.z.n.z.z.n.].G.G.G.B.B.B.B.B.M.M.M.f.f.K.cXMXMXmXZXDXSXAXDXSXcXxXMXAXAXAXAXAXAXAXAXAXAXAXAXAXAXAXAXAXAXAXAXAXAXAXAXAXAXAXAXAXAXAXAXAXAXAXAXAXAXAXAXAXAXAXAXAXAXAXAXAXAXAXAXAXAXAXAXAXAXAXAXAXAXAXAXAXAXAXAXAXAXAXAXd j k k k k k k k k k k m v OXz.z.z.z.j.z.z.z.z.z.j.n.:XM.y s g s k k s k k k s g u i AXAXAXAXAXAXAXAXAXAXAXAXAXAXAXAXAXAXAXAXAXAXAXAXAXAXAXAXAXAXAXAXAXAXAXAXAXAXAXAXAXAXAXAXAXAXAXAXAXAXAXAXAXAXAXAXAXAXAXAXAXAXAXAXAXAXAXAXAXAXAXAXAXAXAXAXAXAXAXAXAXAXAXAXAXAXAXAXAXAXAXAXAXAXAXAXAXAXAXAXAXAXAXAXAXAXAXAXAXAXAXAXAXAXAXAXAXAXAXAXAXAXAXAXAXAXAXAXAXxXZXAXAXAXAXAXAXDXmXDXcX,.Z.S.Z.Z.Z.M.N.d.d.$.E E t.T n.n.z.x.k.k.x.z.z.z.z.x.z.{.C.r z j j ^ l ^ l ^ ^ l l z t.}.x.z.z.z.z.z.z.{.z.z.z.z.j.z.z.z.z.z.z.z.z.n.z.{.{.j.h.# > ; & # # $ ; ; # # ; # &                                                                                       ",
"                                                                                                                                                                                                                                                                                                                                                                                  X.{ ( { ( { [ { { { { { { { l X 1 2 2 6 3 6 2 2 2 2 3 % d.,Xz.z.z.z.n.z.z.z.n.z.x.;XB , , 0 r - - - 4 = 3 3 + * d AXAXAXAXAXAXAXAXAXAXAXAXAXAXAXAXAXAXAXAXAXAXAXAXAXAXAXAXAXAXAXAXAXAXAXAXAXAXAXAXAXAXAXAXAXAXAXAXAXAXAXAXAXAXAXAXAXAXAXAXAXAXAXAXAXAXAXAXAXAXAXAXAXAXAXAXAXAXAXAXAXAXAXAXAXs j k k j k k k s s k k s c OXz.z.z.z.j.z.z.z.z.z.j.n.n.N.r k g j s g j j s k k g s i AXAXAXAXAXAXAXAXAXAXAXAXAXAXAXAXAXAXAXAXAXAXAXAXAXAXAXAXAXAXAXAXAXAXAXAXAXAXAXAXAXAXAXAXAXAXAXAXAXAXAXAXAXAXAXAXAXAXAXAXAXAXAXAXAXAXAXAXAXAXAXAXAXAXAXAXAXAXAXAXAXAXAXAXAXAXAXAXAXAXAXAXAXAXAXAXAXAXAXAXAXAXAXAXAXAXAXAXAXAXAXAXAXAXAXAXAXAXAXAXAXAXAXAXAXAXAXAXAXAXAXAXAXAXAXAXAXAXAXAXAXMXF ` ~ F m w g g g g m g f M ,Xx.x.x.k.k.k.x.z.j.k.x.x.{.B.t l ^ ^ j j l ^ z ^ z k h e.:Xn.z.x.z.z.z.z.z.z.z.z.z.z.z.n.z.z.{.n.z.z.z.z.z.j.n.].F.F.OXOXG.XXF.$XF.F.G.G.G.I., h f f l l h l h g g l l g g w g g g g l g l g g g l ( m m l m l ( m m l ^ F ( F ! l ",
"                                                                                                                                                                                                                                                                                                                                                                                  g 4 9 4 4 8 6 8 9 9 9 9 9 6 1 x 6 2 2 6 2 2 6 2 2 2 * ; d.:Xz.z.z.z.z.z.z.z.z.z.z.,XW h ~ ~ ~ k k k l ^ j j j i ;.AXAXAXAXAXAXAXAXAXAXAXAXAXAXAXAXAXAXAXAXAXAXAXAXAXAXAXAXAXAXAXAXAXAXAXAXAXAXAXAXAXAXAXAXAXAXAXAXAXAXAXAXAXAXAXAXAXAXAXAXAXAXAXAXAXAXAXAXAXAXAXAXAXAXAXAXAXAXAXAXAXAXAXAXAXs ^ k ! j / k k k k k k k c OXz.j.j.z.j.z.j.n.z.z.j.n.:XN.e j j j k k k k k k j j s d AXAXAXAXAXAXAXAXAXAXAXAXAXAXAXAXAXAXAXAXAXAXAXAXAXAXAXAXAXAXAXAXAXAXAXAXAXAXAXAXAXAXAXAXAXAXAXAXAXAXAXAXAXAXAXAXAXAXAXAXAXAXAXAXAXAXAXAXAXAXAXAXAXAXAXAXAXAXAXAXAXAXAXAXAXAXAXAXAXAXAXAXAXAXAXAXAXAXAXAXAXAXAXAXAXAXAXAXAXAXAXAXAXAXAXAXAXAXAXAXAXAXAXAXAXAXAXAXAXAXAXAXAXAXAXAXAXAXAXAXAXcX) ^ ~ ^ m ) m ! ) ( ( ( l Z 2X:Xz.n.k.j.k.x.k.x.k.k.x.z.B.t j ^ j j j j j z l ^ z r t.|.z.x.x.z.z.j.n.z.z.z.z.{.z.z.z.z.z.z.z.{.n.z.z.z.j.n.n.n.z.j.j.z.n.{.z.{.n.n.:X:X,X$ w w 9 r 4 4 5 5 9 9 4 5 5 9 8 9 9 9 9 4 8 9 9 9 9 9 4 9 9 9 8 9 9 4 8 6 8 2 4 9 u 8 ",
"                                                                                                                                                                                                                                                                                                                                                                                  g 2 2 2 1 2 2 2 2 2 2 2 2 2 2 6 2 2 2 2 6 2 2 2 2 6 2 % t.:Xz.z.n.n.x.z.z.z.z.z.c.,XG p p ^ p j j p j j p p p s -.AXAXAXAXAXAXAXAXAXAXAXAXAXAXAXAXAXAXAXAXAXAXAXAXAXAXAXAXAXAXAXAXAXAXAXAXAXAXAXAXAXAXAXAXAXAXAXAXAXAXAXAXAXAXAXAXAXAXAXAXAXAXAXAXAXAXAXAXAXAXAXAXAXAXAXAXAXAXAXAXAXAXAXAXAX/ ^ j j ! ^ k k k s k k k c OXz.z.k.z.z.z.z.j.n.j.j.j.:Xm.w d s j k s k l k j k g j ..AXAXAXAXAXAXAXAXAXAXAXAXAXAXAXAXAXAXAXAXAXAXAXAXAXAXAXAXAXAXAXAXAXAXAXAXAXAXAXAXAXAXAXAXAXAXAXAXAXAXAXAXAXAXAXAXAXAXAXAXAXAXAXAXAXAXAXAXAXAXAXAXAXAXAXAXAXAXAXAXAXAXAXAXAXAXAXAXAXAXAXAXAXAXAXAXAXAXAXAXAXAXAXAXAXAXAXAXAXAXAXAXAXAXAXAXAXAXAXAXAXAXAXAXAXAXAXAXAXAXAXAXAXAXAXAXAXAXAXAXAXxX! ~ ~ ~ ~ ^ ^ ~ ! ! ~ ^ ~ F ,X}.x.x.k.k.k.x.k.k.k.n.k.z.B.t ^ j j j z j j ^ z j k t E |.z.z.z.z.z.n.j.z.z.j.n.].z.z.z.n.z.{.z.z.{.z.n.z.z.z.z.z.z.z.j.j.z.z.z.z.j.j.z.{.,X$ 4 4 3 4 3 3 = 4 4 4 3 3 4 4 4 8 9 4 8 3 8 6 7 8 2 9 9 8 9 7 9 9 9 8 9 9 8 6 2 9 9 8 ",
"                                                                                                                                                                                                                                                                                                                                                                                  l 4 4 2 2 6 2 2 2 2 2 2 2 2 6 2 1 2 6 2 2 6 2 2 2 6 2 & t.<Xn.z.z.z.x.z.n.z.n.z.x.|.S ^ ^ p ^ z ^ ^ j ^ ^ ^ ^ s -.AXAXAXAXAXAXAXAXAXAXAXAXAXAXAXAXAXAXAXAXAXAXAXAXAXAXAXAXAXAXAXAXAXAXAXAXAXAXAXAXAXAXAXAXAXAXAXAXAXAXAXAXAXAXAXAXAXAXAXAXAXAXAXAXAXAXAXAXAXAXAXAXAXAXAXAXAXAXAXAXAXAXAXAXAXs ! k k j k k k k k s k k y OXz.z.z.z.j.z.z.z.z.z.z.j.:Xd.w g g d g k k s g s k g f ) AXAXAXAXAXAXAXAXAXAXAXAXAXAXAXAXAXAXAXAXAXAXAXAXAXAXAXAXAXAXAXAXAXAXAXAXAXAXAXAXAXAXAXAXAXAXAXAXAXAXAXAXAXAXAXAXAXAXAXAXAXAXAXAXAXAXAXAXAXAXAXAXAXAXAXAXAXAXAXAXAXAXAXAXAXAXAXAXAXAXAXAXAXAXAXAXAXAXAXAXAXAXAXAXAXAXAXAXAXAXAXAXAXAXAXAXAXAXAXAXAXAXAXAXAXAXAXAXAXAXAXAXAXAXAXAXAXAXAXAXAXxX^ 6.~ ~ ' ^ | ~ ! ( ^ ^ ! Z ,Xn.x.x.j.k.k.x.k.x.k.k.x.z.B.t k l j j ^ z z j ^ z k g t.:Xn.z.x.z.z.z.z.z.z.j.n.z.{.z.z.z.z.z.z.z.z.z.z.z.j.z.z.z.z.z.j.z.z.z.z.z.z.j.n.n.,X< - 8 4 3 4 9 4 5 5 9 4 3 9 4 4 9 9 9 9 6 3 9 9 9 9 8 9 9 9 8 9 8 9 9 6 9 9 9 9 9 7 9 ",
"                                                                                                                                                                                                                                                                                                                                                                                  g 4 2 2 2 2 2 8 2 8 2 6 2 2 6 2 2 2 6 2 3 7 3 2 2 6 7 = t.>Xn.z.z.z.z.z.z.z.n.x.c.|.S p l ^ p j ^ s ^ p ^ p i s qXAXAXAXAXAXAXAXAXAXAXAXAXAXAXAXAXAXAXAXAXAXAXAXAXAXAXAXAXAXAXAXAXAXAXAXAXAXAXAXAXAXAXAXAXAXAXAXAXAXAXAXAXAXAXAXAXAXAXAXAXAXAXAXAXAXAXAXAXAXAXAXAXAXAXAXAXAXAXAXAXAXAXAXAXAXs ! k j ! / k ! k k k s g , OXz.z.j.c.z.z.z.z.z.z.z.j.F.m.w d w g j k j j k j k g f / AXAXAXAXAXAXAXAXAXAXAXAXAXAXAXAXAXAXAXAXAXAXAXAXAXAXAXAXAXAXAXAXAXAXAXAXAXAXAXAXAXAXAXAXAXAXAXAXAXAXAXAXAXAXAXAXAXAXAXAXAXAXAXAXAXAXAXAXAXAXAXAXAXAXAXAXAXAXAXAXAXAXAXAXAXAXAXAXAXAXAXAXAXAXAXAXAXAXAXAXAXAXAXAXAXAXAXAXAXAXAXAXAXAXAXAXAXAXAXAXAXAXAXAXAXAXAXAXAXAXAXAXAXAXAXAXAXAXAXAXAXqX^ ^ ^ _ ~ ^ ^ ~ ~ ^ ) _ ~ S >Xn.k.n.x.n.k.x.x.k.k.x.x.z.B.z j j z z ^ z ^ ^ j j k t t.:Xz.x.x.z.z.z.j.z.z.z.z.z.z.z.z.z.z.{.n.z.z.z.z.z.z.z.n.z.x.x.x.x.z.z.z.z.z.j.n.n.,X$ - w 4 5 5 4 9 4 4 5 4 4 9 4 4 9 9 8 9 4 9 2 6 4 9 9 7 6 9 9 9 4 6 9 9 9 8 9 9 9 9 4 ",
"                                                                                                                                                                                                                                                                                                                                                                                  g 8 2 6 2 2 2 8 2 6 6 2 2 6 6 2 2 6 2 6 2 2 3 2 6 6 7 * t.>Xl.z.n.z.x.{.z.z.z.x.}.|.A p z ^ j ^ j ^ j ^ ^ ^ ^ ^ gXAXAXAXAXAXAXAXAXAXAXAXAXAXAXAXAXAXAXAXAXAXAXAXAXAXAXAXAXAXAXAXAXAXAXAXAXAXAXAXAXAXAXAXAXAXAXAXAXAXAXAXAXAXAXAXAXAXAXAXAXAXAXAXAXAXAXAXAXAXAXAXAXAXAXAXAXAXAXAXAXAXAXAXAXAXd k k ! j j k k k k s k k , OX{.z.k.z.z.z.j.n.z.z.z.n.n.d.e m s m k s j j j k j l s ) AXAXAXAXAXAXAXAXAXAXAXAXAXAXAXAXAXAXAXAXAXAXAXAXAXAXAXAXAXAXAXAXAXAXAXAXAXAXAXAXAXAXAXAXAXAXAXAXAXAXAXAXAXAXAXAXAXAXAXAXAXAXAXAXAXAXAXAXAXAXAXAXAXAXAXAXAXAXAXAXAXAXAXAXAXAXAXAXAXAXAXAXAXAXAXAXAXAXAXAXAXAXAXAXAXAXAXAXAXAXAXAXAXAXAXAXAXAXAXAXAXAXAXAXAXAXAXAXAXAXAXAXAXAXAXAXAXAXAXAXAXqX^ ^ ^ ^ ^ | _ ^ ~ ) ~ ~ ` S >Xn.k.k.k.k.n.x.x.k.k.n.x.z.C.r j ^ ^ j j ^ j z z ^ k r a.:Xx.z.x.z.z.z.z.j.j.n.z.z.n.z.z.{.z.z.z.z.z.z.z.z.n.z.z.z.z.z.x.[.x.k.z.z.z.n.n.n.,X< e w 4 9 5 9 5 4 4 5 5 9 4 9 3 4 9 9 9 6 9 9 6 9 2 9 9 4 9 7 9 8 9 9 2 9 9 9 8 9 9 8 ",
"                                                                                                                                                                                                                                                                                                                                                                                HXm 9 2 4 2 4 4 2 2 2 2 6 2 6 2 2 2 2 2 2 2 x 7 2 6 6 7 * t.,Xl.z.j.z.z.z.z.z.z.z.z.>XD g j s ^ ^ i ^ ^ ^ ^ ^ p ^ cXAXAXAXAXAXAXAXAXAXAXAXAXAXAXAXAXAXAXAXAXAXAXAXAXAXAXAXAXAXAXAXAXAXAXAXAXAXAXAXAXAXAXAXAXAXAXAXAXAXAXAXAXAXAXAXAXAXAXAXAXAXAXAXAXAXAXAXAXAXAXAXAXAXAXAXAXAXAXAXAXAXAXAXAXAXd j k k k ! k k k s k k s , OX:Xj.z.z.z.z.z.z.z.z.j.j.].m.e j g j g j k s k g j l k ^ AXAXAXAXAXAXAXAXAXAXAXAXAXAXAXAXAXAXAXAXAXAXAXAXAXAXAXAXAXAXAXAXAXAXAXAXAXAXAXAXAXAXAXAXAXAXAXAXAXAXAXAXAXAXAXAXAXAXAXAXAXAXAXAXAXAXAXAXAXAXAXAXAXAXAXAXAXAXAXAXAXAXAXAXAXAXAXAXAXAXAXAXAXAXAXAXAXAXAXAXAXAXAXAXAXAXAXAXAXAXAXAXAXAXAXAXAXAXAXAXAXAXAXAXAXAXAXAXAXAXAXAXAXAXAXAXAXAXAXAXAXiX! ~ ^ ~ ) ~ ~ ~ ) ^ ) ^ ) D :Xn.x.n.k.n.k.k.k.k.k.n.k.j.B.r ^ j ^ z z ^ ^ ^ ^ j k r t.}.}.z.z.z.z.z.j.l.z.j.z.z.z.z.z.z.n.z.z.z.n.z.z.n.z.z.z.j.z.z.z.n.z.j.j.z.z.z.x.}.3XM 0 = 4 5 5 8 4 4 5 9 9 5 9 4 4 9 9 9 9 9 9 3 8 4 9 9 9 6 4 9 9 8 9 7 7 6 9 9 9 8 9 9 ",
"                                                                                                                                                                                                                                                                                                                                                                                  m 8 8 2 2 9 2 2 6 7 6 6 2 6 7 2 2 6 6 2 6 6 7 2 6 6 2 = E >Xz.n.j.j.z.z.z.z.n.x.}.>XG f j ^ ^ ^ ^ ^ p ^ i ^ ^ ' zXAXAXAXAXAXAXAXAXAXAXAXAXAXAXAXAXAXAXAXAXAXAXAXAXAXAXAXAXAXAXAXAXAXAXAXAXAXAXAXAXAXAXAXAXAXAXAXAXAXAXAXAXAXAXAXAXAXAXAXAXAXAXAXAXAXAXAXAXAXAXAXAXAXAXAXAXAXAXAXAXAXAXAXAXAX/ ^ ^ k k ^ s ! j k k k k , OXj.n.z.z.z.z.n.z.j.n.n.j.:Xd.w a j s k k j g j k s l f _ AXAXAXAXAXAXAXAXAXAXAXAXAXAXAXAXAXAXAXAXAXAXAXAXAXAXAXAXAXAXAXAXAXAXAXAXAXAXAXAXAXAXAXAXAXAXAXAXAXAXAXAXAXAXAXAXAXAXAXAXAXAXAXAXAXAXAXAXAXAXAXAXAXAXAXAXAXAXAXAXAXAXAXAXAXAXAXAXAXAXAXAXAXAXAXAXAXAXAXAXAXAXAXAXAXAXAXAXAXAXAXAXAXAXAXAXAXAXAXAXAXAXAXAXAXAXAXAXAXAXAXAXAXAXAXAXAXAXAXAXAXzX! ! ! ! ) ~ ~ ~ ^ ) ^ ) m I :Xn.k.k.k.k.k.k.x.n.k.k.n.j.H.e l j j z ^ ^ z z j ^ k r t.;Xx.z.x.z.z.z.z.j.j.j.z.z.z.z.{.z.z.z.z.z.z.z.z.z.z.z.z.n.z.z.z.j.z.j.n.j.z.z.x.}.,Xc w 4 9 5 5 5 9 5 9 5 4 5 3 5 4 4 9 9 4 7 7 9 9 9 9 8 9 7 9 7 9 9 4 9 9 7 7 9 9 9 9 9 ",
"                                                                                                                                                                                                                                                                                                                                                                                  l a 2 2 2 9 2 2 6 2 2 8 2 2 2 2 2 2 2 2 2 2 x 2 2 8 2 - E :Xz.z.z.j.z.z.z.z.z.x.x.>XD f z ^ j p ^ ^ ^ p ^ i ^ ^ cXAXAXAXAXAXAXAXAXAXAXAXAXAXAXAXAXAXAXAXAXAXAXAXAXAXAXAXAXAXAXAXAXAXAXAXAXAXAXAXAXAXAXAXAXAXAXAXAXAXAXAXAXAXAXAXAXAXAXAXAXAXAXAXAXAXAXAXAXAXAXAXAXAXAXAXAXAXAXAXAXAXAXAXAXAX| ^ f k ^ j ! k ! k k k k , OXz.n.z.z.j.z.z.z.j.z.z.z.:Xt.y a z j j g j k j j j g j ..AXAXAXAXAXAXAXAXAXAXAXAXAXAXAXAXAXAXAXAXAXAXAXAXAXAXAXAXAXAXAXAXAXAXAXAXAXAXAXAXAXAXAXAXAXAXAXAXAXAXAXAXAXAXAXAXAXAXAXAXAXAXAXAXAXAXAXAXAXAXAXAXAXAXAXAXAXAXAXAXAXAXAXAXAXAXAXAXAXAXAXAXAXAXAXAXAXAXAXAXAXAXAXAXAXAXAXAXAXAXAXAXAXAXAXAXAXAXAXAXAXAXAXAXAXAXAXAXAXAXAXAXAXAXAXAXAXAXAXAXAXcX! ~ ) ~ ~ ^ ) ) ) ^ / ) ( I :Xn.n.k.k.k.k.n.k.n.k.n.k.z.H.e l k ^ z j z z ^ l j k z t.;Xz.z.k.z.j.j.j.z.j.z.z.l.z.}.z.z.z.z.z.z.{.z.z.{.z.j.z.z.z.z.n.z.z.z.z.z.z.z.n.z.+X< 5 5 5 5 5 5 4 4 4 5 5 5 4 4 5 5 4 4 4 9 9 4 4 5 5 8 4 4 4 9 9 5 4 9 9 4 4 9 5 5 5 9 ",
"                                                                                                                                                                                                                                                                                                                                                                                HXg 9 2 2 2 9 2 2 2 2 2 2 2 2 2 2 2 2 2 2 2 x 6 2 2 4 * - W ;Xz.z.z.z.z.z.z.z.j.k.x.;XG r j j ^ p ^ p ^ ^ p ^ ^ ^ FXAXAXAXAXAXAXAXAXAXAXAXAXAXAXAXAXAXAXAXAXAXAXAXAXAXAXAXAXAXAXAXAXAXAXAXAXAXAXAXAXAXAXAXAXAXAXAXAXAXAXAXAXAXAXAXAXAXAXAXAXAXAXAXAXAXAXAXAXAXAXAXAXAXAXAXAXAXAXAXAXAXAXAXAXAXd ! ^ k k ! s ! s ! k / s , F.j.n.j.z.z.n.z.z.z.z.z.j.:Xd.r j j j s k k s s k k g ~ 2.AXAXAXAXAXAXAXAXAXAXAXAXAXAXAXAXAXAXAXAXAXAXAXAXAXAXAXAXAXAXAXAXAXAXAXAXAXAXAXAXAXAXAXAXAXAXAXAXAXAXAXAXAXAXAXAXAXAXAXAXAXAXAXAXAXAXAXAXAXAXAXAXAXAXAXAXAXAXAXAXAXAXAXAXAXAXAXAXAXAXAXAXAXAXAXAXAXAXAXAXAXAXAXAXAXAXAXAXAXAXAXAXAXAXAXAXAXAXAXAXAXAXAXAXAXAXAXAXAXAXAXAXAXAXAXAXAXAXAXAXAXcX^ ! ^ ~ ~ ) ~ ~ ^ ) ) ) ( G :Xn.k.n.n.n.n.k.k.k.k.n.k.z.Z.y g j p ^ j ^ z j j j j r t. Xz.x.x.z.j.j.j.j.z.j.z.z.z.z.z.l.z.{.z.n.n.z.z.z.n.z.z.j.z.z.z.z.n.j.z.z.x.z.z.{.,X< - 4 4 5 0 4 0 5 4 5 5 4 5 5 5 4 9 5 4 4 4 9 9 5 5 5 9 9 9 4 5 4 9 4 4 4 9 4 9 4 9 9 ",
"                                                                                                                                                                                                                                                                                                                                                                                HXg 9 2 2 2 8 2 6 2 2 4 2 6 2 8 2 2 2 2 2 2 2 3 2 2 6 2 ; E :Xz.z.{.z.n.z.z.z.n.x.k.,XD p p ^ ^ ^ p ^ ^ p ^ ^ ^ ^ cXAXAXAXAXAXAXAXAXAXAXAXAXAXAXAXAXAXAXAXAXAXAXAXAXAXAXAXAXAXAXAXAXAXAXAXAXAXAXAXAXAXAXAXAXAXAXAXAXAXAXAXAXAXAXAXAXAXAXAXAXAXAXAXAXAXAXAXAXAXAXAXAXAXAXAXAXAXAXAXAXAXAXAXAXAX&.! j ! j ! j k ! k k k d , F.:Xn.j.z.z.z.z.z.z.z.z.z.:Xd.r g g j s k g k j j k l a / AXAXAXAXAXAXAXAXAXAXAXAXAXAXAXAXAXAXAXAXAXAXAXAXAXAXAXAXAXAXAXAXAXAXAXAXAXAXAXAXAXAXAXAXAXAXAXAXAXAXAXAXAXAXAXAXAXAXAXAXAXAXAXAXAXAXAXAXAXAXAXAXAXAXAXAXAXAXAXAXAXAXAXAXAXAXAXAXAXAXAXAXAXAXAXAXAXAXAXAXAXAXAXAXAXAXAXAXAXAXAXAXAXAXAXAXAXAXAXAXAXAXAXAXAXAXAXAXAXAXAXAXAXAXAXAXAXAXAXAXAXcX! ! ~ ~ ) ^ ~ ~ ^ ~ ^ ) m I >Xn.k.n.k.n.k.k.n.}.n.k.k.j.A.0 z ^ ^ ^ p ^ l j j l k r a.:Xz.x.z.z.z.z.j.z.z.c.z.z.z.x.z.c.j.z.z.n.z.z.z.z.z.z.z.z.j.z.z.z.z.n.j.z.z.z.z.z.<X< 0 4 5 5 5 4 5 9 4 4 4 4 4 9 9 9 9 9 9 9 9 8 8 9 9 9 9 9 9 8 9 8 8 4 9 9 9 8 9 8 9 9 ",
"                                                                                                                                                                                                                                                                                                                                                                                  g w 6 6 2 4 4 6 2 6 4 2 2 2 2 3 4 2 2 2 6 3 3 2 6 6 2 5 T :Xj.z.z.z.z.n.z.z.z.x.x.>XD p ^ p ^ ^ ^ p ^ ^ ^ / p ^ nXAXAXAXAXAXAXAXAXAXAXAXAXAXAXAXAXAXAXAXAXAXAXAXAXAXAXAXAXAXAXAXAXAXAXAXAXAXAXAXAXAXAXAXAXAXAXAXAXAXAXAXAXAXAXAXAXAXAXAXAXAXAXAXAXAXAXAXAXAXAXAXAXAXAXAXAXAXAXAXAXAXAXAXAXAX| j k k ! k ! / j / / k d , F.n.n.z.{.z.z.n.z.n.z.n.z.].d.r j a j j k j s j k s j j d AXAXAXAXAXAXAXAXAXAXAXAXAXAXAXAXAXAXAXAXAXAXAXAXAXAXAXAXAXAXAXAXAXAXAXAXAXAXAXAXAXAXAXAXAXAXAXAXAXAXAXAXAXAXAXAXAXAXAXAXAXAXAXAXAXAXAXAXAXAXAXAXAXAXAXAXAXAXAXAXAXAXAXAXAXAXAXAXAXAXAXAXAXAXAXAXAXAXAXAXAXAXAXAXAXAXAXAXAXAXAXAXAXAXAXAXAXAXAXAXAXAXAXAXAXAXAXAXAXAXAXAXAXAXAXAXAXAXAXAXAXMX^ ~ ! ~ ' ~ ) ) ) ) ~ ) ( L ,Xn.n.n.n.n.k.n.k.k.n.n.n.j.Z.n p ^ z ^ ^ z k j l s z y t.{.x.x.z.z.j.z.z.j.z.z.z.z.z.z.c.z.l.z.z.].z.z.z.z.z.z.z.j.j.z.j.z.z.j.n.z.z.z.z.j.+X< e 5 9 w 9 9 9 5 4 5 4 9 4 4 4 9 4 4 9 9 9 5 9 9 9 9 7 9 9 4 9 9 8 4 9 9 8 4 8 9 8 4 ",
"                                                                                                                                                                                                                                                                                                                                                                                HXm 5 2 2 * = 4 4 4 4 4 * 5 4 4 5 5 4 - 3 3 4 5 3 2 6 3 = W <Xl.z.j.z.z.z.z.z.n.k.x.>XS n p ^ p p ^ ^ ^ ^ s ^ ^ ^ xXAXAXAXAXAXAXAXAXAXAXAXAXAXAXAXAXAXAXAXAXAXAXAXAXAXAXAXAXAXAXAXAXAXAXAXAXAXAXAXAXAXAXAXAXAXAXAXAXAXAXAXAXAXAXAXAXAXAXAXAXAXAXAXAXAXAXAXAXAXAXAXAXAXAXAXAXAXAXAXAXAXAXAXAXAX..k k z k ! k ! j k s k m e F.j.n.j.l.n.z.z.z.z.z.z.z.{.d.e g g j g k j k k k l g g d AXAXAXAXAXAXAXAXAXAXAXAXAXAXAXAXAXAXAXAXAXAXAXAXAXAXAXAXAXAXAXAXAXAXAXAXAXAXAXAXAXAXAXAXAXAXAXAXAXAXAXAXAXAXAXAXAXAXAXAXAXAXAXAXAXAXAXAXAXAXAXAXAXAXAXAXAXAXAXAXAXAXAXAXAXAXAXAXAXAXAXAXAXAXAXAXAXAXAXAXAXAXAXAXAXAXAXAXAXAXAXAXAXAXAXAXAXAXAXAXAXAXAXAXAXAXAXAXAXAXAXAXAXAXAXAXAXAXAXAXAXxXs ! ^ ) ~ ^ ~ ~ ^ ) ^ ) ` A 1Xk.n.n.n.n.k.k.n.x.n.n.n.:XS.r p p ^ z p ^ k j j j k r a.|.x.z.z.z.z.z.j.j.j.j.z.z.z.z.z.z.l.n.z.z.z.z.z.:Xz.z.z.z.z.z.z.z.z.z.n.z.x.n.z.z.,X< w 5 - - 9 9 0 5 0 9 5 5 w w w w 5 w 9 9 9 5 4 4 4 4 4 4 4 3 2 4 2 2 2 4 * * 2 4 - = ",
"                                                                                                                                                                                            HXHXHXHX                                                                        HXHXHX                                                  HXHXHXHX                                    mXg - & & ; % % & ; , & > ; ; ; & # & % & & # % O o + O O I :Xz.z.z.z.z.z.z.z.z.x.c.;XA n ^ ^ ^ ^ ^ ^ p ^ p p p ^ ;.AXAXAXAXAXAXAXAXAXAXAXAXAXAXAXAXAXAXAXAXAXAXAXAXAXAXAXAXAXAXAXAXAXAXAXAXAXAXAXAXAXAXAXAXAXAXAXAXAXAXAXAXAXAXAXAXAXAXAXAXAXAXAXAXAXAXAXAXAXAXAXAXAXAXAXAXAXAXAXAXAXAXAXAXAX! k k k k j ! j ! j ! m ) , F.j.j.j.z.z.z.z.z.z.n.z.z.{.d.r s g j s j j j j g s g l i AXAXAXAXAXAXAXAXAXAXAXAXAXAXAXAXAXAXAXAXAXAXAXAXAXAXAXAXAXAXAXAXAXAXAXAXAXAXAXAXAXAXAXAXAXAXAXAXAXAXAXAXAXAXAXAXAXAXAXAXAXAXAXAXAXAXAXAXAXAXAXAXAXAXAXAXAXAXAXAXAXAXAXAXAXAXAXAXAXAXAXAXAXAXAXAXAXAXAXAXAXAXAXAXAXAXAXAXAXAXAXAXAXAXAXAXAXAXAXAXAXAXAXAXAXAXAXAXAXAXAXAXAXAXAXAXAXAXAXAXAXVXj ! ^ ~ ) ' ) ) ~ ^ ^ ~ ` A 3X1X1X1X1X3X1X3X1X1X1X1X,X,XL.5 z ^ z ^ p z j k j f z q m.{.}.z.z.z.l.j.j.l.j.j.z.c.z.c.z.z.z.z.z.z.z.{.z.z.n.z.z.j.z.z.n.j.z.z.z.z.z.z.z.z.+X$ % % ; ; > , , - > ; $ # # & # % # # # % # # # % # # & % # O O O O O O O % O O % o o ",
"                            *.,.5.*.,.%.*.@.5.*.O.5.*.*.,.+.5.%.5.*.%.+.+.@.X.@.+.+.+.%.+.+.+.+.+.%.*.@.O.+.O.+.@.X.X.#.X.@.O.X.O.+.+.%.5.%.+.*.+.+.,.*.,.,.,.,.:.+.:.+.+.+.5.+.@.@.@.X.X.@.@.o.@.@.@.+.@.X.@.O.@.@.@.@.@.o.X.X.X.X.X.X.X.#. .#.#.#.#.X.@.@.+.@.@. .@.@.X.X.@. .X.X. .#.#.#.#.#.X.#.X.#.#.#.} #.#.#.X.#.X.X.X.#.#.#.[ #.#.#.X.#.[ [ @.#.#.{  .X.[ #.#.[ [ { X.X.{ a.t.d.f.t.M.g.B.M.M.m.m.a.m.m.B.B.M.B.B.B.B.B.B.g.B.G.B.^.j.z.n.z.z.{.z.z.z.x.x.x.>XD g u u p u 9 p u u u u u i s j ( qX<.2.4X-.2.&.-.*.| _ | _ _ ! d d d d d d ^ ) / / / d / ) ) | *.;.<.<.1.-.%.&._ ) | | ) ) ) _ ) ^ | ......| / i i d d i d d d i i i i i i d / s s s d s ) ..:.2.-.5Xs p j f j p f j j p f f j k , F.:Xj.j.z.n.j.j.j.z.z.z.n.{.d.w a f w f a f 9 u f f u a a j u s ] ( d s a d s k d s d d i 8 i i i a i i s i i i s / ^ | ..| &.O...} ) ( ) ....&........._ _ ) | _ | ) _ ..&.) ! ) k s d ( ) ! ) ) _ ) | &.&.| ) ) ) ......] _ ) ) ! / / s d s d i d d i / s ^ ^ ! ' ) | ~ ^ ) ) ..........| ~ ^ ! / ) ) ) ) ) ) _ _ / / | &.<.4X4X4XtX4X4X5XtX4X4X4Xi p ^ p j j s j j s ^ p ^ i f , > c c c M M M M M M Z N Z Z g l p j j j j p ^ j j j q m.{.z.z.c.j.j.j.z.z.z.z.].j.j.z.z.z.z.].n.z.z.z.{.z.{.z.z.z.z.z.z.j.z.j.z.z.z.z.z.z.{.D.D.Z.g.B.B.B.B.B.D.B.B.B.C.H.C.H.H.C.H.H.Z.C.G.H.C.H.C.D.H.G.G.D.F.G.H.D.G.G.G.D.F.XX",
"                            4 4 2 9 @ . 5 r 9 4 4 * * 4 4 3 4 4 4 4 9 2 2 4 9 2 2 2 9 9 w w 9 9 9 9 w w 9 9 w 9 w g f f w 9 4 4 9 2 2 @ 2 1 . 2 * @ @ @ * @ * 1 2 4 9 9 5 5 9 9 9 8 2 2 2 x 2 . x x x 2 2 6 4 8 9 4 9 u 9 9 9 9 9 9 4 4 9 4 9 9 9 9 4 2 . . * 2 2 @ * @ * 1 1 2 * @ 2 8 2 4 9 q q r q 9 q r r r q q r q r 9 5 3 3 3 2 2 * 2 * 3 9 q 4 9 9 9 8 9 w w w 4 1 6 . x @ 2X+X;X{.z.|.;X X}.}.;X;X;X;X:X{.:X:X:X:X|.}.|.{.:X{.{.z.z.{.z.z.z.z.z.z.z.x.z.x.{.;XD h f j j j j f j j f j f j f i u s i a a d i u s a u i i i i i u i i i i a a d d a i u a s s d d f s s i s s u s d s s s a a s s s p u s s p p p a u a u i a u a d a i i a u i i u s p s i s p s s s p j j p j j f j j f f p p j , F.n.n.z.z.z.z.z.j.z.z.z.n.{.m.y s f a f a f f u f f f f a i u a j a a p p a a a a a a a i a u u u f f g a a a a a a g s a j f s j a a a a u a a a a u a a a a s a a u a a a a j i a a a a a u a a a a s s s s u u i s d i u i u i a a u d s u s u p s s s s p s s u s s s s s j s a a i i s s a i d i i u a a a i a a i i p i p s i i i ^ i / / / s p p p i s p j p j p p i p p u p f r f g g f h g z z f g g l j j j j s j j j j j p z q m.}.z.z.j.j.j.].z.z.z.z.z.z.j.z.z.z.z.z.j.j.z.z.z.z.j.z.z.z.z.z.z.z.z.n.z.z.z.z.{.z.z.z.z.{.{.{.{.:X:X:X{.{.z.:X{.{.{.l.{.{.x.}.}.{.z.{.z.{.{.{.}.{.{.{.:X{.:Xn.:X:X:Xz.:X:X",
"                            w 4 3 3 3 9 w 5 r q 5 4 4 5 9 5 5 5 4 2 9 9 7 9 4 9 2 8 9 9 4 9 4 6 8 9 4 4 9 9 9 9 9 9 w 9 7 9 4 9 9 6 2 2 2 2 2 2 2 2 * * * 2 2 9 4 9 9 9 9 9 9 9 9 6 2 2 x 2 2 2 2 2 3 7 4 9 4 9 9 9 9 9 9 9 9 9 9 4 6 9 9 3 9 2 8 2 4 2 2 2 2 2 2 2 2 2 2 2 2 2 2 2 6 9 4 5 9 9 9 9 9 9 9 9 9 9 9 9 6 6 4 2 8 2 4 2 2 2 1 * * 2 2 2 2 4 4 9 3 2 9 9 8 2 2 2 2 2 o OXj.z.n.x.j.j.x.}.c.k.k.x.x.x.x.}.x.x.x.}.}.x.x.x.x.j.l.z.z.j.z.z.z.z.n.z.z.z.z.z.|.D z f j z p j j j p j j f f z g u a a f u 9 q u u 9 u a 9 a u 9 u p p p p 9 u 9 p p q f p p p a f p p p p p p p p p p p s a a a a u u p u p p p p a u u u a a 9 f p u u f f p f p s u u s p j p f f j p j k j j j j p j p f j j f ; <Xj.n.z.z.z.z.z.j.z.z.j.z.].d.y g a f u r a f f p f f f p f f a f j g f f f p a a a a w a p p f p p p a a a a a a a a u p f u u u u f u u a u a a p u a w p p a a p u a a f p f a p p a a f a a a f a p p p f f p u u u u f s p p f f f p f p p p p p f f p p u u p u p p p s p p f p j j p p f p u p p f p p u p u p p p p p p p p p p p p p p p p p j p s s p p s s p p p p p p p s a u a a a a a a p p i p a s s j j j j j p z p ^ p q t.;Xz.z.z.j.z.z.z.n.z.z.z.z.z.z.].n.z.z.z.z.z.z.j.z.z.z.z.z.z.z.z.j.z.z.z.z.z.z.z.z.j.j.n.z.}.x.z.z.k.x.x.x.n.x.x.x.z.z.c.x.k.x.z.z.j.z.x.x.j.l.x.x.x.x.k.x.k.x.z.z.z.z.z.x.",
"                            9 9 0 3 4 4 4 5 3 3 3 5 4 4 5 3 3 3 4 4 9 3 7 3 9 9 9 9 9 8 4 4 9 2 2 4 2 4 9 6 9 9 9 9 9 9 9 4 9 8 7 3 6 9 8 9 2 4 3 4 2 4 3 3 3 5 5 9 9 4 6 6 7 9 2 2 8 9 7 9 6 6 6 7 7 7 6 9 7 8 7 9 9 9 9 9 9 3 8 6 9 2 9 9 9 9 9 9 9 9 8 6 2 9 2 4 8 4 7 6 2 3 2 2 2 7 4 4 4 4 4 4 4 4 3 2 4 4 4 2 9 2 2 7 2 2 4 3 2 4 2 9 6 4 4 6 2 6 5 4 4 7 8 9 8 2 6 2 2 2 o OXj.j.x.j.j.z.k.x.}.k.x.k.x.z.x.k.k.x.x.x.k.k.k.k.c.k.j.z.z.z.z.z.z.z.z.z.z.z.z.{.:XG n p j p f j f j j j f j f f u u a w 9 f p u u p u a a u a w a a u 9 u u u u f p p p u p p u u u q u p u p p p f p p u p p a u f p p u f p u p i a 9 a a w a a a a a u u a a p s p f f p p p p f p p p j j p j j j j z j j j f j : F.l.z.j.z.z.z.z.n.z.z.n.j.{.m.g a f a f f a f f f f p f s p s a u f u p p f f a a w f w a p p u p p f p f f a a a u f p a f 9 f p p u a u a 9 u u p u u u q u f w q u p u f f 9 f f u a a a a a w a 9 p u u p p s u a p f p p p p s u s u u s f p s p u p u p p p f f f p p p s p p p s p p p u p u p p p f f f u u p p p p p p p s p p p j p p p s p p p p p p s p p p p u ^ p s p p a s a a a s a d s s s ^ j j j j j j j j ^ p j p z q t. Xz.z.z.l.z.z.z.v.v.n.z.z.z.j.j.j.l.z.z.z.z.z.{.z.z.z.z.z.z.z.z.z.z.j.z.j.z.x.z.z.z.n.z.n.x.x.x.x.}.x.x.x.x.x.z.z.z.z.z.z.z.z.z.z.z.z.x.x.z.z.k.k.x.x.x.x.x.z.z.z.z.j.z.z.",
"                            g 5 5 5 9 3 5 3 3 3 5 5 4 3 5 5 4 3 4 3 7 7 7 7 2 3 7 9 6 9 9 8 7 9 9 9 8 7 8 3 9 6 9 9 9 9 2 7 9 9 9 6 9 9 9 9 7 9 4 3 4 4 4 9 4 4 9 9 9 6 8 9 8 3 2 7 9 9 7 9 8 9 9 8 9 8 3 8 6 9 8 9 9 9 9 9 9 9 9 6 9 9 7 9 9 9 9 9 9 8 9 9 9 6 4 2 6 9 8 3 7 7 2 7 7 7 4 3 3 3 4 3 4 2 7 4 6 7 4 7 6 8 2 7 2 9 9 8 6 2 6 7 6 2 6 2 9 3 6 4 4 6 4 8 6 6 6 6 2 * O OX}.c.x.x.n.k.x.k.k.k.c.x.k.k.z.z.j.k.j.j.j.c.z.j.v.z.j.j.j.z.z.z.z.z.z.z.x.x.z.{.<XG m r j j j j j j j j f j f f u u u u u u p u u u u u u u u u i u u u u u u u i u u u u a u a 9 a a w p p a w a a u a a 9 u a u 9 w a a u u u a a u a u a a a a a a a a a a a a a s a a u a a a a a a a f p j f j j j p f p f j j > OXz.z.z.z.j.z.z.z.z.z.n.z.{.m.t j g w f f q f a f p f p f p s a a f a a a a 9 q f p p f 9 f a s u a a a a f u p p p 9 a w a a a a i a a a w a i p a w a a w a u p p a a r u a u u a u a w a a u a a a a u u s u u a a a a a a a a u a u s u s s s a a s f s s a a a s s u p u s p s u u s u p s a a a a a a a p s u s / p s p p p p i p / s p i p a i s p p p s p p p p p p p s j s p s s p s a f p f p p p p p ^ p j j j z ^ p p z p f w d.{.z.z.z.z.z.z.z.z.z.j.l.z.z.z.z.z.z.z.z.z.z.j.l.z.z.z.z.{.z.{.z.z.j.z.z.n.z.x.z.x.z.x.k.k.k.x.z.j.z.z.x.z.k.x.z.z.x.k.z.k.k.x.k.c.z.z.x.x.z.z.j.z.x.j.z.j.z.x.n.z.z.z.z.z.",
"                            r 5 5 4 3 5 5 5 5 5 5 3 5 3 3 5 4 3 3 9 7 7 7 7 l 6.3 7 7 3 7 7 7 9 9 7 7 7 7 9 9 3 6 7 7 9 9 9 9 6 7 7 2 6 7 9 9 9 9 4 4 3 3 5 9 3 8 7 4 7 7 9 9 9 9 8 6 9 8 2 9 9 9 9 9 9 9 7 7 7 9 9 9 9 9 9 9 9 9 9 7 9 9 9 7 7 7 8 6 9 8 7 9 7 2 6 7 7 7 3 2 7 7 4 6 2 5 5 4 4 2 4 2 9 2 6 4 2 9 2 2 9 9 2 6 9 3 2 9 8 6 4 2 9 4 6 2 8 4 6 7 2 4 2 9 4 2 6 9 * O `.}.k.k.k.k.k.x.x.k.}.x.x.k.c.j.j.j.j.j.j.j.z.z.z.z.j.j.z.j.z.z.z.z.z.z.z.x.z.x.z.;XC m r j f f f f p p j f j f f f u p s u u u u u u u u u u u 9 p f u u u u p p p u u a a a a u a u a u s u u a a a a a a a f u u f u p a p f u p u a a f u a u a u w u a w a p u a u a u p a p f p f p s f j f j p f f j p j f f f , OXz.z.z.z.z.z.j.z.z.z.z.z.{.m.t j f w f a f f f f f f j p f f s f f f f p f f a p f p a f a f u u a u a f f u p s f u a u a a f p f u a u a a f u a p f a f a p s u p a u a u p p u s a a a a u p u u s u p u p s a u u a p p f a p s f p p f p p u f p f p p f u p f f p p j p p p p p f p p p p f u u a f u u u p a p p p p p / / p i p i p s p p p p p p s j p s s p ^ p j p p p p p p p j a s p s p / / p p j j j j j p ^ z ^ ^ p g w m.|.z.z.j.z.z.j.z.z.z.l.j.z.z.l.j.j.z.z.z.j.].j.z.z.z.{.z.z.z.z.z.z.z.z.z.z.n.j.k.k.z.n.z.j.z.j.j.k.j.j.k.k.x.k.k.k.j.c.k.k.k.x.k.k.x.x.x.j.n.z.j.j.k.k.k.k.k.k.z.x.n.j.z.n.",
"                            f 9 3 3 4 3 5 5 5 4 4 5 4 4 5 4 9 9 9 9 6 7 7 7 3 2 7 7 7 9 3 7 3 2 7 2 3 7 7 9 9 6 2 7 7 7 9 7 7 7 9 7 9 6 9 9 9 6 9 3 9 9 9 9 5 4 9 2 6 4 4 9 8 9 8 7 8 9 9 2 8 6 2 6 9 3 7 9 7 9 7 9 9 6 9 6 9 9 8 7 7 7 7 7 9 9 8 7 9 7 6 9 7 6 6 2 9 7 7 7 2 2 6 2 4 7 4 9 4 9 4 3 7 4 9 6 2 9 8 2 8 2 6 3 8 2 8 7 9 2 3 2 8 2 4 7 6 2 7 2 6 9 7 9 2 2 4 9 9 4 O ].}.}.x.x.x.x.c.x.x.k.k.x.z.z.k.c.k.c.k.c.k.j.j.z.j.j.z.j.j.z.n.z.z.z.n.z.x.x.z.z.+XG m g j j j f f j p j j j f f u u f u p p u p p u u a u u u u u u p u u p p 9 p u a a a u u u u a u u p p u a p a u f f a p a u u f u p p u p p p u f u p u p u p p u u p p u p p p f s p f p p p p f p f f j j p f f p ^ j f p j , OXl.z.z.z.j.j.j.z.z.z.z.z.|.m.y s f a f u f a a a f f p j u f f f p f p f f p f a f s p f f p p f f p p f p a f u a p p p p f p p p s p u p f p p p p p f p f p p p p p p u u p u p p p p u u p s u p p p p s p f p p p f u s u u p f u p p p p p f p p p p p s p u p s p p s j p p p p p j p p p u p p p p p p u p p i p p s p s p p p p p p p s p s p p p p p p p p p p s s p s p p p p p p p s p s p p p p ^ p ^ p j ^ p z p ^ p p s e m.:Xz.z.j.l.z.j.z.z.z.z.{.j.z.z.z.j.z.z.z.z.z.z.z.z.z.z.z.z.j.z.z.z.n.z.z.z.z.x.z.x.z.z.z.z.z.z.z.x.x.}.x.x.c.x.x.x.x.z.x.z.z.z.}.z.x.x.x.x.x.x.x.x.x.x.x.x.x.k.n.z.j.x.x.k.",
"                            h 4 3 q 5 5 3 3 3 5 5 3 5 3 9 7 7 4 4 6 9 9 9 9 9 9 4 4 3 4 4 3 9 9 u 9 2 7 9 2 7 7 6 9 9 9 6 9 9 7 2 9 6 9 9 9 9 6 9 7 9 2 9 9 9 7 9 9 8 9 9 6 7 9 9 9 3 9 9 9 9 9 8 9 9 8 7 9 9 9 9 9 9 9 9 9 8 9 9 9 9 9 9 9 4 8 7 8 2 8 9 6 8 7 6 2 9 7 8 2 9 8 9 4 3 4 2 2 7 3 7 2 8 9 6 4 8 9 7 9 9 2 2 8 2 9 8 2 7 2 8 8 7 9 6 2 9 9 2 8 2 9 6 2 6 4 7 7 9 4 O OXn.x.x.x.x.x.x.k.x.x.k.x.x.k.c.j.k.z.j.c.j.z.z.z.j.z.j.z.z.z.z.z.z.z.z.z.x.z.z.z.|.G g w j j j j j p j f j f f s f u u u u u u s u u u u i u i u a a p p u u u a u u u u u a a a u u u a f u u a a u u a u a a u f a p a s u f u s p a a f u p a f a u u u f p u p s f u f u s f s f f p f j j j f j p j j f j p j z , OXz.z.j.{.j.z.j.j.j.n.z.j.{.m.e g a a f f f f f f f p f p f f p a f u a f p f u f f u a u a f p p s u f u f u u a p p a a u u f p p f p f a a f p s f p a f u p p p u u u u p u u u u a u u a u u p p s p p p u f p s u f u f a f a p p s s p p s p f p s f f u p f u p p p f p p p p p p p s p u f u p p s u u f p u p p p p p p p i p p s p p p p p p s p s p p p p p i p p p p p s p s p p s j p p p p ^ p ^ p p p ^ p ^ p ^ p ^ p f q a.|.z.z.z.z.z.z.].z.z.z.z.z.z.z.z.].z.].z.z.{.z.z.z.z.n.z.z.l.z.z.z.z.z.j.j.z.z.z.z.z.z.z.z.z.z.z.z.k.z.z.k.k.z.z.z.c.z.z.c.z.k.c.z.x.z.z.x.x.z.z.z.j.z.x.z.x.z.z.z.j.n.z.z.",
"                            w * 3 0 3 5 9 5 5 3 4 3 4 6 3 8 2 9 9 2 9 9 9 9 9 9 4 3 4 4 5 3 9 2 6 9 2 2 9 2 9 4 9 6 4 9 7 2 9 8 7 9 9 9 9 8 8 9 7 9 9 7 9 9 9 2 6 9 9 8 8 9 9 6 4 4 9 9 9 9 9 9 9 6 7 9 3 9 9 9 7 9 9 9 9 9 2 9 7 9 7 7 8 2 2 6 8 9 6 9 9 2 8 6 2 9 2 9 6 2 2 6 2 2 3 4 2 8 2 9 2 9 9 4 7 2 9 2 6 4 9 2 9 3 2 9 3 2 8 2 8 3 2 2 6 2 9 2 6 4 7 2 2 8 2 6 6 7 3 - O +Xx.x.x.x.x.k.k.c.k.x.k.x.c.k.c.j.z.c.k.k.c.z.z.z.z.z.z.z.z.z.z.n.j.z.z.x.z.z.z.z.:XG z z j z p z j j p j f j f u u u s u u s a u u u u u a 9 w u a a u a u u u u u u u u u u s f u u u a u a u a u u u f u u a u f f u a u f u p u f a u u a a a u f f u u s p u f u u u f f p f u f f f s f j f f j s p f j j f a j ; F.z.z.j.z.z.z.z.z.z.z.j.j.].m.4 d a g f f f p f a f f f p j s u f u f u p p f s p p a u f p f u f s p s p u p a u s p p a u f u f a u u u f p a u p p f s s p p p p p p p u p u s u s a u u u p u u f u f u f u a f u u a u p u u u f p p u f u f s p f p s f u p p p p p f u p s p f f u p u p a u f u u u u f u s p u f f u p p u u p p s p p p p p s p p u u p p s s p s p u s p p s p p p p p f u p p j p p ^ p ^ ^ p ^ p p ^ p j j 5 t.:Xx.x.z.z.z.z.z.z.z.z.z.z.z.z.z.z.z.z.z.z.z.z.z.z.z.z.z.z.z.z.z.z.z.z.z.z.x.z.n.j.z.z.j.z.z.z.j.z.j.z.z.z.k.x.c.j.k.c.k.k.z.z.z.z.k.z.z.x.z.z.j.z.z.z.n.j.z.z.z.z.z.z.z.z.",
"                            9 9 3 3 3 7 5 3 4 3 3 2 3 7 9 9 6 9 6 9 9 9 9 7 2 6 2 4 3 4 4 4 9 3 2 9 8 9 8 9 6 6 2 9 6 9 6 9 9 3 9 9 6 9 7 9 9 9 9 8 9 8 8 9 9 9 9 9 9 9 9 9 9 9 9 6 9 9 9 6 8 2 8 9 9 9 4 9 4 9 9 9 9 9 6 7 9 8 9 9 9 9 9 9 9 9 9 2 9 3 8 9 3 9 6 2 8 2 4 8 2 2 3 4 3 4 9 2 6 2 6 9 8 6 2 9 6 9 9 9 6 9 6 8 9 7 2 9 8 7 6 6 9 8 3 8 4 6 6 2 2 8 9 2 6 2 6 7 3 4 # $X{.k.k.x.x.x.x.z.x.x.c.x.k.k.j.z.z.x.k.z.z.z.z.j.z.z.j.j.z.z.z.z.j.z.z.z.z.z.z.z.:XC q f j f p j j j j j j z f f f u u u u u u u a u u a a u u u a a a 9 u u a u u u u u u u u u u f a u u u u a a u a u u u u f u u f u p u p p s u u u f a a p u u u u f u p u u u f u u f p u s f f p p p j p j f j f j f f s g g , G.z.z.l.{.z.z.z.j.j.n.j.j.n.t.- g a a p p s j f f f a p j p p f a f a f s f p f u u p s u u p u u p u f u p u u f u f f u p p a p p s a u u a u f s u p u u u p p p p p u u p u u u u f u u s u u u u u u u a a p p u u f p p f f u a u a a p u f f p p p p p f a s u f p s f p p f p s u p u u u u a u u u u u u u u s u u p s p s f p s p p p s i p p u s p p s p p u p p u p f u s p j s p p s s p s p j p ^ p ^ p p ^ p ^ ^ p ^ j j 9 t.{.n.x.c.z.z.z.z.l.z.z.z.z.v.j.{.z.z.z.z.{.z.z.z.z.{.z.{.z.{.z.z.n.z.z.j.z.z.z.z.z.z.z.j.n.j.z.z.z.z.j.z.z.z.c.j.k.z.k.x.k.k.c.c.j.z.z.z.z.z.z.z.z.z.z.n.z.n.x.z.n.n.x.z.z.",
"                            w 2 3 3 3 3 5 3 3 3 3 4 4 2 2 8 2 6 8 2 6 8 8 2 9 7 3 4 3 4 4 4 2 9 9 9 8 2 2 7 7 9 9 8 9 8 7 9 7 9 7 9 7 9 9 9 2 9 9 9 9 9 9 8 9 7 9 2 2 9 9 6 6 7 7 9 7 9 9 9 7 9 3 9 9 9 4 4 3 4 2 2 4 9 4 9 9 8 9 9 3 9 3 9 2 7 4 7 4 9 7 8 9 4 8 3 8 3 6 4 2 8 8 4 4 4 2 6 9 9 9 2 7 4 6 9 7 7 8 3 8 7 9 2 9 6 9 8 2 2 2 2 3 9 6 4 7 2 9 9 7 2 2 2 2 9 2 6 4 5 O OX}.x.x.x.x.x.x.x.x.k.k.z.c.z.k.k.k.x.x.z.x.z.z.z.z.z.z.n.z.j.z.z.z.z.x.z.x.k.z.z.:XR r z z l l z p p j j j j j j f a p u u f u a a a a u u a a a u u u a a a u u u a a u a a p u p a u a u u u u a a f u f u a a f a u u u p a p f u u u u a s u f u u f a u u u u f a a a a p s p p f s f a p j p f f j z f z f s g , F.l.z.j.z.z.z.j.z.z.j.n.j.n.N.y g f g j p p f p j f a s j f p a f f a u p s p u f a a p u f s u f f s f u s a f p p u u f u s u f p p a u u u u a p f u p p f p p p p p u a a u u s p u u u u u u s u u f u f u u f p f s f s a f f a f u s u u a p s f s f u u s p p u a p a f u f p s u s p p u u u u u f s f u a a u p p u p f a u p p p p p p s p u p f p p p p s p p s p p s u u p j p s p p f a s p p j ^ p s j ^ p p p p p s j z q t.{.z.z.z.z.l.z.z.z.z.z.z.z.z.z.z.z.z.z.z.z.z.z.{.z.{.z.z.z.z.z.z.z.z.z.n.z.z.z.z.z.n.z.z.z.n.z.z.z.z.z.z.j.z.k.j.c.z.k.z.x.x.x.k.c.z.z.z.z.x.z.z.n.z.z.z.z.z.z.n.z.j.n.z.z.",
"                            w 2 3 q 9 3 9 5 3 5 4 5 2 9 9 9 9 3 9 9 7 4 9 2 2 9 4 9 4 2 2 2 4 9 6 2 2 2 6 2 7 9 9 9 9 9 7 7 7 7 7 9 7 3 8 9 6 9 8 9 9 9 9 9 8 9 9 6 6 9 9 9 2 7 2 4 8 6 3 9 9 7 9 2 3 7 5 9 9 9 9 9 4 4 3 2 4 3 4 4 9 4 9 4 4 9 9 4 4 4 3 2 3 8 9 2 9 6 2 7 6 8 2 2 3 3 8 2 9 2 9 3 9 4 4 4 4 4 4 2 2 9 2 8 2 3 2 6 2 9 9 9 9 3 4 6 3 8 4 6 6 6 2 6 6 7 6 7 5 5 # 2Xx.x.x.x.x.x.x.k.x.c.x.z.j.z.x.k.k.c.x.x.k.z.z.z.z.z.z.z.z.j.z.j.n.z.z.z.z.{.z.z.{.R f z f f j p j j f p p j f j a a u p u u u u u a u u w a a 9 a 9 u u a w i u u u a 9 a a f p p p s f u a u u a a u p p s a a a a f f f s a u u a u u u a p f u u u u f p u p p s a a a a p f f f f f f f j f f j f j f f f s d m , OXj.j.j.l.z.z.z.j.z.z.j.n.].N.y d a a f j f f p s f a p f f f f a f a f u u u a u f a f p p u u p p p p f u u s p a u u u u u u u u u u u u u f u a u p s u p p p u p p f 9 a p u p u u u u u u p u u a u u u f u s p p p u u u u a f f u p p f p p p a a u a f u p f p f u p p s p p p f f p u u u p u u p u u u u u p u p s p u f u p s s p s p s p s u u p u s u p p p p u p p p f p p p j s f u f p p s j p j j j ^ p ^ ^ p ^ p j j q a.}.z.z.z.c.z.z.z.c.{.z.z.z.z.z.z.z.j.{.z.z.z.z.z.z.z.z.z.z.z.z.z.z.z.z.z.z.n.z.z.z.j.z.z.z.j.z.z.z.z.z.z.j.z.c.z.j.z.c.x.k.z.k.x.x.k.z.x.z.z.z.x.z.x.z.z.z.z.n.z.z.z.z.x.n.",
"                            r 9 3 3 3 5 5 3 3 3 5 2 * 3 3 9 7 9 9 4 9 9 9 4 4 9 9 q 9 4 5 5 9 9 9 4 4 7 7 3 3 7 3 3 9 p 9 7 9 7 7 3 7 7 6 9 9 9 2 9 6 9 7 7 9 9 9 8 7 9 9 9 7 7 9 9 9 9 9 9 3 7 9 9 9 9 3 7 3 7 9 9 4 3 9 5 9 9 7 9 5 5 5 4 3 7 4 3 2 3 2 4 2 2 6 2 4 2 2 2 2 2 2 3 3 7 9 9 9 9 9 9 9 4 5 9 9 9 9 9 9 9 9 9 7 3 6 3 2 7 6 2 3 3 7 2 3 2 3 2 2 2 8 3 3 9 2 7 4 9 = 2X{.k.x.x.x.x.x.k.x.x.z.x.k.k.x.x.k.x.k.z.x.z.z.z.z.z.z.z.x.n.z.z.j.z.z.z.z.z.{.z.:XR g z l l z j z k z z z k g j g s f f a g f g f p a a f f f f a a a g a a f f g a a a a a f f j f g f f g f a a a u f f a a a a a f f f g f f f f a s g g j f g f f f f g f p g u u u w a p p g u u a a f p f g f j f g s j z j f > F.z.z.j.l.n.j.j.j.j.z.j.j.j.N.e a g s f f f f f f f a p f a a g a a a u f f u a f a f a a a s z f f f a g g g f j f g f a f f a u a p u a u f f u a f a a f f p p p p f f f f f w f a r a a a f j f f f p f f a w a f p f a f a a a f a f p p u p f f g f f z z f f j j f j f f j f p j p f f p j f f f f f f r u r u f f f f g u s f f f j f j z j p f a s f p u p p s p f f f f f f p p f f u f f f p j f f j j j j p ^ p p f j j l z q N.|.z.z.z.c.z.z.z.z.z.z.z.l.z.{.z.z.z.z.z.z.z.j.z.z.z.z.z.z.z.z.z.n.z.z.z.z.z.j.z.j.j.z.z.z.j.z.j.z.z.z.z.k.k.x.k.k.k.x.x.c.x.x.x.x.z.z.z.z.j.x.x.x.n.z.n.j.z.x.n.z.z.x.z.z.",
"        HXHXHXHXHX  lXyXHXyX0 - & - & = & + = - : - = % & + * + % * = % & = * * - - = = - = * % = - = - - 3 5 : - - 5 5 - - 0 0 : : 5 : - - = = - % * = = 3 = = * = = - 5 = = - : 5 - - - - - - = - - - 3 0 : - - - - 3 - 5 5 : 0 - : 3 - 3 - - - = = % % X + * * + % * + . % + % * = = - = - - 0 q : 0 : 0 : : - - 0 0 - * = * + % * = = * * * % * * * = * = 3 5 - = * * - - e & +X}.x.x.k.k.x.x.z.x.z.k.x.x.c.k.c.x.z.k.z.z.x.z.z.j.z.j.x.z.z.z.z.z.n.z.x.z.z.z.z.:XT , b t e 5 e r y r r r e 0 e 0 e r e e e q : 0 5 e e : e e : 0 , : 5 e 0 e e e e e e - 0 5 : : 5 - e 5 : - : 5 - q - - 0 0 e e 0 : 5 : 5 5 e 5 0 0 0 0 4 5 0 - : - q 5 0 - 5 0 - = - - = - 5 - 5 5 0 e e q q e e e y e w q e y 0 $ OXj.j.j.z.z.z.z.z.z.z.n.j.j.N.; 0 e e 4 - 0 e e 9 : e 0 q e 0 : 5 0 e 5 e e e e e e e y y e y r e e r e w r e y e r e 0 e w e e w : q e : 5 e 0 e 0 e 0 : - 0 r 0 y r e w e e e e e e e 0 e w r e e q e e q 0 e 0 0 4 5 : - 5 0 5 - - : 0 - - 4 - = 5 5 q 0 : 0 0 e e r 0 y 0 0 y e y e y e 0 0 0 0 0 0 9 5 0 e 5 q 5 5 5 5 - - q 0 q q e 0 r q r r r y e e q r e e q q q e r y y q 0 0 q 0 r 0 q 5 4 5 3 q r q q q r q q q q q 0 q 0 r : m.}.z.k.z.z.z.z.z.z.z.z.z.z.z.z.z.j.z.l.z.z.z.z.{.z.z.n.z.{.z.z.{.z.z.z.z.z.z.z.z.z.z.z.z.z.z.z.z.z.j.z.z.z.z.z.z.z.z.z.z.k.k.c.z.k.z.z.z.k.x.x.k.x.x.x.x.x.x.z.z.x.n.z.n.n.",
"5 4 9 5 9 9 4 9 9 w 9 2 4 , a.a.a.t.e.t.a.E e.E R t.t.t.t.a.t.u.t.a.E t.t.E a.t.t.t.E a.t.t.a.E E E E t.E E t.$.E $.$.e.R $.R R E $.R R R E E R R R R R R R R R R R R R W R R a.E R E R R e.E R R E R E R R R R R W R R R R R R R $.$.R R R $.R R R R R E a.a.t.a.t.E $.e.a.a.t.E E E E R E R E R R E R E E E R R R E R E E E E E E R R R $.R R R R W R W R R R R W I W P T E t.r.|.x.x.k.c.c.x.k.k.z.k.x.c.z.x.x.x.k.x.k.c.c.k.z.z.z.x.x.j.z.z.n.z.z.z.x.x.z.x.z.z.n.].B.B.B.m.f.d.m.m.d.m.d.f.m.M.m.M.f.m.M.m.m.f.M.M.M.M.M.M.M.S.M.M.M.M.B.M.M.M.M.M.M.M.B.M.M.m.m.M.m.m.m.m.m.m.M.M.m.m.m.m.m.m.m.m.f.m.m.m.m.m.f.f.M.M.M.M.M.M.M.M.M.M.M.M.M.S.M.M.B.B.M.M.M.M.M.g.m.M.m.m.f.m.m.f.d.t.d.t.t.f.M.M.f.].j.z.z.z.l.j.j.j.z.z.j.n.n.F.M.M.M.M.m.m.m.m.m.M.M.m.m.m.m.f.m.m.m.f.f.d.d.M.m.m.m.M.m.m.m.m.m.m.m.m.m.m.m.d.f.f.d.d.d.d.d.t.d.t.t.d.t.d.d.t.t.d.t.t.t.d.t.d.d.t.t.f.m.d.d.d.d.d.m.f.f.f.f.d.f.m.d.f.d.m.m.m.f.f.m.m.m.m.f.m.m.m.m.m.m.d.m.M.S.M.M.m.M.m.m.f.m.m.m.M.M.M.M.m.M.f.m.m.m.M.f.m.M.m.m.M.m.m.m.m.f.m.M.m.m.m.m.m.f.m.m.d.f.m.f.d.f.t.f.m.m.m.M.m.m.m.m.m.m.d.m.m.f.a.m.m.m.m.m.t.d.m.m.m.m.d.t.t.t.t.t.t.t.t.a.r.t.t.t.t.M.m.G.z.k.z.{.z.j.k.z.j.z.z.z.z.l.j.z.z.z.z.z.z.z.z.z.z.z.{.z.z.z.z.z.z.z.z.z.z.z.z.z.j.j.z.z.z.z.j.z.j.z.z.z.z.z.z.z.k.k.z.z.k.x.k.k.k.k.z.k.z.x.x.x.x.x.x.x.x.x.n.n.x.z.z.z.x.",
"4 4 4 4 4 4 4 3 4 9 3 = 5 > %X;X X|.|. X X,X|.>X>X|.|.+X>X|. X*X|.|.+X|.|.|.].|.].|.].|.|.|.].|.+X|.|.|.|.|.|.|.|.}.|.|. X|.|.|.>X+X|.|.>X|.|.>X>X|.>X>X|.,X,X>X>X>X>X>X|.>X|.|.|.|.+X|.|.|.+X|.+X|.|.+X|.+X|.>X+X|.>X|.+X|.|.|.|.|. X+X|.+X|.|.,X,X,X>X|.+X+X+X+X,X>X>X,X+X|.>X,X+X,X>X,X>X|.|.|. X|.|.|.|.|.|.}.|.|.|.|.|.|.|.+X;X+X,X+X+X>X>X,X>X,X,X,X|.+X|.+X|.+X|.|.|.].|. X}.x.x.x.x.k.k.c.x.x.x.x.k.x.x.k.k.c.z.k.z.z.x.z.z.z.z.x.z.x.z.j.z.z.j.x.x.z.x.z.j.l.j.{.{.z.[.{.{.{.{.{.{.{.[.{.{.{.{.|.|.|.:X:X{.|.{.{.{.{.|.{.z.{.{.{.{.{.{.{.[.z.{.l.z.].{.z.{.{.{.{.}.:X{.{.:X{.}.:X:X}.:X}.}.:X|.{.{.}.}.}.}.{.{.z.l.[.{.}.:Xx.{.}.z.}.{.x.{.:Xz.{.[.|.:X}.{.:X:X:Xx.{.{.{.{.:X:X{.{.{.{.}.}.}.}.].n.z.z.].z.z.j.j.j.z.z.j.n.n.z.:Xn.z.{.z.l.l.{.{.{.{.{.{.{.|.|.:X{.:X|.:X:X}.|.{.:Xz.{.{.n.{.{.l.l.{.{.{.{.z.{.l.{.{.:X}.{.{.:X}.{.:X:X:X:X:X:X:X:X;X|.;X{.;X|.}.{.{.}.{.{.{.z.:Xn.z.].z.{.{.{.{.[.z.[.{.{.[.{.{.{.{.|.{.:X{.{.{.{.|.}.}.}.{.{.{.|.}.}.{.}.{.|.z.{.{.c.{.z.}.c.{.x.}.}.}.}.}.c.}.}.}. X}.{.{.}.{.}.{.{.{.}.}.{.{.{.}.{.{.{.}.;X}.}.[.}.}.{.[. X{.{.}.{.}.}.{.[.{.{.[.{.}.{.}.}.}.}.{.}. X;X;X}.}.|.}.|. X X X X}.;X X}.}.}.{.z.j.z.c.j.c.z.j.c.j.z.z.z.z.l.{.z.z.z.l.z.z.z.z.z.z.z.z.z.{.z.z.n.z.{.z.z.z.z.z.z.j.z.j.n.j.z.z.z.j.z.z.z.z.z.z.z.z.z.c.x.z.x.x.c.x.k.k.x.z.k.x.k.x.x.x.x.x.z.z.z.n.x.n.x.",
"3 3 3 5 3 3 3 - 3 3 + 3 = v +Xc.x.}.k.k.}.k.}.k.x.x.x.x.x.c.k.x.c.k.n.c.k.x.k.k.c.k.x.x.x.x.x.x.k.x.}.x.n.}.n.}.n.x.x.x.}.}.x.x.x.k.z.c.z.x.x.x.x.x.}.x.z.}.x.x.x.}.z.z.{.l.z.z.z.z.z.z.j.l.z.z.k.j.z.z.}.x.}.}.}.}.x.}.x.}.x.}.x.x.z.}.z.}.x.x.z.z.}.x.x.}.x.x.c.z.}.x.}.x.x.x.z.x.x.x.x.x.x.x.x.x.j.j.j.j.j.j.j.j.j.j.j.j.j.c.k.z.z.z.x.}.x.x.x.}.x.}.}.x.x.x.}.x.}.x.z.z.k.k.x.c.{.k.k.x.c.z.z.k.x.x.x.x.x.x.c.x.z.x.k.z.c.k.x.x.x.x.x.k.n.j.z.x.z.z.x.z.z.x.z.z.c.x.z.z.j.j.v.z.n.z.z.z.z.j.z.z.].n.z.{.z.l.{.z.{.z.{.z.j.l.x.x.}.z.c.k.z.x.x.x.x.x.k.c.x.k.z.x.x.z.x.x.x.}.x.}.x.}.z.{.x.z.z.{.}.}.x.}.x.n.x.x.x.z.x.x.x.x.x.k.c.k.j.j.z.c.c.z.k.z.k.k.x.x.x.x.}.x.}.x.z.z.z.z.j.l.z.z.z.z.z.}.z.j.k.c.x.z.j.j.j.z.j.j.k.k.c.z.z.x.x.x.k.x.z.z.c.j.k.x.x.c.x.k.c.k.x.x.z.z.z.c.z.z.j.j.z.j.j.z.z.z.k.x.k.z.z.k.z.c.j.z.c.j.j.z.z.z.z.:Xz.z.z.z.l.z.x.z.z.j.z.z.z.z.z.z.l.z.j.z.j.z.l.j.z.l.j.z.j.j.v.z.z.z.z.{.z.l.z.z.{.z.x.z.z.{.z.z.{.z.l.z.z.z.z.z.z.x.x.z.c.x.z.z.j.z.z.z.j.z.j.j.j.z.z.z.z.z.z.z.z.x.z.z.z.z.z.z.l.j.z.z.x.x.c.k.x.x.x.x.k.z.c.z.z.z.k.z.x.z.x.x.x.x.k.x.k.k.k.j.k.z.x.x.x.k.x.x.x.k.x.x.}.x.x.x.}.x.n.n.z.z.n.x.n.x.k.x.j.x.z.z.z.k.c.j.c.z.z.c.z.z.}.z.x.x.c.z.z.z.z.j.z.z.z.z.l.z.z.z.{.z.z.z.z.z.z.z.x.z.z.z.z.z.j.z.z.j.j.z.z.z.z.z.z.z.z.z.c.k.k.x.x.x.z.k.k.k.x.k.c.x.x.k.x.x.x.x.x.x.x.n.z.z.",
"3 = 3 3 - 3 = 3 3 + 7 3 3 & OXx.}.}.k.n.}.c.x.x.x.x.x.x.x.x.x.}.n.n.c.c.x.}.c.x.x.x.k.c.x.x.k.x.c.k.x.x.x.x.x.k.k.k.k.k.k.x.x.x.x.j.z.z.k.z.j.j.z.x.z.x.j.n.z.z.z.z.z.z.z.z.z.z.z.n.z.z.z.j.j.z.j.c.z.z.z.z.z.k.z.z.z.z.x.x.z.z.z.x.z.z.x.x.z.z.j.j.z.j.j.z.z.z.z.z.z.x.k.z.x.x.n.j.z.z.x.x.j.z.z.z.j.j.j.j.j.j.n.j.j.n.z.j.j.j.z.j.z.j.z.z.x.z.x.x.x.x.x.x.x.z.k.k.k.k.j.z.k.z.n.l.z.k.k.z.k.k.z.k.c.k.x.k.x.z.k.k.k.c.z.c.z.k.z.k.x.x.x.z.z.z.z.z.z.z.x.}.x.x.x.{.x.k.z.}.[.z.j.j.z.z.z.z.z.j.v.z.z.z.z.z.z.z.z.z.z.z.z.z.z.z.z.x.z.x.x.}.x.c.c.x.x.x.k.x.x.k.x.x.x.x.x.k.x.k.x.x.x.x.x.z.x.x.x.x.k.k.x.x.j.x.x.x.x.x.k.k.k.k.x.k.k.k.j.k.j.k.j.z.z.z.z.z.z.z.c.k.k.x.k.x.z.z.z.j.j.j.z.z.z.z.k.k.k.k.k.x.x.j.z.c.c.k.c.k.c.k.k.k.k.c.k.k.x.j.z.k.k.z.k.k.x.k.k.j.k.j.k.j.z.k.z.j.z.j.c.z.c.z.z.z.z.z.c.k.x.c.k.c.k.k.k.k.c.j.z.z.j.j.j.j.j.j.z.j.z.z.j.j.j.z.j.j.j.z.z.c.l.z.z.l.z.z.z.z.z.z.z.l.z.z.z.n.z.z.z.z.z.z.z.z.z.z.z.z.z.z.z.c.j.z.j.l.z.z.z.z.z.z.z.z.j.j.j.j.j.j.z.z.j.j.j.j.j.k.j.z.z.k.j.j.c.k.z.z.z.z.z.j.z.j.z.k.k.k.k.k.k.k.k.x.k.k.k.k.k.k.k.k.c.k.k.x.x.k.x.x.k.k.k.k.k.k.k.k.k.k.x.k.k.k.k.k.k.k.x.k.z.k.x.x.k.k.z.n.k.x.x.k.k.x.z.z.c.z.j.z.z.x.k.k.x.k.x.x.z.x.}.z.[.z.z.{.z.l.z.z.z.l.z.z.z.z.z.n.z.{.{.x.z.z.z.z.z.j.z.z.z.z.z.z.z.z.z.z.j.z.z.x.k.z.c.x.x.k.c.z.c.x.x.x.x.k.x.x.x.x.x.x.x.x.z.z.n.x.",
"3 = 3 = 3 3 3 3 3 3 3 3 = & .X}.c.}.c.}.x.x.x.}.}.k.x.x.c.k.x.x.k.c.n.k.}.x.x.n.x.x.x.x.x.x.x.k.k.x.x.x.x.x.x.k.n.x.k.n.k.k.k.k.n.j.n.j.z.z.z.j.j.n.z.z.z.z.j.n.z.z.z.z.z.z.z.z.z.z.j.l.j.j.z.z.z.c.z.z.{.z.z.z.n.z.z.z.z.z.z.z.z.z.z.z.n.z.z.z.j.n.j.n.z.z.z.z.z.z.z.z.z.z.z.x.j.j.n.j.n.n.z.z.z.z.z.n.j.n.n.j.z.z.z.x.z.z.j.z.z.z.z.z.z.z.z.z.k.z.x.k.k.k.z.z.k.z.x.x.z.z.{.z.z.z.z.z.k.x.x.z.z.k.x.k.x.c.k.k.k.z.k.z.z.k.z.x.k.c.z.k.z.z.z.z.z.z.z.z.z.x.z.x.x.x.x.k.z.z.z.z.z.j.n.v.j.v.n.z.n.j.j.z.l.j.z.{.z.z.l.z.z.z.z.z.c.x.x.z.k.x.k.x.x.x.x.x.x.x.x.c.x.x.x.x.x.c.c.x.x.x.x.x.x.x.x.x.c.k.z.x.x.x.x.x.x.x.x.x.x.k.k.c.k.k.k.k.c.k.k.k.j.c.x.x.c.z.z.z.z.c.c.x.c.k.c.k.z.z.z.z.z.c.k.k.z.j.z.j.k.k.k.k.x.{.k.z.c.k.k.x.k.k.k.x.k.k.c.j.c.k.c.k.x.c.k.k.z.j.j.j.c.j.j.j.j.j.j.j.j.j.j.j.j.z.z.z.x.x.c.k.c.k.c.c.k.c.k.c.j.l.z.j.j.j.l.j.j.j.z.z.j.z.k.k.c.k.z.j.z.z.c.c.z.z.j.l.l.z.z.z.j.j.j.j.z.z.z.].z.z.l.z.z.l.z.z.z.z.z.z.l.j.l.j.j.j.j.z.z.z.z.z.z.z.j.k.k.k.x.k.z.z.j.j.z.j.j.c.c.z.c.k.j.z.k.j.z.k.z.j.j.z.j.j.k.c.c.k.k.k.c.z.c.k.k.c.k.k.c.k.c.k.x.k.c.x.x.c.c.x.x.x.x.k.x.x.k.k.x.k.x.x.k.c.x.c.k.x.x.x.k.k.x.k.k.k.x.k.x.k.x.x.x.z.c.k.z.z.k.k.c.x.x.z.x.c.c.z.x.z.z.z.z.z.z.z.z.l.z.z.z.z.z.{.z.z.z.z.z.z.z.z.z.z.x.n.j.z.z.z.z.j.z.z.z.z.z.z.z.j.z.x.k.z.z.k.z.x.x.z.k.z.x.k.x.k.x.k.x.x.x.z.x.x.z.n.z.n.",
"* 4 3 3 3 3 7 + 3 3 x + b > .X}.c.n.x.n.x.x.c.x.x.c.x.x.x.}.x.x.c.n.n.c.n.k.}.c.x.x.k.x.x.x.x.x.x.}.n.x.x.x.x.k.k.k.k.k.x.k.k.k.k.k.k.k.x.x.j.n.j.k.k.x.j.n.j.j.x.k.k.z.z.x.z.j.j.j.z.c.j.j.k.j.z.k.k.z.k.z.x.x.x.x.z.}.z.x.z.x.x.x.x.x.z.x.z.x.k.n.j.k.z.k.j.x.k.z.x.x.x.n.x.x.n.k.j.n.x.x.j.j.z.x.x.k.j.j.j.j.k.k.x.k.z.z.z.j.z.c.z.x.z.x.x.x.x.x.x.c.x.x.z.z.k.c.k.c.c.z.z.z.z.k.k.z.x.c.k.x.c.z.x.k.k.x.x.x.x.x.x.x.x.x.k.k.k.x.k.k.k.z.z.z.j.x.z.z.}.x.x.x.x.c.{.x.z.{.j.j.z.z.z.z.j.j.z.z.z.z.z.z.z.z.z.z.z.z.z.z.l.z.z.z.z.z.z.z.x.k.x.z.k.x.k.c.x.x.k.z.x.x.x.k.x.x.x.x.z.k.j.x.j.z.z.z.j.z.z.z.z.z.z.z.z.z.z.z.k.k.k.k.k.k.k.j.j.j.z.k.j.x.z.z.z.z.z.c.z.k.k.k.x.k.z.z.z.z.z.z.z.z.z.z.z.j.j.j.z.{.x.k.x.z.j.c.k.x.z.x.k.k.{.z.k.k.x.c.k.c.z.k.x.x.x.c.c.c.c.z.c.j.j.j.z.z.j.z.z.z.z.z.z.z.z.j.x.k.x.k.k.z.k.z.k.j.z.j.j.j.j.j.j.j.j.j.j.j.j.j.j.c.z.c.z.z.z.z.z.j.j.j.z.z.j.j.j.j.j.j.j.z.j.z.z.z.z.z.z.z.z.z.z.z.z.z.z.z.j.j.j.j.j.j.j.j.j.j.z.z.z.z.z.z.j.j.k.k.k.k.j.j.j.j.j.j.j.z.c.z.j.z.k.k.j.j.z.z.j.z.j.j.j.j.k.j.j.z.j.j.k.j.k.z.k.j.z.k.z.k.j.k.z.z.z.z.k.k.k.z.x.k.z.z.j.k.k.x.k.k.x.x.k.z.k.x.z.z.z.z.z.z.x.x.x.j.z.z.z.x.x.z.z.j.z.k.z.z.k.x.x.k.k.x.k.z.x.z.c.}.x.z.z.z.z.z.n.z.{.z.z.z.z.z.n.z.z.z.{.z.z.z.x.z.z.j.z.j.z.z.z.z.z.z.z.z.z.z.j.z.z.k.k.c.z.k.k.c.x.x.k.x.k.c.x.x.c.k.x.x.x.x.n.z.z.z.n.x.",
"= 3 3 3 = 3 3 = 3 3 = 3 q < +X:Xx.x.x.x.c.x.k.k.c.k.x.x.k.k.x.}.n.}.n.c.x.x.x.k.x.k.k.k.x.n.k.x.k.n.k.k.k.x.k.x.k.k.k.n.k.n.k.k.x.x.x.n.n.z.n.z.z.z.n.z.x.z.z.z.z.x.z.z.z.j.n.j.l.z.z.z.j.z.z.z.z.z.z.z.z.k.x.x.x.n.z.z.n.z.z.z.n.z.z.j.z.z.z.z.z.n.j.z.z.z.j.n.z.z.j.n.n.n.j.z.j.n.j.j.z.z.z.n.z.z.j.j.j.j.j.n.j.n.j.j.j.j.k.j.z.z.z.z.z.z.z.z.x.k.z.z.z.z.z.z.z.z.z.z.}.z.x.k.x.k.x.k.x.x.x.c.z.k.k.c.z.k.z.z.x.c.x.k.x.x.k.c.x.z.k.c.k.z.z.z.z.z.z.z.n.j.z.z.z.z.z.z.z.c.l.z.z.z.z.z.{.z.z.z.z.z.z.z.z.z.z.z.z.z.z.z.z.z.z.{.{.z.z.z.z.}.c.x.x.}.c.k.x.z.x.c.x.}.x.}.x.x.x.x.x.k.z.x.x.z.k.z.k.c.x.x.c.k.x.k.x.z.z.x.c.k.z.x.x.c.x.k.x.k.x.k.k.k.x.z.x.z.x.x.z.c.x.x.x.z.c.x.z.c.j.k.k.c.j.c.z.j.z.c.j.k.k.z.z.k.x.z.z.z.z.k.z.x.z.c.j.k.z.z.k.x.k.c.j.z.z.k.k.c.z.z.z.c.z.c.z.z.z.z.j.k.z.c.z.k.c.k.x.x.c.j.c.j.k.c.z.k.z.c.z.z.z.].z.z.z.j.z.j.k.c.k.z.c.j.k.z.k.c.j.z.j.j.j.v.j.j.j.j.z.j.z.j.j.j.z.j.j.z.z.n.z.z.n.z.z.z.z.z.z.l.j.j.j.j.j.z.j.z.z.z.z.z.z.l.j.j.z.z.z.j.z.j.j.j.z.z.z.z.j.z.c.j.z.k.k.z.j.j.j.z.j.z.z.z.j.z.j.j.j.j.z.j.j.z.z.z.z.k.k.k.x.z.z.c.z.k.z.c.k.x.k.k.j.x.k.x.c.k.x.x.k.x.z.c.x.x.x.c.z.c.j.k.x.k.x.j.z.z.x.z.z.z.j.z.j.z.z.j.j.c.j.c.c.c.z.z.z.z.c.z.z.z.z.x.].j.z.z.z.{.k.z.z.n.z.z.n.z.z.z.z.x.}.z.x.z.x.z.z.z.x.z.c.z.c.k.z.z.k.x.x.c.z.z.z.k.x.x.k.x.x.x.x.x.x.x.x.x.x.x.x.x.x.x.n.z.x.n.",
"3 3 = = 3 = 3 3 3 + = 3 0 , OX}.}.c.x.k.x.x.c.c.k.x.x.x.k.k.x.x.c.k.n.k.x.x.x.k.x.k.k.k.x.x.x.k.k.x.x.k.k.k.k.k.k.n.k.k.x.k.k.x.x.x.x.x.z.z.z.z.n.z.z.z.n.z.z.z.x.x.x.z.z.z.z.z.n.z.z.z.j.n.z.z.z.z.z.x.z.z.z.x.z.n.z.n.z.n.z.x.z.z.z.n.z.z.z.z.n.z.z.z.j.z.z.z.x.z.z.z.x.x.j.n.j.n.k.j.n.z.z.x.n.z.n.n.n.j.j.j.j.j.j.j.j.n.j.j.z.z.z.z.z.n.z.z.z.z.z.z.z.z.z.{.k.{.z.z.z.z.c.x.x.z.x.c.z.k.x.k.c.x.z.z.j.j.c.c.x.k.c.k.k.x.k.z.x.x.x.k.x.z.z.j.j.z.x.z.z.z.z.j.n.z.z.z.z.z.z.z.z.j.z.z.z.z.z.z.].z.z.l.z.z.z.z.l.j.z.z.z.z.z.z.z.z.{.z.x.x.x.x.x.x.x.x.z.}.x.}.x.x.c.z.x.x.x.x.x.c.k.x.x.x.k.k.x.z.k.x.x.x.x.x.x.x.x.k.k.x.k.x.x.k.x.x.z.x.z.c.k.k.k.x.k.z.x.z.z.z.z.x.x.x.x.z.z.j.c.z.j.z.z.k.j.c.k.j.z.z.c.x.k.c.x.x.x.z.x.x.k.x.x.x.z.c.z.c.z.k.z.z.c.j.j.c.z.j.c.z.k.j.z.z.j.c.c.j.c.z.j.k.c.k.k.k.z.x.z.k.k.z.j.z.c.j.k.j.z.z.z.z.z.l.j.z.j.j.k.z.k.z.k.j.z.c.j.z.c.j.z.z.j.j.j.j.j.z.j.z.j.z.j.j.j.z.z.j.z.z.z.{.z.{.z.z.z.z.j.j.j.j.z.j.z.j.z.j.j.j.z.j.z.j.j.j.z.z.j.z.j.z.j.j.z.z.z.z.z.j.z.j.z.k.k.z.z.j.j.k.j.z.n.j.z.j.j.z.l.j.j.z.z.j.z.z.c.j.z.x.k.c.k.x.x.x.k.x.x.x.k.k.k.k.x.z.x.x.x.k.x.x.x.k.x.k.x.k.z.c.j.k.x.x.x.z.z.z.z.z.z.z.z.z.z.z.j.z.k.z.k.j.z.z.c.z.z.c.x.z.z.c.z.c.z.z.z.z.z.z.{.z.z.{.z.z.z.{.{.z.z.x.z.x.z.}.x.x.x.x.x.x.z.z.x.x.c.j.x.x.x.k.x.x.k.c.z.k.c.k.x.x.k.x.x.x.x.x.x.x.x.x.z.n.n.z.n.x.",
"3 = 3 = 3 = + 3 3 3 3 3 7 , OXx.}.k.c.x.x.x.k.k.k.c.k.c.c.k.x.x.x.k.c.k.n.x.x.x.x.x.c.}.x.x.x.x.n.x.x.x.x.x.k.k.k.k.n.k.k.k.k.x.x.n.x.x.z.z.z.z.z.z.n.z.z.z.j.z.z.z.z.z.z.z.z.z.z.j.z.z.z.z.z.z.z.z.z.z.z.z.x.x.x.z.z.n.z.x.n.z.x.z.z.z.z.z.j.n.z.z.z.z.z.n.z.x.n.j.z.z.z.z.j.j.z.x.z.z.z.z.z.z.z.j.j.z.n.j.j.j.j.j.j.j.j.j.j.j.z.z.z.x.z.z.z.z.z.z.x.z.z.l.z.z.z.z.z.[.z.x.c.k.x.c.k.x.c.x.k.z.z.k.x.z.c.k.z.x.k.k.z.k.z.k.k.c.x.k.x.x.z.z.z.z.j.z.z.n.z.z.n.z.z.z.z.{.z.n.z.z.z.l.z.z.z.z.l.z.z.z.z.z.{.z.z.z.l.j.z.z.j.z.z.z.x.{.x.x.x.x.x.{.x.z.x.}.x.x.x.z.c.x.x.x.x.x.z.}.x.k.k.x.z.x.k.x.k.x.c.z.k.x.k.x.x.k.k.x.x.k.c.x.x.k.k.x.x.k.x.x.x.k.x.c.k.c.x.k.z.c.z.x.x.x.k.j.z.k.j.j.c.j.c.k.z.j.j.c.k.z.k.k.x.z.z.k.x.z.z.k.c.k.x.k.k.k.z.x.x.k.z.c.k.k.c.k.j.z.j.k.z.c.j.z.c.z.k.j.j.k.j.c.k.k.k.z.c.j.k.z.j.z.k.j.c.j.z.j.z.z.z.z.z.z.z.z.z.c.z.z.x.z.z.c.j.j.z.k.k.x.z.z.j.j.j.z.z.z.z.z.z.j.j.z.z.z.z.z.{.z.z.z.z.z.z.z.z.z.j.z.z.j.j.z.z.z.j.n.z.j.z.z.z.z.z.j.j.z.z.j.z.j.z.j.z.z.z.l.z.c.k.c.j.x.z.j.j.j.z.j.j.z.j.z.j.j.z.j.z.z.j.z.j.z.z.c.c.z.c.k.k.x.k.c.x.x.x.k.k.x.x.k.k.j.k.k.x.x.x.c.c.k.x.x.k.c.x.k.x.x.k.c.j.x.z.z.z.z.z.x.z.z.z.j.j.z.z.z.z.j.z.z.j.z.k.z.z.z.c.z.x.c.z.x.z.z.z.z.z.{.z.x.z.z.z.z.z.z.x.z.z.}.x.z.x.c.c.x.x.x.x.x.x.c.x.k.j.j.k.k.k.x.x.k.x.x.z.x.x.k.x.x.k.x.k.x.x.x.x.x.x.x.x.z.z.n.x.n.",
"3 3 = 3 3 3 3 3 7 0 + * 3 < XX{.}.k.x.x.x.x.x.c.x.x.x.n.c.}.x.x.x.c.k.n.x.k.c.x.x.x.x.x.x.x.x.x.x.k.x.x.x.k.k.k.k.k.x.k.k.k.k.x.x.x.x.z.n.x.x.x.z.z.z.n.n.z.x.n.z.n.z.x.j.n.z.z.z.n.z.z.j.z.z.z.j.z.z.z.n.z.z.n.z.n.z.x.z.n.z.z.z.n.z.j.z.n.z.z.z.z.j.z.j.z.z.z.n.z.x.z.n.z.x.n.z.n.x.z.z.n.z.n.n.z.n.j.j.j.n.j.n.j.x.j.j.n.n.z.x.z.z.z.x.z.z.x.z.z.z.z.z.z.z.z.z.z.z.z.z.z.z.z.z.z.z.z.k.k.x.x.k.c.x.k.k.k.x.k.z.c.z.z.c.z.z.x.x.z.c.k.z.z.z.j.z.z.j.j.z.z.j.z.j.z.z.z.z.z.l.z.j.l.z.z.z.z.z.z.z.z.z.z.j.z.z.z.z.j.{.z.z.z.z.z.x.z.z.z.x.c.x.x.x.x.x.c.x.c.x.}.x.x.x.}.x.}.x.x.x.z.x.c.k.x.k.z.x.x.k.x.k.x.c.x.z.k.x.z.x.z.x.k.k.c.x.z.c.k.x.x.x.x.k.z.z.z.c.z.x.z.z.c.z.z.c.j.c.j.c.k.k.z.j.j.j.c.z.j.k.c.k.x.k.x.x.x.k.k.c.x.x.x.k.z.k.c.x.k.x.c.k.z.j.z.j.z.c.c.k.k.k.j.c.k.j.k.j.c.c.z.k.j.z.z.c.z.z.z.k.c.k.c.c.j.j.j.j.c.l.z.z.z.z.z.z.l.z.z.j.j.c.z.j.j.k.c.j.c.k.k.k.c.j.j.z.z.z.z.z.z.z.j.z.z.j.z.z.z.z.z.z.z.z.z.z.z.n.z.z.z.j.z.j.z.z.z.z.z.z.z.j.z.z.z.z.z.z.z.z.z.z.z.j.z.z.z.z.z.j.k.j.j.x.z.j.z.z.x.z.z.j.n.z.z.c.j.z.z.z.z.z.j.k.z.k.x.k.k.x.x.z.x.x.k.x.x.x.x.k.k.k.k.n.k.x.x.x.k.x.k.z.x.k.k.x.z.x.x.k.z.z.k.x.x.x.z.z.j.n.z.z.z.z.z.z.z.z.z.c.k.k.c.k.c.z.x.x.x.x.z.}.z.z.c.j.l.z.z.z.z.z.z.z.z.z.{.z.z.z.z.z.z.c.x.}.x.}.z.z.x.{.x.}.x.x.z.j.z.c.k.x.z.k.c.k.x.x.k.c.x.x.k.c.x.x.x.k.x.z.x.x.z.n.z.x.z.n.x.",
"3 3 3 = 3 3 = 3 3 3 3 x 5 $ XXx.c.k.k.}.k.}.k.c.k.k.k.}.z.x.x.k.x.k.k.k.k.n.k.k.x.x.x.k.k.x.x.k.k.k.j.n.j.j.j.j.k.k.k.k.x.k.k.x.x.x.x.x.z.z.z.z.z.z.z.j.z.x.z.z.z.z.z.z.z.z.z.z.j.n.z.z.z.z.j.z.z.z.j.z.x.x.n.n.z.n.z.x.x.n.z.n.x.z.x.n.x.n.z.z.z.j.z.j.z.z.z.j.j.z.z.n.z.x.n.n.z.n.z.z.z.z.x.x.z.z.z.n.j.n.j.k.j.z.n.j.j.z.z.j.z.n.z.j.z.z.z.j.z.z.z.z.z.z.z.z.z.z.z.z.z.c.z.j.z.j.c.z.z.k.k.k.x.x.z.c.x.k.x.x.c.k.k.k.k.k.k.x.k.z.z.k.x.z.z.z.z.z.z.z.z.z.z.z.z.z.z.z.z.z.z.z.z.l.z.z.l.z.z.z.z.z.z.z.z.z.z.z.z.l.z.z.z.z.z.z.z.z.z.z.z.x.x.x.x.x.x.c.x.x.x.x.x.z.x.c.x.x.x.x.x.c.k.x.z.k.z.c.z.k.x.x.c.k.x.k.k.x.k.k.x.x.x.k.x.x.k.x.x.c.x.k.z.z.z.j.j.j.c.z.z.[.z.c.z.j.l.j.k.k.c.c.j.c.c.j.k.j.k.z.k.k.j.z.c.x.x.x.x.c.k.x.k.x.c.x.k.x.x.x.z.k.z.c.j.c.k.k.j.j.k.k.j.j.j.j.k.j.j.j.k.j.j.z.z.x.k.c.k.c.x.x.k.z.c.k.k.c.k.k.z.z.z.z.z.z.z.j.z.z.z.z.z.z.j.j.k.j.k.z.z.x.z.z.j.l.j.z.z.z.j.j.j.z.z.j.z.j.n.j.z.z.z.z.j.j.n.j.z.z.j.j.z.j.z.z.z.n.z.z.z.z.j.z.z.z.j.z.n.j.z.j.z.z.z.j.z.z.z.z.k.c.z.k.k.z.z.k.z.z.z.j.z.z.z.z.z.z.j.j.c.j.z.z.c.k.k.k.k.x.k.x.z.k.k.x.z.k.x.k.k.k.j.j.k.x.z.j.k.c.k.c.x.x.x.x.k.x.x.x.x.z.z.k.k.k.k.z.z.z.z.z.z.x.z.z.z.z.k.z.k.x.k.x.z.k.x.x.z.x.x.x.}.c.z.z.z.z.z.z.z.z.z.z.{.z.z.z.z.z.l.z.z.z.x.z.x.}.x.z.x.}.x.x.x.x.x.c.k.z.k.x.x.x.x.x.x.x.k.k.k.c.k.x.x.x.k.x.x.z.k.x.x.z.n.x.z.n.z.n.",
"3 = = 3 = 3 = 3 = = 7 = 5 & /.{.c.n.k.}.k.}.k.k.c.}.k.k.z.z.x.k.c.k.k.k.k.k.k.k.x.k.n.k.k.k.k.k.k.k.k.k.j.n.j.j.k.n.k.n.k.n.k.x.x.x.x.z.z.z.z.z.j.z.z.n.z.z.n.n.z.z.j.n.n.j.z.z.z.z.j.z.z.n.n.z.n.z.z.n.z.n.z.z.x.z.z.n.z.n.z.x.n.z.z.z.z.z.z.n.z.z.z.z.z.z.z.n.z.z.z.z.z.n.z.z.x.x.n.z.z.n.n.z.z.n.z.j.j.n.j.j.j.k.z.z.n.z.z.z.z.j.z.j.z.n.z.j.z.z.z.z.j.z.z.z.z.z.z.z.z.k.z.z.k.c.x.z.k.c.k.z.x.z.x.k.x.x.x.k.k.c.k.x.k.k.x.x.x.x.x.k.x.z.k.z.z.z.z.z.z.z.z.j.j.z.z.z.z.z.z.z.z.z.z.z.j.z.z.z.z.z.z.z.l.j.z.z.z.z.z.z.z.z.z.{.z.z.z.z.z.{.x.x.x.k.x.}.x.x.x.x.x.}.x.x.x.x.}.x.x.k.k.z.x.x.k.x.z.z.k.z.x.x.x.x.x.x.x.x.k.x.x.x.x.z.x.x.z.k.x.x.z.z.z.j.l.j.z.z.z.z.z.j.c.j.z.j.k.k.k.j.j.k.k.z.c.j.c.j.k.j.x.j.x.k.x.x.x.x.k.k.k.k.k.x.c.x.k.k.x.x.k.x.k.k.k.k.j.j.j.z.x.k.k.k.j.j.k.j.j.k.z.z.c.k.z.x.x.x.k.k.k.k.x.x.x.x.x.k.z.z.z.l.z.z.z.z.j.j.z.l.z.c.z.j.c.j.c.j.k.x.z.z.z.z.z.z.x.z.z.z.z.z.z.z.j.z.z.x.z.n.z.n.n.j.j.j.z.z.j.j.j.j.z.z.z.j.z.j.z.z.z.z.z.z.z.z.j.j.z.n.z.n.z.z.z.z.z.z.k.k.c.k.z.c.z.z.z.z.n.j.j.z.z.z.z.j.j.j.k.z.j.z.z.z.j.x.x.z.x.z.c.z.k.x.k.c.k.c.k.k.j.n.k.j.j.z.k.x.x.x.k.x.x.x.x.x.x.x.x.k.z.x.z.k.x.z.k.z.z.x.z.z.z.z.z.z.z.z.k.x.c.x.k.j.x.x.}.x.c.x.z.x.z.z.z.z.z.l.{.z.z.j.z.z.z.l.z.z.z.z.z.x.c.z.c.z.x.z.z.x.x.x.x.x.x.x.z.k.k.z.x.x.x.x.x.x.x.x.k.x.x.x.x.x.k.k.x.k.z.x.x.z.z.z.x.z.x.n.",
"3 3 = 3 3 3 3 3 x 3 3 x 9 $ F.z.k.k.k.}.k.c.k.k.}.k.k.k.j.j.n.n.k.k.k.k.k.k.k.n.k.k.n.x.k.k.k.k.n.k.j.j.k.k.z.z.k.k.x.k.k.x.k.n.k.x.x.z.x.z.z.z.n.z.z.x.z.n.z.x.z.z.z.z.x.z.z.z.z.z.j.z.z.z.n.z.j.n.z.z.z.z.n.z.z.z.z.n.z.z.n.x.z.n.n.x.x.n.z.n.j.z.j.z.z.j.z.x.z.j.z.z.z.x.z.n.n.x.z.z.x.z.z.z.z.n.z.j.j.j.j.n.j.n.z.z.z.z.z.j.z.z.z.z.z.z.z.z.z.z.n.j.j.j.j.z.l.j.j.k.j.c.z.j.k.x.z.z.z.z.x.x.x.x.x.x.z.x.k.k.k.k.x.x.c.x.x.k.k.x.z.x.x.z.z.z.k.z.x.x.z.x.z.x.z.z.z.z.n.z.j.n.j.j.j.j.j.j.z.c.j.j.j.l.{.j.z.z.z.j.l.z.j.l.z.z.}.z.z.j.z.k.x.x.k.k.j.z.x.x.}.k.}.z.x.z.c.x.x.x.x.k.x.z.z.j.k.x.z.z.x.x.x.x.x.x.c.x.x.x.x.x.x.x.x.x.x.k.x.k.x.z.z.j.n.n.z.z.z.z.c.j.c.c.j.c.c.j.c.k.z.z.c.k.j.j.z.j.j.z.z.c.n.j.k.x.x.}.x.n.k.c.c.k.z.z.k.z.z.x.x.k.k.k.k.k.k.k.k.k.c.z.k.j.k.j.j.j.z.z.j.k.z.z.k.c.x.x.k.x.x.c.x.k.c.x.z.z.c.k.z.z.z.j.z.j.z.z.c.j.j.j.z.c.j.j.z.j.j.z.z.z.l.z.j.n.z.j.z.z.z.z.j.j.j.j.z.z.z.j.n.z.n.z.j.n.n.n.z.z.j.z.n.j.j.j.z.z.z.n.z.n.z.z.z.z.n.z.n.j.n.n.j.j.z.j.z.j.z.j.k.z.z.z.j.x.z.z.j.z.z.z.z.z.z.z.z.j.j.j.k.k.z.j.k.k.j.j.j.z.c.z.z.z.x.k.x.x.k.x.k.k.j.z.x.j.n.j.x.z.x.x.x.x.x.k.k.k.z.j.x.z.c.k.x.x.x.z.x.x.k.k.z.j.x.x.z.k.j.j.z.z.k.k.j.j.j.z.x.x.x.x.x.x.}.x.z.z.l.j.j.z.j.j.z.z.z.c.z.z.z.z.x.k.z.z.z.x.z.x.x.x.x.}.x.}.x.x.k.x.z.z.x.x.z.x.x.x.x.x.x.x.k.x.x.x.x.z.x.x.k.x.z.z.n.z.n.z.z.x.",
"= x 3 = + 3 3 7 3 3 = 3 9 # F.n.k.n.}.c.k.}.}.}.k.c.k.}.n.].n.n.}.}.}.;X;X:X}.n.x.:X|.}.|.:X:X|.|.:X:X|.:X:X:X].n.k.x.k.n.k.k.x.x.k.x.c.x.x.x.k.j.z.z.z.z.j.n.z.n.z.z.z.z.z.j.n.z.z.z.j.j.z.z.z.z.x.z.z.n.x.z.x.{.n.}.z.n.x.z.x.n.z.n.z.z.n.z.z.z.n.z.z.n.z.j.z.n.z.n.x.z.n.z.x.z.z.n.z.n.x.n.n.z.z.n.z.z.z.z.z.z.z.z.z.z.z.z.n.z.j.n.z.z.j.j.j.j.z.n.].OX].].].].|.|.|.:X|.|.:X}.{.x.z.z.z.z.z.z.z.z.x.j.k.c.}. X|.}.:X;X X X;X|.}.;X|.|.|.z.k.x.}.x.c.z.z.z.j.z.z.z.{.].:X:X:X:X:X:X<X+X|.].+XOX+Xz.n.{.z.z.l.z.z.n.].z.l.z.z.{.;X|.{.|.|.|.|.:X:X{.:X|.;X;Xc.c.z.x.x.k.x.x.x.x.x.x.c.{.|.|.|.;X|.>X;X|.|.;X|.|.|.{.c.x.x.x.x.x.k.x.c.k.k.}.x.j.:X:X:X:X].;X<X|.+X|.+X>X<X|.j.x.c.z.x.k.k.k.c.c.k.z.x.k.{.:X:X|.|.|.}.;X:X>X X|.|.+X{.x.z.j.k.k.z.k.z.k.k.k.k.k.x.|.;X>X>X>X>X<X|.>X>X[.+X|.|.k.x.k.k.z.x.k.x.c.k.x.x.n.l.|.].].|.|.].OX:X|.|.].|.:X>X>X;X;X>X>X>X+X|.].|.|.;X<X].:Xz.k.x.z.j.k.k.j.n.j.j.j.j.n.].].|.:X;X:X:X:X:X:X<X<X].].j.n.z.j.j.z.z.z.z.z.z.j.j.j.].n.:X:X:X:X:X:X{.{.:X|.}.,X}.x.k.x.z.n.z.z.z.z.{.j.j.j.].].|.|.|.].{.|.:X{.{.,X;X|.}.}.k.x.k.x.x.x.z.k.k.j.z.x.z.:X:X|.|.].|.|.|.|.|.|.+X+X|.{.z.x.j.z.z.z.k.x.k.k.k.j.n.l.|.>X;X;X;X>X;X;X+X<X|.{.:X|.[.z.z.k.z.c.z.c.{.j.j.j.{.j.:X|.|.|.|.|.|.|.+X|.:X+X|.|.z.k.x.[.x.x.x.x.c.x.x.z.z.n.{.|.{.|.;X|.,X>X:X;X|.|.|.:X:Xj.z.z.x.z.z.x.z.x.z.n.z.x.n.",
"+ = x x 3 x x x & + x = 3 & XX}.c.}.c.}.k.}.k.c.c.}.k.c.}.*XOX$X$X$X$XF.OXF.I.OXI.G.I.U.U.I.U.I.I.U.I.U.U.I.U.Z.].j.c.k.k.k.k.c.k.x.k.x.x.x.x.k.x.z.x.j.n.z.z.z.n.z.j.z.z.j.z.n.x.x.z.n.z.z.z.n.z.z.z.z.n.z.:Xx.n.x.z.z.x.n.z.n.x.z.z.z.n.z.z.z.x.z.z.z.z.n.z.z.z.x.z.z.n.x.x.z.z.x.x.n.z.z.z.z.n.z.n.z.z.n.x.j.j.z.z.z.x.j.z.z.z.z.z.z.z.j.z.j.j.j.|.i.T W W T R E E t.t.m.t.t.d.b.z.z.k.z.z.z.z.z.x.z.z.x.k.B.f.m.m.m.f.m.t.t.t.m.m.t.T g.:Xz.x.x.}.x.c.k.k.n.n.z.n.B.E d.a.E E t.t.E E E t.R R E :Xj.j.z.{.j.z.{.l.z.z.{.z.:Xg.t.E t.t.E d.m.m.d.d.d.d.d.g.z.k.k.x.x.x.x.x.x.x.k.x.{.B.0.E t.d.t.m.t.t.d.t.d.t.T d.l.z.k.x.x.x.z.k.x.k.k.}.x.].E E E t.t.T T T W W R W R W h.}.k.z.k.k.k.z.k.j.c.k.k.n.g.E T t.e.t.E e.E t.T E T I g.}.x.k.k.k.k.x.x.k.n.k.k.n.D.G T T W W R W R W K I R I E [.k.x.x.x.x.x.x.k.x.x.k.n.v.E W I R G I G I I W T T I W I I K W G W T I G G W R W W g.:Xx.x.n.x.j.j.j.j.j.n.j.j.].T W E t.E d.E E t.E E E E T v.z.z.n.z.z.z.n.z.n.z.z.{.v.d.t.E E E t.E t.t.t.t.m.d.t.h.z.z.z.z.z.z.z.j.j.j.j.j.z.h.T d.t.t.t.m.t.d.d.a.R t.T g.].x.x.x.x.x.x.x.k.x.j.j.x.].E E R E R W R E R W W R R I ~.z.n.k.{.x.k.x.x.c.x.c.z.{.h.I T T E E E E W R T W W I g.[.x.x.}.z.z.c.k.x.z.z.j.{.D.T $.t.E E t.t.E t.t.t.t.T d.{.k.x.x.x.x.x.z.}.k.z.z.x._.T e.T E E t.t.a.t.E E R W Y D.j.z.z.n.n.x.x.z.z.n.n.z.n.x.",
"P w.P e.P w.5.e.P e.P 5.P w.oX}.}.}.k.}.}.k.k.}.}.k.}.c.OXL.J.J.J.J.9X9X9XJ.J.9X9X9X8X8XwXwX0X8X8X8X8X9X8X8X9XK.I.j.j.k.k.k.k.k.k.k.z.x.z.k.z.k.z.z.z.z.x.z.x.n.z.z.z.x.n.z.x.z.z.n.z.z.z.z.j.j.z.z.z.j.z.x.x.x.n.x.n.x.x.z.z.n.x.n.n.x.n.x.z.j.z.n.j.z.z.z.n.j.n.z.n.x.z.n.n.n.z.n.z.n.z.n.n.x.z.z.x.z.x.z.z.n.z.z.z.z.z.n.z.j.z.z.n.z.z.n.n.z.k.k.>XB y y r m m t y y t r t r < M.{.z.z.z.z.z.z.z.k.z.{.z.}.Y , e y y y r y t t r r y t Y |.z.x.x.k.x.x.k.k.k.z.z.:Xf., e t t m w e t h h r f e < OXj.j.z.z.{.l.z.{.z.z.l.z.:XI y t h t t t y t y g r e e B |.k.x.x.x.x.x.x.x.{.k.x.}.i.> e e e e y y e e e e y b c ].c.x.x.x.x.x.x.x.k.k.x.{.].M < e h e g g r r t g t y - g.:Xz.z.j.k.c.k.z.z.k.k.z.:XT c m y e r t t y y y r y 0 E }.x.x.k.k.k.x.x.k.k.k.n.z.t., h t y y t t y t h t n e N OXj.z.x.x.x.x.k.x.k.k.k.z.F.v y y y h n Z h h b h t h t t t h t t t h e t g t t r , C >Xn.x.k.k.j.j.n.j.n.j.j.j.F.< r y e m , y y y r r y e $ F.j.j.z.z.z.z.z.z.j.z.z.z.].M w y t y y y y y y y t t , T :Xz.x.z.z.z.j.j.z.j.j.z.{.t.> e r t t t y e y h h t m v +X}.k.x.x.x.k.k.z.x.k.k.n.H.< m g t t t t g t t r g r ; M.}.k.k.x.c.x.k.x.k.x.x.k.|.T , m m m t t t t m t m t ; t.|.x.x.z.z.z.z.z.c.c.z.{.l.M.; y t t y f t y g t r f r N >Xx.x.x.x.{.x.x.x.k.k.z.c.+Xv - e , e e : e e y r - = O C.z.z.x.z.z.z.n.z.z.z.x.z.x.n.",
"=X=X=X=X=X=X=X=X=X=X=X=X=X=X*Xc.k.k.k.k.k.k.c.k.k.c.}.}.OXJ.6X0XqX6X0XwXwX0X0X0XqX0X0X0X0X0X0X0X0X0X0X0X0XtX0XJ.F.z.k.j.k.k.k.k.j.c.z.x.k.c.x.k.z.k.n.x.n.z.n.z.z.z.z.n.n.z.n.z.n.z.z.z.z.n.z.x.n.n.z.z.n.n.z.z.z.n.x.z.n.z.x.z.z.z.x.z.z.z.z.z.z.x.z.z.z.z.z.z.z.z.z.x.z.x.x.z.z.x.n.x.x.z.n.z.z.j.z.z.z.z.n.z.z.j.z.z.j.z.n.z.z.z.z.n.z.z.z.z.n.j.<XB w d g s s g g g j g j ! e B.}.z.z.z.z.z.z.x.x.z.z.z.|.T g a f j f j s g j s a g f W |.z.x.x.x.x.x.x.c.n.z.j.:Xf.e d d g w g s s g j s f f $ <Xn.l.l.l.z.z.z.z.z.z.[.l.>XV w a j j s d a a g s a a f D |.c.x.x.x.x.x.x.x.z.x.x.:Xf.e g a a f f f f g j a a r Z ].x.k.x.x.x.k.k.k.x.x.c.x.OXZ g a s a a s j f f s a a 0 M.{.j.z.k.x.x.k.c.k.z.z.x.>XT r w w f s g g a j a a j l R |.k.x.k.k.k.x.k.k.n.k.k.:Xg.0 p f s f f f f f f a w f Z OXk.k.x.x.x.x.k.x.x.k.k.:XF.b a f z f f j f f f g f f f f f f f f g g f z f f f f h D >Xx.k.k.z.j.n.j.n.j.n.n.j.D.m m w r w f f d w s g s g > F.z.z.z.n.z.z.n.z.z.z.z.x.:XM f w w g s a g s a j a a r E |.z.z.z.j.j.z.z.z.j.z.z.{.f.e s g s s g g a j j g s g , +X}.x.k.x.x.x.x.n.x.x.k.n.H.y s a s s a s g s a a a f - B.{.k.k.}.x.x.k.x.x.x.k.c.|.T g g g g g g g s j g k s m t.:Xz.[.x.z.z.c.x.z.z.}.}.j.B.- g g a s a a a a a a a g N ;Xc.}.}.x.k.x.x.x.x.x.z.x.+X< 9 9 9 7 9 9 9 9 8 8 9 7 O B.{.n.x.z.z.n.z.z.x.n.z.n.z.x.",
"=X=X=X=X&X=X=X=X&X&X=X=X&X&X'.c.k.}.c.}.}.k.}.}.}.k.}.}.OXJ.qX0XqXqX0X0X0X0X0X0XwX0X0XqX0X0X0X0X0X0X0X8X0XtX0XJ.I.z.j.j.j.k.k.k.k.j.z.x.k.x.j.x.x.z.z.z.z.x.z.n.j.x.z.z.z.z.n.x.x.j.n.z.z.z.z.n.z.z.x.n.z.}.{.n.{.x.z.n.z.z.n.z.x.n.n.z.z.z.x.n.n.z.z.n.n.z.n.x.x.n.n.z.n.z.n.z.n.z.z.z.z.z.z.z.z.n.n.z.z.z.z.z.n.z.n.z.z.z.z.z.z.z.z.z.z.n.z.z.n.n.<XD g s s s a s s d d a g s r g.{.z.z.z.k.z.z.z.x.z.z.z.|.I g a j s f s f a s f g f r R |.j.x.x.k.x.x.x.k.x.z.z.z.M.m w s k s j j k s f j s g $ 2X].j.j.n.z.z.{.[.z.z.z.j.,XI w s s g g s j s d g a s g N >Xx.x.x.x.x.k.x.x.x.x.x.:Xf.e g f r f r f w f a g w g S +Xc.x.x.x.x.x.x.z.z.x.x.z.+XZ t a g a p s p s u s a a ; B.z.j.x.k.c.x.z.x.k.z.c.x.,XT g w a s d g a a s a s s g E {.x.x.k.n.n.x.k.k.k.k.n.{.d.t j f f f f f f a f s a f Z ].x.x.x.x.x.x.x.x.x.n.z.n.G.M g f z g f f f z f g z f f f f g f g f f g h f f f z h D ;Xn.n.k.z.j.j.n.j.j.j.n.n.].c w w f s f f g w g f w g , OX{.l.z.z.z.z.z.z.z.z.z.z.<XM a g a a s a a a a a i d w R ,Xz.j.z.z.z.z.z.z.j.z.z.{.f.w g j s g j j s s z f s k , 2Xz.k.k.k.x.x.x.x.x.k.k.n.G.e w w f a s w d w a s s g e M.].k.k.x.k.x.x.k.x.x.x.k.|.E t s g g f a g g g f g s e e.|.z.z.x.c.z.x.x.x.c.z.z.{.B.e s g a a s a s s a a s j N >X}.x.x.c.x.x.x.}.x.z.}.z.+Xc 9 8 9 9 u 9 u 9 9 9 7 u $ B.:Xz.n.z.x.z.n.n.x.z.z.n.x.n.",
"&X&X&X&X&X&X&X&X&X&X&X&X&X*X*X}.k.}.k.k.k.}.k.}.x.x.x.}.F.J.qX8XqX0X0X0X0X0X0X0X0X0XeX0XqX0XqX0X0X0X0X0X6XqXtXJ.I.j.j.j.j.j.k.j.k.k.x.k.k.c.x.x.k.k.x.z.z.n.z.n.z.z.z.n.z.n.z.x.z.z.j.z.x.n.n.z.z.z.n.z.z.z.z.z.z.z.z.n.z.j.z.z.n.x.n.z.n.z.z.z.z.z.z.z.n.x.z.z.x.z.z.n.z.n.n.z.n.z.x.z.z.z.j.z.j.z.n.z.z.z.n.z.z.z.x.z.z.n.z.n.n.z.n.z.z.z.n.j.j.j.<XD t g g s a a s g s f f j t f.|.j.j.j.z.z.z.z.c.k.j.}.|.E t w f g f s f s f s f g r E ].k.}.}.k.c.x.k.k.x.n.z.:XM.r p p ^ j f f s f j f s g , $Xz.z.z.j.].z.[.{.z.z.j.j.>XT e m d f j f f j s p j s z N ,Xz.z.x.x.x.x.x.x.k.k.c.}.g.y f f f r f q p r f p f r A +Xj.k.k.x.x.x.k.z.{.x.k.z.+XS t f g a a f f f u a a a 0 B.:Xz.z.k.x.k.x.z.x.c.z.x.>XT t a f w s g a s a s a a t W |.k.j.k.k.n.k.k.k.k.k.x.:Xg.t q p f p j p p p f f f z M ].}.x.x.x.x.x.x.k.n.n.k.n.'.c l g f f r f g f z f f f f g f f f z f f j f f p z z t N >Xk.k.k.x.k.k.k.k.k.k.x.x.OXy g f g a w d g a g a a g , F.z.x.{.x.z.x.z.n.z.z.n.l.<XS g a p j j s s p p s p f r E ,Xj.j.j.z.j.z.z.z.j.j.z.].m.t a j g s j j s s j j f j , +Xz.z.x.k.x.x.x.n.x.x.x.j.H.e a f f f f s f s j z s g y M.{.n.x.n.k.n.}.c.n.}.k.n.:XT , g f j g s g g j g s m e t.|.k.c.}.c.x.k.x.z.z.z.z.{.B.y g a j a a a s a a f a g N ,X}.x.x.x.x.}.x.}.x.x.}.{.<Xc 9 u 9 9 u 9 9 9 7 8 i u > C.:Xk.k.j.x.n.x.x.n.n.z.x.z.n.",
"&X&X*X&X&X&X&X&X*X&X&X&X&X*X}.}.c.}.k.}.k.k.}.k.}.x.x.}.$XJ.0X0X0X0XqX0X0X0X0X0X0X0XqX0XqX0X0X0X0X0X0X0X0X0X0XJ.$Xn.j.j.j.j.k.k.k.k.k.k.k.k.x.k.k.k.x.z.z.z.j.z.x.z.x.z.z.z.z.n.n.z.n.z.z.z.x.z.z.z.z.z.z.n.z.n.n.n.x.z.z.z.n.n.z.z.z.z.z.z.z.n.x.n.x.n.z.z.n.n.x.n.z.x.j.x.z.z.z.z.n.z.x.n.z.z.z.z.z.z.z.z.j.z.z.z.n.n.j.z.z.z.z.z.z.z.n.z.z.j.j.j.;XG g d s a s g a s d d g j g f.].z.z.z.z.z.k.{.x.k.k.x.:Xt.m w s s j p s f f s p s w E :Xx.x.x.k.k.x.x.c.k.z.x.{.M.y j s s f g s g j s f f g , 2Xj.z.z.l.z.z.z.j.z.z.z.j.:XT m w d j j s s s s j s j k B >Xz.x.x.x.x.x.k.x.k.k.k.;XB.y f f f p p f f p r f f h A ].z.j.x.k.x.k.x.x.x.z.k.k.OXS g a a a a a s f s f g w 0 B.{.j.c.z.x.x.k.x.x.z.z.k.|.T m a a f w s g s s g a a y E {.k.j.n.k.k.n.k.n.k.n.k.:Xg.t r p f p p j s p f p f g b OXc.x.x.x.x.x.x.c.n.c.k.n./.M h f g g f r z f g z f z f f z z z f z f h z j z g f y S ,Xk.n.k.x.x.x.x.k.x.k.k.x.].b g w a a g a a a s g a g , ].z.x.x.z.n.x.{.z.z.z.z.z.;XB g s u s p s p j s p p f t R {.j.j.j.j.z.z.j.z.j.z.z.:Xm.y g j j j z k j j f f j a , 2Xz.z.z.x.x.k.x.x.x.x.z.j.H.e g j g j f j f g a s a f y M.z.n.x.n.k.c.k.n.k.k.k.n.n.E m a g g s a g g g k g s y t.{.z.k.x.z.z.{.x.{.z.z.{.{.Z.e s g s j s g g a s a 9 g B ,Xx.x.x.x.x.x.x.x.x.x.z.z.+Xc 9 9 9 u 9 9 u u u 9 9 q > H.:Xz.n.j.z.z.z.n.z.z.z.n.x.n.",
"&X&X&X&X&X&X&X&X&X&X*X&X&X*X}.x.}.c.}.k.c.k.k.}.n.}.n.z.OXJ.0XqXqXqX0X0X0X0X0XqX0X0X0XqX0X0X0XtX0X0X6XqX0X0X6XJ.$Xn.z.j.k.j.k.n.c.k.k.k.x.x.x.x.x.z.x.x.j.z.z.z.x.z.z.j.z.n.z.n.z.z.z.j.n.z.z.z.z.n.n.z.n.z.z.x.z.x.z.j.z.z.x.x.z.n.n.j.z.j.z.x.n.z.z.z.z.x.z.x.n.z.n.z.z.x.x.n.z.x.x.n.n.j.z.z.z.n.z.x.n.z.z.z.n.x.z.j.z.z.z.z.z.z.z.z.n.z.x.z.n.j.:XI r d g d a g s a a g g g e d.{.z.z.{.z.z.z.z.x.k.k.j.}.r.t a a g s s j s j f f f y E ].x.x.x.k.k.k.k.x.x.x.x.z.S.: z f j f f s j s f s f a < <X{.j.z.j.z.z.z.z.z.z.j.j.].T w w d p f f s j j p p s j D ;Xc.x.x.x.x.x.x.x.k.k.z.:Xh.- f f f f f f r p r f f g S ].x.x.x.x.x.c.x.x.x.x.x.z.].Z g a a a a a s p s p a a : B.{.j.z.z.x.k.x.c.x.k.k.x.|.T r f a a g d d a a a d a y E :Xk.n.x.k.k.k.k.k.k.k.k.:Xg.y j p p j s s j f f f f g Z OXx.x.x.x.x.x.x.n.c.x.k.x.F.c h z f z f f f z f z f z z r z f g f r f z f j z f g g B ,Xc.k.n.x.k.x.k.k.k.x.n.x.].y f a g f a g g a s a a g , F.{.k.x.n.z.z.x.x.:Xz.x.k.:XD g a f f p p j p j s s p g T z.z.v.j.z.j.z.z.z.j.j.l.:Xf.e g j k k j z j k f j j f < 2Xz.x.x.x.k.k.k.x.x.k.z.z.Z.e j a g s s s f s s g s g e M.x.n.x.c.k.n.k.n.c.c.k.n.:XE m j j g j g g g k g k d y t.}.z.c.x.z.c.z.z.{.z.z.x.{.B., a a s g a d a s a s a g D ;Xx.x.}.x.x.x.x.x.x.n.n.z.<Xc r 9 9 9 9 7 9 9 9 u u 9 > D.:Xx.n.z.x.n.z.z.n.x.z.x.n.x.",
"&X&X&X&X*X&X&X&X&X&X&X&X&X*X*Xx.}.}.k.k.}.}.k.}.}.n.z.:X$XJ.0X0X0X0X0X0XqX0X0X0X0X0XeX0X0XqXqX0XqX0XtXqX0XtX0XJ.$Xl.z.j.k.k.k.j.x.x.x.x.x.x.x.x.x.n.x.z.n.z.x.z.n.z.n.z.z.x.x.z.z.z.z.n.j.z.z.z.z.z.z.z.x.x.z.n.z.n.n.x.z.z.z.n.x.z.z.x.z.z.z.z.n.z.n.x.z.n.n.z.n.z.z.z.z.n.z.z.z.z.z.n.z.z.j.n.z.j.j.z.n.x.z.z.n.z.z.n.x.z.z.j.n.z.n.z.z.n.z.z.j.j.<XD f w d g s s a j a s s s r f.{.j.z.z.z.n.x.z.}.k.k.j.|.t.e s a s f p j s s s j s y T |.k.x.x.x.x.x.c.x.k.x.z.[.B.0 z f j j j j j s f f f a M OXz.z.j.{.z.z.z.z.z.{.z.j.:XE w m d s p s f p s s p s g B ;Xz.x.c.k.x.k.k.x.k.j.k.}.B.: r f p p f f f p p p f r N ].z.k.x.k.x.x.x.x.x.x.k.x.OXM w a a s a a p s s f a w e B.z.x.k.k.k.z.x.k.x.k.x.}.{.T r a j a g s g s a s s g y t.}.k.k.k.n.k.n.k.n.k.n.k.x.B.e a j p f j p p f f g j r b OXx.}.x.n.x.x.x.n.c.n.x.k.F.c r f z g f r z f z f r f f f f f f f z f r z p f f f t N >Xk.k.x.x.x.n.k.n.x.k.k.k.OXy h g a g g a d g g a g a ; F.z.k.z.x.z.{.{.z.n.z.x.j.<XS g g s j j j s p p p p p r T ].c.j.j.z.j.z.l.j.j.j.j.:Xd.y g j j z j j f j j s z g , ,Xx.k.x.k.x.k.k.x.x.x.j.z.H.: a g s a f f f f p a d g : B.:Xn.x.}.k.k.}.k.k.n.k.n.;XT m l g g j s g g s g k m e d.:Xc.}.{.z.z.}.x.z.z.c.k.x.M.e g g s a s g a a w a a g G >X}.x.x.x.}.x.x.}.x.x.z.{.+XM q 9 u 9 u u 9 u u 9 9 r > D.:Xz.z.z.z.z.n.z.z.z.n.z.x.n.",
"&X&X&X&X&X&X&X&X&X&X&X&X*X*Xc.k.k.}.k.k.k.}.k.}.k.x.}.}.OXJ.0X0X0XqX0X0X0X0X0X0X8X0X0X0X0XqXqX0XtX0X0X0X0X0XqXJ.OXn.k.j.k.k.k.j.x.x.k.k.k.k.}.x.x.x.z.z.n.z.z.n.n.z.n.x.n.z.x.n.z.z.z.x.n.z.z.z.z.z.z.z.z.z.z.z.z.z.x.z.z.z.z.z.z.z.z.z.z.z.n.n.z.n.z.x.z.n.z.j.z.z.n.z.z.z.z.j.z.z.z.x.j.z.z.z.z.z.z.n.n.z.z.j.z.z.z.n.z.z.x.n.z.z.z.n.z.n.x.z.j.z.<XI f g a a g d g s f s f g r m.].z.z.z.{.n.n.z.z.x.j.n.:Xi.- a s a f j f j j a s j e E :Xj.k.x.k.x.x.x.x.k.x.k.l.Z.- f f s f j p j j s p s g M <X{.z.z.z.z.z.z.z.z.z.z.z.].t.w d d w g g s f s a a a g D |.k.k.k.x.z.x.z.z.j.j.j.}.B., f f f f p f p f f f f r Z +Xk.x.k.x.x.}.c.x.x.x.x.j.OXM a a a s a a u s s p p p e B.z.k.k.x.k.x.x.k.x.x.k.x.{.T w a a g s f s f a a a f y d.:Xj.k.k.k.n.k.n.k.k.n.k.{.H.: a f f f f f p p f j p r Z +Xc.}.n.n.}.x.x.n.x.x.x.k.F.c h z r z f r z z f z f f z f f f z z r f f z f f f g g N >Xk.x.x.x.x.x.k.x.k.k.k.z.]., g a g g d g g s a g a g , F.z.k.z.z.z.{.x.z.z.n.x.z.|.S g a u s p p j p p s a a r W |.j.z.z.j.j.j.j.z.j.z.k.{.m., g s k j j k f j j j j j < ,Xx.x.x.x.c.x.x.x.x.x.c.x.C.- g a j f s j f s a s j g 0 B.}.x.x.k.k.n.k.n.n.n.k.n.;XT m j g g k a g j g g s l y i.:Xz.z.[.z.z.x.{.z.z.z.k.z.B.e g s a s s a s a s s a r G ,Xx.x.}.x.}.x.}.x.x.x.z.}.+X, 9 u 7 u 8 u u 7 u 7 u 9 , D.:Xn.n.z.x.n.n.z.z.n.z.n.z.n.",
"&X&X&X&X&X&X&X&X&X&X&X&X&X*X*Xc.c.}.k.}.}.k.}.k.}.x.k.}.$XJ.8X0X0X0X0X0X0XqX0X0X0X0X0X0X0X0X0X0X0X0X0X0X0X0X6XJ.OXk.k.j.j.k.k.k.k.c.k.k.n.k.x.n.x.x.n.x.x.z.n.z.j.z.z.z.j.z.z.z.z.n.z.j.j.z.x.n.z.z.z.n.n.z.z.z.z.n.z.n.n.x.n.z.n.z.x.z.z.j.j.z.x.z.z.z.z.z.x.z.z.z.z.z.z.z.z.n.n.j.z.n.n.z.z.z.z.z.z.j.z.z.x.n.x.n.x.z.n.z.z.z.z.n.x.z.z.z.z.z.j.n.:XD g a s d s a s a j a a j r d.:Xz.z.z.z.z.x.z.z.x.j.j.:Xd.e a f s p s f j s a a s r E :Xj.}.k.x.}.x.x.x.x.k.z.l.Z.0 f z j s j p s f f s j a M <Xl.n.z.z.z.{.j.{.z.z.z.n.:XT m w d a s s a s f s a u g R :Xx.k.k.x.x.x.x.z.z.k.x.}.B.- f f f q f r f p f p f r S ].x.x.x.x.x.x.z.x.x.x.c.c.OXM j a a a a a p u u s p f e B.c.x.k.x.z.x.x.x.x.z.c.x.|.T r w f s f s a a g s a a , d.{.n.k.x.k.x.k.k.k.k.k.k.z.C.e j s f p s j f j p j j r Z OXc.n.c.x.n.x.}.x.x.n.n.n.F., g f z f f g f f z f r z g g z f q f f f z f f f r f g M |.k.x.x.x.x.x.x.x.x.x.z.x.OX, g g a f a a a g s a s g > OX{.k.z.z.x.x.z.n.z.{.z.j.+XD g a p j p j p p j p a a r R {.n.j.j.l.j.j.j.z.c.j.z.:XM.y g j j z j f j j j j j g , 2Xx.x.x.k.x.k.k.x.x.x.n.}.B.e j g g s j s f f f a k a - Z.x.k.x.}.k.k.}.k.k.k.n.j.;XT y j z j g j g g s j g g y d.z.z.{.}.z.z.{.z.z.z.{.x.}.S.y g s g s g a a a a a a w I ,Xn.n.x.x.x.x.n.x.}.n.x.{.OXM q 8 7 9 7 8 8 7 u 9 9 w > B.x.x.z.z.x.z.x.z.x.z.z.z.x.z.",
"&X&X&X&X&X&X&X&X&X&X&X&X&X*X*Xk.}.}.c.}.k.}.n.}.c.x.x.}.OXJ.0XwX0X0X0X0X0X0X0X0X0X0XqX0X0X0X0X0X0XtX0X0X0X0XtXJ.$Xz.k.j.j.j.k.k.k.x.k.k.k.k.x.x.x.x.z.z.n.n.z.z.x.z.z.j.z.j.z.z.z.z.n.z.z.z.j.z.z.z.z.z.z.x.z.z.z.n.x.z.z.z.n.x.n.z.n.j.z.z.z.x.z.z.z.z.z.n.n.z.z.j.j.x.n.z.j.z.z.z.z.n.z.z.z.x.j.z.z.z.j.x.z.z.z.z.z.n.x.z.j.x.z.z.z.x.n.z.x.z.j.z.:XD g d s g a d a s f g a j r d.{.z.x.{.n.{.x.x.k.k.n.j.n.f.t j s g j j j p a a a g w E :Xz.n.c.n.x.x.x.x.x.x.x.{.Z.0 j j j j s j s s s a f k c 2X}.z.z.z.{.z.z.z.z.n.z.n.:Xi.- m w s a a s p s s f i g I :Xk.x.x.x.x.k.z.z.k.x.z.}.B.e f f f f f f f z p f j f S |.x.x.x.x.z.z.c.}.c.x.x.x.OXZ g a a i s a s u u p f f 0 Z.{.z.x.x.x.x.z.}.x.z.x.x.|.T w a f p j f a a a a a f y d.:Xj.j.x.k.n.k.k.k.k.k.n.x.B.y p j p f f p f j f p j z b OXc.n.n.n.}.n.x.x.x.n.x.x.G., y g z f z z g z g z f f f z f f r f f f z z p f f f r c ,Xn.x.x.x.k.x.x.x.x.x.k.z.XX, l r g a a g g s g a a g , OXz.j.x.x.{.x.z.z.x.z.x.k.>XD f p j p j p s j s f g u r R ].l.z.j.j.j.z.z.j.z.j.z.:Xm.m w j j z j j j j j g j l c 2Xk.x.x.x.x.x.x.x.x.x.k.x.D.e a a a s f j f s j s j a , D.z.x.n.}.k.n.}.n.k.n.n.n.;Xi.m h g g k k g k g j k j e d.}.z.c.x.z.c.x.z.z.z.z.j.n.B.y j g j s d a a a d a a g G >Xn.x.x.n.}.x.x.}.x.x.z.}.OXc q 8 u 7 7 u 8 u 7 9 u 9 ; D.:Xz.n.z.n.z.x.n.z.z.z.x.x.n.",
"&X&X&X&X&X&X&X&X&X&X&X&X&X*Xc.k.}.c.k.n.}.}.}.x.}.}.x.}.$XJ.8X0XqX0X0X0X0X0X0X0X0X0X0XqX0X0X0X0XqX0X0X0X0X0X0XJ.$Xn.n.j.k.k.k.n.n.x.x.k.k.n.x.x.x.x.z.n.z.x.z.z.z.n.n.z.z.n.z.z.z.z.j.z.j.z.z.z.z.z.n.x.n.x.z.n.z.x.z.n.n.x.z.z.z.z.z.j.j.n.z.z.n.z.j.n.z.z.z.z.z.n.z.z.x.z.n.z.n.z.x.z.x.z.n.j.z.z.z.n.z.n.z.z.n.n.x.z.z.z.n.n.z.n.n.x.z.z.z.z.j.n.;XI g a a s j g s g f s f j r d.{.x.n.x.n.z.x.x.k.k.n.j.:Xd.t z f a s s p p s a s a 0 E ;Xz.n.n.n.n.x.x.x.x.n.x.{.Z.0 p j j p j p j f f f f j M ,X}.n.z.z.z.z.z.{.z.n.n.n.;XE m i i a s a a f p a a s g W ;Xn.x.x.x.x.x.z.z.x.x.x.|.f.e f g f p p f f p p f f r Z +Xx.x.x.}.}.z.z.z.x.x.x.}.F.< g g a a a a s u p i s p 0 B.}.z.x.x.x.x.x.c.x.z.x.x.|.I w s j s s f s a a a f g m d.:Xj.j.x.k.k.n.k.k.k.k.n.k.B.e p p j a g f j s p s p r Z +X}.}.}.n.n.x.}.x.x.:Xx.z.F., w z f g z f f z f g f z f r f z f r z f f z p f f f z c 1X}.x.x.x.x.x.x.x.k.x.x.z.OX, g a f f s g g a g g a j : OXz.x.}.x.x.z.z.z.z.z.k.c.+XD g s f s p j f f p f f u w W ;Xl.z.j.z.j.z.j.z.j.x.k.:Xd.m e g k j j j j z f s j k , 2X}.}.z.x.x.x.x.x.k.x.x.[.B.e z a j f f s f p s a k a 0 Z.z.x.n.}.n.}.n.n.n.n.n.n.:XT y l l k g g l g j j g l t d. Xx.}.{.z.z.{.z.l.z.z.j.:XB.e g a a g s j d a w d a g D >Xn.x.x.x.x.x.x.x.x.x.}.}.+Xv p 8 9 9 u 7 7 8 u 9 u 6 # D.z.x.z.z.z.j.z.z.n.z.z.n.z.z.",
"&X&X&X&X&X&X&X&X&X&X&X&X&X*X*Xk.k.k.k.c.}.k.}.k.k.}.n.}.+XJ.0X0XtX0X0XqX0X0X0XwXwXtXiX0X0X0X0X0X0XtX0X0X0X0X8XJ.$X:Xn.j.j.n.z.z.k.k.k.k.j.k.}.n.k.z.z.z.j.z.n.z.x.z.z.z.z.z.n.j.z.n.j.z.z.z.n.z.j.z.z.z.n.z.n.z.n.z.z.z.z.j.n.z.z.z.z.z.n.z.x.n.z.z.z.n.z.x.x.z.z.z.z.x.z.z.x.n.z.j.z.z.z.x.z.z.x.n.z.z.n.x.z.z.z.x.n.z.z.z.z.z.z.z.z.x.n.z.z.z.x.k.>XG t g g j g m g d f g s k t d.:Xn.j.n.j.{.k.k.k.}.}.x.:Xd.t f g s g g a g g a a f 9 t.,Xx.k.x.x.n.:Xx.x.x.k.n.n.Z.= g f j f j f p p p f f g , 2X:Xz.z.z.z.z.z.z.n.z.z.n.;XE w s s g j j g f f g a g r R ;Xn.x.j.k.n.j.n.n.{.l.z.:Xf.e a g q z p f g r a a p z N OXx.x.x.n.z.z.z.}.x.}.{.{.OXc f u g a f f a a a a f a : Z.}.{.[.j.l.{.x.{.{.x.x.z.|.G w g j f g f g g a j g g r m.:Xn.z.x.x.x.z.z.z.z.}.x.z.B.e g f f j f z z f f f z h S +X:Xn.n.}.x.z.{.{.{.{.c.:XG.M g g g h z g h h h t r t z r h f f h g f r r f h g z t N ,X{.{.z.j.}.x.}.x.:Xz.x.z.OXy g g g g f r f r r t g g Z F.:Xk.k.j.j.j.z.z.z.z.x.x.|.S h f z p p p p p f z a f 9 W <Xn.j.l.j.z.l.:X}.x.z.{.:Xg.e h g f z z f z f z g f k c 2X:Xz.l.j.z.k.c.z.j.j.z._.F.y l z f g f g j j j j g g e H.z.x.n.x.x.:Xn.n.}.n.n.n.>X0.m r m h m g j g g k g g m f.:X}.z.c.z.}.z.{.z.z.l.c.}.S., k g a s j j f u s g d l D >Xn.x.x.n.x.z.z.x.z.}.x.}.OXc e q q 7 9 w w 9 7 0 5 7 ; F.j.x.x.x.x.x.x.x.x.x.z.x.n.n.",
"&X&X&X&X&X&X&X&X&X&X&X&X&X*X*Xc.}.c.k.}.k.}.n.}.}.k.k.}.+XJ.0X0X0X0X0X0X0X0X0X0X0X0XwX7XJ.9X8X8X9X9X9X8X7XwX9XJ.%X<X<X:X].<X+X+X+X+X+X+X|.|.|.x.k.z.n.z.z.n.x.z.x.n.z.z.z.z.z.z.z.z.z.z.z.z.j.z.n.z.z.z.z.z.z.x.z.z.z.z.x.n.z.n.n.z.z.x.z.{.}.z.x.z.n.z.n.z.z.n.j.n.n.j.z.z.z.j.z.n.z.n.z.n.n.z.z.z.n.x.z.z.z.z.z.z.z.n.n.z.z.z.z.n.n.x.x.z.z.n.x.k.>XC , , , , ; ; , , , > - ; # a.2X<X].<X<X<X,X,X+X1X3X+X3XM.; - : , e e e e e 0 , e , E 2X3X>X,X,X1X,X,X3X1X,X>X,XZ.; : e e y r y b y y y y : < 3X,X,X,X,X,X,X,X,X2X,X,X1X,Xt.; 0 ; : , e , e e : e y , T 3X;X;X>X>X>X>X,X>X,X;X,X,Xf.; e e 0 y e q e y e , e e c 2X>X>X>X+X>X>X,X,X>X+XOX,XOXv # - ; - : : , , , : , , $ H.2X,X+X+X<X2X<X+X+X+X$X2X2XR > 0 - % & - : y y y y , ; N.,X>X>X;X>X,X3X,X,X,X+X|.;XZ.# , , , , e : : : : , y , G %X3X1X+X<X+X,X2X,X+X+X,X,X$XM < > , , , < , , > , > , , > c , , , b , c , > > > > > N 3X,X<X,X,X1X3X3X,X,X1X,X3X$X< $ > ; , , < , y , , > > $ I.,X;X,X+X,X,X,X,X,X,X>X3X3XG , - > > 0 b 0 b : > 4 - = W 2X,X<X,X2X+X,X2X3X>XOXOX2X$.< , y b , e e , : : ; > & $ 2X,X>X,X,X,X>X>X+X>X|.z.>XG.$ e r t y r t e 0 e e y , > H.1X1X>X;X1X X>X>X>X1X1X>X3XE ; e , e : y e - e e e e , N.3X>X:X>X>X|.|.,X,X|.>X|.2XM.> w e y y y e e y e e e : G 3X;X:X;X1X>X;X>X;X;X>X|.+X$Xc : & & ; : - : : & & - = O h.n.x.x.x.x.x.n.x.x.x.x.z.n.x.",
"&X&X&X&X&X&X&X&X&X&X&X&X&X*Xc.k.}.k.k.k.}.k.}.k.k.}.n.}.OXJ.wX0X0X0X0X0X0XqX0X0XeX9XP.#XI.$XI.I.I.F.I.$X#XI.I.P.bXU.K.U.K.K.K.K.P.K.K.K.K.K.B.}.n.x.x.n.n.z.z.z.x.z.z.n.j.z.n.z.z.j.z.z.z.z.z.z.j.j.z.j.n.z.z.n.n.j.z.z.x.z.n.x.z.x.z.{.x.z.n.z.z.n.z.z.z.z.z.z.z.n.z.z.j.n.z.z.z.j.z.n.j.z.n.z.x.n.z.z.z.z.n.j.z.z.z.n.z.z.z.z.n.z.x.n.n.z.x.n.z.n.{.].OX$XOXOXF.F.F.F.F.F.F.OX$XE M c < < c M M M M M M c c T B.B.M.B.B.g.g.M.B.B.B.M.Z.t.M M B N D D B N N N N N Z W d.B.M.B.M.g.g.f.g.M.B.M.B.S.M M B B D D N M N N N N B M m.H.C.H.B.Z.B.B.B.B.Z.B.B.B.M.t.T T T G T I G G B N N S W Z.g.g.g.g.g.g.g.f.g.f.u.g.t.P S B N N G B D N M M v c < H.OX$XF.F.F.F.G.F.F.F.F.F.$XR c < < v v < , < < < $ $ # R H.G.G.G.G.G.H.B.h.g.B.H.F.N.B B N B N M N N B N B B D R H.B.Z.Z.C.C.D.G.H.D.H.A.H.S.v < < < < < $ < $ $ # $ $ < H.OX+XOXOXOXOXOXOX$XOXOX$X$XOXOX+XOXOXOX+XOXOXOXOXOX2X%XB.M M M v N M M N N N v v < c $XOXOXF.$XOXXXOXXXOXF.+X$X<XG S N M N N N S N Z M M S N M.M.S.V.p.p.u.p.M.M.S.M.m.m.P < M v v v M v M v < $ O o Z I.XXXXXXW.E.G.G./.XX#XG.@XZ.B N N G G D G G G I K I D Y L.t.d.f.t.d.y.f.f.f.f.M.B.S.e.C N B V K P G W G B C D S N.H.B.f.g.M.B.M.M.B.B.M.B.B.t.G T G K G T W I T T I D G Y m.d.g.f.f.f.g.M.g.g.M.f.M.M.T I I G C G G I G G G D D G B.B.C.B.B.H.B.C.B.H.D.H.F.F.;Xn.z.x.x.x.x.k.n.x.n.z.n.n.x.",
"&X&X&X&X&X&X&X&X&X&X&X&X&X*X!.c.k.}.c.}.k.}.k.}.c.}.n.n.OXJ.0X0X0X0X0XqX0X0X0XwXwX9X%X X}.}.x.[.|.{.{.}.}.n.+XI.9X8X8X0X8X8X8X8X8X8X8X8XwX9XK.|.j.n.z.z.n.x.z.z.n.n.z.z.n.x.z.z.z.z.n.z.z.z.n.z.z.z.z.z.z.j.z.z.x.z.n.z.n.z.z.z.z.z.n.z.n.{.z.z.x.z.n.n.z.z.z.z.z.z.z.z.z.z.z.j.z.z.z.x.z.z.z.z.z.z.n.j.j.z.n.z.n.z.x.x.x.n.x.n.z.z.n.z.x.n.x.}.z.z.j.j.k.z.}.x.n.:Xn.n.:Xn.n.:X:XT - w 0 4 w 5 y 5 5 - - 4 % G ,X}.{.].l.z.l.l.j.l.{.:X;Xf., = - 4 0 9 w 0 4 9 3 * . G ,Xn.:X:X|.}.}.c.{.}.z.z.z.$X# - i w 4 8 9 w w w w - % @ a.:Xk.:Xx.}.}.[.x.c.x.}.n.:XB.> - - - e 5 e e w 0 4 5 = D +Xn.n.:X}.n.:Xx.:Xn.n.:X;XOX$ - 4 = 4 0 4 4 5 4 5 3 = - G.{.{.{.|.c.z.c.z.l.z.z.:X>XC e 0 : 0 q 0 q q 5 3 * = % m.{.z.z.z.z.{.z.z.j.v.l.z.:XM.& w w r y r q r 9 q 0 4 % D |.z.{.}.z.}.x.j.z.z.x.x.:XD.v 4 4 4 5 8 9 9 9 7 6 2 5 $ I.:Xx.}.}.x.x.}.}.z.x.c.c.k.c.z.j.z.z.c.c.l.k.c.x.n.{.}.G.o - % - 4 # 0 0 - - 5 = * $ OXl.z.z.j.j.v.j.c.j.v.z.{.<XN e r e e 9 r y r r q 9 9 # XX|._._._.c.v._.v.l._.].{.;X$.- - 9 9 5 5 e q 5 4 2 * * S +X_.l.l.c._.v._.l.[. X X XF.# % % 5 9 e 0 5 - 9 - 5 = c ).v.l.[.}.}.}. Xc.}.x.}.|.,XD $ - - = 0 - 3 + 2 + + 2 = R <Xn.:X:X:Xj.z.{.l.z.{.z.<XY # 4 4 = = - - = 5 - 5 * - G 3X:X:X:X:X{.{.{.{.z.:X{.|.OX# - 4 : 5 5 e 0 0 4 - 4 3 $ $X}.;X}.}.:X}.[.}.x.}.x.j.n.}.x.x.x.x.x.x.x.x.x.x.n.x.x.:X",
"&X&X&X&X&X&X&X&X&X&X&X*X&X*X*Xk.k.}.k.k.k.}.k.k.x.n.n.}.OXJ.wX0X0X0X0X0X0X0X0X0XwXJ.$X{.c.}.}.x.x.}.c.x.x.x. XI.7X0X6X0X0X0X0X0X0X0X0X0X0X8XK.+Xj.x.x.n.z.x.z.z.z.z.z.z.n.z.z.z.z.n.z.z.n.j.z.z.z.z.z.z.j.z.z.z.n.z.z.n.z.z.z.z.z.z.z.n.z.x.x.z.z.z.n.z.n.z.z.z.z.j.z.z.z.z.z.z.z.z.z.z.z.z.z.n.z.z.n.x.x.z.n.z.n.z.z.z.z.x.z.z.x.x.z.n.x.n.x.x.z.z.j.x.k.x.x.x.n.n.j.j.j.n.j.k.n.E - 9 4 4 4 8 4 8 4 2 2 9 % G }.{.j.j.j.j.c.j.j.j.z.l.:Xd.: 4 = 2 = 2 2 3 3 3 3 3 + B :Xk.k.k.c.k.k.k.c.k.k.j.n.<X# - 1 @ 4 4 6 6 8 8 4 4 4 * E :Xj.j.z.k.x.z.x.z.k.j.n.j.B., e 5 4 9 9 8 9 8 4 4 8 - G <Xn.j.k.n.k.k.j.n.j.j.z.j.F.> 4 9 3 6 2 6 6 3 3 2 3 3 ; F.z.j.x.x.x.z.j.x.z.x.x.z.;XI - 4 3 3 2 4 4 4 4 9 4 4 % t.x.k.z.n.j.k.k.k.j.k.n.k.z.M.; 4 4 9 4 3 4 4 9 5 5 9 4 D |.j.j.j.j.j.j.k.k.k.j.j.j.D., 5 4 4 4 4 2 2 8 6 1 8 6 ; D.j.x.x.c.x.c.x.x.z.z.z.z.z.z.n.z.z.z.x.x.x.x.n.x.n.n.{.G.O 3 3 7 3 - 4 4 2 3 2 9 5 > ].j.k.j.k.j.j.z.z.j.v.x.z.|.S e 4 4 3 2 7 7 7 9 9 3 4 # D.v.v.v.v.v.c.v.c.c.c.c.l.[.t.= + 2 2 4 3 6 6 2 7 7 x * M +X_.c._.c.c.l.[.l.c.[.c.[.XXO + 2 3 2 3 2 = 2 7 2 7 = v  Xv.c.c.c.c.j.c.c.k.k.l.c. XG 0 4 4 2 6 2 * 7 7 7 7 8 = W |.j.j.j.z.l.l.l.c.l.l.j.OXR * 4 6 6 6 3 7 6 2 2 2 6 7 B >Xx.x.k.c.k.x.x.c.z.z.z.j.OX< 9 9 9 9 u u 8 8 8 8 3 2 > OXn.n.x.k.k.k.n.k.n.k.k.n.n.j.x.x.x.x.x.x.x.x.x.n.z.z.n.x.",
"&X&X&X&X&X&X&X&X&X&X&X&X&X*X}.}.k.k.}.k.}.k.k.}.}.n.c.}.OXJ.wX0XqX0X0X0X0X0XwX0X8XJ.$Xl.k.x.z.c.x.x.}.x.x.{.|.I.J.tX0X0X0X0X0X0X0X0XtX0X0XwXK.+Xz.z.z.z.n.z.n.z.n.x.n.x.z.x.n.z.j.x.z.z.x.z.z.z.z.z.z.n.z.z.n.z.z.z.z.x.n.n.x.n.:Xz.z.z.z.{.n.z.n.z.z.z.z.z.z.z.z.n.z.z.z.z.j.n.z.j.z.j.z.z.j.z.z.z.z.x.n.z.x.x.x.z.n.z.z.z.n.n.z.n.z.n.x.z.x.z.z.j.z.z.x.x.x.x.n.n.j.n.j.j.n.j.n.E - 9 w 4 4 4 4 4 2 2 2 4 5 G :Xj.j.j.j.j.j.j.j.j.j.z.n.g., * 4 2 3 4 = 3 3 5 3 3 3 G }.:Xj.c.z.z.j.j.k.j.j.z.n.<X$ 4 i 4 4 4 7 9 9 9 4 4 2 & d.n.j.n.z.z.z.z.j.j.j.k.n.n.B., 5 5 9 9 9 9 9 9 5 4 8 4 G |.n.j.k.k.k.n.j.j.j.j.z.j.OXM 5 4 4 2 4 2 4 3 2 2 4 9 ; F.n.j.x.c.k.k.z.j.z.j.j.j.:XI - 3 3 3 4 4 5 4 5 3 7 7 o N.z.k.j.j.k.j.j.j.j.c.j.j.n.M.; 5 5 8 5 q 9 9 5 5 5 9 4 D ;Xz.j.j.j.j.j.k.j.j.j.j.j.D.< 3 7 6 2 6 6 6 6 6 8 8 6 ; D.z.x.x.z.z.k.z.z.z.z.z.z.z.z.l.z.z.c.z.z.z.j.x.x.:Xj.z.G.# 0 - 2 2 4 4 4 4 3 3 4 9 $ OXk.j.k.k.c.j.j.j.j.j.z.z.;XB 9 9 9 9 7 9 2 4 3 4 3 4 ; A.v.v.v.v.v.v.v.v.v.c.l.v.[.t.: 2 2 2 2 3 2 2 6 2 x x * N ].l.v.v.c._.l.v.l.l.l.l. XXXO * 3 3 3 3 3 3 = 3 2 7 0 N +Xl.z.c.j.c.j.c.x.k.k.c. X;XG 3 * 3 6 2 = 2 7 3 7 7 4 O W :Xl.l.{.].z.j.z.j.j.j.j.:XT % 2 2 x 6 7 7 6 6 6 6 7 3 K ,Xx.k.c.z.z.z.c.z.z.z.j.j.<Xc 9 9 9 8 8 7 8 8 8 7 3 4 > +Xn.k.n.n.k.k.j.k.k.x.x.n.n.n.k.x.x.k.x.x.x.x.j.n.z.n.x.n.",
"&X&X&X&X&X&X&X&X&X&X&X&X&X*Xc.k.}.k.k.}.}.k.}.k.}.n.x.z.<XJ.0X0X0X0X0X0X0X0X0X0XwXJ.$Xz.c.x.c.}.c.}.}.c.}.x.n.I.7X0X0X0X0XtX0XtXtX0X0X0X0X7XK.|.z.z.z.x.n.z.x.z.z.z.x.z.n.x.n.z.z.x.z.z.z.z.z.z.n.z.z.z.z.x.x.j.z.z.z.n.z.x.z.x.x.z.z.x.x.:Xz.{.n.z.z.n.z.z.z.z.z.j.z.z.z.z.z.j.z.n.n.z.z.z.z.j.z.n.n.z.n.x.n.z.z.n.x.z.n.z.x.z.z.x.z.x.z.x.n.n.z.j.n.k.x.x.x.x.n.z.j.z.j.n.n.n.:XE - 4 4 4 4 4 2 2 * * 2 @ - G ;Xl.j.c.c.k.c.z.v.j.j.z.z.d.> - 2 3 2 4 2 4 4 3 3 7 0 G  Xk.k.k.z.z.z.k.j.c.z.x.j.OX$ 4 8 2 4 4 8 9 8 6 9 4 5 : m.z.j.j.x.x.x.x.z.k.k.x.n.n.D.; 4 4 5 4 5 5 5 4 5 4 9 - I ;Xj.n.n.j.n.k.k.n.k.j.j.j.XX, 4 4 4 2 2 2 6 2 2 2 2 w , OXn.j.k.k.k.k.x.x.z.z.j.k.:XG 5 - 3 - 3 3 3 3 3 5 5 4 % M.z.j.j.j.j.k.j.c.k.k.k.k.z.M.- 8 - 4 5 5 5 9 9 9 5 9 5 G +Xx.j.j.k.k.c.x.k.x.j.j.j.D.c 9 6 2 6 6 8 6 6 2 2 1 1 > D.z.j.z.c.k.k.c.z.x.z.z.x.}.x.x.z.z.z.z.z.x.x.x.z.n.j.j.F.O 4 4 2 4 4 2 6 6 2 2 6 4 $ OXn.n.k.k.j.c.z.j.j.j.z.z.,XN 9 4 8 9 9 u 9 8 9 9 9 9 > A.l.c.v.v.v.v.c.c.c.!.c.c. Xu.- 2 2 2 2 2 2 2 x 2 2 6 3 D +Xv.l.l._.l.l.l.l.[.c.c. X#XO - 2 = 2 2 * 4 2 2 * 7 q D >Xl.l.c.c.x.c.c.c.c.c.c.c.>XC 4 * * 6 6 4 2 2 2 2 6 8 0 $.>Xj.l.z.j.z.z.z.{.z.j.l.;Xe.= 6 6 3 3 3 x 2 2 2 2 2 - K 1Xx.x.c.x.c.c.z.}.z.z.z.c.+X< 9 4 4 4 8 9 9 4 4 6 7 9 v +Xk.k.k.k.k.n.k.k.k.x.x.x.j.z.z.x.k.k.x.x.x.x.n.x.x.x.n.x.",
"&X&X&X&X&X&X&X&X&X&X*X&X&X*X*X}.k.}.k.k.k.n.}.k.x.x.x.:XOXJ.0X0XwX0X0X0X0X0X0X0X0XJ.$Xx.x.x.}.x.z.x.}.x.z.{.{.I.8X6XtX8X0X0X0X0X0X0X0X0X0X0XU.<Xz.z.z.n.x.z.n.z.z.n.n.j.z.z.z.x.n.z.n.z.z.n.z.n.n.z.z.z.n.z.z.n.z.z.z.x.{.z.n.x.z.z.z.z.x.x.z.z.z.{.z.z.z.n.n.z.z.z.j.n.z.z.z.z.z.z.z.z.j.n.z.z.z.j.z.z.z.z.n.z.z.z.n.z.n.x.z.n.n.z.n.z.n.z.z.z.n.z.j.z.n.x.x.n.z.z.n.z.j.j.n.n.:XE e 5 4 4 3 3 2 2 2 2 2 * - D >Xj.z.j.k.z.z.z.j.j.j.l.<Xf., 4 2 2 2 * 3 2 3 4 4 9 0 G >Xk.k.c.z.c.k.c.k.j.z.z.z.<X< 4 4 4 8 4 7 8 7 9 8 4 4 - M.|.j.j.x.c.k.z.x.k.k.j.j.:XB., w 5 5 9 5 5 8 9 9 8 5 - E :Xj.n.n.j.k.k.j.j.j.j.n.j.]., 9 2 4 2 2 6 6 2 2 2 2 9 , OX:Xj.k.k.k.k.j.z.z.z.z.k.;XI e = 5 3 3 3 5 3 3 3 5 4 - M.}.j.j.k.k.k.j.k.j.j.k.x.{.m., w 5 5 9 5 5 9 9 5 4 q e G ,Xx.c.j.z.z.z.z.x.x.j.n.j.D.c 5 7 2 2 2 6 6 6 6 2 6 6 > F.n.c.z.c.z.z.k.z.{.z.z.x.z.z.x.{.z.x.x.k.x.x.n.n.z.j.z.OX# 9 2 9 3 4 4 4 2 6 6 2 5 $ OX:Xj.j.k.j.j.z.z.z.z.z.z.,XM r 8 2 6 9 9 9 8 9 8 9 4 > C._.c.v.v.v.c.v.v.c.c.[.c. Xa.: 3 2 2 2 2 2 2 2 6 2 6 = D oXl.v.l.c.l.c._.l.l.l.[. XF.# 9 * 3 3 * 3 2 3 3 3 4 0 N 1X Xl.c.z.c.c.c.c.c.c.x.}.+XG - 5 2 1 2 2 2 2 2 6 2 9 : E ,Xz.l.n.l.z.z.z.z.l.l.j.+XR - 3 2 2 3 7 7 2 2 2 2 2 3 T ,X}.k.k.x.x.z.z.z.c.j.z.c.OX< w 9 8 9 9 9 9 8 2 9 7 9 c ,Xk.n.k.k.k.k.k.k.x.x.x.x.j.j.z.x.x.x.x.x.x.x.x.x.z.n.x.n.",
"&X&X&X&X&X&X&X&X&X&X&X&X&X&X!.l.k.}.k.k.k.}.}.k.}.}.k.}.$XJ.0X0XwX0X0X0X0X0X0X0XwXJ.$X}.x.c.c.z.{.c.}.x.{.x. XI.J.tX0X8X0X0X0X0XqX0X0X0X0X0XK.,Xz.z.z.z.z.z.n.n.z.z.z.z.z.n.z.n.n.z.x.z.z.z.x.x.z.{.x.z.z.x.z.z.z.z.z.z.z.z.x.z.z.{.z.z.z.z.z.z.n.{.x.x.z.{.z.z.n.z.z.z.z.z.n.z.z.z.z.z.z.j.z.z.z.n.z.n.z.x.n.z.z.z.x.z.n.z.x.z.n.x.n.z.z.n.n.z.x.z.z.n.n.z.z.x.z.z.n.z.x.x.x.:X>Xi.e w 4 4 4 2 2 2 * 2 2 * - D ,Xz.x.c.x.k.x.x.z.c.z.z.}.f., * 2 3 2 * 3 3 5 3 5 9 0 G 1Xx.c.k.c.k.z.k.k.z.z.k.x.+X> 4 4 4 7 2 9 6 8 7 6 9 9 - Z.{.z.z.k.x.z.x.z.x.x.k.k.}.B., 4 4 5 5 5 9 9 9 9 4 9 0 R >Xn.j.j.j.n.j.j.j.j.j.j.j.F., w 4 8 2 2 6 6 2 2 2 2 9 , OX:Xk.k.k.k.j.z.n.z.z.z.z.>XI - - 3 = 3 2 3 3 2 3 5 5 : t.z.x.j.k.k.k.j.k.k.j.j.j.x.m.: 9 5 4 9 5 5 9 9 4 9 9 5 I ,Xx.x.c.z.z.j.z.z.z.{.j.j.D.< 5 2 6 2 2 7 2 6 8 6 6 9 , ].:Xk.k.j.z.j.c.z.z.z.z.z.z.z.x.z.x.x.x.x.x.}.x.x.n.k.n.OX# 9 4 3 3 2 9 3 2 7 3 4 9 < OX:Xz.k.x.z.z.z.j.j.z.j.j.,XN 9 8 4 4 9 8 9 4 9 2 6 9 , Z.[.l.l._.c._.!.c.c.!._.v.|.a.; 3 2 2 7 7 7 x x 6 3 6 3 S `.[.l.v._.l._.l.l.l.l._. X%XO 7 = = 3 3 3 2 = x 3 7 0 N 1X[.v.j.c.c.c.c.c.c.c.c.{.*XB 0 3 3 2 6 2 2 2 6 6 6 9 - E ,X}.[.z.z.z.z.z.z.z.l.l.|.R % 4 9 x 7 7 x 7 2 2 2 2 - T 1X}.x.z.c.x.z.z.z.z.l.}.l.OX< 9 8 8 9 9 9 9 9 8 7 7 q < +Xx.x.k.k.k.k.k.j.x.x.k.k.k.x.}.c.x.x.x.x.x.k.x.x.k.n.n.}.",
"&X&X&X&X&X&X&X&X&X&X&X&X&X&X Xc.}.k.}.k.k.k.k.k.k.k.n.}.OXJ.0X0XwX0X0X0X0X0XwX0XwXJ.$Xc.}.z.}.x.x.z.}.z.x.}. XI.7X0XtX0X0XtX0X0X0X0X0X0X0X0XK.+Xz.z.z.z.n.x.z.x.n.n.x.z.z.z.x.x.z.z.n.n.z.z.n.x.x.z.n.z.n.z.z.n.z.z.z.n.:Xz.z.z.z.z.z.z.x.{.{.z.z.z.z.z.n.z.z.z.j.z.z.z.z.z.j.z.n.z.z.z.z.n.z.j.z.x.z.z.z.z.x.z.z.n.z.n.x.z.n.z.x.x.z.z.z.x.z.x.z.n.z.x.z.z.n.z.n.z.n.z.x.x.x.x.;Xt.y 8 w 2 4 4 2 1 2 2 2 * 3 D 1Xz.x.x.k.k.c.x.z.z.z.z.|.M.y * * 4 = 2 * 3 - 3 3 5 e G 1Xx.k.k.k.k.c.x.x.c.j.c.n.OX$ 9 4 4 9 4 4 9 2 9 9 9 9 & Z.|.k.j.k.x.c.k.k.x.k.x.x.:XB.: w 5 5 4 4 4 4 9 9 4 9 0 W ,Xn.n.j.n.k.k.j.j.j.j.z.z.F., 4 4 2 4 6 6 6 2 6 6 4 r : OX:Xk.k.k.x.x.j.z.z.z.z.n.;XG 5 = 3 3 3 2 3 * * 2 3 5 : f.}.k.j.k.k.k.j.j.j.j.j.j.;Xd.e 9 4 - 5 9 9 5 w 5 9 9 4 I ,Xx.x.z.j.j.z.j.l.z.z.z.z.D., 5 2 2 6 2 9 8 7 8 6 8 9 , F.:Xj.c.c.j.z.k.k.z.z.x.x.z.n.z.k.x.z.x.z.c.z.x.x.n.x.:XOX& r 4 4 2 2 6 4 8 6 4 4 4 < OXj.z.x.c.z.z.z.z.j.j.j.z.2XN w 8 4 8 9 9 9 9 9 9 9 w , C._.l.l.v.l.c.c.v.c.c.l.l. Xe.- 3 x 2 2 x 6 6 6 x 3 6 * N oXl.l.l.l.l.l.l.c._.l.l. XXX> 0 3 3 3 3 3 3 2 2 2 3 y c 1X[.j.v.c.j.c.c.c.c.k.c.x.1XD 0 3 7 2 6 2 2 2 2 2 2 4 * T ,Xc.z.l.j.l.j.l.z.z.z.j.+Xt.= 3 2 x 3 7 7 2 2 3 6 2 5 T 1Xx.z.z.z.c.z.c.x.z.z.z.j.OX< w 9 9 9 9 9 9 6 2 9 7 9 c 2Xx.x.k.j.k.x.k.n.x.k.x.c.x.x.k.k.x.x.x.x.x.x.x.x.k.n.n.}.",
"&X&X&X&X&X&X&X&X&X&X&X&X*X*X Xc.n.}.c.k.}.k.}.n.}.k.k.}.OXJ.0X0X0X8X0X0X0X0X0X0XwXJ.$X}.c.x.c.{.}.x.z.}.x.c.l.$X9X0XtX0X0X0X0X0X0X0X0X0X0X0XK.+Xz.x.x.x.z.z.n.z.z.x.z.n.z.n.n.z.x.z.z.z.z.n.z.:Xz.n.z.z.n.z.z.n.x.z.z.z.n.z.z.x.n.z.z.z.n.z.}.z.z.z.n.z.z.z.z.n.n.x.z.n.z.z.z.z.j.z.z.z.z.z.z.z.z.n.n.x.n.n.z.n.z.z.x.n.n.z.z.z.z.n.z.n.n.z.n.x.n.z.n.z.z.x.x.n.n.z.z.z.x.x.z.n.;XE e 9 4 4 4 4 2 2 * 2 1 * = D 1Xz.x.x.k.k.x.x.x.x.x.x.|.M., 2 3 4 - 3 4 4 4 4 - 4 e G 1Xx.z.c.k.x.c.x.k.k.k.k.z.$X$ 9 4 3 4 3 3 8 6 8 9 2 5 - N.{.z.j.x.k.k.x.k.x.k.x.x.;Xf., 5 4 5 4 3 7 9 7 4 9 9 - E ,Xn.n.j.j.j.k.k.k.k.j.j.n.F., w 4 4 8 4 6 2 4 2 6 8 9 > F.n.j.x.x.x.x.z.z.j.z.z.j.1XG 5 3 3 = 3 2 3 2 3 2 4 5 - m.:Xx.k.j.k.j.k.k.j.k.k.z.>XT - e 9 5 4 5 9 4 4 9 9 e - I ,Xx.z.l.z.z.j.l.z.z.z.z.].D., - 2 2 2 2 2 9 6 6 6 2 7 , F.:Xk.z.k.z.c.j.z.z.z.x.z.z.z.z.x.z.k.k.x.z.z.n.x.x.j.z.$X# e 4 4 4 3 2 6 2 6 2 9 3 < OXz.z.z.c.z.z.z.z.j.j.z.z.,XN e w * 4 9 9 4 8 7 8 9 r : C._.l.c.v.l.v.c.c.c.c.l.v.`.$.= * 3 3 2 2 6 x 3 x 3 x + S +Xv.l.l.c.[.l.l.c.c.c.c.l.C.O q = 3 * 7 x + x 2 2 3 y N 1X[.c.v.c.v.c.c.c.c.c.c.}.+XC 3 3 + 2 6 2 2 6 2 2 3 3 = R |.z.z.z.{.z.l.z.z.{.z.l.>XT 0 7 2 3 7 3 3 6 2 6 2 6 - T 1Xx.x.x.x.x.x.z.c.{.z.z.z.$X< w 9 8 8 9 8 9 9 4 2 7 q c 2X}.k.k.x.x.k.k.k.c.k.x.x.x.k.x.n.n.k.x.x.n.x.n.k.c.}.n.n.",
"&X&X&X&X&X&X&X&X&X&X&X&X&X*X*X}.}.k.}.k.k.}.k.}.}.k.}.n.OXJ.0X0X0X0X0X0X0X0X0X0X8X9X$X Xx.}.z.c.c.z.}.z.z.z.[.I.J.tX0XtX0X0X0X0XqX0X0X0XwX0XK.+X}.x.z.n.n.x.z.z.z.n.n.x.x.z.z.z.n.z.z.z.z.z.z.x.}.x.z.{.z.z.z.z.j.n.z.z.z.z.x.{.x.x.{.z.z.z.z.n.x.z.z.{.z.z.z.z.j.z.z.j.z.j.n.z.z.z.n.j.z.z.j.n.z.z.z.z.z.x.z.z.j.n.z.z.x.z.n.z.z.z.z.n.x.x.x.x.n.x.z.z.n.x.z.n.n.z.n.z.x.x.j.z.1Xi., a 9 5 4 4 2 2 2 2 2 * = D 2X{.x.x.k.x.[.k.z.x.x.x. Xt.> 4 5 3 4 3 - 4 3 - 3 4 : I ,Xx.z.z.x.k.k.k.k.j.z.c.z.OX$ e 9 3 4 3 4 9 3 6 9 4 9 - M.|.z.j.x.z.x.x.z.k.k.x.n.;Xd., w 4 4 4 4 4 9 9 4 4 q - R >Xn.n.j.j.k.j.j.j.j.j.n.n.F.> 4 4 4 4 6 8 6 2 6 7 6 g , F.:Xj.x.x.k.x.z.z.z.z.z.j.1XD = 3 3 3 = 3 2 3 3 3 4 4 = m.{.k.c.j.k.k.j.j.k.k.k.z.;XE - r 9 5 9 5 5 9 5 5 9 9 - G ,X}.z.j.z.j.j.z.z.{.z.l.z.H., 2 2 2 2 6 7 4 6 6 6 9 9 > D.:Xk.k.c.j.z.k.z.z.z.z.z.z.z.z.z.x.c.x.x.k.z.k.k.n.j.}.F.> 9 4 2 4 2 9 2 2 6 6 3 4 c $Xz.j.k.x.z.z.n.z.l.j.z.z.3XZ 4 4 4 4 9 8 4 9 7 8 6 9 ; B.[.c.c.c._.c._.c._.c.l.v.+Xe.= 7 3 x 2 2 6 6 3 6 3 x + N +Xl.[.l.[.c._.l._.c.l.[.v.G.# 7 7 3 7 * 7 3 2 6 2 2 e b +X}.v.j.j.c.c.v.c.c.c.c.[.1XS + 3 * 2 6 x 6 2 2 6 7 4 = R |.z.z.l.z.z.z.l.z.z.l.z.+XR = 7 6 x 3 6 3 x 2 2 6 9 - T >Xk.z.z.}.x.z.z.z.z.z.z.c.OX$ 9 4 9 9 9 9 2 8 9 2 7 0 > +X}.x.j.k.k.j.k.k.x.x.x.k.k.k.x.c.k.k.x.x.x.x.x.x.n.x.}.n.",
"=X&X&X&X&X&X&X&X&X&X&X&X&X*X}.x.}.k.c.k.k.}.}.}.k.}.}.n.*XP.0X0X0X8X0X0X0X0X0XeXwX9X$Xc.z.{.z.{.x.{.}.z.x.c.}.I.7X0X0X0X0XtX0XqX0XqX0XeX0X0XK.:Xz.n.z.x.n.z.x.n.z.n.z.x.z.z.j.z.z.z.z.z.z.z.{.n.n.z.{.z.z.z.z.z.z.z.z.z.z.z.z.z.z.z.z.z.z.z.z.z.{.x.z.z.{.z.z.z.z.z.z.z.z.z.z.z.z.z.z.z.j.z.z.z.z.z.n.z.z.z.z.x.z.n.z.n.z.z.z.n.n.x.n.x.n.x.n.n.x.x.n.z.x.n.z.n.z.z.n.x.x.x.n.z.;XT 0 9 5 w 4 4 4 2 * 2 3 7 & b 3X}.z.x.k.k.}.z.k.k.z.z.|.e.- 4 5 5 4 5 3 - 3 4 4 3 e G :Xx.z.z.k.z.c.k.c.k.k.x.z.OX$ 9 4 2 7 7 4 9 7 6 9 8 2 ; d.|.z.z.c.k.z.x.k.c.k.z.z.:Xd.# r 4 4 4 4 9 9 9 9 9 w - W >Xj.n.k.k.k.k.k.k.j.j.j.{.G.> 4 3 8 9 9 6 7 9 7 6 6 9 ; G.:Xj.}.k.k.x.z.z.z.z.z.j.,XN 3 3 3 3 3 2 3 3 = 3 3 5 % m.{.z.z.z.k.j.j.k.k.k.j.z.:XI 0 w 4 9 5 9 5 5 9 9 5 9 9 D 1Xx.z.j.j.j.j.z.z.z.j.j.z.D.$ 9 4 2 2 2 8 2 6 6 6 2 8 < H.:Xx.x.j.z.k.k.c.z.j.z.z.z.z.c.j.k.k.x.c.x.j.n.x.x.j.{.F.# 0 2 2 4 9 2 9 2 6 7 2 3 < <Xx.n.j.k.z.z.z.z.z.c.j.z.,Xb 4 9 4 3 2 4 9 9 4 7 9 9 : C.[.[._.c._.c._.c.!.c.l.v. Xr.& 3 3 7 6 2 6 2 3 3 3 3 3 G +Xl._.c.c.[.[.l._.l.l.l.v.E.O 7 3 3 3 7 3 * 2 2 6 6 * c +X[.c.l.c.c.l.l.c.c.c.c.}.+Xb : 3 3 2 2 3 x 3 3 7 7 9 % R  Xx.x.z.{.z.z.l.l.l.l.l.+XR - 3 2 2 3 3 3 7 6 x 7 6 = T ;Xk.x.x.x.x.}.c.c.x.x.z.l.OX, w 2 9 9 9 9 6 3 4 2 3 3 $ $Xx.x.k.k.k.j.k.k.z.k.x.x.c.x.n.x.x.k.x.x.x.x.k.x.k.}.n.k.",
"&X&X&X&X&X&X&X&X&X&X&X&X*X*X*Xx.k.k.}.}.}.k.k.k.}.k.k.}.OXJ.0XtX0X0X0X0XwX0XwX0XwXJ.$Xc.j.n.z.z.x.x.x.z.x.}.}.I.J.0X0X0X0XqX0X0X0X0X0X0XqX0XU.OXz.x.n.x.n.z.z.z.x.z.z.z.n.j.z.n.x.n.z.z.z.z.z.z.x.{.z.z.z.n.}.z.z.z.z.{.{.n.z.z.z.z.z.{.z.{.n.z.z.n.z.n.n.z.z.z.n.j.n.z.j.n.z.n.j.z.z.z.z.j.j.n.z.z.z.z.x.x.x.x.x.z.z.n.z.n.z.n.z.n.z.n.x.n.x.x.z.n.x.n.x.n.z.x.n.x.x.x.x.k.x.}.:XE & 3 4 4 4 4 9 * 2 2 2 * + < ,Xc.x.z.k.k.x.z.z.j.k.{.|.t.& 2 0 5 3 0 - 5 4 5 2 - : B >Xx.z.c.k.k.k.k.z.z.k.c.c.].$ 9 4 3 5 7 4 7 3 7 2 3 3 - m.{.x.z.k.x.k.x.k.z.z.z.j.z.d.O 4 9 4 4 5 4 9 9 8 9 w - E ;Xj.k.k.k.k.j.j.j.j.j.z.z.D.> 9 4 4 4 2 2 3 7 7 9 7 9 ; D.:Xk.k.z.x.z.z.z.z.x.x.j.>XM 3 2 3 = = = 3 3 3 3 3 4 % m.[.z.z.k.k.j.j.j.z.z.j.j.:XT - 9 5 0 5 5 5 5 5 9 9 0 - D >Xx.z.z.c.z.z.j.z.z.l.j.j.B.O 7 2 2 2 4 2 2 2 2 2 6 4 # H.:Xk.c.z.c.z.c.k.z.z.z.z.c.z.k.k.c.x.k.k.x.k.k.k.k.n.z.D.# = 1 4 4 9 3 2 6 3 7 2 3 < OXx.z.j.z.k.k.z.z.k.j.j.c.,X, - 2 9 3 9 4 4 4 3 3 9 4 O C._.[.c._.c.c.c.c.c.c._.v.`.a.= = x 7 2 2 7 2 x 7 x 3 0 R +Xl.c._.[.[.l.l.c.[.l.l.[.A.& q 3 3 x 7 x * 2 * x x + v +Xv.l.v.c.c.c.c.c.c.c.c.c.+Xc = 3 * 2 x 7 x 6 2 x 7 7 * R ].z.z.z.x.j.l.z.z.z.z.j.+XR + 2 2 2 6 3 3 6 7 7 6 2 * H :Xx.k.{.z.z.z.z.z.c.z.z.c.OX# 9 9 9 4 3 3 9 9 2 4 3 7 $ +X}.x.k.k.k.x.k.z.k.x.z.x.x.x.n.x.x.x.x.k.x.x.x.x.k.k.k.}.",
"&X&X&X=X&X&X&X&X*X*X&X&X&X&Xx.k.}.}.k.}.k.}.k.}.k.}.k.}.$XJ.0X0X0X0X0X0X0X0X0XeX9X9X+X}.z.{.:X:X}.}.x.x.}.x.{.I.7X8X8X8XwX7X0X0XwX0X0XqXwXwXU.:Xz.x.x.z.z.n.z.z.z.z.n.j.z.z.n.x.z.n.z.n.n.z.z.z.z.}.z.z.z.x.x.x.z.z.z.z.{.z.{.z.z.{.z.z.n.z.z.z.z.z.z.z.z.z.z.z.j.k.n.z.j.n.z.z.n.z.z.z.z.z.z.z.x.n.n.z.k.x.x.x.j.z.x.z.n.z.x.z.x.n.n.z.k.x.n.x.x.x.x.x.k.k.n.x.x.x.k.x.x.n.x.x.;Xe.- q 9 9 5 4 3 3 2 2 * 2 x $ ,X}.x.z.k.k.k.x.k.j.z.x.{.R & 3 0 5 - 0 5 5 5 9 5 5 - C >Xx.k.z.c.k.k.j.j.z.j.k.l.+X$ 3 2 4 + 7 3 9 4 2 3 3 3 - Z.{.k.k.k.x.z.c.z.z.j.j.j.z.d.# 4 4 4 9 9 9 9 9 9 4 9 % W ;Xj.k.k.k.j.j.k.j.j.j.k.z.D.% 9 9 9 9 9 9 4 9 5 3 9 9 # D.:Xz.k.x.z.z.x.z.z.z.k.k.>Xv + 6 3 - 3 3 4 5 4 5 4 5 - f.{.z.{.x.k.z.k.c.z.c.z.j.z.E = = 9 e 4 5 5 4 5 0 9 5 - G ;Xj.z.c.z.z.j.l.z.z.z.j.j.g.# 4 2 4 9 9 9 8 9 4 6 6 @ ; D.n.x.z.z.k.z.c.k.z.z.k.k.k.c.x.k.z.j.k.k.x.k.k.k.j.z.|.D.# 4 2 4 4 4 2 2 6 7 7 7 0 $ OXk.z.z.z.k.z.z.j.x.z.j.j.].c - 2 9 9 7 q 9 9 q 7 9 5 O C.v.[.c.c.c.c.!.c.c.c.c.l. Xa.& x x 3 7 7 2 6 3 x 3 7 3 J +X_.[.c.[.[._.l.l.[.[.[.^.F.& 0 3 3 7 0 7 3 x + 3 x + c +Xv.c.v.v.c.c.c.c.c.c.}.[.+Xb + x 6 2 3 3 3 3 3 3 0 2 % R ].c.z.z.}.z.{.{.z.z.{.z.].R + 3 3 3 0 7 7 7 3 x 7 6 + Y |.c.k.x.c.c.z.c.z.z.z.c.c.OX# % 4 9 9 q q 9 9 5 4 3 0 $ OXl.j.x.c.x.x.x.k.x.k.c.x.k.k.k.c.x.x.x.n.x.x.x.x.k.}.}.k.",
"=X&X=X&X=X=X=X=X=X=X&X=X&X&X}.k.k.}.}.k.c.k.}.c.}.k.}.n.+XK.J.J.K.J.J.J.J.J.J.J.J.J.%X$X$X$X$X<X$X$X%X2X$X+X2XI.J.8X8X8XwX9XwXwX9XwX9X9X9X9XK.+X{.x.n.x.x.z.x.n.n.n.z.z.z.x.z.z.z.z.z.z.z.z.z.z.x.z.z.z.}.}.}.}.}.}.x.}.}.}.z.}.x.}.{.{.z.|.}.{.z.{.z.z.z.{.z.{.z.{.x.x.z.z.z.}.z.z.z.z.{.z.z.z.}.x.z.x.{.x.}.x.z.}.x.}.z.}.}.x.x.}.x.:Xx.:Xx.}.n.x.n.x.k.n.x.x.n.x.n.x.x.x.z.x.:XT O : ; ; # # ; # O O O o O v |.x.x.z.x.k.k.x.z.z.k.}.{.0.$ & O > , > > , > > > & O N +Xj.k.z.z.k.k.j.j.k.k.k.k.{.v O : : e $ > ; : , : ; & $ B.{.k.z.x.x.k.x.z.z.z.j.j.].d.o % & # > > ; > > y : ; , T :Xj.k.j.k.k.k.k.j.k.j.j.j.h.$ % = = , : : > > > : & = $ V.:Xz.x.x.x.k.z.z.z.z.x.k.;XC ; + + > > > > > > > , ; $ C.}.x.k.k.c.z.k.k.z.x.j.n.j.T # % ; & ; : , - , , > ; ; D +Xk.z.z.z.z.z.j.z.z.z.j.n.g.$ # % - ; - - e : : 0 % % $ D.:Xk.x.c.z.k.k.k.z.c.k.z.z.z.k.k.z.z.k.x.x.x.k.j.z.z.z.OXo > ; # # > > & & + & = O $ ].j.k.{.z.k.x.z.z.k.z.j.j.:Xc + & & > 0 : : : : : = : # M. Xl.c._._._.c.c.!.c.c. X`.a.& o o = = + + O + = : 3 > J *X'._._._.[.[._._._._. X`.$XO & > 0 > + : & 0 + & O = v *X^.[._.v.l.[._. X_. X_.`.+Xb O + x - - : & = = + O = O E |.z.z.z.c.z.z.z.z.v.j.z.{.J O # $ > , > > v $ & $ O # I >Xx.k.z.z.k.z.z.z.z.z.x.c.OX$ # = : > : : : : , : & = $ +Xk.k.k.x.x.j.x.k.z.x.x.k.k.n.c.n.x.n.x.x.x.x.x.x.k.k.n.}.",
"a.L.P.L.P.S.a.S.p.a.a.a.a.p.*X X}.}.k.k.}.}.}.k.n.}.}.k. X+XoX*XOXOXOX$XOXOX$XOXF.I.U.bX9XU.U.J.J.J.J.J.9XbXJ.J.K.J.J.P.P.P.P.P.P.P.bXP.bXP.A.|.z.n.x.n.z.n.x.n.z.x.n.z.x.z.x.z.x.k.x.x.x.x.z.n.x.k.c.l.^._._.^.^.^.^.^.^.^._.^._._._._._.[.[.`.[._._._._._.`.'. X_.[.[._.[.[.[._._.[.[._.[.[._._.[. X`. X`. X`._. X`. X`. X X`. X X X[.[.[.[. X[.[. X}.c.}.}.}.}. X}.c.c.[. Xc.x.D.a.M.a.y.M.B.B.Z.Z.B.S.m.R g.}.x.k.z.x.x.k.x.x.k.k.k.{.D.u.t.N.Z.S.Z.B.B.B.S.B.t.e.g.{.c.j.z.z.k.x.c.z.x.x.z.j.l.C.d.d.f.t.B.Z.M.u.f.t.u.B.S.OXx.x.{.c.x.k.z.k.k.z.z.j.j.D.m.m.f.M.M.M.Z.B.B.t.t.t.i.C.z.z.k.k.k.k.j.c.j.c.j.j.c.^.T I t.t.u.t.g.g.f.g.M.u.u.d.[.n.j.x.x.x.k.z.z.z.z.n.z.:Xh.g.B.S.M.Z.B.B.B.B.M.M.B.B.~.j.j.k.z.c.k.k.k.k.k.z.j.z.g.d.m.N.N.B.M.N.N.N.M.t.t.t.g.:Xj.j.l.z.z.z.c.z.z.j.c.j.b.Q E E d.d.d.d.d.t.d.d.t.f.T ^.z.k.j.j.c.z.j.c.j.z.k.z.z.k.j.k.c.j.k.k.k.k.k.z.j.j.z.|.t.m.d.M.B.f.B.B.M.M.B.t.f.i.:Xz.n.z.z.k.x.k.x.k.c.z.j.;Xt.E E a.N.a.N.a.t.a.a.N.a.t./.v._._.v.^.^.^._.^._.^._.).@Xa.a.a.a.a.S.a.a.a.a.a.L.S.A.!.R.R.R.T.T.(.R.R.!.~.!.'.XXa.S.S.S.a.S.S.P.S.a.S.a.a.S.).~.^.~.~.R.~.b.~.R.T.b.R.W.a.a.a.e.a.a.a.a.a.a.P.a.P.a.G.|.c.{.z.x.z.{.z.v.z.l.l.].D.B.D.H.G.$XG.F.A.G.F.G.G.G.D.n.k.c.z.z.z.c.j.k.c.z.z.c.|.i.t.e.t.t.S.M.M.y.u.d.y.t.i.|.k.x.k.x.k.x.k.k.x.c.k.k.c.x.x.x.x.c.}.x.n.k.c.n.k.n.k.n.",
"+ O o + + = 7 O 3 q + + n + E. Xk.k.k.k.k.k.k.k.x.c.n.}.x.n.k.k.{.[.x.x.x.x.x.c.:X<XU.yXhX6XqXqXqXqXqXqXwXwXwXbXP.L.L.L.P.L.L.P.P.L.L.L.L.#XXX Xx.x.n.z.x.x.x.x.n.z.z.z.n.z.z.n.x.x.n.n.x.n.n.z.x.x.c.b.T.T.(.W..X/..XW./.T.T./..X(./.(./.T.T.T.T.T./.T.(./.(.E.T.T.T.(.(.T.T.T.(./.T././.T.T././.(.T.T.T.!.!.(.T.T.T.T.T.W.W.W.T.Y.T.T.(./.T.T.Y././.~.~.~.~.~.v.^._.v._.v._.v._.{.|. X}.}.{.{.}.}.{.[.|.|. X{.z.}.k.k.}.x.k.k.k.k.k.c.c.j.x.:X}.:X}.}.{.}.}.{.}.{.|.z.j.k.c.c.z.z.x.k.k.k.z.c.c.j.n.n.z.:X{.}.:X}.:X;Xz.z.j.}.x.x.z.z.x.k.x.z.c.z.z.j.j.j.n.z.}.{.{.{.{.[.{.l.|.|.:X:Xx.j.k.j.j.j.k.j.j.j.j.j.j.z.z.n.{.{.:X;X:X;X;Xx.:X:X:X:Xk.k.j.n.z.z.k.k.x.z.j.j.j.x.j.j.{.l.z.n.{.}.:X}.}.z.z.c.{.z.j.k.}.z.x.x.z.j.x.c.z.z.j.j.{.z.z.{.{.{.{.}.{.}.}.:X:Xn.j.j.j.l.z.j.z.z.z.j.{.z.c.j.z.:X].{.n.:X:Xn.z.n.:Xn.:X:X{.k.z.c.k.j.j.z.j.z.x.k.c.x.c.z.j.z.c.j.z.c.z.z.z.j.z.z.z.z.z.{.z.{.}.{.{.{.x.{.z.}.:Xz.z.z.x.z.z.k.x.k.z.z.z.z.l.].OX`.`.+X+X`.`. X X X X`.OX(.!./.T.T.T./.T./.T./.T.R.T.Y.W.E.oX@XW.E.Q.W.E.&XW.E.@XT.T.T.!.T.T.!.T.T.T.W.T.W.T..XXX.XQ.Q.W.Q.Q.W.XXQ.E.Q..XT./.T.T.T.T.Y.T.T.T.T.E.!.!.T.T.E.Q.@X%X@X&X@X&XQ.Q.Q.Q.XX~.k.k.x.{.c.j.{.l.j.l.z.l.j.l.j.z.z.[.}.:X X}. X}.}.z.c.c.k.c.z.z.z.k.j.c.j.k.k.{.x.j.}.}.{.;X:X}.}.}.}.{.}.n.n.}.:Xx.k.x.x.k.c.k.n.x.k.k.n.x.x.k.x.k.k.k.n.n.}.n.c.n.c.k.k.",
"q 7 3 + 3 3 9 3 3 3 3 3 2 & XX Xn.n.k.}.}.k.k.}.k.x.x.n.x.x.k.k.j.k.k.k.k.k.x.x.z.+XU.qXpXpXqXqXqXyXqXpXqX0XwXbXL.L.L.A.L.L.L.L.L.L.L.A.L.#XXX Xx.x.z.z.z.n.x.x.z.n.z.z.z.x.x.n.x.n.x.x.x.k.n.n.x.x.}.'.T.W.W.W..X.X.X.X.X.XW.oX.XW.W.W.W.W.W.!.T.W.W.W.W.W.W.W.W.W.W.W.T.T.W.T..XT.T.W.W.W.W.T.W.W.W.W.T.!.W.W..XW.W.oXW..XW..XW..X.XW..X.X(.T..X.X(.(.~.'.).).!.'._.'._.'.'.'._.l.c.x.c.x.x.x.x.x.k.}.z.k.}.x.x.c.k.k.c.x.k.c.k.x.x.z.k.k.k.k.k.x.x.k.k.k.k.k.k.k.c.x.j.z.k.j.j.j.k.z.z.k.z.z.z.z.j.c.z.z.x.k.k.n.c.c.z.z.k.k.k.z.j.k.z.x.k.z.z.z.z.j.j.j.n.v.k.k.k.c.c.x.k.c.z.j.j.j.j.j.k.j.j.j.j.j.k.j.k.k.j.j.j.j.}.z.x.x.k.k.k.k.k.k.k.c.k.k.j.j.z.z.x.k.j.j.j.j.j.z.z.c.l.z.z.z.k.c.k.k.c.k.k.k.k.k.c.k.x.k.z.k.k.c.x.k.c.j.j.j.k.x.x.x.c.x.k.k.k.k.z.z.l.z.j.j.j.j.j.j.z.c.c.z.j.z.k.c.j.j.l.z.z.z.j.j.n.k.j.j.j.j.z.z.z.k.k.z.c.j.z.j.z.k.x.k.c.z.k.z.c.k.z.j.z.z.z.j.z.l.z.c.k.}.x.k.z.z.k.k.k.c.x.k.j.j.z.z.x.x.z.k.c.k.k.z.z.z.z.^._.[.[.[._.[.[.[._._.[._.`.(.T.T.R.T.T.T.T.T.E.T.T.T.T.T.T.!.oXW.T.W.W.T.E.!.W.E.!.W.E.E.T.T.!.E.W.!.W.W.W.E.W.T.T.W.W.W.W.W.W..XoX!.oXQ.Q.W.E.W.T.W.E.W.W./.(.W.W.W.!.Q.T.Q.W.T.@X@X!.W.Q.!.W.W.!.T.~.c.j.{.c.z.z.z.z.z.z.j.j.v.c.x.c.j.z.z.k.k.x.x.k.k.k.x.x.k.k.c.z.k.z.k.z.k.k.k.c.x.k.x.}.x.n.k.}.}.x.x.x.x.k.k.n.k.k.k.x.k.c.}.n.k.x.x.k.c.x.k.c.x.x.x.n.k.k.c.n.c.k.k.n.c.",
"3 3 3 x 3 3 4 * 7 7 x 3 * # F.}.}.k.}.c.k.}.}.k.x.x.}.x.x.n.k.}.k.k.k.c.x.k.c.x.x.<XU.pXpXqX6XhXqXpXqXpXqXqX0XbXL.L.L.L.L.L.L.L.L.L.L.L.L.L.XX X}.x.n.x.n.x.n.x.z.x.{.x.z.z.:Xz.x.x.n.x.n.k.j.z.z.k. X(.!.W.oXW..XW.W.W.!.W.W.W..XW.!.W.T.W.(.!.W.(.W.W.!.W.!.W.T.W.T.W.W.!.W.W.W..XW.W.W.!.W.oXW..XW..X.X.XW..X.X.X.XW.!.W.!..XW.W.!..X!.!.(..X.X.X.X(.'.oX'.'.'.'.'.'.'._.'.`.v.[.z.z.x.x.k.k.x.k.k.z.z.j.k.z.k.x.k.k.x.{.k.z.x.k.z.k.j.k.k.k.z.z.j.j.j.j.c.j.z.k.j.j.c.k.k.c.c.z.x.x.x.x.k.c.j.z.z.x.z.z.z.j.k.k.j.z.z.j.j.j.z.c.z.k.x.k.x.k.z.z.l.j.n.v.n.z.j.j.k.k.k.k.k.j.z.j.j.l.c.j.j.j.j.j.j.j.k.j.c.c.j.j.j.z.k.z.k.x.k.k.k.k.k.k.k.z.k.n.k.k.k.}.x.c.j.j.j.n.j.z.z.z.z.z.z.z.j.j.j.j.x.k.z.k.k.j.z.k.k.k.z.x.z.z.c.k.k.z.z.{.c.k.k.x.x.x.z.k.z.c.z.z.z.z.z.l.j.j.j.j.j.z.z.z.z.z.c.c.n.j.j.l.c.j.j.j.j.j.j.j.j.j.j.j.j.c.j.c.z.j.z.j.c.k.x.z.j.k.j.c.j.z.j.c.z.z.z.z.z.z.z.z.j.z.j.j.z.z.z.z.z.k.x.{.x.z.z.z.z.x.z.x.x.x.k.k.z.c.j.[._._.[._.[. X_._.[._._.`.`.~.T.(.T.T.T.T.T.T.T.T.T.T.W.T.T.W.W.W.!.W.W.W.W.W.W.W.T.T.T.W.T.T.E.!.W.W.W.W.W.T.T.!.W.T.T.E.W.W.Q.!.W.W.W.W.W..XXX.XW.W.W.W.oX.X.XW.W.W.W.E.E.W.T.!.Q.!.W.W.W.W.!.T.!.W.~.c.l.z.c.z.z.l.z.l.z.].l.j.c.x.}.z.z.z.k.k.x.k.k.x.k.j.z.z.j.k.j.c.j.c.j.c.x.k.x.z.k.k.z.j.k.k.k.k.x.k.k.n.}.k.k.n.}.x.x.c.k.x.}.c.k.k.c.k.k.k.}.k.k.c.k.k.c.k.k.k.c.n.c.n.",
"x 3 3 3 4 2 2 4 3 3 4 2 4 O D.z.k.k.}.k.}.n.k.k.x.x.x.x.x.x.}.k.x.x.c.k.c.c.k.k.n.+XJ.pXpXqXqXqXqXqXqXqXqXpX0XbXL.L.L.L.L.L.L.L.L.L.A.L.L.A.XX|.x.x.x.x.x.x.x.x.z.z.z.x.x.}.n.z.x.x.x.n.n.x.x.x.x.x.}.)..X.X.X.X.XE.E..XW.W..XW.W..X!.!.!.W.T.W.W.W.W.!.oXW.W.W.W.!.W.W.W.W.W.W.W.W.!.W.W.W..XW..X.X.XW.W..X/.E.W.W..XW.W..X.X.X!..X.X.XW.W.W..XW..X.X.X).(.'.(.'.^.'._._.'._.`._.[.}.x.x.x.}.x.}.k.k.k.x.k.k.x.x.k.c.k.x.x.x.x.x.z.x.x.k.c.k.k.c.z.k.j.z.z.x.x.k.k.x.x.z.k.c.j.c.x.k.x.x.c.k.k.j.k.z.k.z.j.z.j.c.k.c.k.c.j.j.c.z.z.z.k.z.z.z.{.z.j.z.z.j.j.z.z.c.j.k.c.j.z.k.z.z.z.c.k.k.z.j.k.j.j.c.j.c.j.k.c.j.j.k.x.z.x.x.k.x.x.k.k.k.k.k.x.k.k.c.k.x.x.z.j.x.x.x.c.k.z.z.k.z.z.z.z.j.z.z.x.k.k.z.x.k.k.k.z.k.z.j.k.c.k.k.j.z.k.k.k.j.c.k.k.x.x.c.z.z.z.z.z.z.z.l.z.z.z.j.z.z.j.z.z.z.z.z.k.z.z.j.j.j.j.z.j.j.n.z.z.z.l.j.j.z.j.z.z.z.z.n.z.z.j.z.j.j.j.c.k.j.c.j.j.n.z.z.z.z.z.j.j.j.z.z.j.z.k.c.k.k.z.k.k.z.j.j.z.z.z.z.z.z.z.z.z.z.z.z.[.[._.l._._._.[._._._.[.[.`.(.T.T.T.T.T.T./.E./.T.E.T.T.T.T.T.T.T.!.!.E.W.T.T.T.T.T.W.W.T.E.!.E.T.T.W.T.W.W.T.W.T.T.W.T.W./.E.W..XW.E.W.W./.W.W.W..XW.oXQ.W.W.W.Q.W.W.W.W.!.!.!.W.!.W.!.W.W.!.T.W.T.T.~.c.z.[.z.z.z.z.[.l.z.l.l.z.x.}.x.c.k.x.x.x.x.c.x.k.k.z.k.z.j.j.c.j.j.c.z.c.c.x.z.x.x.x.k.c.x.x.c.x.x.x.k.k.k.k.k.k.k.k.}.c.x.k.k.k.k.n.n.n.c.n.c.k.}.x.n.k.k.c.n.k.k.k.x.n.",
"7 7 2 2 2 4 3 2 2 = 4 3 5 % G.}.k.k.k.k.k.k.}.}.x.}.n.x.x.x.x.n.x.x.k.c.k.k.k.k.z.<XU.qXpXqXpXpXpXpXpXqXiX0XwXbXL.L.L.L.L.L.L.L.L.L.L.L.L.L.XX}.}.x.x.x.x.x.x.x.{.n.}.n.n.z.x.x.x.x.x.x.x.x.x.x.z.}.}.).(..X.XT..X.X.XW.W..X.X.XW.W.W.W.W.W.!.!.!.W.W.W.W.!..X!.W.W.W.W.W.W.!.W.!.W.W.W.W.W.T.W.E..X.X/..X.X.X.XW.W.!..XW.oX!.W.!..X.XW.W.oXW..X.X.X.X(.oX'.(.'.'.'.'.'.'.'.^.'._.l.{.x.x.x.x.x.x.x.x.x.c.x.x.x.x.x.x.x.x.x.x.k.c.k.x.k.k.j.c.k.k.z.z.c.c.c.k.k.k.c.k.x.x.x.z.z.k.z.x.k.x.z.x.x.c.z.c.j.j.c.k.c.k.k.k.k.z.k.z.k.c.z.j.c.c.z.z.z.z.l.z.z.j.z.j.j.z.j.j.c.k.j.c.j.z.z.z.k.k.z.c.j.k.k.j.j.j.j.k.j.j.l.k.k.x.k.k.c.x.k.k.k.k.k.x.k.z.k.x.k.x.k.z.z.x.k.x.x.k.z.z.z.z.n.z.j.z.z.k.x.k.x.x.k.z.k.k.k.k.z.j.j.k.c.c.j.c.k.j.j.c.k.c.z.z.c.x.z.z.c.c.z.j.z.j.j.z.j.z.j.z.z.l.j.z.z.z.z.z.z.l.j.z.z.j.j.z.z.z.j.z.j.j.l.j.z.j.z.z.z.j.j.j.j.c.z.z.z.z.j.z.z.j.z.j.z.z.j.z.z.j.j.j.z.z.z.z.z.j.j.c.j.x.k.j.z.j.z.z.z.z.z.z.z.x.z.z.z.z._._.[._._._.[.[._._.[.^._.`.~.Y.T.T.T.T.T.T.T.W.W.T.T.W.Y.T.W.T.W.E.!.!.T.!.T.T.T.T.T.W.T.!.T.W.W.W.W.W.W.W.W.W.W.W.T.E.T.W..XW.W.W.W.W.W.W..X.X.XT.W.W.W.W.W.W.W.W.W.Q.E.W.W.W.W.!.!.W.W.W.W.T.T.T.T.~.{.z.{.[.z.{.z.z.c.z.z.l.l.x.z.x.x.z.x.c.x.x.k.x.z.k.x.k.z.z.k.k.z.j.z.k.z.k.k.c.x.x.k.x.x.x.k.k.k.x.x.x.k.k.n.n.k.n.x.k.k.x.n.}.c.c.c.k.c.k.k.n.n.x.x.n.c.k.n.n.k.c.n.x.x.",
"2 2 * 3 4 * 2 4 3 2 3 * 2 + XX{.k.}.}.k.k.}.}.k.}.n.x.x.c.x.x.x.x.k.c.k.k.k.k.k.j.OXU.pXpXqXqXpXpXpXpXpX0XiXlXbXL.L.uXL.L.L.L.L.L.L.L.L.#XL.'.}.x.x.n.x.x.x.x.x.n.x.x.x.n.}.x.z.x.x.x.x.x.x.x.x.x.x.}.(./.W..XT./.W..X.X.X.X.X.XW.W.W.W.W.T.W.W..X.X.X.XW..X.X.XW.W.!.W.W.!.!..XW.W.!.W.E.T.E..XW..X.XW..X.X.XT.W.W.W..X!.W.!..XW.Q..X!.W.oXW..X/..X.X.X(.'.'.'.'.(.'.~.).^._.'.^.l.x.z.c.x.x.x.x.x.x.x.k.x.c.k.x.x.x.x.x.k.x.z.k.x.c.k.k.z.z.k.k.k.z.j.j.j.k.z.k.k.z.x.c.k.z.z.x.z.x.c.x.k.x.k.x.x.k.j.k.c.j.k.k.c.k.k.c.j.z.k.k.z.c.k.z.{.z.z.z.z.z.z.j.j.j.j.j.c.j.j.c.j.c.z.j.j.c.z.k.z.c.z.j.j.j.j.c.j.c.c.z.z.c.z.c.z.z.x.x.k.k.k.k.z.k.x.k.k.z.k.z.c.z.c.z.k.k.k.x.z.z.z.z.z.z.n.z.z.x.x.x.k.k.x.k.k.k.k.j.j.k.j.j.j.c.z.j.j.k.j.j.c.j.z.z.x.z.z.x.z.z.z.z.j.j.j.z.j.z.z.j.j.j.j.z.z.z.z.z.x.z.j.z.z.j.j.z.z.z.j.j.z.j.j.z.z.z.z.z.z.z.j.z.j.z.z.z.z.j.c.j.j.z.j.z.z.z.j.j.z.j.l.z.j.x.z.z.k.c.j.c.z.c.k.z.j.j.z.z.z.z.j.j.z.z.z.z.z.c.[.v._._.[._.[._._._._.^.`.`.(./.T.T./.T.T.T.T.W.T.T.T.T.W.W.T.T.T.E.W.!.E.T.T.E.T.E.T.W.E.W.W.W.!.W.W.W.T.W.T.T.T.W.W.T.T.W.T.E./.W.E.W.W.E.W.T..X.XW.W.W.Q.W.W.W.Q.W.W.W.!.Q.E.!.!.W.W.W.T.!.T.T.W.T.~.c.z.{.{.k.z.l.{.z.{.l.l.z.z.x.x.z.k.x.x.x.k.x.x.x.c.x.c.k.z.c.c.z.k.z.x.z.k.x.k.x.k.c.k.x.k.x.k.k.c.k.k.k.k.k.x.k.k.x.k.k.c.k.x.n.k.k.n.k.c.k.c.k.k.n.c.n.n.c.k.n.x.n.x.x.",
"2 2 3 2 2 3 2 2 3 2 4 * 3 + $Xx.n.}.k.k.}.k.k.k.n.}.x.x.x.x.x.k.x.c.k.k.c.k.k.k.z.<XU.pXpXqXpXpXpXpXpXpXiXiXrXlXa.L.p.L.L.L.L.L.L.L.L.L.#XL.XX}.}.}.x.x.x.x.x.x.x.x.}.x.x.x.x.x.x.x.n.x.x.x.}.x.x.x.}.'./.T..X.X.X.X.XW./..X.XE.!.W.T.!.W.T.W.W.!.W.W.!.W.!.!..X.X!.W.W.W.W.W.W..XW.W.W./.W..X/..XW.W./..XE.W..XW.!.W.W.W.W.W.W.!.!.W.!.W.W.W..X.X.X.X(.(.(.(.'.'.'.'.'.'.)._.)._.l.[.x.z.x.c.x.c.x.x.z.k.x.x.k.x.k.x.x.x.c.k.x.k.x.z.x.k.k.z.c.j.c.j.c.j.z.c.x.x.z.c.x.k.k.k.c.z.k.x.z.k.c.x.z.k.k.c.z.z.k.z.c.k.k.k.c.k.z.z.c.z.k.z.j.z.z.z.z.z.n.z.l.j.j.j.l.j.z.j.z.j.z.j.k.c.j.j.z.c.z.j.k.j.j.j.c.j.j.j.k.z.z.j.z.k.x.k.x.k.x.x.k.k.k.c.k.x.c.z.z.x.k.z.k.j.z.z.k.k.c.z.k.z.z.z.z.z.z.j.x.x.c.x.z.z.j.j.j.j.j.j.c.j.c.j.k.k.j.j.j.j.j.j.c.z.c.z.c.z.c.z.z.z.j.z.z.j.z.j.z.j.z.z.z.c.z.z.c.z.z.z.j.z.z.l.j.z.z.j.z.j.z.j.j.j.j.z.j.z.z.l.j.j.j.j.z.j.z.k.k.z.z.z.z.z.z.z.z.z.z.z.z.z.j.z.z.z.z.z.z.z.k.x.x.z.j.z.z.j.z.z.z.j.z.j.j.z.z.l.[.l._._.l._._.[._.[._.[.`.`.~.T.T.T.Y.T.T.T.T.T./.E.T.T.T.Y.T.T.W.!.E.!.!.!.T.!.E.!.W.W.!.!.W.W.W.W.W.T.W.!.W.W.T.W.W./..XE.T.T.T.W.W.W.W..XW./.W..XT..XW.W.W.!.Q.W.W.!.E.!.E.W.W.W.W.W.E.W.T.W.T.T.T.~.c.c.z.[.z.z.l.l.l.l.j.l.c.c.[.x.x.z.k.c.k.z.x.x.x.k.k.x.z.z.k.k.k.j.c.k.c.x.z.x.k.x.x.x.k.c.x.x.x.k.x.x.x.x.x.k.x.x.k.x.k.}.k.k.k.n.n.c.c.n.n.c.k.n.c.n.k.c.n.c.k.}.k.x.n.",
"2 3 2 2 2 4 4 2 3 3 = 3 3 & XXz.n.n.}.n.x.n.n.x.x.k.}.k.x.c.x.x.x.x.k.c.c.n.k.k.k.+XP.pXpXpXqXpXpXqXpXpXpXqXeXU.L.L.L.p.L.L.L.L.L.L.L.L.#XL..X[.x.x.x.x.x.n.x.x.}.x.x.x.x.}.x.x.n.n.n.c.x.x.x.n.z.z.}.).T..X/.W..X.X.X.XW..X/.W..XW.W.T.T.T.T.W.W.W.W.W.!.W.!.Q.Q.!.W.W.W.W.W.!.oXW.!.W.W.W.W.T.W.W.W.W.W..XW..XW.W.W.W.!..XW.!.W.W.oXW.W..XW.W.Q.!.W..X(.(.(.'.'.'.'.'.'._.'.'.v.l.c.c.k.z.x.z.x.x.x.k.z.c.k.x.c.k.n.n.k.c.c.k.c.x.x.k.z.k.x.z.z.z.c.j.j.z.c.k.k.c.z.k.x.z.z.z.c.x.z.k.k.c.k.k.x.z.k.z.c.z.k.c.x.x.z.x.k.z.z.z.z.k.z.z.z.z.z.z.z.z.z.j.j.j.z.j.j.c.c.j.j.c.k.z.k.j.c.j.z.k.z.k.c.j.j.z.z.k.z.z.c.z.x.x.x.z.k.k.k.c.k.k.k.k.c.k.k.c.z.z.c.k.j.z.c.k.j.c.k.x.x.z.z.z.z.z.z.k.k.k.k.k.c.k.k.j.j.j.j.j.j.j.j.j.k.z.c.k.k.j.z.c.z.c.z.l.z.z.j.j.j.].z.j.z.z.j.j.z.z.z.z.z.z.z.l.j.j.j.z.j.z.z.j.c.j.z.z.j.j.z.z.z.j.z.j.z.v.n.n.j.j.j.v.j.j.].j.j.j.x.k.z.k.z.z.j.z.z.j.z.j.j.j.z.z.z.z.z.j.z.k.z.k.z.j.z.z.j.z.z.j.z.j.z.z.j.j.l.[.^.[.[._._.v._._.[.[._._.`./.T.T.T.T.W.T.E.T.T.T./.T.T.T.T.T.E.T.T.T.!.W.!.T.T.T.T.T.!.W.W.W.W.!.W.W.!.!.E.W.W.W.T.T.W.W.T./.W.W.T.W..XW./.W..XT..XT.W.W.W.W.W.Q.Q.!.W.W.W.W.W.W.W.W.!.T.!.E.!.E.!.R.b.c.k.c.c.k.z.c.z.c.z.c.l.l.z.{.z.z.z.k.c.x.x.z.x.x.k.k.x.x.k.c.k.z.x.c.x.z.x.c.k.x.x.k.x.k.x.c.z.k.k.z.k.c.k.x.x.c.k.x.x.x.x.x.c.k.k.}.n.n.c.n.c.n.n.c.n.c.x.x.k.x.x.x.x.x.",
"2 * 2 2 2 * 2 2 3 7 x 3 3 - F.:Xx.x.n.}.x.n.c.n.x.}.x.x.x.x.}.n.x.x.k.k.c.n.k.n.c.>XJ.pXpXqXpXqXpXpXyXqXpXqXqXbXP.L.L.L.L.L.L.L.L.L.L.L.L.L.XX}.}.x.x.x.}.k.k.n.n.x.}.x.x.x.n.k.k.c.c.n.x.x.n.z.n.{.}.(.T.T.T..X/.E..X.X.X.XT..X.XW.T.W.W.T.T.T.W.W.W.W.W..X!.!.!.W.!.W.W.!.!.W.!.Q.W.W.W.W.W.T.W.W.W.W.W.W..XW..XW.W.W.W.W.!.W.W.oXW.oXW.!..XW.W..XW.!.'.'.).'.'.'.'.^.).^.^._._.c.x.x.c.k.c.z.x.c.k.z.x.x.x.k.n.k.k.c.c.k.k.k.}.k.k.k.k.k.k.c.j.c.z.j.k.z.k.k.x.x.z.k.c.x.x.k.k.k.x.x.k.z.z.x.x.x.k.z.z.k.j.z.k.k.k.c.k.z.k.c.z.j.c.c.z.{.z.z.z.z.l.j.j.z.j.z.z.j.k.j.j.j.j.j.z.c.j.j.j.j.c.j.j.j.z.c.j.j.c.k.z.x.k.k.k.x.x.c.x.k.k.k.j.j.z.k.z.k.k.x.k.k.z.j.k.z.j.z.z.x.k.z.z.z.z.z.z.z.z.k.c.k.k.k.j.j.j.j.j.c.j.j.c.j.c.j.j.j.j.k.k.k.j.z.z.z.z.l.j.j.j.z.j.z.j.z.j.z.j.j.z.z.z.z.z.z.j.z.z.k.z.j.j.z.j.j.j.z.z.z.j.z.j.z.j.z.j.n.].j.j.j.j.n.j.j.n.n.j.j.x.z.k.k.z.z.z.j.j.z.j.j.j.j.z.z.z.z.z.j.j.k.x.c.z.j.j.z.z.z.z.j.j.z.z.j.z.z.l.].[.[._._.[._._.[.^.[.[.^.'.)./.T./.T./.T.T.T.T.Y.E.T.T./.T.T.T.T.T.W.W.W.W.T.W.T.W.W.W.W.W.W.W.W.W.W.T.W.!.E.!.W.W.T.E.T.W.W.W./.E./.W.T.E.T.E..XW./..XQ.W.W.W.W..X.XQ.W.W.!.W.W.W.W.W.E.E.!.E.!.E.E.!.c.c.c.k.c.[.z.[.z.z.l.z.l.z.z.z.z.z.k.k.k.x.k.x.x.x.c.x.k.x.x.x.x.k.k.k.x.k.x.z.x.k.c.x.z.k.z.c.x.x.x.k.x.x.k.k.x.x.x.k.x.x.x.k.x.k.n.k.c.c.k.k.k.k.k.c.n.x.x.c.x.k.x.x.x.",
"2 2 2 2 2 2 2 3 x 7 * 3 5 - XXz.n.x.n.c.k.k.k.n.x.x.x.x.k.k.k.k.x.c.k.c.k.k.c.k.j.,XbXqXpXpXpXpXpXpXpXpXpXpXqXJ.L.S.L.L.L.L.L.bXL.L.L.L.L.L..X}.x.x.n.n.x.x.c.n.n.x.x.}.x.x.x.x.n.n.n.n.x.n.n.x.z.z.{.)./.E.T..XT..XW.W..X.XT.W.W.W.T.T.T.!.W.!.!.W.W..X!..X!.oXW.W.W.W.W.W.W.Q.W.Q.W.!.E.W.W.W.W.W.W.W..XW..X.X!..XQ.!.!.Q.W..X!.!.W.oX!.!.W.W.W.Q.W..XoX'.'.'.'.'.'.'.'.'.^.'._.[.}.c.c.k.k.x.z.x.x.k.x.k.z.x.k.c.n.c.k.k.k.k.k.x.k.c.c.z.z.z.j.j.c.z.x.x.x.x.x.k.x.k.k.x.x.x.k.k.c.k.x.c.x.k.k.x.x.c.c.j.z.k.j.k.k.c.c.z.c.z.c.j.z.k.x.z.z.z.z.l.j.z.z.j.j.z.z.j.j.j.c.j.z.c.c.j.z.z.c.j.z.c.k.j.j.k.c.k.z.c.k.k.k.c.x.c.k.x.x.z.j.j.k.z.j.j.c.k.k.x.k.x.j.z.k.z.z.j.c.z.x.z.z.z.z.z.z.z.z.c.k.k.c.k.j.k.j.j.j.j.j.j.k.z.z.c.j.k.z.j.z.k.z.z.z.z.z.z.j.l.z.j.z.j.z.j.j.j.z.z.n.z.z.z.z.z.z.j.j.c.j.z.z.z.j.j.z.z.z.j.z.z.z.z.z.j.j.j.j.j.j.j.j.j.j.j.z.z.j.j.x.k.x.j.z.z.z.j.j.j.j.j.z.j.z.z.z.z.z.z.z.x.k.x.j.z.z.j.z.z.z.z.j.z.z.j.z.z.l.[.^.[.[._.[.^.[.^._.^.[.^.`.(.T.T.W.W.W.T.T.T.T.T.T.T.Y.T.W././.W.T.T.W.T.W.T.T.W.W.W.T.T.W.T.T.W.W.W.!.T.E.E.W.W.(.W.E.T.W..XW.E.T..XT.T.T.T.W.W.W.E..XW.Q.W.W.W.W.Q.W.W.W.W.W.T.T.E.!.E.!.E.!.E.T.E.R.c.z.l.c.z.[.z.c.k.{.l.l.z.c.}.z.z.c.k.x.k.x.x.k.x.k.x.z.x.k.z.x.c.x.k.x.k.z.k.k.x.x.z.z.x.z.z.k.x.x.k.x.x.x.c.x.k.k.k.c.x.x.x.x.x.x.x.x.x.k.k.k.n.n.c.n.n.x.k.k.x.x.k.x.x.",
"2 2 2 2 2 2 2 2 7 x 6 6 3 O F.x.n.x.}.k.n.k.n.n.x.k.k.k.k.k.}.k.x.k.x.x.n.k.k.k.j.<X9XqXqXqXpXpXqXpXqXpXpXpXyXbXP.L.L.L.L.L.p.#XL.L.L.@XL.#XXX|.x.x.x.x.x.k.x.n.}.x.x.x.n.x.n.}.c.c.n.n.x.x.}.x.z.z.}.~.T.T.T.T..XT.T.W.E..XT.T.T.W..XW.!.T.T.!.W.!.!.!..XW.!.Q.!.!.Q.oXoXW.oXoXW.!.!.W.!.W.W.E.!.W.W.W.W..XW.E.W.W.W.W.W.oX.X.XoXQ.!.W.Q..X.X.XoXoXoXoX'.'.oX'.'.).'.'.'.'.~.'.^._.z.x.x.x.x.c.z.z.c.k.k.{.z.z.n.c.k.k.n.n.c.n.k.x.k.}.j.z.z.z.z.z.j.j.x.k.x.x.c.z.k.z.z.k.k.c.c.z.z.x.k.z.x.k.c.k.z.z.j.j.j.c.c.z.k.j.k.x.z.z.z.k.z.z.c.z.k.c.z.z.z.j.z.c.c.k.j.c.l.j.j.j.k.k.k.k.k.k.c.k.k.j.j.c.j.c.z.k.k.k.x.x.z.z.x.k.k.z.c.z.k.c.j.z.c.k.x.z.z.z.z.z.n.z.z.z.z.z.z.z.z.k.k.k.k.k.k.c.z.k.c.k.k.j.k.k.j.j.j.j.k.j.c.j.z.z.c.k.k.z.j.c.z.c.].z.z.z.z.z.z.j.z.z.z.z.l.j.j.z.z.z.z.z.z.z.z.z.z.j.z.j.j.z.l.j.j.z.z.z.z.z.z.z.z.j.j.n.j.j.j.j.j.j.n.j.z.z.z.z.x.z.z.z.z.z.j.c.z.z.z.l.j.z.z.z.z.z.z.z.z.z.z.z.z.z.z.z.j.z.j.z.z.z.j.z.z.z.l.l.[.[.[.[.[.[._.[._.`.[.`.`.oX/.T.W.W..XW.W.W.E.W..X.X.XE.W.W.W.W.W.W.W.W.T.W.W.W.W.W.W.W.W.W.W.W.W.W.E.W.!.!.E.!.E.E..XE.E.E.E.T.T.E.E./.W..XW.(..X.X.X/..XQ..X.XW.W.W.W.!.W.W.W.T.!.T.W.E.!.E.E.!.R.!.v.l.j.[.z.z.c.x.c.l.j.l.z.z.z.x.z.z.z.x.x.c.k.z.x.x.c.k.x.x.x.k.x.z.z.x.c.k.z.c.x.x.k.x.k.k.c.k.x.x.x.x.x.x.x.x.x.x.x.x.k.x.x.x.x.n.x.x.x.n.n.c.c.k.k.c.k.x.x.x.x.x.n.x.x.",
"2 2 2 2 2 2 6 2 2 2 2 6 4 & F.:X}.n.n.n.k.n.n.n.x.z.n.n.k.n.n.k.k.k.k.k.x.k.k.k.j.OXbXpXpXpXpXpXpXpXpXpXpXpXqXbXL.S.L.L.L.#XL.L.L.L.L.L.#XL./. X}.x.c.}.x.}.x.x.x.x.c.x.c.x.x.c.}.n.x.x.x.x.:Xx.}.x.}.^./.T..XT.T.T.E./.W.W.W.!.!.W.!.W.oXW.!.!.W.!.!.!.W.!.W.W.!.!.W.oX!.W.T.!.W.W.!.!.W.W.!.!.W.W.!.!.W.W.T..X!.!.!.!.W.!..X!.oXQ.!.oXW.W.E.!.!.!.(.oXoX'.XX'.'.'.'.'.'.'.'.(.'.[.c.k.k.c.k.x.x.c.c.c.x.x.x.x.n.c.n.n.n.c.n.k.k.k.x.k.x.c.z.z.z.z.z.z.z.k.x.x.x.z.x.x.k.c.k.x.x.z.z.k.k.z.z.c.j.k.z.z.j.z.j.c.j.z.j.c.z.c.z.c.c.k.c.z.z.z.k.z.z.j.z.j.z.z.k.j.j.j.z.c.c.k.j.c.k.z.x.c.x.c.z.j.c.z.j.c.c.z.z.j.c.j.c.j.x.k.x.z.z.c.j.j.z.k.c.z.z.z.z.x.j.z.z.z.k.z.z.z.z.z.z.k.k.c.k.x.x.z.z.c.k.k.k.k.k.j.j.j.j.j.j.c.j.j.k.k.k.x.z.c.j.z.k.x.n.z.z.z.j.z.z.z.j.j.j.j.z.j.z.j.j.z.z.z.j.z.z.j.j.z.j.z.z.j.j.j.j.z.z.z.z.j.z.z.j.z.v.n.n.n.j.j.j.z.z.z.z.j.n.z.z.z.z.z.k.c.x.z.z.c.j.c.j.j.j.l.n.z.x.z.z.z.z.z.j.z.z.z.z.z.z.j.z.z.z.j.j.j.z.^.`. X_. X_.`.]._.`. X`.`.'./..XW.W.T.W.T.T.T.W.W.W.W.W.W.W.W.T.W.W.W.W.W.T.T.T.E.Y.E.W.T.T.E.T.T.T.E.E.E.E.E.E.E.R.E.E.E.W.E.E.W.Y.E.W.W.T.E./.W.E.T.W.E.W.W.E.W.W..X.X!.T.T.!.T.!.E.T.!.E.!.!.!.!.R.'.[.z.z.l.l.c.c.c.c.c.c.c.c.c.z.x.k.z.k.c.k.x.k.c.x.x.k.x.x.k.x.x.x.x.c.z.x.x.c.c.k.z.k.x.c.k.c.k.x.x.x.x.x.x.x.x.x.x.k.k.x.x.x.x.x.x.n.x.x.k.n.n.x.k.c.x.x.n.c.k.k.k.x.x.x.",
"6 2 6 2 2 2 2 6 7 2 6 x 9 & I.2X*X>X<X,X|.|.<X<X+X|.+X,X}.c.k.k.x.x.k.z.x.x.x.x.z.OXK.9X9X9XeX9X9X9X9XeX9XyX9XJ.L.A.A.A.L.p.E.E.A.A.E.T.A.E.Y.}.}.}.}.}.c.}.c.}.x.c.}.c.}. X X}. X}. X}. X X X X X X X)..X.X.X.X.XW..X.XW.!.W.W..XoX%X%X%X%X@X%X%X%X@X%X%X#X@X%X@X@X%X%X%X%X@XXX@X@X@X@X@X@X@X@X@XQ.@X@X#X@X@X%X@X@X@X%X%X%X%X%X%X%X@X@X@X%X&X@X@X%X%XoX'.'.oX'.(.(.oX(.(.oX'.'.(. X Xc.}.}.}.}.}.}.c.}. X X}.c.k.k.c.k.k.n.c.c.x.c.x.x.x.k.x.z.z.z.z.z.c.k.x.x.k.x.c.k.x.x.x.x.k.z.c.x.k.c.z.k.c.c.j.j.c.k.j.j.c.j.j.j.j.k.z.z.z.z.z.z.c.z.k.k.z.z.j.z.j.c.c.j.c.k.k.j.j.k.z.j.x.k.x.k.k.k.z.c.j.k.k.j.x.z.j.c.z.z.z.j.x.x.z.c.z.k.c.k.z.c.z.j.k.z.z.z.n.z.j.z.z.z.z.z.z.z.z.k.x.x.z.k.k.c.z.k.c.k.x.c.j.j.j.j.j.k.k.k.c.k.c.k.k.x.k.z.z.z.k.k.j.z.z.z.j.j.j.z.j.j.j.l.z.z.j.z.z.z.z.z.n.z.z.j.j.l.z.j.j.j.z.j.z.z.z.n.z.z.j.j.v.j.z.z.v.j.n.j.z.z.z.n.z.z.z.z.z.z.z.z.x.x.k.k.z.j.z.z.z.z.j.j.j.z.z.z.k.z.z.x.z.j.j.z.j.z.z.n.z.z.j.j.j.j.c.v.`.`.`.'.`.`.`.`.`.'.'.`.+X%X%X%X@X@XQ.XXQ.@X@X#X@X@X#X@X#X%X#X#X@X%X#X#X#XXXQ.Q.XXQ.Q.Q.Q.Q.Q.Q.E.Q.Q.Q.E.Q.Q.E.Q.Q.E.Q.Q.Q.XXXX#XXXQ.XX@X@X@X@X@X%X@X@X@X@XQ.XXQ.oX@XQ.E.T.E.E.T.T.!.T.T.E.T.T.!.R.~.[.{. X X}. Xl. X X X_. Xl.[.z.x.z.z.k.z.x.z.x.k.x.x.x.x.x.x.c.z.k.k.k.x.k.k.z.z.x.k.x.k.x.x.x.x.x.x.x.x.x.x.x.x.x.x.k.k.x.x.x.x.x.x.x.x.x.c.x.x.x.k.k.k.x.k.k.x.x.k.x.x.n.",
"2 2 2 2 2 2 2 2 2 3 2 3 9 5 I.uXI.uXI.I.uXI.uXI.uXuXI.I.%X}.k.n.x.k.k.c.x.x.k.k.n.z.OXF.$XI.<XF.<X<XF.$XI.$X$XOX`. X`._.!.'._._.!.'.-X-XoX`. Xc.c.c.c.c.}.c.c.}.c.{.}.c. X_.R.'.!.T.R.~.(.~.~.R.~.R.Y./.T..XE./.E.T.T.W.W.W.T.W.%Xr.P L P D S b b b b N A A b b b b b b b b b S b b A b b b A b b A b A A b S b b A S b b b A A b A A A F b S A S F A A.T.T.(.(.(.!.T.W.T.(.W.W..X~.~.'.~.~.'.~.'.~.v.~._.^.^._.k.c.k.}.n.c.n.k.x.k.c.x.x.x.k.k.z.z.x.x.x.k.x.k.k.x.x.x.x.x.k.x.k.k.x.z.x.x.x.c.k.j.c.z.k.c.k.c.j.k.j.j.j.c.k.z.z.x.k.k.x.x.k.x.k.x.k.k.j.k.z.j.x.k.k.k.j.c.z.c.x.k.x.k.k.z.z.z.k.x.k.k.x.k.z.x.x.x.k.k.c.k.x.x.k.x.k.k.k.z.c.z.k.j.z.z.z.z.z.j.z.z.z.z.z.k.k.z.z.z.x.c.z.k.k.z.c.z.k.z.j.k.k.k.k.k.k.j.j.z.z.z.z.x.k.z.j.z.z.z.z.z.z.j.v.n.z.j.j.z.j.j.j.z.n.z.j.z.z.z.z.z.z.j.j.j.j.z.z.z.j.z.z.j.z.z.z.z.z.z.n.j.z.j.n.j.j.n.z.z.j.j.z.z.j.z.z.j.c.z.z.x.k.c.z.k.z.j.j.z.j.j.j.z.j.z.z.z.z.z.z.z.z.z.n.z.z.z.z.j.z.z.j.z.].D./.T.R.R.R.Y./.T.Y.Y.R.T..XY L A L A Z Z b S L A Z S A A S A A S S S A A A A L L A L L L L L L L L L P L P P L L P L L L L L L L A L L L G L A P P P L G A A A L P P P e.p.oXE.!.T.T.T.T.T.T.T.T.T.T.~.v.^.~.~.~.b.v.~.b._.!.b.~.v.x.k.k.x.x.k.k.z.k.x.x.x.k.x.x.x.k.x.x.x.x.x.x.k.k.c.x.x.c.k.x.k.x.x.x.c.x.x.x.x.x.x.x.k.x.x.x.x.x.x.x.x.x.x.x.n.c.}.k.x.n.}.k.}.n.k.k.x.k.x.n.",
"2 2 2 6 6 2 6 2 3 2 2 3 2 9 yXlXlXlXvXvXlXlXvXkXlXyXlXlX#X Xk.k.}.x.k.k.x.z.x.k.j.n.n.z.:X:X:Xn.:X:X{.n.n.{.:X{.c.}.}. X[._. X X_._.c.c. X X}.c.c.}.}.}.c.}.c.}.z.}. Xc.}._.T.T.!.T.!.T.T.(.T.Y.W.W.W.E.T..XW.W.T.W.W.W.W.!.T.W.@XP : e q 9 - + 3 0 7 0 + = 3 0 7 b q q q p q 9 n p n 7 n p q n q q p n q q q r 7 b 0 7 p n 7 7 q q q q p n 7 7 q q & A..XoXT.oXW.!.(.!.!.(.!..X.X(.(.oX!.!.T.(.'.!.(.(.T.(.~._.}.n.k.k.k.k.c.k.x.x.x.x.k.x.k.k.z.z.x.x.x.c.x.x.c.x.k.x.k.x.k.c.c.x.x.k.z.k.k.z.c.z.z.k.k.k.z.j.c.j.c.j.z.k.k.c.c.x.k.c.k.c.x.z.x.k.c.x.j.c.k.c.x.z.k.c.z.z.z.z.k.z.c.x.k.c.z.k.z.x.k.c.x.k.c.k.x.k.c.k.z.k.x.z.z.x.z.k.k.k.z.z.k.z.z.z.z.z.z.n.j.z.z.z.z.z.z.j.c.z.x.k.c.k.k.z.j.z.k.c.j.j.k.k.k.k.c.j.c.k.j.j.z.k.k.c.z.z.j.z.z.z.z.z.z.z.j.z.z.z.j.z.z.z.j.z.z.z.j.n.z.z.z.n.z.z.z.z.j.j.z.j.z.z.j.z.j.n.z.z.n.j.n.j.j.j.n.v.z.z.z.z.z.z.n.j.z.z.z.z.x.k.z.k.z.z.z.z.z.j.z.j.j.z.z.z.z.z.z.z.j.n.z.z.z.j.z.z.j.z.z.z.j.l.{.V.E.E.E.Y.W.E.E.W.E.E.E.Q.Q.A n z h f f q z z p f r w q 9 r q q 5 q g p q q q r f r r q r p r q q p q r r p q p p f r f q r w 9 9 q 9 5 9 u 9 2 4 3 q 0 q r r 9 0 0 q p 0 a.@X!.E.T.T.T.T.T.T.T.T.T.E.T.T.T./.T.(.!.!.!.!.R.!.T.!.b.}.z.z.x.c.x.z.k.c.k.x.x.x.c.k.x.k.x.x.x.x.k.c.z.x.x.k.z.x.k.z.x.x.x.k.k.x.x.k.k.x.x.x.x.x.k.x.x.x.x.x.x.x.x.x.k.n.c.k.k.c.k.k.k.k.}.n.k.}.x.x.",
"6 2 6 2 2 4 2 6 2 7 2 2 @ 2 fXdXuXdXkXdXdXkXkXkXvXkXvXuXuX<Xn.n.x.x.x.k.x.k.k.k.n.j.j.n.n.x.n.k.z.z.j.j.j.j.j.z.l.l.l.l.[.[. X[.c._.c._. Xc.}.k.}.}.}.c.c.c.}.c.n.}.}.c.}.'.T.W.E.E.!.E.T.!.T.T.W.W.T.W.W.W.W.E.W..XE..XT.!.T.Q.@XP - 3 9 9 6 3 3 3 6 x x x 7 + w 9 a a f 9 u u u u u p u u p p p p p p p p i p p 6 p p p u 6 9 9 9 9 9 7 7 u 9 9 9 0 L.W..X!.W.W.!.W.W.Q.!.!.W.oX.X!.!.oX.X!.!.!.oXoX!.!..X(._.x.k.x.x.c.n.k.n.x.x.x.z.x.z.z.z.z.j.z.z.k.k.x.z.k.x.x.x.x.x.x.x.x.x.x.x.x.z.x.k.k.k.z.k.k.z.z.k.k.k.c.z.z.x.k.z.z.k.x.x.k.x.z.x.c.k.k.x.c.z.j.k.k.z.k.z.j.j.c.j.k.c.j.k.z.c.c.k.x.x.z.z.k.k.k.c.k.c.k.k.k.x.k.k.x.c.x.k.c.x.c.z.k.z.z.z.j.x.z.z.x.z.z.z.z.z.z.x.x.k.x.k.z.k.k.z.k.z.j.l.z.j.j.z.x.k.k.j.j.z.x.k.k.c.x.j.k.k.k.x.j.z.z.z.j.z.z.j.j.z.z.j.z.z.z.n.n.j.z.z.z.z.z.z.z.z.j.z.j.j.j.j.z.j.z.j.z.n.j.z.z.z.j.n.n.z.z.z.z.z.z.z.z.z.n.j.z.z.c.z.z.z.k.k.z.z.z.z.z.z.j.j.z.z.z.z.z.n.j.j.z.z.z.z.z.n.z.z.j.z.z.z.c.k.}.b.E.Q.E.E.E.E.E.E.E.E.E.E.#Xn z u p u f f j p p u f u a a s u s a u a a a s f s a s s j p f s j f p j j j p j p p s s p f j j j f j j s j p s i 9 u 9 u u u p p p j p p z a.L.!.!.T.T.T.!.!.R.R.T.T.T.T.R.T.T.!.T.T.W.!.T.!.T.E.T.). Xj.j.k.k.k.z.z.x.x.x.x.x.c.x.z.k.x.x.k.x.x.x.k.z.k.c.z.x.x.x.k.x.x.z.c.z.z.k.x.x.x.x.x.x.k.x.x.x.x.x.n.c.n.x.c.n.k.c.k.}.k.x.x.x.k.}.x.x.n.n.",
"2 6 6 2 6 2 2 2 2 2 2 2 2 1 yXkXhXkXdXkXkXvXyXkXkXkXdXlXI.<Xn.n.x.x.x.k.x.x.x.k.j.n.x.x.x.j.k.z.z.z.j.z.n.x.x.}.[.}._.l.c.[.c.c. Xc. X Xc.}.c.c.}.c.c.}.}.}.}.}.c.}.c.}.}.`.T.W.!.E.!.E.E.E.T.E.T.W.T.T.E.W.W.W.W.E.T.W.T.T.T.T.XXP 0 2 4 3 3 3 7 3 7 6 9 7 8 2 9 9 f 9 9 a a u u u u p p p u u p p p p p p p p p p p p 7 p 7 9 9 9 9 9 7 7 7 u 9 9 + L.W.W.!..X!.W..X!.W.!.W.!..XW.!.oX!.W.!.oX!..XoXW.(..X'.[.x.x.x.x.n.n.c.n.x.x.x.k.x.k.x.k.z.x.k.x.z.x.k.x.x.c.k.x.c.x.x.x.x.x.x.x.x.x.x.k.z.z.z.z.k.z.k.z.z.z.z.z.z.k.c.z.z.z.x.k.z.z.z.c.j.z.k.x.z.k.c.j.z.c.z.c.c.k.z.k.z.z.k.k.x.k.z.j.c.z.z.z.z.z.k.z.z.k.z.z.z.c.c.x.x.k.k.z.k.z.k.k.x.z.z.z.z.z.z.z.z.j.z.z.k.k.x.k.c.k.z.c.z.z.z.z.z.k.j.j.j.j.z.j.j.k.x.z.z.k.z.x.z.z.z.z.z.z.z.z.n.z.z.j.j.z.j.n.z.z.j.z.z.j.z.z.z.z.z.z.j.j.j.z.z.z.z.z.j.n.j.z.z.z.z.z.z.z.z.j.z.z.z.z.j.j.z.z.n.j.z.j.z.z.j.j.k.z.z.z.z.z.z.z.z.z.z.j.z.z.z.z.z.z.n.z.z.z.z.z.z.z.n.z.z.z.z.z.z.z.j.j.k.k.[.R.E.E.E.E.E.E.E.E.E.E.E.E.@Xb z p p s f u p s p s a u a a j p p f a a g a f u u p p f p j p f p j z p p j p j j p f f j f s j j f j j f f f f 9 u u u 8 u u u i 9 9 p p q a.E.E.!.T.R.T.T.T.T.!.T.T.T.T.T.T.!.T.!.T.!.T.W.T.W.W.T.~.[.j.z.x.c.z.c.x.k.c.x.x.z.k.k.x.x.x.x.x.k.x.k.c.x.x.x.x.x.k.k.k.c.k.x.k.z.x.k.k.x.x.x.x.x.x.x.x.x.x.}.c.k.n.k.n.k.c.n.k.k.k.k.x.x.k.k.x.x.x.x.",
"2 6 2 2 4 2 2 2 2 2 2 2 2 @ yXlXkXkXkXkXkXdXkXkXkXkXkXlXI.].j.n.x.x.x.x.x.x.x.x.k.n.n.z.x.x.n.z.z.z.n.z.x.z.x.c.c.[.c.[.c.c.c.c.c. X Xc. Xc.c.c.}.c.}. X}.}.c.}.}.c.c.}.}._.!.T.!.E.!.!.T.E.E.T.W.T.T.T.W.W.E.T.W.W.W.W.E.T.T.T.Q.L = 2 2 2 2 3 3 6 3 6 9 6 6 x 9 f f 9 f 9 a u u u p s p p p p p p p p 6 p u u p p p 6 p 7 7 7 9 9 9 6 u 7 7 u u 7 - L.W.!.W..X!.W.W.!.W..X!..X!.W..X.X.X.X.X.XoX.X(.W.(..X(. Xx.x.x.x.k.c.}.c.x.x.x.x.x.z.c.k.j.x.k.x.z.k.x.x.x.k.k.x.k.x.x.x.x.x.x.x.k.x.x.c.z.x.z.c.k.x.k.x.j.k.k.z.z.z.c.z.c.z.k.k.z.x.z.z.z.z.z.x.k.x.c.z.z.k.c.z.c.z.k.k.c.z.z.z.x.k.z.z.z.z.z.j.j.c.c.z.c.j.j.c.k.z.k.x.x.z.x.z.z.z.x.z.x.z.x.z.z.j.n.z.k.z.k.k.x.k.x.k.x.x.c.z.c.z.z.x.z.z.c.j.j.j.j.x.k.k.k.z.z.x.z.z.x.z.z.z.z.z.z.z.z.z.z.j.z.z.z.z.z.n.j.z.z.j.z.z.z.z.z.j.z.z.j.z.z.n.z.z.z.z.z.z.z.z.z.n.z.z.z.j.z.j.z.z.z.z.z.z.z.z.z.n.z.z.j.z.x.x.k.c.z.j.z.z.z.n.z.z.j.z.z.n.j.z.j.z.z.z.n.z.z.z.j.z.z.z.n.z.z.z.z.j.j.z. XR.E.E.E.E.E.E.E.E.E.E.E.Y.%Xn n p p f p f f u p f a u a a p f p j f p a a p p f p p f f s j p f p p p j s f p p j f j f s f s f s s f j g f j i 9 i u u u u u 9 u u u q 3 e.Q.T.T.!.R.R.!.T.R.R.!.T.R.T.!.W.T.T.W.!.T.W.W.W.W.T.T.~. Xz.z.k.z.z.k.k.x.k.x.x.k.x.k.x.k.x.x.x.c.x.k.z.k.z.k.c.k.x.c.x.z.x.c.z.x.c.k.x.x.x.x.x.x.x.x.n.k.k.c.n.k.c.}.c.k.k.n.k.}.k.k.k.k.}.k.x.n.x.x.",
"6 2 6 2 2 2 2 2 2 * 2 2 2 4 lXvXkXkXhXuXdXvXkXkXkXkXkXlXuX|.j.j.x.x.x.z.x.x.x.k.z.j.z.z.z.n.x.z.n.n.z.z.x.z.}.x.}.[.c.[.c. X[. Xc.c.c.c. Xc.c.c.}.c.c.}.c.c.}.}.c.}.}.}. X_.!.!.E.E.E.!.E.!.T.E.W.W.W.T.W.W.W.W.W.W.W.E.E.W.T.T.Q.A * 7 2 7 3 3 3 6 7 7 2 2 9 6 9 f u a a a a a u u p p 9 u u p p p p p p u u u p p p p p p i 7 8 9 9 7 9 9 8 9 u 8 & L.E.W.W.!.W.!.W.W..X.XW..X.X.X!..XW.!..X!.W.!.(.T..X.X(.[.x.x.x.x.n.k.n.k.x.k.x.k.c.k.k.z.z.x.k.x.k.c.x.x.x.k.k.c.x.k.k.x.x.x.x.k.c.x.z.x.z.z.z.j.x.z.x.j.z.z.z.z.z.k.k.z.k.j.k.c.z.z.z.z.z.z.z.x.k.x.z.z.z.k.k.z.z.c.k.x.x.k.k.c.z.c.z.z.z.j.j.z.z.k.z.j.k.j.z.z.c.z.k.k.k.x.c.k.c.c.x.k.j.n.j.z.z.x.z.j.z.j.c.k.x.x.c.z.k.z.k.z.k.z.z.z.z.z.j.l.c.z.k.j.k.j.j.z.z.z.z.z.z.z.x.z.z.z.x.z.z.z.z.z.j.z.z.z.z.z.z.z.z.j.j.j.j.z.z.z.j.z.z.z.z.z.z.z.z.j.z.z.z.j.z.z.z.z.j.z.z.n.z.z.z.j.j.z.z.j.z.z.z.z.z.z.k.x.x.z.j.z.z.z.j.j.j.z.z.z.z.z.n.z.z.z.z.j.z.j.n.z.z.j.z.z.z.z.z.z.z.j.k.z. XR.C.E.E.E.E.E.E.E.E.E.E.E.Q.b p p p p p p s f p f a a u a s f f f f s f a p s j f p f f p s f p j j p p p j j p f f f j g j j f j s f s a s j w a 9 u 9 u u u u u u 9 q 3 e.E.T.T.T.!.T.!.T.!.T.!.R.!.T.!.W.W.T.!.W.W.W.W.!.T.T.!.~.}.z.z.z.c.z.k.x.z.x.k.k.c.x.x.x.x.c.k.x.k.x.x.k.x.x.x.x.k.x.x.x.k.x.k.x.k.x.x.x.x.x.x.x.x.n.x.x.x.k.k.k.n.k.n.n.n.c.n.k.}.k.}.k.}.k.k.x.x.x.x.",
"2 2 6 2 2 2 2 2 3 * 2 2 3 * fXkXkXkXkXdXkXkXkXyXkXkXvXlXI.<Xn.n.x.x.x.x.x.}.x.}.z.z.z.n.x.n.z.n.z.z.z.z.z.z.x.}.l.[.[. Xl.c. Xc.*Xc.c.c.c.c.c.*X}.}.c.}.}.}.c.}.x.c.}.c.c.!.E.!.!.!.E.E.E.E.!.!.W.W.E.T.!.E.T.W..XW.W.W.W.W.E.E.Q.S + 3 2 2 3 2 2 6 9 2 6 8 2 6 9 f f u u u u u u u u f p p p u p p p p p p u p i p p p p 6 u 6 9 9 8 9 7 7 u 8 9 q = L.W.W.W.W.W.W.W.W..X.X.X.X!..X.X!..X!.W..XW..X(.T.T.oX(.[.}.x.x.x.x.x.x.k.c.x.x.k.x.x.c.z.x.k.k.k.x.c.x.x.x.k.x.k.x.x.k.x.x.x.x.x.c.k.x.x.x.z.z.x.x.z.x.j.j.k.j.z.z.x.k.x.k.z.k.k.z.j.z.z.z.k.z.k.x.k.c.k.z.k.k.z.j.c.k.k.k.k.k.x.j.z.z.j.j.z.z.z.j.j.z.j.z.k.c.z.c.z.k.k.x.k.k.k.j.z.k.k.x.j.z.z.z.z.n.z.c.z.c.k.k.x.c.k.x.c.z.k.z.n.z.z.z.n.z.l.j.j.c.j.j.j.k.x.x.z.z.k.z.z.z.j.x.z.z.x.n.j.z.z.z.z.n.z.z.z.n.z.z.z.z.z.z.j.z.j.j.z.j.z.z.z.z.j.z.j.z.z.z.z.z.j.z.z.z.j.z.z.z.z.z.j.z.z.n.z.z.z.z.j.z.z.z.z.k.x.z.z.z.j.j.j.j.z.z.z.z.z.z.z.z.z.z.z.z.z.j.z.j.n.z.j.z.z.z.z.z.k.k.k.[.b.E.E.E.E.E.E.E.E.E.E.E.E.A.b g f f p p f f p j p u a p p f p p f p f f p f j p f j f s p p f s p f f s j s f f j f j s s s j s j f f s f a j a a p u u i 9 u p 9 9 u p 5 a.E.T.T.!.T.T.!.!.R.T.R.T.T.T.T.!.T.T.W.T.T.W.T.T.T.T.T.~.}.j.c.z.x.x.c.c.k.x.x.x.x.x.x.z.k.k.x.k.c.x.x.x.z.k.c.k.x.x.x.x.k.k.x.c.k.x.x.k.x.x.x.x.z.z.z.x.k.x.x.k.k.c.x.n.k.k.k.}.k.k.k.}.k.k.x.x.x.x.n.",
"6 2 2 2 2 2 2 2 2 3 3 * 2 2 fXvXfXkXkXkXkXkXkXkXkXkXkXlXuX;Xn.n.x.}.x.}.x.x.x.x.z.z.j.z.z.z.z.z.n.z.j.z.z.z.x.x.[.c.[.c. Xc.c. Xc.c.c.c.}.c.c.c.c.c.n.c.c.c.}.c.}.}.}.}.c.!.R.E.E.E.E.!.!.E.E.T.T.W.W.T.W.T.T.T.E.T.W.W.W.W.E.E.Q.b + x 2 2 2 3 2 4 6 2 2 2 6 2 q f u u u u u u u u u u u u u p p p 7 p p u u p p p p p p p 6 7 9 9 9 9 7 7 6 9 9 7 + L.Q.!.!.W.W.!.!.W.!.!..XW.W..XW.!.W.!..X.X!..X(.oX(.T.(.[.x.x.n.x.x.x.n.x.x.k.x.x.k.x.k.x.x.k.c.j.x.k.x.k.k.c.x.k.k.x.x.x.x.x.x.x.z.x.x.k.x.x.x.z.x.x.z.x.x.j.z.n.z.z.x.k.c.z.k.x.z.x.j.z.z.z.z.z.k.k.j.j.k.j.c.k.z.j.c.z.j.c.x.k.x.k.x.z.z.z.z.z.z.z.k.c.z.c.k.k.k.k.c.j.c.z.x.c.z.k.k.c.x.z.x.z.z.z.j.z.z.z.k.z.x.z.k.z.k.x.k.x.z.z.z.z.z.l.j.z.j.j.j.k.k.k.j.z.z.z.z.z.z.j.z.n.z.z.z.z.z.z.z.j.z.z.z.z.j.z.z.z.z.z.z.z.z.j.z.z.z.z.j.n.z.z.z.z.n.z.j.n.j.n.z.z.j.n.z.j.j.z.j.n.z.z.n.j.z.z.j.z.z.j.z.j.j.z.k.k.z.j.z.z.z.z.z.z.z.j.j.j.j.j.z.j.z.j.z.z.z.z.z.z.z.z.z.z.x.j.z.j.k.k. X!.V.E.E.E.Y.E.E.E.E.E.Y.E.A.b a a f s f p p p f s f f s f f f p s f f p f p s s p p f f f s f j p f p p f p p f p f f j j j a f f f s s j a j a 8 8 u u u u u 7 i u u 9 5 $.E.E.T.T.T.T.T.!.R.!.T.T.T.!.T.T.T.E.!.T.!.!.T.T.T.T.T.~.}.z.k.x.k.z.k.x.x.k.x.x.k.k.x.k.c.z.x.x.x.x.x.x.x.k.x.x.z.x.k.x.c.x.x.k.x.k.z.x.x.x.x.x.n.x.n.x.x.x.x.k.k.x.x.k.c.}.k.}.k.x.x.}.k.}.k.n.x.n.x.",
"2 2 1 2 6 2 2 2 2 2 2 3 4 1 yXvXkXhXvXdXlXdXkXkXkXkXkXlXI.|.k.n.x.x.}.x.x.x.x.x.z.x.n.z.n.z.z.n.z.z.n.n.n.j.z.{.l.[.c.c.[. X[.c.c.c.c._.c.}.c.c.c.}.}.c.}.c.c.c.}.c.}.}.c.!.T.!.E.!.E.E.E.!.!.E.T.W.E.T.T.W.E.T./.T.W.W.E.W.W.T.oXA 0 7 3 3 2 2 8 2 2 6 2 2 2 2 u f u p u u f s p u u s u p p f p p p p u p p u p p p 6 p p 6 7 9 9 9 6 7 7 7 u u 9 + L.W.W.W.W.W.W.W.W..X!.!.W.!..X.X!.W..XW.!.W.W.(.T.!.(.(.[.x.x.x.x.x.x.x.x.x.x.x.x.x.x.x.x.x.x.c.z.c.x.x.z.x.x.x.k.x.x.x.x.x.x.x.x.x.k.x.k.z.n.z.}.x.x.x.x.k.j.x.z.n.x.k.k.z.z.x.z.n.x.z.z.k.z.z.z.x.c.z.z.k.c.c.j.c.x.k.k.z.z.k.z.k.k.z.z.z.z.z.z.z.x.k.k.z.z.x.x.k.x.z.z.z.k.x.z.z.x.k.x.z.z.z.z.z.j.j.z.z.j.x.x.c.k.z.c.x.z.z.x.z.z.z.z.z.z.z.z.c.z.c.k.k.j.z.z.z.z.z.z.z.j.j.z.j.z.z.n.z.j.z.z.z.z.j.z.z.j.z.j.z.n.z.z.z.z.z.j.z.z.z.j.z.z.j.z.j.z.z.z.z.z.z.j.z.z.z.n.n.z.z.z.z.z.z.z.j.z.z.z.z.z.l.z.z.z.z.z.z.z.z.j.z.z.z.z.z.n.z.z.z.z.z.n.z.z.j.z.z.n.j.z.z.x.n.z.z.z.z.n.c.k.!.V.E.E.E.E.V.E.E.E.E.E.E.W.L.b f a f p s p s p p p u f u f f f p j s f p p p s p f j p s j p f j p s p f p p p s p g s s j g a g s f s j g s j i 9 u u u p u 6 u u u u 9 5 a.W.W.!.!.R.T.T.T.T.T.T.T.T.E.T.T.T.T.T.T.T.!.W.!.T.T.T.~. Xz.z.c.k.x.x.z.k.z.x.c.x.x.x.x.x.x.k.k.x.x.x.x.x.x.x.k.x.x.x.x.x.k.x.x.k.x.c.k.x.x.x.x.x.z.z.n.x.n.x.n.x.x.x.k.k.}.k.k.k.k.k.k.k.k.k.x.x.x.x.",
"2 2 6 6 1 6 2 2 * 3 2 3 4 2 yXkXhXuXdXvXkXkXkXkXkXdXvXvXuX].k.k.x.x.x.x.x.}.x.x.n.z.n.x.x.z.z.z.z.z.z.z.z.n.z.z.l.[.[. Xc.c.c.[.c.c.c.c.c.c.c.c.c.}.c.}.c.}.c.}.c.}.c.c.c._.E.!.E.E.E.!.E.!.E.E.E.!.!.E.W.T.T.W.W.W.T.W.Y.W.E.E.Q.b 3 2 2 3 2 2 2 9 8 2 6 6 2 2 r f u p 9 u u u u u u u p u p f p p u p u 7 u p p p p p p 7 6 7 9 9 9 9 7 7 u 6 u 9 : L..X!.W.!.!.W.W.!.W.W.W.W.!..X.XW.!..XW..XoXW..X(.(.W.T.[.x.x.x.x.x.x.n.x.x.x.k.x.k.x.x.x.x.x.z.z.k.x.x.k.x.k.x.x.c.k.x.x.x.x.x.x.x.k.x.k.z.z.z.z.z.x.z.x.n.j.x.z.j.z.z.j.z.j.z.x.j.z.j.z.z.z.z.z.x.k.c.z.k.z.z.z.z.k.z.k.z.c.x.x.x.k.z.z.z.z.x.z.z.x.k.z.k.c.k.z.k.x.z.c.k.z.x.k.c.k.x.x.j.z.n.z.z.j.z.z.k.c.k.x.k.z.k.z.k.k.k.z.z.z.z.n.z.z.x.z.z.k.k.k.j.k.z.z.x.z.z.z.z.z.z.z.z.z.z.j.z.z.z.z.j.z.z.z.z.n.z.z.z.j.j.z.z.j.z.z.z.z.z.z.z.n.z.z.z.z.z.z.z.z.z.n.z.z.z.z.j.z.z.z.z.j.n.z.z.z.z.z.z.z.z.z.z.z.j.j.n.z.j.z.z.z.z.z.z.z.z.j.z.z.z.z.n.z.z.n.z.z.z.z.z.z.z.z.z.z.j.j.c.c._.V.E.E.E.E.E.E.E.E.E.E.E.Q.#Xc f s p s p p j p p s u u a f s p f p p p f s p f p f p f p p j f p f p j f p s j p f j j g a j s s a j f a s a j u u i 9 u 6 6 u u u u 9 9 3 R Q.W.W.!.T.T.!.!.R.T.T.T.T.E.!.!.T.T.T.T.T.W.T.T.T.T.T.~. Xk.z.x.x.z.x.x.x.c.x.k.x.x.x.z.k.z.c.x.x.x.x.x.x.z.k.c.x.k.x.x.k.x.x.x.x.x.x.x.x.x.x.x.n.n.x.x.k.x.x.x.x.x.x.}.k.k.k.k.}.k.}.k.}.k.}.x.x.x.x.",
"2 6 8 1 1 2 2 2 6 2 2 2 4 4 yXkXkXhXkXkXkXkXkXkXhXkXvXuXuX<Xn.n.x.}.x.x.}.z.x.x.x.j.x.x.z.z.x.j.j.k.j.j.j.j.z.}.c.[.[.c.c.[.c.c.c.*Xc._.c.c. Xc.c.}.c.}.c.}.}.c.}.c.c.}.c. X!.!.!.E.!.E.E.E.E.!.E.W.!.E.!.W.!.Q.W.W.W.W.W.E.E.E.@XA + 3 2 2 x * 3 3 9 2 2 3 2 4 u f 9 9 f f p q u q u a f f 9 9 9 p p p p p p p p p u q p 9 7 9 9 9 9 9 9 9 9 u 9 u 0 L.!..X.X.X.X!..XoX.X!.W.W.(.W..XoX!.W..X!.!.W.W.!..X.X(.[.}.x.x.x.x.x.x.x.x.x.x.x.z.k.k.x.x.c.x.x.x.k.x.x.x.x.k.x.k.c.x.x.k.x.x.x.x.x.x.x.n.z.x.z.j.n.k.k.x.k.k.k.k.n.z.z.z.z.z.z.z.z.j.j.j.z.j.n.j.z.j.z.z.j.z.z.z.z.z.j.n.z.z.z.z.z.n.z.z.z.x.j.z.z.z.z.z.z.z.z.j.z.z.z.z.z.n.z.z.z.z.j.n.j.z.z.z.z.x.j.j.j.j.k.z.x.k.z.z.z.x.z.z.z.z.z.z.n.j.j.z.x.x.c.z.c.k.k.k.x.x.k.j.n.j.j.j.z.z.j.z.z.z.z.j.z.j.z.z.z.z.j.z.z.z.j.z.z.z.z.z.n.j.z.z.z.z.j.z.z.z.j.z.n.j.z.j.z.z.j.z.z.j.z.z.z.j.j.z.j.j.z.z.z.z.z.z.z.j.z.j.z.z.z.j.z.z.j.z.j.z.n.z.z.z.j.z.j.z.z.n.j.j.k.z.x.x.z.x.j.n.j.k.x.}.Y.E.E.E.E.E.E.E.E.E.E.E.E.L.b p p p p p p p p p p s p s f f f f f p p f p f a f a f s p f p p f f p s f f s f p j f j a s j a s f j j g s g a u u u 9 u u u u u u u u p 7 P Q.T.T.E.T.E.W.W.E.E.W.T.T.T.T.!.!.T.W.T.T.!.T.T.!.W.T.~.}.k.{.z.z.z.z.x.{.z.z.x.x.x.}.}.x.k.c.x.x.x.x.x.x.k.x.k.x.x.x.x.x.x.k.x.k.x.x.k.x.x.x.x.x.x.x.x.x.c.k.x.x.x.x.x.x.x.x.x.x.x.c.}.k.k.k.k.}.c.n.",
"6 2 6 2 6 6 2 2 2 6 2 2 4 @ yXkXkXuXkXhXkXkXkXkXkXkXhXkXI.<Xn.n.c.z.z.x.z.z.:Xx.z.n.z.n.n.x.n.z.n.j.n.n.j.z.x.x.c.[.c.[.c.c.[.c.c.c.c.c.c.c. Xc.}.c.}.c.}.c.c.}.}.}.}.c. X_.R.!.E.!.!.E.!.E.E.!.!.!.E.W.E.E.E.!.E.E.W.W.W.E.T.E.#XL = x 2 2 3 2 2 2 2 2 4 4 2 2 q 9 a a 9 u f 9 u u u q 9 p f p p p p p p p p p p u u u p 9 7 7 9 9 9 9 9 9 9 9 9 u > L.W.oXW.W.W.W..XoXoX.XoX.X.X.X.X(.T.oX.XW.W.(..XW..X.X~.[.x.x.x.x.x.x.x.k.x.x.c.x.c.x.z.x.x.k.x.x.k.x.x.k.k.c.x.z.k.x.x.k.x.c.z.x.x.k.x.x.z.z.x.z.j.j.j.k.k.k.k.n.x.x.z.z.k.z.z.x.z.z.n.z.j.z.z.z.z.z.z.j.z.j.j.z.z.j.z.z.z.z.z.z.z.j.z.j.z.z.z.z.j.z.n.j.z.z.n.j.z.z.j.n.j.z.j.z.z.z.z.z.z.z.z.z.z.z.z.n.k.k.k.k.x.k.x.z.z.z.x.z.n.z.z.z.z.z.z.z.x.x.z.x.k.z.z.x.c.k.z.k.k.x.z.z.z.z.j.z.z.z.z.z.z.j.z.z.j.z.j.z.z.z.z.z.z.j.j.n.z.z.z.z.z.j.z.n.n.z.z.z.j.z.z.j.z.z.z.z.z.z.z.n.z.z.z.z.j.z.z.n.j.z.z.j.j.z.z.j.z.j.z.z.z.z.z.z.z.z.z.z.z.z.z.n.n.z.z.n.j.x.j.z.x.x.x.z.z.n.z.z.n.j.|.R.E.E.E.E.E.E.E.E.E.E.E.E.L.n p p u u i j p p p p u u p p p f p s p s f p u f u f p f j p s f f f f p p f p f j p a j s g s g s g f s j f s a i 9 9 i 8 9 8 8 u i u 9 q 7 $.@XW.W.T.T.W.E.!.!.!.W.T.T.T.T.T.T.!.T.!.W.T.!.W.W.W.T.R.}.k.x.z.x.z.z.z.x.z.x.x.z.x.x.z.x.x.x.k.x.k.x.k.c.x.x.c.x.k.x.x.x.x.k.x.c.x.x.x.x.x.x.x.x.x.c.x.x.x.x.x.x.x.x.x.x.x.k.x.x.k.k.k.k.}.}.k.k.k.k.",
"2 4 2 2 4 2 1 6 2 2 4 2 9 1 yXsXdXkXkXkXjXkXkXkXkXkXkXuXI.<Xn.z.z.}.x.x.}.x.:Xx.n.x.z.x.n.z.x.j.j.n.k.k.n.z.x.}.c.c.c.[.[.c. Xc.c.c.c.c.c.c.c.c.c.}.c.c.n.}.c.c.x.}.c.}.}._.T.!.!.E.!.E.!.E.E.E.E.E.!.Q.!.E.!.E.E.E.!.W.E.W.E.E.@XL = x * 2 3 3 4 9 9 2 6 2 9 2 9 f p 9 f f u f u q u f p u q p p p p p p p p p u p 9 p p 7 6 u u 9 9 9 9 7 9 9 9 9 3 L.E.W.W.!.W..X.XoX!.oX!.W.oX(.T.oXoXoX!.oX.X.X.X.X.X.X/.[.c.x.x.x.x.x.x.c.x.x.k.k.z.k.c.k.x.x.x.x.x.x.x.c.k.x.k.x.x.x.x.x.x.x.k.x.x.x.x.x.z.z.n.j.j.j.j.k.k.k.k.x.n.j.z.z.z.z.z.x.j.z.z.z.z.z.z.z.z.z.z.z.z.z.j.n.z.j.z.z.z.j.j.n.z.n.z.j.z.x.x.z.z.z.z.z.z.z.z.z.z.z.z.z.z.z.z.z.n.z.z.z.z.z.n.j.j.z.z.z.k.j.k.k.z.k.x.z.k.z.x.z.z.z.z.z.z.z.z.z.z.k.k.k.z.x.c.x.x.x.x.z.j.n.z.z.z.j.z.z.z.z.z.n.z.n.j.z.z.n.j.z.z.n.j.z.z.j.z.z.z.z.z.z.n.j.z.z.j.z.z.n.z.z.z.z.j.z.z.j.z.z.j.z.j.z.j.z.z.z.z.z.j.z.z.j.z.z.j.j.z.j.z.z.j.z.z.j.n.z.z.z.j.n.z.z.j.z.z.x.z.z.j.k.z.k.x.z.z.z.j.z.k.k. XR.E.E.E.E.E.!.E.E.E.E.E.E.L.b p p p ^ p p p p p s p u u p s p f f f f f s u f a a u p p j f p p j j j s p s f s p f a g s a s g j s j s f a a u 8 u u u u i u 9 u 8 u p 7 P #XW.W.!.!.Q.E.T.T.T.T.T.T.T.W.!.T.T.T.T.T.T.W.!.T.T.T.~. Xx.k.x.c.z.z.z.x.x.x.x.x.k.x.k.z.x.x.z.x.k.c.x.k.k.x.x.z.k.x.x.x.x.x.k.x.x.k.x.x.x.x.x.k.x.k.x.c.x.k.x.x.x.x.x.x.x.x.x.x.x.x.k.x.k.k.k.}.c.n.",
"2 6 6 2 2 2 6 2 2 2 4 4 8 @ yXkXuXvXkXkXvXkXjXvXkXkXjXvXI.OX{.z.x.}.}.}.z.}.x.x.z.z.z.n.z.j.n.j.n.k.j.n.n.z.n.x.c. X[.c. X Xc.}.c._.c.*X*X Xc.}.}.}.c.c.}.c.}.}.c.}.}.}. X'.T.T.E.E.E.!.E.!.!.E.W.!.!.Q.!.Q.Q.Q.Q.W.Q.@X@XQ.@X@X#XL + 3 2 3 3 3 6 2 8 9 6 2 2 2 9 f p p u 9 9 a u u p 9 p 9 u p p 9 p 7 u u 9 p u 9 u p u u 6 6 9 9 9 u 9 7 6 u 9 7 - #X@X%X@X@X@X@X@X@X@X@X@X@XoXT.!.!.T.(.W.!.!.(..X.X(..XY. Xx.x.x.x.x.x.x.x.x.x.x.x.x.k.x.z.x.x.x.x.k.k.k.k.z.z.k.k.x.x.x.x.x.x.x.x.x.x.x.x.n.z.z.j.n.j.k.k.j.k.k.k.k.j.z.n.z.z.z.z.n.z.z.z.z.z.z.z.z.z.z.j.j.z.z.z.z.z.z.n.z.z.z.j.z.z.z.n.n.j.z.z.z.n.j.z.n.j.z.z.n.z.z.z.j.n.z.z.j.j.z.z.z.z.z.z.z.n.z.n.k.k.k.k.k.x.x.z.z.x.z.z.z.z.n.z.z.z.z.n.x.j.z.k.x.k.x.z.z.x.k.k.k.z.z.z.z.z.z.z.z.j.j.z.j.z.z.z.z.z.z.z.z.z.j.z.z.z.z.z.z.j.n.j.z.z.z.z.z.z.j.z.z.z.z.z.z.z.z.z.j.z.j.z.z.n.z.z.z.z.z.j.n.z.z.z.j.z.z.n.j.j.z.z.z.z.z.z.j.j.z.z.z.z.z.z.z.z.z.z.j.j.j.k.k.k.x.x.z.n.j.j.j.k. Xb.E.E.E.E.E.p.E.!.E.E.E.E.Q.b q p p p p p p s p p u u u s p f a f p s f u u s a u u p p s u p f p p f p p p p f p a s a a a a s a f g s a a a i u 9 i u u u 9 i 8 8 u p 7 5.=X%X%X@X@X&X@XQ.E.E.E.Y.Q.E.!.T.T.W.W.T.T.W.W.T.T.T.T.(. X X}.}.}.}.}.}.}.}.x.}.:Xx.k.z.}.x.x.x.x.x.x.x.x.c.z.k.x.x.c.x.x.x.x.x.x.x.x.x.k.x.x.x.x.k.k.x.k.x.x.x.k.x.k.k.x.x.x.x.x.k.x.k.x.k.}.k.k.n.k.",
"2 8 2 2 2 6 2 2 2 1 6 2 6 1 fXvXhXvXkXvXjXvXjXkXkXkXvXlXuX<X:Xn.x.}.c.z.{.x.x.}.{.z.x.x.x.n.k.n.k.n.k.n.x.k.x.}.[.c._._. X`._._.[._._.'.c._.c. X_._._.l._.c._.!. Xl._._. X'.!.T.!.!.!.!.W.W.W.W.Q.Q.W.p.r.a.e.e.r.r.a.$.P R P e.a.n q p q q p p 9 f f f f f q 9 k j z j j z p z f l z z j f z f j j z j j j j p j z p z z p p n h l l g l z p z j f z L $.P R P P P $.R R P P R R Q.!.(.(.W.T.W.W.W.W.oX.X.X~. Xx.x.}.z.k.x.x.x.k.x.c.k.x.k.x.x.x.k.x.k.k.x.x.x.z.j.j.k.x.x.k.x.c.k.x.k.x.k.k.n.z.z.j.j.j.j.n.k.n.j.k.k.k.j.j.j.x.j.j.j.j.z.z.x.z.z.z.z.z.z.j.j.j.z.z.z.z.z.n.z.z.z.n.z.z.j.z.z.j.z.z.z.n.j.j.j.j.z.j.z.j.j.z.z.n.j.z.z.n.z.z.j.z.n.z.z.z.n.z.z.k.k.k.x.z.x.x.z.z.x.z.j.z.n.z.j.z.z.z.x.k.c.z.k.k.x.x.x.k.z.k.k.k.j.z.z.z.z.z.z.z.z.z.z.z.z.z.n.j.z.z.z.z.j.z.j.j.z.z.z.z.z.z.z.z.z.n.j.z.n.j.z.z.z.z.z.z.z.n.z.z.j.j.z.z.z.z.z.j.z.z.n.z.z.j.z.z.z.z.z.z.j.z.n.z.z.j.z.j.z.z.z.j.z.z.n.x.n.z.n.j.z.z.z.k.k.c.x.x.x.x.c.x.z. XR.E.E.E.E.E.E.E.E.E.E.E.Q.L.b p p p p p p j p ^ p j f z j f z k k k k k k l j l k k j z j j j z j z j j k k z j j j j a a s a f g j a d a j j s g j ^ j j s s g a s j p f F F S Z b A L F b b A A A A r.W.!.T.W.W.W.T.W.T.W.W.!.T.(.`._._._.v.v.^.^._.v.^.v.v.c.k.k.x.x.x.x.c.k.z.x.x.x.z.x.c.k.z.x.x.x.x.x.x.x.x.x.x.x.x.x.x.k.x.x.x.x.k.x.x.x.c.x.k.x.x.k.x.x.x.}.x.n.x.n.k.c.n.",
"6 2 2 2 2 6 2 2 2 6 2 2 6 2 rXdXvXjXvXvXkXjXkXvXkXkXvXvXI.<Xx.x.}.x.}.c.c.c.}.c.z.z.}.x.j.z.n.j.k.j.k.j.k.k.x.}.!.!.!.!.R.R.~.!.!.!.!.T.!.!.!.!.R.R.!.!.!.b.!.R.!.!.!.R.!.T.!.T.E.E.E.E.W.W.!.E.!.W.@XP : = 7 q q x 7 n z q q q 7 p l ~ ^ n l l ` 6.~ n l l ` l n l ~ l l l l l l l l l l l h l l z l z z l l l k l l ~ 6.6.n l l l l n ~ k l z n z l n n z z z n z z r z n z n b @XoX!.!.!.W.W.W.W.!.T..X.XR.}.c.x.x.k.k.c.z.k.k.x.x.x.z.x.k.x.x.x.z.x.k.k.k.x.k.k.k.c.z.x.x.c.k.x.k.x.n.k.k.k.z.z.n.z.j.n.j.n.k.k.k.k.j.n.k.j.j.z.n.j.z.z.j.n.j.j.n.z.j.n.z.z.z.j.z.z.z.z.j.z.z.z.j.z.z.z.z.z.z.z.j.z.z.z.x.z.z.z.n.z.z.z.n.z.z.z.z.j.j.z.z.z.z.j.z.z.z.j.j.z.j.k.k.k.x.k.x.z.z.n.z.z.j.z.z.z.z.x.x.x.k.k.z.c.k.c.x.x.x.c.x.k.k.z.z.z.n.z.z.z.z.z.z.z.z.z.z.j.z.z.n.j.z.z.z.z.n.z.j.z.j.n.z.j.z.z.z.z.z.z.z.z.n.j.z.z.z.z.j.j.z.z.z.z.j.n.z.z.z.z.j.z.z.z.z.j.j.z.z.z.z.j.z.j.z.z.z.n.z.z.z.j.z.z.z.j.z.z.z.z.z.l.l.[.[.[.[.[._.[.[.l.[.l.`.T.!.E.!.E.E.E.E.!.!.E.E.Q.L.b z z ^ z 6.6.6.6.l 6.~ l ~ 6.` ` ~ ~ ~ ~ ( ( ( ( ( ` ` ( ( ` ` ( ( ( ~ ( ~ ` ( ( ~ ~ ~ m ( ( m ( ( ( ( ( m ( ( ( ( ( 6.~ ~ ~ ( ( m ) ~ ~ ~ 6.z l f h { 6.n n n n p n h y R @X!.(.T.!.W.T.W.!.T.T.!.T.W././.T.R.T.(.T./.(.~.T.(.b.}.x.k.k.x.x.x.k.x.k.x.x.k.x.x.k.x.x.x.x.x.k.c.k.k.x.k.x.x.x.x.x.x.x.x.k.x.k.k.c.k.x.x.x.x.x.x.x.x.n.x.x.x.x.c.k.n.c.",
"6 2 2 2 2 1 2 2 6 1 2 6 4 2 rXkXjXvXkXhXvXkXvXkXkXjXvXlXuX+X}.x.}.[.x.[.c.{.z.{.{.{.x.x.n.z.n.j.k.x.n.j.x.k.c. XR.E.R.!.T.T.T.T.!.T.T.!.T.T.!.R.R.T.T.R.!.!.T.T.R.!.E.T.!.W.T.T.!.E.!.W.!.Q.!.E.!.E.@XL q p p 7 p p p q p q 9 f p p 6.6.l l 6.6.l l l l l l l l n ^ ! n l l ~ l l l l l l l l l l l l ^ ~ l l l l l l l l l n l l l l l l l l k l l ^ z z j l j z l ~ l k l ~ z b @X!.oX.XW.W.!.T..XW..XW..X/. Xc.}.x.x.z.x.x.x.c.k.x.x.c.x.k.x.x.x.x.x.k.k.x.k.k.k.z.z.k.x.x.k.k.k.k.k.k.k.j.k.k.j.j.j.k.n.n.k.n.k.k.j.k.j.j.j.x.j.j.z.n.z.z.z.z.z.z.z.n.z.z.z.z.n.z.z.z.z.z.z.z.z.z.z.z.j.z.z.z.z.x.x.z.z.z.z.z.z.z.z.z.z.j.z.z.z.z.x.z.n.n.j.z.z.z.z.z.z.z.j.k.k.x.k.z.x.k.z.z.n.n.z.x.j.z.z.z.z.z.x.x.x.x.x.x.x.x.z.k.x.x.k.k.z.x.n.z.z.z.z.n.z.z.z.n.z.z.z.j.z.z.z.n.j.z.z.z.z.z.z.z.z.z.n.z.z.z.z.z.z.n.z.j.z.z.z.z.j.z.j.z.z.n.z.z.z.z.z.z.z.z.j.j.n.z.z.z.z.z.z.j.z.z.z.n.z.z.z.z.z.z.n.j.n.z.z.z.z.z.x.{.v.^.^.^.^.^.^._._.^.v.v.^.`.Y.E.E.E.E.E.E.E.Q.E.E.!.E.Q.F z 6.^ l z ^ ^ 6.z ^ l l l l ( m m ( ( ( ~ ( ( l ( ! ~ ( ( ( ( ~ ~ ( ~ ( ` ~ ~ ` ~ 6.( ( ( ( ) m ( ( ( ( ( ( ( ( m ( ~ ~ ~ ! m ( k k l ~ ~ ~ z z k z n ^ z z p n p z f r $.E.T.(.W..X!.T.T.T.T.!.T.W.W.T.(..XT.!.oX!.W.W.T.W..X(.[.}.x.x.z.x.x.z.c.k.k.x.k.x.k.x.x.k.x.x.x.x.x.k.x.x.x.x.x.x.x.x.x.x.x.x.x.x.x.k.x.x.x.x.x.x.x.x.x.x.x.x.x.x.c.n.k.c.",
"2 6 2 2 2 2 6 2 2 6 2 2 2 1 iXkXdXvXvXkXjXkXjXkXkXvXvXvXuX].z.}.x.x.{.c.z.}.}.[.x.x.x.x.z.k.j.x.n.n.z.z.x.x.x.[.R.T.T.R.T.W.T.W.T.T.T.T.T.!.!.!.T.T.T.T.T.T.T.T.T.T.W.T.W.W.W.T.E.E.!.!.W.!.!.!.Q.E.Q.A q q p p p 7 p p 9 p f u p z l 6.l 6.n ^ h l l l m l n l l ~ ~ l ^ n ^ n l l n l l l l l ^ n l l l ^ n l l l ^ n l l ^ l l l l l l n l l l l l l l l l l l ^ l ~ l ^ ^ n b Q.!.oX(.T.!.W.oXW..X.X(.W.~. Xz.x.x.x.}.x.z.x.x.}.x.x.x.z.z.z.j.z.z.z.z.z.x.x.z.z.k.z.c.x.z.x.x.z.z.z.k.x.n.j.n.j.n.j.k.j.k.k.j.k.n.x.k.z.z.z.z.n.x.x.j.z.n.z.n.z.z.z.j.z.z.z.z.z.j.j.n.z.z.j.n.j.z.z.z.n.z.z.x.j.x.x.x.z.z.j.j.z.z.j.n.z.z.z.z.z.j.z.z.z.z.z.z.j.n.j.z.z.z.n.k.x.k.x.x.x.z.x.z.j.z.z.z.n.z.z.z.z.z.x.k.z.z.k.x.x.x.z.z.z.z.z.n.z.z.z.z.z.z.z.z.z.z.z.z.z.z.z.n.z.z.z.z.z.z.j.j.z.z.n.z.z.z.z.j.n.j.z.z.z.j.z.z.z.j.n.z.n.z.z.z.z.j.z.z.z.z.z.z.z.z.z.z.z.z.z.z.j.z.j.z.z.z.z.j.z.z.j.z.j.z.z.z.z.z.z.z.x.z.z.z.^.^.).)._.).).^.~.^.^.~._.'.T.E.E.E.E.E.!.E.E.Q.!.E.!.L.n z z 6.^ 6.6.z ^ 6.^ l l l l l ( ! ( l ( ~ ( ( ( ( m ~ ( ~ ~ ( 6.~ ~ ~ ( ( ~ ( ~ ~ ~ ( ( ( ( ( ) ( ( ( ( ( ( ( ) ( l ( ~ ( ~ k ( ( l ( ~ ~ ~ l f z z z z z z z p z z z r R E.T.T..X.XT.!.!.T.!.T.T.W.W.!.W.T.W.W.T.W.W.!.T.W.T.T.[.x.z.x.k.x.x.k.x.x.x.x.z.z.z.z.z.z.x.x.x.x.x.x.x.x.x.k.x.n.x.x.x.x.x.x.x.x.x.x.x.x.x.x.x.x.x.k.x.x.x.x.x.k.k.n.n.n.",
"6 2 2 2 2 6 1 6 2 6 2 2 2 1 iXlXkXkXkXkXkXkXkXkXvXkXkXkXI.<Xn.n.}.c.c.c.{.}.}.z.z.}.z.n.n.z.z.z.z.z.z.z.x.z.x.|./.T.T.T.T.T.T.!.!.!.T.T.W.T.!.E.T.T.T.T.T.T.T.T.T.T.E.T.!.E.!.E.E.T.T.E.E.!.E.E.W.E.Q.L 7 q p p 9 f u p u 9 q f r l 6.6.l ~ l l l l l n l l l l ~ ~ ~ l n ~ l l l ^ l l n l l ~ l n ^ l l n ^ l 6.l l 6.z l ^ l l n ~ ~ l l l l ~ ~ ~ l l ^ l l l ^ l l k ~ l z c @XW.!.(.W.W.W.T..X.XT./..X~.}.x.x.x.x.c.x.x.z.x.x.x.x.z.z.z.n.z.z.z.z.j.j.z.z.z.k.z.z.k.k.x.k.j.n.j.j.j.n.z.z.j.j.j.j.k.j.j.n.k.k.x.k.k.j.n.j.z.j.z.z.z.j.x.z.z.z.z.j.n.j.z.z.z.z.z.z.z.z.z.z.z.z.j.z.n.z.z.j.k.k.x.x.x.z.z.z.z.z.z.z.z.z.n.j.z.z.z.z.n.j.z.z.z.j.z.z.j.n.z.z.j.k.k.x.x.z.x.z.z.z.z.z.n.z.z.z.z.z.z.z.x.x.x.x.j.x.x.z.z.z.z.z.x.z.z.z.{.x.z.x.z.z.z.:Xz.z.z.z.z.n.j.z.z.z.z.n.x.z.z.z.z.z.z.z.z.z.z.z.z.z.z.z.z.z.z.z.n.j.z.z.n.z.z.z.{.z.z.z.z.n.z.z.z.z.z.z.z.z.z.z.z.j.j.z.z.z.z.z.j.n.z.z.z.z.z.z.z.x.z.z.c._.^.).'._.`.).'.^._.~.^._.'.T.E.E.E.E.E.E.E.E.E.!.E.E.L.n z z 6.^ 6.^ ^ z 6.6.l l k l 6.6.~ ~ m ) l ( ! ( ( ( ( k ( ! ! ( ( ( ~ ` ( ~ ( ( ( ( ( ( ( ( ` ( ( ( ( ( m ( ( ( ( l l ( ( k ( ( ( m ! ~ l l m s k z z z z p z f g f g y R Q.T.!.!.W.T.T.T.!.!.W.T.W.W.W.!.W.W.W.T.W.!.W.T.W.T.~.[.x.x.x.x.x.x.x.x.z.k.z.z.z.z.z.x.z.x.x.x.x.x.x.x.x.k.}.x.x.x.x.x.x.x.x.x.x.x.x.x.x.x.x.x.x.n.n.k.c.x.x.x.x.x.x.k.}.",
"6 2 6 1 2 2 2 4 2 2 2 2 6 1 rXkXkXkXvXkXkXxXvXjXvXjXvXkXuX:X{.z.x.{.}.z.c.}.[.z.}.z.}.}.z.j.n.z.z.n.z.n.n.x.k. XR.T.T.T.T.T.T.W.T.T.W.!.W.!.W.T.T.T.T.T.T.T.T.T.T.W.E.!.T.E.E.!.T.T.T.!.!.!.!.Q.E.!.Q.A p p p 7 f a q p f f u f u l ~ l l ! n l l l l l l l ~ n n l l l ~ ~ ~ ~ l ~ n l ~ l l ~ l ^ n l l l n l z 6.l l z 6.6.6.l l l l ~ ~ l l l n l l l j l l l l ^ l l l l z n @XW.!.!.T.!.W.!.W..X.X.X.X/. Xz.x.{.x.x.x.c.}.x.}.z.x.x.z.z.x.z.j.j.z.z.j.z.z.z.z.z.z.c.k.k.c.x.z.z.z.j.z.z.z.j.j.j.j.j.n.k.k.x.x.n.k.k.x.z.n.z.n.z.z.z.z.n.n.n.z.z.z.z.z.z.n.z.z.j.n.z.n.n.z.x.z.n.z.j.z.x.x.k.k.x.x.x.k.z.j.n.z.j.n.j.z.z.z.z.j.z.z.z.z.z.z.z.n.z.j.z.z.z.z.x.x.x.x.k.x.x.z.z.z.z.z.z.z.j.n.z.z.z.n.j.x.x.k.x.x.k.z.x.x.z.z.z.z.:Xz.x.z.z.{.{.z.z.z.z.z.z.z.z.z.z.z.n.j.z.z.z.z.j.n.z.j.n.z.z.n.z.z.n.j.z.j.j.n.z.z.z.z.z.z.j.z.z.z.z.z.z.z.z.j.j.z.n.j.z.z.z.z.n.j.z.z.n.z.z.j.n.z.z.z.z.z.j.n.z.n.n.z.n.z.}.v.).'.'.).`.'.'._.^._.^._.'.W.Y.W.E.T.!.E.E.!.E.E.E.E.E.S z 6.z 6.6.z 6.z ^ z l l l l ~ ( ~ ( ( ! ( ( ( m ! ( ( ( ( m ( m ( ! ( ~ ( ( ( l ( ( ( ( ( ) ( ( ( ( ) ( ( ( ( ) k ( ( l ( ! k k ( ! l ~ ( l l z z f p z z z z f z z z r $.E.W..X!.W.!.!.oXW.(.T.T.!.!.T.W.W.!.T.!.T.T.T.W.!.T.T. Xx.{.x.x.x.x.x.k.x.x.z.n.z.z.n.z.z.x.x.x.x.x.x.x.x.k.k.x.x.x.x.x.x.x.x.x.x.x.n.x.x.x.x.x.x.x.x.x.x.n.x.x.x.x.x.n.n.",
"2 2 2 6 6 1 2 2 2 6 2 2 6 1 qXzXkXkXvXkXkXxXkXvXkXkXkXvXuXOXz.z.c.z.c.}.x.}.c.}.{.c.}.z.z.n.z.n.x.z.x.z.x.x.x. X/.T.T.T.T.T.T.W.T.W.T.W.T.W.T.T.T.T.T.T.E.E.T.T.T.T.T.T.E.!.E.!.E.!.T.T.E.E.!.E.!.E.@XP n q p p f 9 q p 9 9 f 9 p l 6.~ 6.l l l l l l 6.~ n ~ l ~ ^ 6.l l 6.l ~ 6.l ~ ~ ~ ~ n ~ n l n l ^ n ^ l 6.^ z ^ ^ z 6.z ~ ~ l l l n l l l l l g z l l l l l n ^ ~ l l z b %XoXoX!.W.W.!.W..X.XW.(.(.~. X}.c.x.}.x.x.x.x.z.z.}.z.x.z.z.z.z.z.z.z.z.z.z.z.j.z.z.z.x.x.k.x.z.j.z.z.z.z.z.z.n.x.n.z.z.z.z.x.x.x.x.x.x.x.z.z.j.n.z.z.z.z.x.z.j.z.n.z.n.z.z.z.n.j.z.z.j.z.z.z.z.z.j.n.z.z.z.x.z.x.k.x.z.j.z.n.j.z.z.z.z.j.z.z.j.n.z.z.z.z.z.z.z.z.z.z.z.x.n.z.k.k.x.x.x.x.x.x.n.x.z.j.n.z.z.z.n.z.x.x.x.k.z.x.k.k.x.z.z.n.x.x.x.z.z.x.z.n.z.z.z.z.z.z.z.z.z.z.z.z.x.z.z.z.n.x.n.j.z.z.z.z.z.z.z.z.z.j.z.z.z.n.z.z.z.z.z.z.k.j.z.z.z.n.z.z.z.n.z.z.z.z.z.z.z.z.z.z.z.z.z.z.z.z.z.z.z.x.z.z.z.j.z.z.z.k.z.z.j.z.x.^.~.'.'.'.^.`.^._.'._._.).'.T.E.E.E.E.!.E.W.W.E.!.!.E.L.n p 6.6.^ ^ ^ 6.^ 6.z l ~ l ~ ~ ` ~ ( ( ( ( ( ( ( ( ! ( k ( ( ( ( ) l ~ ~ ( ~ ) m m ) ( ( ( ( ( m ) ( ( ( ) ( ( m ~ l l ( k m ! m ! m ~ ~ ~ l l j z g z f f z g z g f n q a.E.!..X!.W.!.(.(.!.(.!.T.W.!.T.!.W.W.W.W.!.!.W.!.W.!.T.[.x.x.x.x.x.x.k.k.z.x.z.z.z.z.z.z.z.x.x.x.n.x.x.x.n.n.n.}.k.k.x.k.x.x.x.x.x.k.x.x.x.x.x.x.x.n.x.x.x.x.n.x.x.x.x.x.x.",
"6 2 2 2 2 6 2 2 2 2 6 2 8 6 yXvXkXkXkXkXkXkXjXvXjXvXkXvXI.].z.{.}.z.}.x.}.{.[.x.{.x.z.z.z.z.z.z.z.n.n.z.x.x.x.|.Y.W.T.T.T.T.!.W.!.W.!.T.W.!.W.T.T.T.!.T.!.T.T.T.T.E.E.!.!.E.!.E.!.E.!.E.!.E.E.!.E.W.@XP q q p q f 9 p p f p p f f z ~ 6.! n ~ ~ n l l l ~ l ~ l n l l ~ l l l n ~ n ~ n l l l l ^ ~ ^ ~ l l l l z 6.z 6.6.6.z 6.l n l l l l l l l l l l l l l k l l ^ l l l l z b %X(.oX(.W.T.T.W..X.X(.W.T.!. Xx.z.x.x.x.}.x.x.z.c.z.x.x.z.x.{.z.z.z.z.z.z.z.j.z.z.z.c.k.x.z.x.x.j.j.z.z.n.z.n.j.z.z.z.x.z.j.x.x.x.x.x.x.n.x.z.z.z.j.n.z.z.z.z.z.z.z.z.j.z.z.z.z.z.z.j.j.z.z.z.n.z.z.z.z.z.j.x.x.x.x.x.x.z.z.z.z.z.z.z.z.n.z.z.x.z.z.z.z.j.n.j.z.z.j.n.z.z.z.z.z.k.x.x.k.k.j.n.j.z.z.n.x.z.j.z.x.z.z.x.x.k.k.x.z.k.z.z.z.z.z.z.z.z.{.z.z.z.z.z.z.n.{.z.z.z.z.n.z.z.n.z.z.j.z.z.z.z.z.j.n.z.j.n.z.z.z.n.z.z.z.j.j.x.z.z.z.z.z.n.n.z.z.z.{.z.z.z.z.z.n.j.z.z.j.n.j.n.z.z.n.j.z.z.n.z.j.n.z.z.z.n.z.z.z.z.z.n.z.z.[.v._.'._.).`.^.'.^._.'._.).`.T.E.E.E.T.E.E.Q.E.E.E.E.E.E.n 6.6.^ 6.z 6.z ^ ^ ^ l l l ~ ~ ~ ( ~ ! m ( ( ( ! ( m ( ( ( ( l ( m ( ( ( ( ( ~ ( ( ! ( ( ( ( ( ( ` ( ( ( ( ( ( ( ( ( ( k ( k ( ! ( ! ~ l ~ ~ l g z j z z f z f z z z z q a.Q..X!.!.W.oX(.oXT.(.T..X!.W.T.W.T.!.W.T.W.W.W.T.W.T.(.[.x.x.x.x.x.x.k.k.x.k.z.z.n.z.z.z.n.x.x.x.x.x.x.x.x.k.n.n.k.x.x.x.x.k.x.k.x.x.x.x.x.x.x.x.x.x.x.x.x.x.x.x.x.x.x.x.x.",
"2 2 2 2 2 6 2 2 2 4 2 2 @ @ yXfXkXkXkXvXkXkXvXkXkXkXvXvXuX;Xx.x.}.c.}.}.}.x.x.[.}.x.}.x.n.z.z.n.z.n.x.z.x.x.x. XR.W..XW.T.T.W.W.W.!.W.T.T.T.T.!.!.T.!.T.W.E.!.E.!.E.T.T.T.T.E.!.E.!.!.E.!.E.E.E.E.!.@X$.n p p q q a 9 p p p 9 f a l ~ l ~ ~ ~ n l l ~ ~ ~ l n ~ 6.~ n ! l 6.6.l ~ l l n ~ ~ 6.l n l n l l n ^ l z 6.6.6.z 6.z 6.l l l l l n l l l ~ l l l l l l l l ^ l l j l l b #XoX!..XW.W.W.W.T.W.W.(..X~. X}.x.z.x.x.c.x.z.z.k.x.x.z.z.z.z.{.z.z.z.z.z.z.z.z.z.z.z.k.x.z.z.k.z.z.z.z.z.z.x.z.z.n.z.x.n.z.x.x.x.x.x.x.x.x.z.z.z.z.z.x.z.n.z.z.n.z.z.z.z.z.z.z.z.z.z.j.z.n.z.j.z.z.z.z.z.z.x.z.k.x.k.x.j.z.x.j.n.z.z.z.z.n.j.z.z.j.z.z.j.z.z.n.z.z.z.n.z.z.z.x.x.x.x.k.j.x.z.n.z.x.z.n.z.z.z.x.z.z.z.x.x.x.x.x.x.z.z.z.z.z.z.z.z.z.n.z.z.z.z.z.z.z.z.{.z.z.z.z.z.z.z.z.z.z.n.z.n.j.z.z.z.z.z.z.n.z.z.z.j.z.z.z.n.z.j.z.z.z.z.z.z.z.z.n.z.z.z.z.z.z.n.j.j.z.z.z.z.n.z.z.z.z.z.j.z.j.n.z.z.z.z.z.z.z.z.z.n.z.z.}.^._.).)._.).^._._._.'._.^.'./.E.E.W.E.E.W.!.E.E.E.E.!.L.n z 6.z 6.6.^ z ^ ^ 6.l l l ~ 6.6.~ ( m ~ ( ( ! ( ) ! m m ! ( ( ( m ( ( ~ ~ ( ~ ( ( ( ( ( ( ! ( ( ( ( ( m ( ( ( ( l ! l ( ~ l ! l ( k ~ ~ ~ ~ k z z z f z g z f z g f z z a.@X!.W.W.!.T.!..XT.(.!.W.T.T.T.W.(.!.W.W.T.!.W.!.W.T.~.[.x.x.x.x.x.x.x.k.x.x.z.z.z.x.z.z.x.x.x.x.x.x.n.x.x.x.n.k.k.x.x.x.x.x.x.x.x.x.x.x.x.x.x.x.x.x.c.n.k.x.x.x.x.x.x.x.x.",
"2 2 2 4 2 4 2 2 2 4 2 2 4 @ eXkXkXkXvXjXjXkXjXkXjXkXkXvXuX;Xx.}.x.}.}.c.}.}.[.}.c.{.x.}.z.j.n.z.n.j.n.n.x.x.}. X/.E./.T..X.XW..XW.W.W.T.T.T.T.T.!.E.T.T.!.T.!.T.E.!.T.!.E.!.!.E.T.E.E.!.!.E.!.E.W.Q.@X$.p p p p u p f p u p p u f z ~ 6.n l ~ l 6.~ 6.n l l ~ ~ ^ n ^ n 6.l l l ~ ~ 6.^ ~ n l 6.^ ~ ^ l l l l ~ 6.z z z 6.6.6.z l l l l l ~ n l n l l z z l l k l ^ l l ^ z l z b %XoXW.!.W.W.W.T.T..X/.W..X/. Xz.k.z.z.x.k.{.z.{.c.x.}.}.z.z.x.z.z.z.n.z.j.x.j.z.k.k.k.z.k.k.k.k.z.z.z.z.n.z.z.x.z.z.z.x.z.x.z.x.x.x.n.}.x.z.x.z.n.n.x.z.z.z.n.z.z.z.n.z.j.z.n.n.z.z.j.j.z.j.j.z.j.z.z.z.j.j.x.z.z.z.x.x.z.j.z.j.z.j.z.j.z.j.j.j.j.z.z.x.x.x.x.j.z.j.z.z.z.z.z.z.z.x.x.x.z.x.j.j.j.z.z.j.z.k.k.k.z.z.z.z.x.k.z.k.k.x.x.z.z.k.x.x.x.z.z.z.x.x.}.{.z.z.z.n.z.n.z.z.x.x.z.z.z.z.z.j.z.j.z.z.z.z.z.z.z.z.z.z.n.z.z.z.z.z.x.z.z.z.z.z.n.n.z.z.z.z.z.z.j.z.z.z.n.z.j.z.z.j.j.k.k.x.x.j.x.k.z.x.x.k.k.k.k.x.z.x.x.x.x.x.v.).'._.^._._._.^.^._.~._.'.Y.E.T.E.E.W.E.E.E.E.!.E.E.E.b z 6.z ^ ^ 6.z 6.z 6.l ~ l ~ ~ ~ ~ ( ( ( ! ( ( ( l m ! ( k ( ! ( ( ! ( m ( ( ( ~ ~ ( ( ( m ) ( ( ( ( ( ( ( ( ( ( ! m ! ~ ~ ~ l ( l ( ~ ~ l ~ n z p p g z z f f z z z p b a.@X!.!.!.!.oX.X.X!.!.W.!.W.W.!.T.T..XW.!.W.W.T.W.T.T.T.[.x.x.x.x.z.z.z.z.z.z.x.x.z.z.x.x.x.x.x.x.x.}.x.x.x.x.x.k.}.x.x.k.k.k.x.x.x.k.k.k.n.n.x.x.x.n.k.k.n.x.x.x.x.x.x.}.x.",
"2 4 2 2 2 2 2 6 2 2 1 1 4 @ yXkXkXjXkXvXjXvXvXkXvXkXvXvXuX].c.x.c.x.c.c.}.}.c.}.{.[.{.x.{.:X{.z.z.z.n.z.:Xx.x. XT./..XW.W..XW.W.W.W.W.W.T.T.T.T.E.T.T.T.E.T.!.T.T.T.T.T.!.T.T.E.!.E.T.E.!.E.!.!.E.E.@Xe.n q q p p p u u q a u p f l n ~ l 6.~ ~ l 6.~ l l l l n l 6.l l l 6.^ 6.6.6.~ l l l l 6.l l ! ~ l l l n z 6.6.6.z 6.^ 6.l l l l l l l l ~ l ~ l l l k l l ^ l l l ^ z ^ y %XQ.oXW.!.W.W..X.X.X.XT.T.R.}.[.x.c.x.}.z.}.z.z.c.z.x.x.z.}.z.z.{.z.z.x.x.x.x.x.x.x.x.x.c.x.x.x.z.j.z.z.z.z.x.z.z.x.x.z.n.z.j.z.z.z.z.z.z.z.z.z.n.z.z.z.z.x.z.z.j.z.z.j.z.j.z.z.z.z.z.z.z.z.z.j.n.n.j.j.n.j.z.z.z.z.k.k.j.z.j.x.z.j.z.z.z.z.z.z.x.z.x.x.x.z.x.x.z.n.z.z.x.x.z.z.z.x.z.z.n.n.z.z.z.z.z.z.z.x.z.c.x.z.x.x.x.x.x.x.x.x.[.}.z.x.x.{.}.x.x.z.}.{.z.x.z.z.n.z.z.z.{.{.x.z.{.z.z.z.z.z.z.z.z.z.z.z.n.z.z.z.z.z.z.z.z.z.{.n.z.z.z.z.n.z.z.z.z.z.z.z.n.z.z.z.z.z.z.z.z.z.z.x.z.x.x.x.x.x.x.x.z.x.x.z.x.x.z.z.n.z.z.z.z.{._.^.'.)._.^.`.'._.'.`.'._.'.W.T.T.T.W.E.E.E.W.E.E.!.E.E.n n z 6.^ z ^ ^ z ^ 6.^ l ~ ~ ~ ` ( ( ) ! ( ! m ( ! ( / m ( m ( m m ( ( m ( ~ 6.~ ( ( ) ( ( ( ( ( ( ( m ( ( ( ( ( ~ ~ m ~ ~ l l ( l ( ~ l ~ ~ k z z z z z z z z z f z z b a.@XW.W.!.!.T.!.!.W.!.!.(.T.T.T.W.W.W..XT.T.T.W.!.W.T.(.[.x.x.}.x.k.x.z.k.x.x.x.x.x.k.x.k.x.x.n.k.n.n.x.x.k.n.k.k.k.k.k.n.x.n.x.x.n.x.}.x.n.x.x.x.x.x.x.c.x.x.x.x.x.x.x.x.x.",
"2 2 6 2 4 2 2 2 2 4 4 4 1 @ 8XdXvXkXjXvXkXvXjXkXkXxXvXvXI.+Xx.[.c.}.}.}.c.[.[.}.x.}.z.}.z.n.z.n.z.n.x.x.x.x.x.|./..XW.W..XT..XW.W.!.W.!.!.W.W./.T.T.T.!.T.T.T.T.T.T.T.T.!.E.!.!.E.!.!.!.E.E.E.!.!.W.@XK q p q p p p q r f 9 p q q f ~ ~ l ~ ~ ^ F l 6.6.l ~ ~ ~ 6.l 6.6.l l l ~ ~ ^ 6.6.~ 6.6.6.l l n l 6.l ~ ~ ^ 6.z ^ z 6.6.6.l n l l l l l l ~ l l l z l l k z j z j z z ^ n b %XoXW.W.Q.W.W..XT..XT.T.!.b. Xz.z.z.z.x.x.x.z.x.z.z.z.z.z.z.z.z.x.z.z.z.z.j.z.z.z.z.z.z.x.z.j.z.x.z.z.z.z.z.{.z.}.x.z.{.z.z.z.z.n.z.z.n.z.z.k.z.x.k.x.z.z.n.n.z.z.z.z.z.z.n.x.z.z.z.z.z.z.j.j.j.j.j.j.z.j.j.k.z.z.x.x.j.n.j.j.n.j.n.z.z.j.z.z.z.j.z.x.k.z.x.x.x.j.z.z.z.z.z.z.z.z.x.x.j.n.x.z.z.z.x.z.z.x.x.x.x.k.x.x.k.c.x.k.k.x.x.x.z.z.z.z.x.z.z.z.z.z.x.z.n.x.z.x.z.z.z.x.z.z.z.n.z.x.z.z.z.z.n.z.n.z.z.x.z.z.z.n.z.z.z.n.z.z.z.z.z.z.z.n.z.z.z.z.z.z.z.j.z.z.j.z.z.j.z.n.j.n.z.z.z.z.j.z.z.z.z.z.j.z.z.z.z.n.j.z.z.n.z.n.z._._.'.'.).`.'.'._.`.`.`.'.'.T.T.T.E.E.W.!.!.E.!.Q.E.!.L.b z 6.6.^ 6.z 6.6.^ z l l l l ~ ~ ( ~ m ! ( m ( ! m ( m ( k ( l ( ( l ( ~ l ` ~ ` ~ ( m ( ( ( ( ( ( ( ( ( ( ( ( ( l ~ ~ ~ ~ ( l l ! l ~ ~ ~ ~ z p j z f z f z z z z f l r $.@XoXW.!.Q.(.oX(.!.(.W.(.(.T.T.W..XT.T.!.W.W.!.W.W.W.(.[.x.x.z.z.x.x.x.x.j.x.z.z.z.z.n.x.n.x.x.k.k.k.k.x.x.k.k.k.k.k.x.x.x.x.k.k.x.x.n.x.x.x.x.x.x.x.x.x.x.x.x.x.}.x.x.x.x.",
"2 3 3 2 4 4 1 4 2 * 4 2 2 8 fXlXkXkXkXkXkXvXkXxXkXzXkXvXuX>Xc.c.c.}.c.}. X}.}.}.}.}.x.}.z.x.}.x.}.}.z.}.x.x.x. X/.W..XW..X.XT.W.W.W.T.T.W.W.W.W.T.E.T.W.W.W.W.W.!.E.!.!.!.!.!.!.!.!.E.!.!.E.E.!.W.W.@XP n q p p q p 9 q 9 f g q 9 z ~ ~ 6.6.l 6.l ~ 6.l l ~ l l 6.6.6.^ 6.6.6.6.^ ^ 6.^ 6.6.^ 6.6.z 6.^ ^ 6.z ^ 6.^ 6.6.6.6.6.^ n l n l l l l l l l l l l l l l ^ z j j z ^ ^ z b %X.X.X.XW.!.W..X.X.X/.(..X~.c.k.z.c.x.x.x.z.{.x.x.}.x.x.x.x.x.x.k.x.x.k.k.x.x.z.z.z.z.k.k.x.z.z.x.z.x.{.c.x.}.}.k.c.x.x.x.x.x.x.x.z.x.k.x.k.k.z.x.k.x.k.k.x.x.x.x.x.x.c.x.x.x.x.x.x.x.x.x.x.k.x.x.x.x.x.x.x.x.k.x.x.x.x.x.k.x.x.k.k.x.x.x.x.k.x.x.z.x.x.x.x.k.k.x.x.z.z.x.x.x.x.x.x.x.x.x.n.x.x.n.z.x.x.z.x.z.x.x.}.x.x.x.x.x.}.x.x.z.z.z.z.z.x.z.z.z.z.{.x.x.x.}.x.k.k.x.z.z.z.k.z.z.x.x.x.x.x.x.x.x.x.x.z.z.z.n.j.x.z.z.{.x.x.z.z.z.z.{.z.z.z.z.z.{.x.z.x.z.z.x.z.x.z.x.z.z.z.z.z.z.z.x.z.x.}.z.x.k.x.z.z.x.x.x.z.z.{.z.z.z.}.[.^.'.`.`.).^._.~._._.'.'.!.!.!.W.W.Q.Q.W.W.W.E.W.W.W.Q.F k ~ 6.l l l ^ z 6.^ l ~ l m ! ! ( l ( k ( k ( m ( ( m ( k ( ( ( ( ( ( m ( m ) ( ( ( ' ' ^ ' ^ ' 6.^ ' ^ 6.^ ^ 6.^ ^ 6.^ 6.^ l 6.6.^ 6.^ 6.6.z p z z j z z z f j z j l y $.#XoX.XE.E.W.W.W.!.W.!.oX!.T.T.T.T.T.T.W.W.T.W.W.T.T.(.l.x.z.x.k.x.x.x.}.z.x.x.}.c.{.x.x.}.x.k.x.x.k.x.x.x.x.}.x.z.x.x.x.x.x.x.x.x.x.x.n.x.x.x.x.}.x.x.x.x.x.}.x.}.x.}.x.}.",
"2 6 7 7 w 4 4 4 @ 2 4 2 2 4 eXsXkXvXvXkXzXvXvXkXkXvXxXlXuX+X}.}.}.x.c.c.x.c.c.}.}.c.{.}.z.{.x.{.z.{.{.x.}.z.}.|.~././.W.E..X/.W.W.W.T.W.W.W.!.W.T.E.W.W.T.T.E.!.E.!.E.!.E.E.E.Q.E.E.E.E.E.!.E.!.W.E.@X$.3 q q p r f f z g f 9 9 9 f ^ ~ l ~ ~ ~ l l ~ 6.l l l ~ ^ ^ ^ ^ z ^ 6.6.6.^ z 6.^ ^ 6.^ 6.z ^ 6.6.z ^ 6.6.^ ^ 6.^ ^ 6.^ ~ l l l l l l ~ ^ l ~ l j l j z z ^ z j z z z p b %X.XW.Q.!.W.W..X.X.X.X.X.XR.[.z.c.x.k.z.c.k.z.k.x.k.z.z.z.j.z.j.j.c.k.x.x.x.x.z.z.z.z.k.x.k.k.z.z.k.j.c.z.k.z.n.c.x.}.x.x.k.k.k.k.x.z.k.k.x.x.x.x.x.x.x.k.k.k.k.k.k.k.k.k.k.k.k.k.k.k.k.x.k.j.x.x.x.x.x.}.x.z.k.k.k.k.k.k.k.k.z.z.z.k.x.x.x.k.j.z.x.z.x.j.j.j.k.x.k.z.j.k.x.x.x.x.x.x.x.x.x.k.k.j.j.x.k.x.x.z.z.x.x.k.x.x.x.x.x.x.k.x.x.k.j.n.x.x.x.x.x.x.x.x.x.k.k.k.j.n.k.k.x.x.k.x.z.z.z.z.x.x.x.x.x.x.z.z.x.x.x.x.x.x.x.x.x.x.z.z.z.z.z.z.x.x.x.x.x.x.x.x.x.x.c.z.z.z.x.k.k.x.x.x.z.k.z.z.x.x.x.k.x.x.z.z.x.k.{.z.x.z.z.{.{.[.^._.'.`.)._.^._.)._.'.!.!.W.W.@X!.W.Q.E.E.E.W.E.W.Q.#Xn ~ ~ ^ ^ 6.^ 6.l ^ ^ k ~ l ! ( ( ( ( ( m ( ( ( ( k m ( k / m ( ( k ( ( ( ( ( l ! m ( ^ ^ 6.' 6.^ 6.6.6.' ^ 6.6.6.^ 6.6.6.^ 6.l 6.6.l 6.z z ^ z z z z z k z z z z j z z p a.%X.X.X.XQ.oX!.E.E.T.T.T..XoX.XT.W.T.W.!.!.!.W.W.!.T.R.[.x.{.z.c.c.x.x.x.c.k.k.z.k.z.k.x.x.x.x.x.x.x.x.x.x.x.x.z.x.x.x.x.x.x.x.k.n.x.x.x.x.k.x.x.x.x.x.x.x.x.x.x.n.k.k.x.x.",
"8 1 1 1 4 1 1 @ @ @ 1 @ 1 . fXcXxXkXcXxXxXxXxXxXxXcXcXvXuX2X X}.}.}.}. X X[. X X X}.}.}.{.{.}. X|.}.}.}.}.|.|.`.Y..X(.W..XW.E..XW.!.W.W.W.!.W.Q.Q.@X@X@XQ.oXoX@X@X@X@X@X@X@XL.@XQ.Q.Q.Q.Q.Q.Q.@X@X#X%XP p z p z k l g g l l z f p l 6.` ` ~ ( ( ` ( 6.6.] 6.6.6.6.' ' ^ 6.6.6.6.6.6.6.6.6.6.6.6.6.6.6.6.6.6.6.6.6.[ ' ' 6.6.6.6.~ ~ ~ ~ l l m ~ l l 6.l j l k k ^ z n ^ ^ z ^ z b #XW.W.!..XW.W..X.X.X.X/.Q.Y. X}.c.}.}.}.}.}.}.c.x.c.l.}.}.}.x.x.{.x.}.}.}.c.x.x.}.c.x.x.}.c.c.x.x.}.{.c.{.}.}.c.c._.!.}.}.}.}.x.{.}.}.}.}.x.}.x.:Xx.}.}.}.}.}.c.}.}.c.}.x.}.x.}.n.}.x.x.}.}.x.}.}.}.x.}.x.:Xx.}.:X}.x.x.}.}.}.}.x.}.}.}.x.x.}.}.}.}.x.x.}.}.x.x.}.}.x.x.x.}.x.:X}.:Xx.x.}.n.}.{.}.}.x.}.x.}.n.x.n.}.}.x.n.:Xx.x.}.x.}.}.x.x.}.x.}.}.}.}.}.}.}.}.}.}.}.}.}.x.}.x.}.x.{.}.x.x.}.:Xx.n.}.x.}.}.x.x.}.}.}.}.}.x.}.}.}.{.}.}.}.{.}.}.{.x.}.}.}.x.x.}.}.}.}.}.}.}.{.}.}.}.}.x.}.}.x.}.x.}.}.}.}.}.}.}.}.}.}.}.}.}.}. X`.'.'.'.`.`.'.'.'.`.'.`.'.!.E.L.L.Q.Q.Q.@XL.L.Q.#X@X#XI.n l l ^ l 6.^ ^ z ^ ^ ~ l k l ( ) ( m m ( ( m / ) ( ( ( ( ( k l k j l k ( l l k l k ! ^ ^ ^ ^ ^ ^ 6.^ ^ ^ 6.^ 6.^ ^ ^ ^ ^ z z l 6.^ l ^ ^ 6.^ ^ ^ z ^ k z l k k z ^ j l z $.L.Z.L.L.L.A.A.A.S.S.p.S.S.S.W.W.!.W.W.W.T.!.T.W.T.W.!. X}.}. X}.}.x.}.}.}.c.}.}.}.}.}.}.c.}.x.}.}.x.}.}.}.}.}.}. X}.x.n.}.x.}.x.}.:Xx.}.x.x.}.}.x.}.x.c.x.x.c.c.}.l.}.}.c.",
"5X5X3.4X4X5X5Xs.5X4X5X4X5X5X>.,.1.,.:.>.:.-.,.,.-.*.-.4.a.OX'.(.'.(.^.(.).'.oXoX(.oX(.~.~.).~.).).(.).~.).).).(./.W.W.W.W./..XW.W.W.T.W.W.W.@Xu.P a.a.P $.$.$.$.e.r.$.5.a.P a.P P P 5.P P P 5.P $.P 5.@.[ } ' }  .o.o.O.X. .X.} }  . .X.X.X.[  . .[  . . . . . .} } o.}  . . . . . . .[ } } o.} } } o.o. . . .[ }  . . .[ 6.6.6.~ ~ ~ ( ( { ( ( 6.6.' ^ l ~ ~ l ^ l ^ z ^ 6.^ n n %X!.W..X.XW.E..X.X.X.X.X.X.X).~.~.~.~.~.~.~.~.~.'.'.!.~.~.~.~.~.~.~.~.~.^.~.!.(.).~.~.~.~.^.'.).~.~.^.^.).).~._._.!.!.).~.^.).^.).^.^.^.^.'.~.^.`.^.^.^.^.^.^.^.^.'.~._.^._.^._.^.^.^.^.v._.^.^.^._.^.^.^.^._.^.^.^.^.^.~._.^.^.~.~.~.^.~.).~.~.^.^.^.^.).^.^.~.).^._.).^.^.).^.^._.~.).).).^.~.).^.~.^.^.^.^.^.^.^.^.^.^.^.^.^.^.^.).~.).^.^.).~.^.^.~.^.^.~.).~.^.~.).^.^.).).).).`.`.`.^.^.^.^.^.^.^.^.^.^.^.^.^.^.).~.~.~.~.~.~.).~.~.~.).~.~.~.~./.~.).~.~.^.~.).~.^.~.^.^.~.).~.).^.'.~.).).).~.^.~.~.).~.~.~.).).~.~.~.^.~.(./././..X/.(./.T.(.T.T.!.S S n n b b n b b b b b b n 6.] ' ` 6.' ' [ ' | ' ( ) ( [ O.&.O.&.%.O.&.@.O.O.o.o.o.O.*.O.o.o.O.......o..... . ...o.o.o...o.o.o. .o.o.o.:.O.%.[ [ 6.[ ' [ ' [ ' ' [ ' ' ' 6.6.6.6.` ( ` ` 6.( ' 6.6.l F b b r b b b n b n b n n c N Q.W.T.!.W.W.W.W.W.W.!.!.!.(._._.^._.v._.^.~._._._.^._.^._.^._._.^.^.^.~.v.^._._.^.^._.^.^.^.^.^.^.^.^.v.^.^.^.^.^.^.^._.^._.~.^.~.v._.v.^._.^.",
"jXjXxXxXxXjXjXjXjXjXjXjXjXcX..s f f a u p s s u w i f 9 L @X.X.X!..XW.W.!.W.W.!.W.W.W.T.W.W.W..X/..X.XW.W..XW.W.W.W.W..X.X.X.X.XW.T.W.W.Q.W.@Xb n l 6.[ 6.] ' 6.^ 6.6.z 6.6.z 6.6.6.' 6.' ' [ [ ' ' 6. .X. .X.o. . .O.@.o.o.o.o.X. . . . .X. .X. . . .}  .}  . .}  .o.}  . . . .o.}  .o.} } }  . .}  . . . . .} } } o. .} 6.' ^ ` ( ( ' ` ` ( ( ' ( ' ! k ~ ~ l n n ^ ^ 6.z ^ ^ q %XQ.Q.E.!.E.!.T./.W.E.E.W.E..X.X/..X/.W./.W.W.W.E.!.E.E.E.E.E..XT.W.Y.W.T.T.T.T.T.T.T.T.W.W.!.T.W.W.W.W.W.T.T.!.!.E.!.!.E.!.E.W.W.T.T.T.W.W.!.T.(.T.T..X/..X/.W.W.W.!.E.!.!.!./.T.T.T.T.T.T.W.T.W.T.T.(.T.(.(./..XT.T.T./.T.T.E.T.T./.T.T./.W./.T.T..X.X/./.(./.(.W./.W./.T./.T.W.W./.W./.W.T.T.T.T..XT.W.W.W.W.T./.T.T.W.W.T.T.W.E.T.W.T.W.T.W.T.T.T.T.T.T.W.T./.W.T.W.T.T.T./.T.T././.T./.T.T./.T./.T.Y.T.Y.E././.T.T./.T..XT././..X.X/.W..X.XT.E..X.XW.W././.T./.W.T..XT.T.T.W.T.T.T./.T..XT./.T.T.T.T.T.T.T./.W./.T.W.W./..XW./.W.W.T.E.W.W.W.W.W.E.Q.L.0 n l 6.z z l z n l l l l l 6.| [ } ] [ ] [ | | [ ] ] ' | O.O.*.O.&.&.&.%.%.&.%.&.O.*.*.*.*.*.&.*.*.*.*.*.=.*.*.=.:.:.:.:.:.:.=.:.:.:.=.=.:.4Xo.[ [ | [ | [ [ | [ | ] [ ] ' ' ' ' ( ( ~ ' ' ~ ' ' ( 6.6.^ l n ~ l 6.l l l l z l n F Q..X!.W.W.W.W.W.W.W.W..X!.!.W.T.(.(.!.T.(.T.T.T.(.(.(.!.(.W.!.(.(.(.!.T.(.(.(.(.(./.(.(.(.(.(.(.(..X(.T.(.oXT.!.W..X!.!..X!.!.!.(.!.(.(.(.!.!.",
"jXjXjXjXjXjXjXjXjXjXjXjXjXxX..s f u a f f f p p g r g f L Q..X/.W.!..XoXW.W..XW.W.W.!.W.W.W.W.W.E..XW..XW..X.XW.E.W.W..X.XE.E..XW.T.W.W.Q.oXL.A ^ z 6.l ~ 6.6.6.6.^ ^ 6.^ ^ 6.6.[ [ [ [ ' ' 6.' ' ' 6. . .X. . .O.X. . .X.X. .}  .X. . . . . . . . . . . . .}  . .o.} o. . .o. .o. . . .} o. . . . . . . . . . .} o. . .} ^ ' ' ` ` ( ( ) ( ) { ' ` ` ~ k ~ k ~ ^ ^ l l z ^ 6.6.b #X!.!.!.E.!.E.W.W.E.W.E.W.W.W.W.W.W..XW.W.W./.E.!.E.W.!.E.!.!.T.W.T.T.T.W.W.T.W.T.W.T.W.T.W.W.W.!.T.W.W.W.W.W.E.E.!.E.E.!.E.!.W.W.W.W.W.T.W.T.W.!.W.W.W.T.W.W.W.!.W.W.!.E.E.!.!.W.W.W.T.!.W.!.!.W.!.W..XW.W.W.W.T.T.T./.E.T.T.W./.W./.T.W.W./.E.T.T.W..XT.W.W.W./.W.T.T.T.W..X.X.XW.W.T.E.T.W.E.T.E.T.W.T.T.E..XE.T.E.T.W.W./.W.W./.T.W.T..XE./.E.T.T.T.T.T.W.T.W.Y.W.T..X/.T.W.T.W.E.W.T.W.T.T.T.T.T.T.T.T.T.T.W.T.W..XW.W./.W.W.W..X.XT..XT.W.W./.W.T..XW.T.W..X.X.XT.T.W.W.E.T.E.T./.E.W./.W.T.T.W.T.T.W.T.T.W.E.W.E.T.W.E..XW..XE..XE.W.W.W.W.Q.W.!.Q.Q.n z z l z l l l l l l l l ~ ( } [ [ ] ] ] [ ' ' [ _ ' '  .O.*.O.O.&.&.&.&.&.&.&.&.O.*.*.*.*.*.*.*.*.*.*.*.*.*.*.*.:.=.=.=.:.:.=.:.:.:.=.:.%.%.} | [ [ ] | [ ] | ] | [ [ | ' ' ^ ^ 6.' ~ ~ ~ ~ ~ ) ( ( ~ l ^ k l l l l l l l l z z S L.Q.W.!.W.!.W.W.!.!.!..XW..XW.!.!.W.oX!.T.T.(.!.(.!.T.(.T..X!.(..XT.oXT.W.T..X(.(..X/.(.W.W..X.X.X.X.XoXW.oX!.!..X.X.X.X.X.X!.!.oX.X.X!.oX!.oX",
"gXkXgXgXjXhXjXjXjXjXjXjXjXxX..g f f f j p f s p a s a 9 L Q.W..XW.!.W.W..X!.W..XW.!.W.W.W.W.W..X.X.XE..XW..XW.W.W.W.E.W..X.X.X.XW.Q.W.W.W..X@Xn l 6.^ l l 6.^ 6.6.^ 6.6.6.6.' ' ' 6.' 6.' ' ' ' [ ' 6. . .o.o. . . . . . . ...X.o.X.}  . . .X. . . . . . . . . . . . . .o. .o. . .o. . .o. .o.o. .o. . .o.}  . .} } } } } ' ^ 6.( ( ' ) ' ( ) ( ( ` ' ~ l ~ k ~ ^ ^ ^ n z 6.^ 6.n #XQ.!.!.E.!.E.W.W.W.W.W.W.E.E.W.E.W.W..X.XW..XE.E.E.E.!.E.E.E.E.W.W.T.W.W.W.T.T.T.W.W.!.T.T.W.T.T.W.W.W.W.W.W.E.!.E.!.!.E.!.E.W.W.T.!.W.!.W.W.W.W.W.W..XT.W.T.E.E.E.E.E.!.!.Q.W.W.W.W.!.W.W.W.W.W.T.T.W.T.W.T.W.T.T.W.W.W..X/.W.T..X.XW./.W.E.W.T..X/.W.E.W.W.E..X.XW.W.E..XW.T.W./.W.T.W.W.E.W.W.W.W.W.W.W.W.T.T.T..XE.W.W.E./.W.W.W..XT.T./.T.W.W.E.E.Y.E.Y.Y.E.Y.E.W.W.E.W.W.W.W.W.W./.E.T.T.E.E.T.W.T.E.E.T.T.T.W.W.T./.W.T.W..X/./.T.T.T.E./.W.W.W.T.W.W.T.T./.W.T.W.E./..XW.W.T.W.W.W.T.T..X/.W.W.W.E.T.W.T.T..X/.W..XT.W.W..X.XT./.W.E.E.W.W.W.!.Q.@X0 l p 6.j ^ z l z ^ j n ^ j 6.] ] ] ] ] ] ' [ ' | ' ] '  .O.&.O.*.&.&.&.&.&.&.O.&.*.O.*.*.*.*.*.*.%.%.*.*.*.*.*.*.=.=.:.:.:.:.=.:.:.:.:.%.=.%. .| } ] [ [ [ | ] ] | ] | [ ] ' ' ' ' ~ ' ~ ~ ' ~ ' ( 6.6.k l n l l l l l l l z z l F L..X!.W.!.!..XW..X.X.X!..X.X!.W..XW.(.!.W.(.!.T.T.T.T.T.!.!..XoXT.!.T.!.W.W..X.XT..X.X.X.X.XW.W..X.X(.W.W.W.!..X.X.X.X.X.XQ.!.!.W..XoX!..X.X.X",
"gXgXgXgXjXkXhXjXjXjXjXjXgXxX..a f f f p f f j f a g f a L Q..X.XW..X!.W..X.X.X.XW.W.!.W.W.W.W.W.T.W..XW..XE.W.W..XW..XE.E.E.E.W.W.W.W.W.W.W.#XS 6.^ n ^ ~ ~ 6.6.6.6.^ ^ ^ ^ ' ' | [ [ [ ' ' [ [ ' ' '  . . . .X. .o. .X. .o.X.X.X.X.X. . . . . . . . . . . .} o. .o. .o.} o. . . . . .o. . . . . . . . .} o. . .o.} o.o.o.^ ' ' ( ` ( ' ` ` ` ( ( ) ( ~ l ~ k k l n ^ ^ ^ 6.z ^ b @XW.E.E.!.E.!.W.W.W.E.E.W.W.W.E.W.E.W.E.E.W.E.E.!.!.E.E.!.Q.!..XE.W.W.T.W.T.T.T.W.W.T.T.W.T.W.T.T.W.W.W.W.W.W.!.E.!.E.!.E.E.!.W.T.W.T.T.W.T.W.W.W.W.W.W.W.W.W.!.E.!.!.E.!.!.W.W.W.W.!.W.W.W.W.T.W.W.W.W.W.T.W./.E.T.T.W.W.E.W.T.W.T.E.W.T.W..X.X.XE.W.W.W.W.W.W.W.W.W./..XW..X/.E.E.T.W..X/..XW.Y.W.W.W.W.E.W.T.E./.E.T./.W.T.W.W./.E.T.E.W.W.W.E.W.W.E.W.W.E.W.W.W.W.E.W..XE.E.W.E.W.W.E.T.T.T.W.T.W.W.Y.T.T.W.T.E./.W..XW.W.W.(.E.W.E.T.T.T.T.T..XW./.E./.E..XW.W.W./.W..XE.T./.W..XW./.W..X/.T.W.T.E./.T.W.W./.E.T.W.W.E.W.T./.W.W..XE.W.W.W.W.W.W.!.@X#Xq 6.6.p 6.n l l ^ n n ^ z l ( ] ] ] } [ ] | [ ' ' ] ] _ | *.&.O.O.%.@.&.&.&.@.&.&.O.*.*.*.*.*.*.*.*.*.*.=.*.*.%.%.:.;.=.:.=.:.=.=.:.:.=.=.=.4X .| | ] | [ ] [ | ] ] ] ] ] [ ^ ' ^ ) ' ~ ' ' ~ ' 6.( ( ~ k l l l ^ l l l n l l l n b #XW.W.W.!.!..X!.W..X.XW.W..X!.oXW.W.oXW.W.!.W.oXT.!.oXT..X!..XW.oX.XW.W.!.W..X.X.X.XW..XW..X/..X.X.XW.oXoXoXW..X!..XoX!.!.!.!.W.oX.X.X.XoXoX.X",
"hXjXjXhXjXjXjXjXjXjXjXjXjXjX&.d r f a f f f f f j f f z L Q.W.W..X!.!.W.W.!.!..X!.W.!.W..XQ..X!.W.W.W.W.W.W.W.W.W.W.W.W.W.E.Q.W.W.Q.Q.W.W.W.#XS 6.^ l l ^ 6.6.l ^ 6.l ^ l ^ [ ' ' ' [ ' ' ] ' ' ' ' '  .o.o.} }  . .X.o.X... .} o. . . . . . . . . . . . . . . .o. .o. . .o.o. . .o. . . .o.o. . . . . .o.}  .} o. . .o.} ^ [ ^ ` ) ) { ( { ) ( ) ` ( ~ ~ l l ~ l l l l ^ ^ l l b @XW.W.!.E.!.E.!.W.E.!.W.W.W.E.W.W.W.W.W.W.W.W.!.E.E.Q.E.!.!.E.E.Q.!.E.!.E.!.E.Q.!.!.E.!.E.!.E.W.W.W.W.E.E.!.Q.!.E.!.E.Q.!.!.E.Q.!.!.E.W.W.W.W.W.W.W.W.Q.!.W.Q.!.!.!.W.E.!.E.W.W.W.W.W.!.Q.!.W.W.T.W.W.W.W.W.W.W.W.W.T.E./.E.W.T.T..XE.W.W.T..XE.W.W.W.E..XE.W.W.W..X/.W.W.W.W.W.W.W.W.W.W.W.Q.W.E.W.W.W.E.W.W.W.T.W.E.E.W.W.W.W.W.W.W.E.E.W.W.E.W.W.E.W.E.E.W.E.E.E.W.W.W.E.W.W.W.W.E.W.E.W.W.Y.E.T.W.T.E.T.T.T.T.W.W.T.W.E.T.W.W.W.T.E.W.W.T./.W..XE./.W..X.X.XE.W..X.XT.W./.T..XW.W..XW.T..XW.W.W.T.E.W.W.T.W.W.W./.W.W.E.W./..XE..X.XE.E..XQ.W.W.E.W.Q.#Xr z ^ n ^ n j ^ n ^ z l l z ' ] ] | ] } [ [ [ ' | ] ] ] | &.&.&.O.*.O.&.O.&.&.O.O.&.+.O.*.%.*.*.*.*.*.*.*.*.*.*.*.=.=.=.=.=.:.=.=.:.:.=.=.=.%. .[ [ [ ] | [ | ] ] ] ] | [ ] ^ ' ' ' ~ ~ ' ~ ^ ' ' ' ~ ^ l l l l n l l l l z z l n F Q.E.W.!.W.W.Q.!..X.X.X.XW.W.!.W.!.!.W.W.oXW.W..X!.W.!.W..X.X.X!.!.oX!..X.X.XW..X.X.XW..X.X.X.X.X.X.X.XoX.XoXW.!..X.X.X.X!.Q.!.!.!.W.oX!..X!.@X",
"jXhXjXjXjXhXhXhXgXjXjXjXjXxX..g g f f f f f f f f f p p A Q.W.W.!.Q.W.!.W..XW..XW.W.W.W.!.W.W.!.!.W.W.!.W.W.W.W.W.W.W.Q.W.W.W.W.W.!.W.W.W.W.#XF z l l 6.^ l ^ 6.6.^ 6.z l 6.' [ ] ' ' ' ' ' ' ' ' ' ' [  .o.o.o.o. .X. .X. .X.X. . . . . . . .o. . . . . . . . .} o.} o. . . . . . .o.o. ... . . . . . .} o. .o. . . .} o.6.6.' ` ` ( ' ( ` ( ( ( ` ( ! l l l ~ l l ~ ^ n ^ 6.6.n @XW.W.E.!.E.!.E.E.!.E.E.W.W.W.W.W.W.W.W.W.Q.E.E.E.!.E.E.Q.E.!.!.!.E.!.Q.!.E.!.E.!.E.Q.E.Q.!.E.W.W.!.W.W.!.E.!.Q.!.E.!.!.E.!.Q.W.!.E.!.W.W.W.W.W.W.W.W.!.W.W.!.Q.!.W.W.!.E.!.E.W.W.W.W.W.W.W.W.W.W.W.W.W.W.W.W.W.W.W.W.W..X.XW./..XW.W.T./.E.W./.W.E..XW.W..XE.E..XW.W.W.W.W..X.XW.Q.W.W.Q.W.W.W.W.W.E.W.Q.E.W.E.Q.W.W.W.E.W.E.W.W.W.E.W.W.W.E.W.W.E.T.T.W.W.W.T.T..XE.W.W.W.W.E.T.W.W.W.E.W.W.W.W.E.T.E.W.W.W.E.E.T.T.E.W.T.W.T.W..XW./.W.E.T.E.T.T.W.T.W.E.W./..XW.E.E.W.W.E.E.E..X.XW.W./.W.W.W.W././.W.T.W.W.W..XE.W.T.W.W.W.E..XW./..X.XW.W.W.W.E.W..XQ.y z z ^ z n ^ z z ^ z j n j 6.' ] ] ] ] ] ] | ] ] ] ] ] | O.O.&.O.O.O.O.&.@.&.&.&.&.%.%.*.&.%.%.*.*.%.%.*.*.*.*.*.=.=.=.=.:.:.=.;.:.:.:.:.%.4X .| ] | [ ] ] ] | ] | ] | ] ] ' ' 6.~ ' ' ~ ~ | ~ ~ ( ( 6.^ l l l l l l l l l l l l F A.W.W.!..X!.W.W.W.!..X.XoXW.W..XW.W.oX!.W.W.!.W.!.W..X.X.XW.!..X!.Q.!.oX.X.XW..X.X.XW..X.X.X.X.X.X.X.X.XoXW.oXoX.X!..X.X.XoX!.oXQ.oXoX@XoX!.!.",
"hXjXjXhXjXjXjXjXjXjXjXjXjXjX..w f f f f f f f f f f f q A Q..XW.W..X.X.X!.W.!.W.W.W.W.W..X.X!.W.W.W..XW.W.W.W.W.Q.W.Q.!.W.W.W.W.W.W.Q.W.W.Q.L.F n ^ ^ 6.6.l ^ l ^ ^ 6.^ 6.6.' [ ] ' ' ] ' ' ' ' ' ' 6.} o. . .o.X.o.o. ... .X. .o.}  . . . . . . . . . . . . . ... .} o.o. . .o.o. . . . . ... . . . . . . . . .} o.o.}  .^ ' ' ( ` ` ( ) ( ) ` ( ( ( ~ k ~ l l l n ^ n l ^ ^ l n %XW.W.E.!.E.W.W.!.!.E.!.E.E.W.W.W.E.W.W.W.W.W.!.E.!.E.E.E.E.E.E.!.!.Q.!.E.!.E.!.!.!.!.E.!.E.!.W.W.W.W.!.E.!.Q.!.E.!.E.E.E.!.E.W.W.E.E.E.W.E.W.T.W.W.T.Q.!.!.E.E.W.Q.W.E.!.Q.!.W.W.W.W.W.W.W.W.W.W.W.W.W.W.W.W.Q.W.W.!.W..XE./.W..X/.W.W.E.W.W.E.W.W..XW..XW.W.W.W.E.W.W.W.W.W.Q.W.W.W.W.W.W.Q.!.W.W.W.W.W.W.W.W.W.W.W.W.W.W.W.W.W.E.E.E.W.W.E.E.W.W.E.E.W.W.W.E.T.W.W.W.E.E.W.W.W.W.E.W.W.W.W.W.W.W.W.W.W.W.W..XE.W.T./.W.T.T.W.W.W.W.T.E./.W.E..XW.W..XW.W.W.W..XW.W..XT..XT./.W./.W.W./.T..X.XW.E.E.E.E.E.W.W.E.W.W.W.W.W.W.W.W.W.W.W.W..XE.W.E.W.W.E.E.#Xy z z n l j z z ^ n ^ z ^ ^ 6.] ] ] ] ] [ [ ] ] ] ] ] ) ] ..*.&.O.O.O.&.&.O.&.&.&.+.&.&.*.*.*.*.%.*.%.*.*.%.*.*.*.=.:.:.:.=.:.:.:.4X%.:.=.4X%. .| [ [ [ | [ | [ | ' } ] | ' ^ ' ^ ' ~ ~ ' ' ~ ' ^ ~ ~ ~ l l n ^ l l z l l l l l h L #X.X.XW..X.X!..X.XW..X!.W.W.oX!.W.W.W.W.!.!.W.!..XW.!.!.!..X!.oX!.oXQ.!.oXoX.XoX.X.X!..X.X.X.X.X.X.X.XoX.X.XoX.XoXW.oXoXQ.oXoXoXQ.!.oX!.!.oX.X",
"gXjXjXjXhXjXjXjXjXjXjXjXjXcX*.d f a r g f f f j f j p p L #XW.W.W.W.!..X.XQ..X.XoXW.W.W.W.W..X.X!.!..X.XT.W..XW.W.W.W.W.W.W.W.W.W.W.W.W.W.oX#XA 6.l l l l l 6.l z 6.^ 6.^ ^ [ ' ' ] ' ' ' ' ] ' ' ' ' }  .o.o.o. . .X. .X. .X...} o. .o. . . . . . . . . . . . .} o.o. . .o.o. . .o.o. . . . . .o. . . . . .o. .o.} } o. .^ 6.^ ` ) ` ( { ( { ( ` ` ( ~ ! l k ~ ~ ^ ^ ^ ^ ~ 6.l n #XE.T.W.!.W.E.E.!.E.E.!.W.!.E.E.E.E.E.E.E.W.E.Q.E.E.E.E.!.!.E.!.Q.E.!.Q.!.Q.E.E.Q.E.E.Q.!.!.E.Q.W.W.W.Q.!.E.!.E.!.Q.E.!.E.Q.!.!.E.Q.!.E.!.!.E.W.W.W.W.W.W.W.!.W.!.W.E.!.E.!.E.W.W.W.W.W.W.W.W.T.W.W.W.W.W.W.W.W.W.W.Q..XW..X.XE..X.X.XE..XW.W..XW.W./..XW.W.W..X/.W..XQ.W.W.!.W.W.E.W.W.W.W.W.Q.W.W.Q.W.W.W.W.W.W.W.W.W.W.W.W.W.W.W.T..XT.W.E.W.W.W.E.W.E.E.W.E.W.W.E.W.W.W.W.W.W.W..XW.W.W.W.W.W.W.W.W.W.W.T.E.T.W.W.W.W.W.W.W..X/.W./.T.W..XW.E.W.W..X/./..XE..X/..XE./..X.X/..X.XE..XW..XW./.W..X.X.XT.T..XW.W.E.W.W.W.E.W.W.E.W.E.W.W.E..XW.W..XE.W.E.@Xy z j ^ z z ^ ^ n j z l z l 6.] [ ] | ] | [ | ] ] ] [ ] | &.*.&.&.&.*.&.O.&.&.O.&.O.&.*.*.*.*.*.*.*.*.%.*.*.*.%.*.:.=.=.:.:.:.;.=.=.=.=.:.:.=.} [ | ] ] ] | ] ] ' } ] ] [ ' 6.6.' ~ ' ' ~ ~ ' ~ ' 6.~ ~ l l l l l l l l z l l ~ n A I..X.XW.W.!.W.!..X!.W.W.!..XW.W.!.!.W.W.W.oX.X.X.X.X.X!..X.XoXoXoXoX!..X.X.XoXoX.X!..XQ..X.X.X.X.X.X.X!..X.X.X.XoX.XoXoX!.!.oXoX!..X.X!..X!.oX",
"jXjXgXjXjXjXjXjXjXjXjXjXjXMX&.) f f f f f j z f f f j q L @XW.W.W.W.W.W.W.W.W..XW.T.W.!.W.W.!.W.W.!.W.!.W.W.!.W.W..XQ.!.W.W.Q.W.W.E.Q.!.Q.W.#X#.l ^ 6.6.l l l l ^ 6.^ 6.6.6.[ 6.' ' ' ' ' ' ] ' ' 6.' [  . .o. .o. . .X... . .X.o.o.}  . . . . .} o.o.}  .}  . . .o. . . . .o. . . . . . .o. . . . . . . . . . .} } } } } ^ ^ ' ` ) ` ) ( ) { ( ` ' ~ ~ ^ z n ^ 6.l ^ l l l l l n #XW.W..XE.W.E.E.E.E.Q.Q.!.E.E.E.E.E.E.W.W.W.W.E.E.!.Q.!.E.E.!.!.!.E.!.!.Q.!.!.!.E.Q.!.!.Q.!.Q.!.E.W.W.!.E.!.E.E.!.E.!.E.!.!.E.!.E.!.Q.!.E.E.!.W.W.W.W.W.W.!.Q.!.E.W.W.W.W.!.!.W.W.E.E.W.W.W.W.!.!.W.!.W.W.W.W.W.W.W.W.W.W..XE..X.XW./.W.W.W.W.W.W.W.W.W..XW.W.W.W.W.W.W.W.W.W.W.W.W.W.Q.W.W.W.!.!.W.W.W.W.W.W.W.W.W.!.W.W.W.!.W.W.W.W.E.W.W.T.W.W.W.W.W.W.W.W.W.W..XE.W.W.E.W.W.W.W.W.W.W.W.W.W.W.W.!.W.W.W.T./.W.T.T.W.W.W.W.W.W./.E.W.T.E.E.W.W.W.W.W.W.W.E..XT..X/.W.W.W.W.W.W.W.W.W.W.W.W.W.W.E.W./.T.E././.W.W.W.W.W.W.W.W.Q.W.W.E..XW..XW.T.T.W.W.W.#Xq z z z z l l z l z k l l l ` } [ [ ] [ ] ] | ] ] ] ] ' ] *.*.&.O.&.&.O.&.O.&.&.O.&.&.*.*.*.*.*.*.*.*.*.*.%.*.*.*.:.:.;.:.:.:.:.=.:.:.:.=.%.4X^ ' | ' ] ] [ | | | ' | ' | ' ^ ^ 6.6.' ' ' ~ ~ ~ ' ( ( 6.l l l l l l h l l z l z ~ #.#XW..XW..X.X.XW.W..X.X.X.X.X/..X.X(.W..X.X.X.X.X.XW.W.W.oX.X.X.XW.Q..XoX.X.X.XW.W.W.W..XW.oX.X.X.X.X.XW.oX.X.X.X.XoX.XW.!.oX!.!..X.XoXW..XoX.X",
"gXgXhXjXhXjXjXhXjXjXxXxXjXxX_ i f a a f g f f f f f f f L @XW.W.!.!..XW..X.X.X.XW.W.T.Q..XW.W.W..X.XW..X!..XW.W.W.W.W.W.W.W.W.W.W.W.!.W.W.W.%Xb z 6.l l l ^ 6.^ 6.^ 6.6.l ^ ' ' ' ' ' ' ' ' ' ' ' ' ' |  .o. .o.o.X.o.X.X.X.X... . . . . .o. . .} } } o. . . . . . .o.o.o.o. . .o.o. .o. .o. . . . . . .o. . . .} o.o.} } 6.' ' ` ( { ` ( ' { ( ' ( ~ ~ z ^ ^ ^ ^ l 6.^ ~ ^ 6.l n #XE.E.C.E.E.W.E.!.E.E.W.W.Q.!.!.W.!.!.W.W.!.W.!.E.E.!.E.E.!.E.E.E.!.Q.Q.!.!.E.!.E.E.!.!.W.E.!.E.E.Q.W.E.!.W.E.E.E.!.E.E.!.E.!.Q.!.E.!.E.W.!.E.W.W.W.W.W.W.E.!.E.!.W.!.E.!.E.Q.!.Q.E.W.W.W.Q.W.W.Q.W.!.W.W.W.W.Q.W..X.XQ..XW..XW.W.Q.W.W.W.W.W.W.W.W.W.Q.W.W.oX.XW.W.W..XW..X.X.XW.W.W.W.W.W.W.W.E.W.W.W.W.E.W.Q.W.W.Q.W.W.Q.W.W.W.E.W.W.E.W.E.E.W.W.W.W.W.W.W.W.E.W..XQ.W.W.W.E.W.W.W.E.W.!.!..XW.W.W.W.W.T.W..XW.E.E.E.W.W.E.W.W.W.W.W.T.W./.W.W..X!.W.W.W.W.T.E.W.W.W.W.W.W.W.W..XW.W.W.T.W.W.T..XW.W.W.W.W.T.E.W.W.W.T.W.T.W.W.W.W.W.W..XE.W.W.W.W.W.W.#Xb z ^ ^ z z z k l l l z z l 6.[ [ | ] | [ ] ] ] ] { ] { | O.*.*.&.&.&.&.O.&.O.&.O.O.&.*.*.*.*.*.*.*.&.*.*.*.*.*.*.:.:.=.:.:.:.=.=.=.:.:.:.%.4X| [ [ [ ] | [ ] [ ' ] ] } [ ' ' ' ' ' ^ ' ^ | ~ ~ ~ ( 6.~ k z z l ~ z l l l l l l l F #X.XW..XW..XW.W.Q.Q.W..XW..X.X.X.XW.W..X.X.X.XW.W..X(.(.(..X!..XoXoXoX.XQ.oXW.W.oXQ..X.X.XW.oX.XoX.X.XoXQ..XoX.X.X.X.X.X@XW..X!.oXoXoXoXoXoXQ.",
"hXjXjXjXjXjXjXjXjXjXjXxXxXxX..m 9 g f j f f f f f f f r L @XW.oXW.!..X.XW..X!.W.oX.XW.!.!.oX.X.X.X.X!.!.W.W.W.W.W.W.W.Q.oXQ.Q.E.!.Q.!.W.!.!.#Xb l l l 6.6.^ 6.6.^ l ^ ^ 6.6.' ] ' ' ' ] ' ' ' ' ' ' ' }  . .o. . .o.X. . . .X.X. . . .o. . . . .o.}  . . . .}  . .o. . .o. .o. .o. . . .o.}  . . .} }  . .} } } o.o.} } } [ 6.6.' { ' ( ` ) ( ) ( ' 6.l z ^ l 6.^ z ^ z ^ l ^ n b L.E.R.V.V.E.W.E.!.E.!.!.E.E.!.W.W.W.W.!.W.W.W.E.!.Q.!.!.Q.E.!.Q.!.Q.!.Q.!.!.!.E.!.Q.!.W.W.E.!.!.E.W.E.E.W.!.W.!.!.!.Q.!.Q.!.E.Q.!.!.E.W.W.W.E.E.W.W.W.E.Q.!.W.!.Q.E.E.!.E.!.!.!.W.W.W.Q.W.Q.W.Q.W.!.Q.W.W.Q.!.W.W.Q.W..XW..XE.W.W.W.W.W.W..XE.W.W.W.W.!.Q.!.W.W.Q.W.W.oXoXW.Q.oXW.oX!.W.W.W.W.W.W.W.W.W.W.W.W.E.W.W.W.E.E.W.W.E.W.W.E.E.W.W.E.E.W.Q.oXW.W.oXW.W.W..XQ.W.E.W.W.W.W.W.W.Q.W.!.Q..X.X.XW.W.W.W.W..X/..XE.E.W..XE.W.W..XW./.E.W.T.W.W.W.W.W.Q.W.W.W.W..XW..XW.W.W.W.W..XW.W.W.W.W..XW..XW.T..X.XW.W..X/..XW.W.W.W.W.E.W.E.E.W..X.XW.W.W.W.W.Q.L.b j z l z k z l z l z l l l ` [ ] ] [ ' [ ] ] ] ] ] ] ' ] O.&.&.O.&.&.O.&.O.&.&.&.&.O.*.*.*.*.*.*.*.*.+.*.*.*.*.*.:.:.=.:.:.;.=.:.:.=.:.:.%.=.| [ [ ] } } | [ | [ ] ' [ ' ' ' 6.6.6.' ' ~ ~ ' ~ | ( ( ~ l l l z l l l h l l l l n b #X.X.X!.!.W.!.oX!.oX!.oXW.W.W.W.T.W.oXW.oXY.(.W..X!.oXoX!.!..XoXoXW..XoXoX.X.XoX.XoX.X.X.X!.!..XoX!.oXoXoXoXoXoX.X.X.XoXoX!.!.!.oX.XW.!.oX!.oX",
"jXjXgXhXjXjXjXjXjXjXjXxXjXxX..d f f f f f f f f f p r y L @XQ.Q.W.E.W.W.W.W.E.E.W.T.W.E.E.W.W.W.W.W.Q.Q.W.W.W.Q..XW.!.Q.W.Q.W.Q.E.!.W.W.Q.Q.%Xb n ^ 6.l l l l l ^ 6.^ 6.^ 6.] ' ' ' ' | ' ' ( ' ' ' 6.}  . . .o.o. .X.o.X...X. . . . . . .}  .}  . . . . . . .o. . .o.o.o. . .o. .o. .o. .o.o.o.o.o.o. . .o.o.o.} } o.} } ^ ' ' ) ( { ) ` ( { ` ' ' 6.6.^ l l ^ l l 6.l l ^ ^ z b @XE.R.S.E.E.E.E.E.E.E.E.!.E.!.E.W.W.W.Q.W.W.W.!.Q.!.!.E.!.!.E.!.E.E.E.!.E.E.!.E.E.!.E.W.E.!.Q.!.E.E.W.W.W.E.E.!.Q.!.E.E.!.E.E.E.E.!.E.W.E.E.W.W.E.E.E.W.W.E.E.Q.!.W.E.Q.!.Q.!.Q.E.E.!.W.W.!.W.W.W.Q.!.Q.!.Q.W.W.W.W.W.W.W.E..XE.E.W.W./.E.E.E.W.E.W.W.W.W.W.W.W.W.W..XE.W.W.W.W.W.W.Q..XW.W.W.W.W.W.Q.T.W.E.E.E.W.W.E.W.W.E.E.E.E.E.W.E.E.W.E.W.E.W.W.W.W.W.Q.E.W.W.W.W.W.W.oXW.W.Q.W.W.W.W.W..X.XW.oXQ.W.W.Q..XE.E.W.W.W.E.W.E.W.W.Q..X.X.XW.W.W.Q.W.W.!.W.W.W.W.W.W.W.E.E.E.E.W.E.W.T.E.W.W.E.W.W./.T.E.T.T.W.W.W.W.E.T.W.W.Q.XX.X.X.XW.W.T.W.W.E.E.!.E.L.b z l z k z l z k z l l k z ( } ] ] ] | [ [ | ] ] ] ] ' | O.*.&.&.&.O.&.&.&.&.&.O.O.O.*.*.*.*.*.*.=.*.*.*.*.*.*.*.:.:.:.=.:.=.:.:.=.:.=.:.%.4X} [ | ' ' ] ' [ ] ] [ | [ | [ 6.' ' ' ^ ~ | ~ ~ ' ^ ( ( ~ l l l l l l l l l l l l l b #XXXXXoX.XoXoXW.W.(.oXW.W.oX.X.X.XoXW.W.W.W..XoXW.W..XW.oXoX.X!..XoX.X.XW..XW.!..X!.oX.X.X.X.XoX.XoXT.oXW.oXW.oXW.!.!.W.!.@XoXoXoX!.oXoX!.oXoX",
"jXjXhXhXjXjXjXjXjXxXjXjXxXxXo.g g g g z z g j j j g j g L %X%X#X@XXX@XQ.Q.Q.#X@X#XQ.Q.L.#XQ.#X#X#X#X#X#X#X#X#X#X#X@X#X@X@XL.Q.#X@XQ.@X#X#X#X%Xb ~ ~ l l l ~ ~ ~ ~ ~ ~ 6.~ ] ] ' ' ] ' ] ' ] ' ' ] ' ' }  . .o. . .X. .o. . .o. .o.} o. . . . . . . . .}  .} }  .} ..#... ...O. .o...@. .} }  . .} o.o.}  . .o.o.o. .} } } ' ' 6.` ( ( ' ' ' ' 6.' ' ' ^ ^ l 6.^ ~ ^ l 6.^ l l l b #X#XQ.@XQ.Q.#XW.Q.Q.Q.@X@X@X@XQ.Q.!.Q.!.@X!.!.@XQ.!.!.Q.Q.!.Q.!.!.E.!.!.Q.!.!.Q.!.!.!.!.Q.!.Q.!.!.!.&XE.E.!.!.!.!.!.!.!.Q.!.Q.W.W.E.W.W.E.W.W.W.W.W.T.Q.W.E.W..XQ.W.W..XoX.XQ.Q.W.oX!.W.oXQ.oXW..XE.Q.oXQ..XW.oXXX.X.XXXE..XE.XX/.E..X.XXXE.E.E.E.XX/.E.Q..X.XE.Q..X.X.XQ.XX.XoX.X@XoXXXXXoX.XXXXX.X.X.X.X.X.XW.W.W.Q.Q.W.Q.W.W.Q.W.Q.W.Q.W.W..XoXQ.oXQ.oXW..XoXQ..XoX.X.X.XoXW.Q.Q.E.W.W.Q.Q.E.E.E.E.E.W.Q.W..XXXE.W.Q.W.oX.X.X.X.XXXoXXX.X.XXXXXW..XXXoXoXoXoX.XW..XQ..X.XE.Q.W.E.W.E..X.X.X/.oX.X.X.X.X.X.XoX@X.XXX@XoX@XoX/..X.XoXQ.W.T..XW.oXoXoX!.!.L.n p n z j ^ z z z l z z z j ` [ ] ] ] [ ] ] ] ] | ' [ ' | %.%.%.%.&.&.%.%.&.&.&.&.&.O.*.*.%.=.%.%.%.%.%.%.%.=.=.=.:.:.:.:.:.:.:.=.:.=.:.:.:.:.} 6.] ' ] ] ' ] } ] } ] [ [ ] ' ' ' 6.6.~ ' ' ' ~ ~ ~ ' l z z z z l l l l l l h l l Z %X#X#X@XoX@XXXXX@X@X%X@X-X@X@X.X@X#X#XQ.@X@X@X@X@XoX#X@XXX@X@X@X@X@X@XoX#X@X@X@X#X@X@X@X@X@X@X@X@X@X@X#X@X@X@X@XXX@X@X@X#XQ.@X@XQ.@X@X%X@X#X@X",
"5X5X5X5X2.5X4X5X5X2.5X<.2.2.` 8 9 9 9 w u u a 9 u 9 9 5 n L L P $.P P A A A A A A A A L A A S S A b A A A b A A A A n L L A A L L L L L L A 5.g ~ 6.6.l 6.~ l l ~ ~ ~ ~ ~ 6.' ] ' ' 6.' ` ( ( ' ' 6.6. . . .o. ...X... .X.X. ...} o.o.O.o.+.o.o.o.o.o.o.o.o.o.o.,.2.2.2.<.<.1.,.>.;.-.<.4X1.%.%.%.%.%.+.%.+.+.+.%.%.%.%.%.} } }  .}  . . . . . . . ...6.6.^ ^ l ^ n l l l l ~ z z L P L A S b A A L P e.P $.P p.p.p.p.p.p.p.q.u.u.p.p.p.p.p.p.p.p.p.p.p.p.p.p.p.p.p.p.p.p.p.p.p.p.p.p.p.p.p.p.p.p.p.p.p.p.p.p.p.a.u.p.p.p.p.u.u.p.p.p.u.p.u.p.p.p.p.p.p.p.p.a.y.p.p.p.p.p.y.p.p.p.a.y.y.y.y.y.p.y.y.u.y.f.y.y.y.u.u.y.y.y.y.y.y.y.u.y.y.u.y.y.y.y.y.y.u.u.y.y.u.y.p.u.u.y.u.y.u.y.y.y.u.y.u.u.u.p.u.u.u.u.u.u.y.y.y.y.y.y.y.y.p.u.y.p.p.y.y.u.u.p.p.p.p.u.u.y.a.p.u.u.u.u.u.u.u.u.u.u.u.u.u.u.u.u.u.u.u.y.u.u.y.y.y.y.y.y.y.u.u.y.y.y.y.y.a.p.p.f.y.y.y.y.y.u.u.u.y.u.u.y.y.u.u.u.u.u.y.y.y.y.u.y.y.u.y.p.p.p.p.u.u.M.p.p.p.u.u.p.S.h.u.u.r.r.+ 7 p p p z z z j h f j f u ( } ] [ | } } ] } [ [ [ } [ | %.%.o.%.%.%.O.%.&.O.O.&.O.&.4X6XtXtXtXtX6X6X6X6XtXpX0XpX:.:.:.:.:.:.:.=.=.:.:.=.=.:.%.%.&.&.O.O.&.&.&.%.%.%.%.%.} ] ~ ~ ' ' ' ~ ^ ' ~ ' ^ ' j j p p f f f f f f f p f f r A F A L L L A A A L A A A A L L L G A L A L A L L L A A L G P L L P L L L P P L P L P P L L P L P P P P P P P L L P P L L P L L P L L P P L L ",
"1 8 8 1 1 4 1 1 2 6 9 2 8 2 2 2 8 2 4 2 8 9 4 2 6 4 2 4 6 3 = 0 3 = + 7 3 = 3 - 3 - 3 3 3 = 2 3 3 3 + + + x x x * x + 3 x + x x x 3 7 3 = = 3 p l l l l l l l l ~ k ~ l ~ l 6.~ 6.~ ^ ^ 6.6.~ ~ ^ ^ ~ [  . . .o.X.X.X.X...X. .#.}  .%.O.O.O.O.O.o.O.O.O.O.%.O.O.4XsXyXsXdXfXdXdXkXdXdXdXzXzX4X=.:.:.:.%.%.:.:.:.:.:.:.:.=.O.%.O.O.O.O.O.&.o.&.&.&.&.o.6.l l l l ~ ^ ^ n l l ^ z q + + + + = 0 3 x 0 = = q = : e.w.w.w.w.8.w.K K w.w.K H J w.w.w.w.w.w.w.K w.J J J J J J H H J J K V H H K K H K K w.J J w.w.J J w.w.w.w.w.w.8.w.8.8.K 8.8.8.J J 8.8.K H w.K J J w.K w.K K H H H 8.H H H H H Y H H H H U w.w.H 8.w.8.T 8.w.Y Y w.Y w.Y w.Y Y Y H U H J J J K J H J H H H J 8.H H J H U H Y Y U w.w.w.8.w.0.w.w.Y 8.w.w.8.w.w.w.w.H H H H H H H H H H K H K H H H 8.J 8.8.w.w.w.w.w.w.w.w.w.8.8.w.H w.w.w.w.w.H H V V V V H H V V H H H H H H H H V V V Q U 8.8.8.w.w.w.w.U 0.Y Y Y w.8.U Y Y J H H H V K K K H K H H H H U H H H 8.w.8.K K K P = 6 7 p p 9 9 7 7 u 9 9 9 2 g } } } ] } } } } } [ | } | } o.&.o.o.o.o.O.&.o.O.o.&.+.| 5XdXgXdXsXhXgXgXsXsXgXzXzXcX:.:.=.=.=.=.=.=.=.=.=.=.:.%.:.:.:.:.:.>.:.>.>.<.<.:.<.1.o.] ' ' ' ' ' ^ ' ~ ' ] | ' s 9 4 9 q 9 r u 9 f q q 9 9 4 * * 5 : - 3 = : + = = - 3 : = = = - 5 3 3 - + = + = * + 3 + + * % % % = = = * + = + * + * * & * * & * * % = = = = = 3 3 = 5 3 * = 3 % 3 + + + ",
"8 1 1 8 4 4 8 8 3 2 7 4 8 4 2 2 2 2 2 2 2 2 2 2 2 2 2 4 6 2 3 3 7 3 9 7 3 6 7 7 7 3 3 7 6 6 3 2 7 7 7 7 7 7 x 7 2 x 7 x 6 x 2 1 x x 6 x x 2 2 l l ~ l l l l l l k ~ l ~ ~ ~ 6.6.~ 6.6.6.( ( ( 6.l 6.~ }  . . .o. ... . . . .X... .O.o.%.O.O.O.O.o.O.O.O.o.o.o.o.5XdXsXfXdXdXkXsXaXlXsXsXsXdX6X%.:.:.:.:.%.:.%.:.:.:.:.=.=.O.%.O.O.O.O.O.&.o.O.O.o.&.O.6.6.6.^ l ^ n ^ ^ l l l ^ f 3 + 3 2 3 2 7 7 7 7 3 3 x x L w.K w.w.w.K w.w.K w.w.J J K w.w.J w.w.J J J w.J w.J J J 8.J J J H H H H w.J w.w.w.K w.J w.J J J w.w.K e.w.w.8.K J 8.8.J J 8.w.J w.H w.J w.w.Y Y K J w.w.w.H J J w.H H J J J J w.J J U Y w.J H J J Y U J U w.Y Y Y Y w.Y Y Y Y J Y Y Y w.Y Y Y Y J J H J J K Y Y w.J Y Y Y Y Y U J J J 8.Y Y Y Y J J J Y J H H H J J J J w.K K w.J H J J H H J Y J J J J J J J w.w.w.J J J 8.U Y w.J J J J H H H U Y I Y J Y J J J J J H J H J Y U U U I U U J J H J w.J U U Y Y U U U T Y Y Y Y U Y J H H H H w.Y H H H H J H J K J J w.K 8.A & 6 7 7 p p 9 p p 9 9 9 9 2 l } } | } } ] } [ } } } } | | o.o.o.%.o.O.o.O.o.o.o.o.O.o.5XfXaXaXsXhXhXaXaXdXsXsXgXzX=.:.=.=.=.=.=.=.%.=.=.=.:.=.:.:.:.:.:.:.:.:.>.>.:.:.:.:.&.' ' ' ' ' ' ] ' ~ ' ^ ' ' ^ 7 9 q 9 f 9 f 9 9 9 9 9 u 7 3 * 3 2 2 3 2 3 2 2 2 3 x 2 2 2 2 2 3 3 3 3 2 2 2 2 6 7 6 7 9 2 4 4 2 2 2 2 2 7 7 7 2 2 2 2 2 + 2 2 x 2 2 2 2 7 6 2 2 3 2 3 3 2 2 2 2 2 2 6 2 ",
"2 2 2 4 4 4 4 1 3 3 3 2 2 2 2 4 * 2 2 2 2 2 2 2 2 1 2 2 2 2 6 2 2 4 4 2 3 3 4 4 3 3 2 2 2 2 2 2 3 * 3 7 3 x * 7 2 x x x 2 1 2 2 3 x 2 6 x 1 6 k ~ l n l l l l l ~ l l l l l ~ ~ 6.~ ~ 6.~ 6.~ ~ 6.~ ~ [  . .X.X. .X. . . . .#. . .O.O.O.O.O.o.o.+.&.o.&.%.O.o.o.5XdXdXsXsXaXfXsXsXsXsXfXdXkX4X=.:.:.:.:.:.:.%.:.:.:.:.%.=.O.%.%.&.&.%.+.o.&.%.O.O.%.%.6.6.l l ^ n ^ ^ l ^ n l ^ f 2 x 2 2 2 2 2 2 2 2 2 3 + + P w.w.w.w.w.w.w.w.J w.w.J w.J J J w.J w.w.J w.J J w.w.w.J J J H J w.J J 8.J J J J J J J w.K H J w.w.J J J J J K w.J J J J J w.J w.J J J 8.J J J Y w.K J w.J J J J w.R Y J J J J J J J Y Y J Y Y Y H Y Y Y J Y Y Y Y Y Y Y U H Y w.Y Y Y Y J U U Y J J J J Y Y Y Y J w.J J Y Y Y Y J J w.J J J Y Y Y J J Y J J J J J Y Y Y Y Y J Y J J J Y Y Y Y J J J J J J J J J K w.K w.J J Y Y Y Y Y Y J Y Y Y Y Y Y Y Y Y Y Y Y U Y Y J Y J H K Y Y Y I Y Y Y Y Y Y Y Y U U Y Y H Y K J I H J I Y Y Y H J U Y U H Y H J H J H J J J K J J A 0 9 9 9 9 9 p 9 q 9 9 9 9 6 ~  .} } } ] } } } [ | } } [ } o.o.o.o.o.%.o.o.o.o.o.&.o...5XsXsXsXhXaXgXsXaXzXsXsXzXzX:.:.:.=.=.=.:.=.=.=.:.:.%.:.:.:.>.>.:.>.>.:.>.:.1.>.:.1.&.' ' ~ ~ ' ' ' ~ ' ' ' ( ] ~ 9 r q 9 r a 9 9 9 9 w 9 9 9 2 2 2 2 2 x 2 x 3 3 x 2 2 x 2 2 2 2 * 4 * * * 2 * 2 2 2 2 2 2 2 1 2 2 * 2 2 2 2 2 2 2 2 * 2 2 2 * 2 2 * 2 2 * * 2 * 2 * 2 * * * 2 * 2 * 2 2 * ",
"3 4 3 2 4 1 4 4 2 2 2 * 4 2 * 2 2 2 2 2 2 2 1 2 2 2 2 2 4 2 2 2 3 2 3 2 3 3 7 3 7 7 3 2 3 2 2 2 3 * 3 x 3 7 7 6 6 6 6 6 2 6 6 1 6 6 2 6 6 6 x z l ~ ~ l l l l l l k l l l l ` 6.~ ~ ~ 6.~ ~ 6.~ ~ ~ l [  . . . . ...X. .X.}  . .} O.+.O.O.O.%.%.o.o.&.&.%.O.%. .5XkXsXsXsXsXsXhXsXsXfXdXdXdX4X-.:.:.:.:.:.:.:.:.:.:.:.:.=.%.O.O.+.&.%.O.+.&.O.o.O.o.%.6.6.^ l l ^ l l l ^ l l j k 2 2 2 2 2 6 2 6 6 2 2 3 x + P P w.w.P w.P w.P w.J J w.J w.w.J J J J J J J w.w.J J J J J J J J J J J J J J w.J w.w.J J w.J J J J J J J J w.w.P J J J J J w.J J J J K J Y J Y Y J w.J J J J J J J J Y Y w.J J J Y Y Y J Y Y J Y Y Y Y J Y Y Y Y Y Y Y Y T Y Y Y Y Y Y Y T Y U Y J J Y Y Y Y Y J J J w.J Y Y Y Y J J J J J J Y Y U H Y J J J Y Y Y Y U Y Y Y Y U J J J J Y Y Y Y J J J J w.K J J w.K J J Y Y Y Y Y Y Y Y Y Y Y Y Y Y Y Y U U T Y Y I Y Y Y Y Y Y Y Y Y Y H Y Y J Y J J J Y T Y Y Y U Y Y Y Y Y U Y Y Y Y U U J Y G H Y I Y H J J J H J J J J R 0 9 p 9 9 9 9 9 9 u 9 9 u 8 n } } ] } } } | ] } } | } [ } o.o.o.o.o.o.o.O.O.O.o.o.O.o.7XdXsXsXsXsXsXsXaXsXsXdXzXzX:.:.:.:.=.:.=.:.=.=.%.:.:.:.%.%.:.:.>.>.>.:.>.:.:.:.:.:.X.( ( ' ^ ' ' ' ' ' ~ ' ` ' ~ 9 9 9 w 9 9 q r u q 9 q 9 4 2 * 2 1 2 2 2 3 7 x 2 x 3 x 2 3 x x 3 * 2 2 2 2 2 2 2 2 2 2 2 2 2 2 2 2 2 2 2 2 2 2 2 2 2 2 2 2 2 2 2 4 2 4 2 2 2 2 2 3 * 2 3 2 2 2 * 2 * 2 * ",
"3 2 2 4 2 4 4 2 2 3 2 2 * 2 2 * 2 @ 1 2 2 2 2 2 2 2 2 2 2 2 2 2 2 2 6 8 6 6 7 7 7 7 6 6 6 7 2 2 6 x 7 7 7 7 x 7 7 6 7 1 6 2 6 6 x 6 6 x 1 1 1 ^ l l l l l l l l ! k l l l ` ` l ~ ~ n ~ ~ ~ ~ ~ 6.6.^ [  ..... . .@. . . . .X. . .o.O.%.+.o.+.o.o.o.%.&.%.O.&.o.5XkXsXsXsXsXsXsXsXsXsXfXsXkX4X:.:.:.:.:.:.:.:.:.:.:.:.:.=.%.%.%.&.%.O.%.o.&.&.%.O.O.o.l 6.l l ^ l l n ^ z ^ l l k 2 6 2 2 2 2 2 6 2 2 2 6 x x P K w.P w.w.P w.w.J J J J J J J J J J J w.w.J J J J J w.J J w.8.J J J w.J w.J J J J w.J w.w.J w.J J J J J J e.J w.J J J w.J J J w.J J w.8.Y Y Y Y J J J J J J J J J J J Y J Y J Y J Y J U J Y Y Y Y Y J U Y Y Y Y Y Y Y Y Y 0.Y Y Y Y T Y Y Y Y Y Y Y Y Y Y Y Y Y Y J J J Y Y U Y J J J J U Y Y Y Y Y w.J U Y Y J Y J U Y Y U J Y J J J J Y Y Y Y J J J w.K w.w.K J J J J Y U Y Y Y Y Y Y Y Y Y Y Y U U U U Y Y Y Y U Y Y Y Y Y H H Y Y Y Y Y Y Y K T Y J H Y Y Y J J J Y U Y Y J H Y J Y H J J H J J J J J H H I J J J J J J $.& 9 9 9 u 9 u p 9 9 r 9 9 6 ~ } [ | } } } } } } | } } [ } o.o.o.o.o.o.o.O.o.o.o.O.O...5XgXsXsXsXhXsXsXsXzXsXsXdXzX=.%.%.:.:.=.=.=.=.:.%.:.:.:.:.4X>.>.:.:.>.:.:.:.:.>.:.>.} ~ ' ` | ' ' ' ' ' ' ' ` ' ~ 9 9 r 9 a 9 9 u 9 9 9 9 w 4 4 = * * x 2 2 2 2 2 2 2 2 3 2 2 2 2 2 3 2 2 2 2 2 2 2 2 2 2 2 2 2 2 2 4 2 4 2 2 2 2 2 2 2 2 2 2 2 2 2 2 2 4 4 2 2 2 2 2 2 2 2 2 2 2 2 2 2 4 2 ",
"4 2 2 2 4 4 4 4 3 3 3 3 2 2 2 2 2 2 2 2 2 2 2 6 2 4 1 2 2 2 6 2 4 4 2 4 4 4 8 4 2 2 2 2 2 2 2 2 3 x x 3 x x 6 6 6 1 6 6 1 6 1 6 6 x x 6 6 6 6 ^ g l l l l z l l F l l l l l ~ l ~ ~ ! ~ 6.~ ~ 6.^ l l [  . . .o. . . . . . . . . .o.O.%.+.+.O.O.o.&.o.%.O.O.&.%.6XkXsXsXfXdXsXsXsXdXdXdXsXkX4X%.:.:.:.:.:.:.:.%.:.:.:.:.%.%.%.o.O.&.O.O.&.o.o.%.&.O.%.l ^ l l l l ^ ^ z l l j l k 3 2 2 2 * 2 2 2 2 2 2 x 3 + A K w.w.w.w.w.K w.w.J w.J J w.J w.w.J w.J J J w.J J w.J J J J w.J w.J J J J w.w.J w.K J J J J J w.J w.J w.w.K J J J w.J J J J J J J J w.K Y J Y J J J J J J J J J J J Y Y Y Y Y J Y Y Y Y Y Y Y Y Y Y Y Y Y Y Y Y Y Y Y Y Y Y Y U U Y Y Y Y Y Y Y w.J J w.J Y Y U U J Y J U Y Y Y J w.J J J Y Y Y w.J J J Y J Y U Y J J J J Y J J w.J J w.Y Y Y Y w.H J J w.J J w.J J w.J Y U Y U Y Y J w.Y Y w.Y Y Y J J Y H J Y Y J J Y H Y Y Y U U U J U Y Y J H U Y Y Y U U Y U J J Y U J Y U Y Y I Y Y J J Y J J J J J J J J J J J J J J R e 9 u 9 u 9 9 q 9 9 9 a 9 9 ~ } } } } } ] } } } [ [ } } } %.o.o.o.o.o.o.o.O.o.o.o. .O.3.gXsXsXsXsXsXsXsXsXsXsXsXsX=.%.:.:.:.%.=.=.=.=.:.:.%.:.:.:.>.>.:.:.:.>.:.>.:.>.:.:.| ! ( ( ' ' ^ ' ' ~ ^ ] ` ) ~ 9 9 9 w 9 a 9 9 r 9 a 9 9 5 4 3 2 2 2 2 * 2 x * 2 x 2 2 x 2 2 2 * 2 2 2 * 2 * * 2 * 2 * 2 * 2 2 * 2 2 2 * * 2 2 * 2 2 2 * 2 * 2 2 1 2 @ 4 2 2 2 1 2 * 2 * @ 2 2 * 2 * * 2 ",
"3 4 3 4 4 4 3 2 2 2 2 4 4 2 2 2 2 2 2 * 2 2 6 2 2 6 1 6 2 6 2 2 2 2 2 6 2 2 6 2 2 2 8 2 2 2 2 2 3 6 2 2 2 1 2 2 1 2 1 2 2 2 2 1 6 6 2 2 2 2 2 l l l l l l l g l l l l l l l ~ 6.~ 6.~ 6.~ ~ 6.l 6.~ l [  . . .o. .}  . . . . .X. .X.@.O.O.O.O.O.%.o.O.&.O.O.O.+.7XdXdXsXdXdXsXsXzXsXsXaXaXzX4X:.:.:.:.:.:.:.:.:.:.=.=.=.%.+.%.%.%.o.o.%.O.O.O.O.O.o.O.6.^ ^ n ^ ^ l l l l j l z l 2 * 2 2 4 4 2 2 2 2 2 2 2 + L J J J J w.w.w.w.w.w.J w.J w.J J J J w.J J J w.w.J J w.J J w.J J J J w.J J w.J J w.w.w.K K w.w.w.P w.K w.w.K w.w.J w.w.J J J w.J J w.J J J J Y Y Y J J J Y K Y J J J J Y Y Y T J J Y Y Y Y Y J J J Y J Y Y Y Y Y Y T Y Y Y Y Y T Y Y Y I U Y Y Y J J R J J Y Y Y Y Y J Y Y Y Y Y Y Y Y Y Y Y Y J J J J J J Y Y Y Y J Y J Y Y Y Y Y Y Y Y Y Y U H J J Y Y Y Y Y Y Y Y U Y Y Y U Y Y Y Y Y Y Y Y Y Y Y Y Y Y Y Y Y Y Y U Y H Y Y Y H I J J H Y Y Y Y Y U J J U Y H Y Y Y Y Y Y Y J Y Y Y I Y Y Y Y Y J Y J K Y I H J J J J 8.K e., 9 9 9 u 9 9 9 u p 7 p 9 7 ~ } [ | } } } } } } } } } [ } o.o.o.o.o.o.o.o.O.o.o.o.X.%.4XzXsXsXsXsXsXsXsXhXsXsXsXxX4X%.%.:.:.=.=.=.=.=.:.=.:.:.:.:.:.:.,.>.:.>.:.:.:.=.>.=.] ! ' ' ~ ' ~ ' ' ' ) ' ` ' l 9 q 9 q u f 9 9 9 q 9 r 9 2 2 * 2 x 3 * 3 2 2 * 2 2 1 2 2 2 2 2 1 * 2 2 2 2 2 @ 2 2 * 2 2 @ 2 2 2 * 2 2 2 2 2 * 2 2 @ 2 2 2 2 2 2 2 2 * 2 2 @ 2 2 * 2 2 2 @ 2 * 2 4 * 2 @ ",
"4 3 3 3 2 4 3 2 4 2 4 * 2 2 * 2 2 2 2 2 6 2 4 2 2 2 2 2 2 2 6 4 2 2 6 2 2 8 2 8 2 6 2 2 2 6 1 6 2 2 2 2 2 2 2 2 6 2 2 2 2 1 2 2 2 x 2 2 x 2 1 k l l l l l l l l l l l l l l ~ ~ ~ ~ ~ ~ 6.6.~ ~ ~ ~ ^ [  .X. . . . .o. . . . .X. ...O.&.O.&.@.O.O.&.O.&.O.O.o.O.5XdXdXsXdXdXdXsXsXsXsXzXlXaX4X%.:.:.:.%.:.:.%.:.:.:.=.:.%.+.O.+.o.%.%.O.O.%.O.O.O.%.o.6.^ z z ^ l l l j l ^ ^ j l 4 4 2 2 2 * 2 2 2 2 2 2 2 = L J w.J w.P w.K w.J J J J J w.J w.w.J w.J w.J J J w.J w.J J J J w.J w.J J J w.J w.K w.w.w.w.w.K w.w.w.K w.K w.w.J w.J J w.w.J J J J J J J J J Y J Y Y Y Y Y Y Y Y J J J Y Y J J J Y J Y J Y J I Y Y Y Y Y Y Y Y Y Y w.Y Y Y Y Y Y Y Y Y Y Y Y Y Y Y Y Y Y J J Y J Y Y Y Y Y Y Y U Y Y Y Y Y Y Y J Y J J J Y J Y J Y Y Y Y J Y Y Y J Y J Y Y Y Y Y J J Y Y Y Y Y Y Y Y Y Y Y Y I Y Y Y Y Y Y Y Y Y H Y J Y Y Y Y Y U J Y J Y U Y Y Y Y U U Y Y Y Y Y Y I Y J U Y H Y Y J I J J Y Y H Y J J H T Y J K T J J Y Y H H J J J J K 8.$.e 9 p 9 9 9 u 9 9 7 p 7 9 7 l } } } [ | } [ [ [ | | } [ } o.o.o.o. .o. .o.O.o.O.o.X.%.4XzXsXsXsXsXsXsXsXgXhXsXiXzX%.=.=.:.=.=.=.=.=.:.:.=.:.:.:.:.>.:.:.:.:.:.:.>.>.:.:.:...' ) ' ' ' ' | ~ ' ' ' ( ' ~ 9 9 q 9 9 9 9 w 9 9 w 9 9 4 2 2 * 3 x * * x 2 * 2 2 2 2 1 x 6 2 2 2 2 @ 2 * 2 * 2 2 2 2 2 2 * 2 @ 2 2 @ 2 2 * @ 2 2 * * 2 2 * * 2 * 4 2 1 2 2 2 * 2 1 * 2 4 @ 2 2 1 2 @ 2 ",
"2 3 3 * 2 = 2 4 * 4 2 2 * 4 2 2 2 2 2 2 6 4 2 2 6 1 2 2 2 6 6 2 6 2 2 2 2 2 2 6 6 2 6 2 1 2 2 2 x 2 2 6 2 2 2 2 2 2 2 1 2 2 1 2 1 2 2 1 2 2 1 k g l l l l l l l l l l l l l ~ ~ ~ 6.~ ~ ^ 6.~ ~ ~ ~ z [ o.}  .o. . ... . . . . . ...O.&.O.O.&.@.O.O.&.+.&.O.O.O.5XsXsXsXsXdXdXsXsXsXsXsXaXzX%.%.:.:.:.:.%.:.:.:.%.:.:.:.:.+.+.%.%.O.O.O.O.%.O.O.O.o.%.6.^ z ^ n l l l j l ^ l l l 2 * 2 * 2 4 2 2 2 2 2 6 2 + L e.J J w.w.w.w.w.w.J w.J w.J J J J w.J J w.J w.J w.w.J w.w.J w.J J J J w.J J J J w.w.K w.P w.K w.K w.w.w.K w.w.w.J w.J J w.J w.P J w.w.J J J J Y Y J I Y Y Y Y Y J J J Y Y Y J J I J Y Y Y Y Y Y Y Y J Y J T Y J Y Y Y Y Y Y Y Y Y Y Y Y Y Y Y Y Y Y Y J J J J Y H Y J U Y Y Y H Y T Y Y Y Y Y I Y Y Y J J J Y Y Y J I Y Y J J J Y Y Y J Y Y I H J J Y Y Y Y Y Y Y Y Y J Y Y Y Y Y T Y Y Y Y U J Y Y Y Y Y Y Y Y Y Y Y Y J U I J Y Y U J J Y U U H U H U H H Y J Y Y J U J J Y Y J Y Y Y Y K H J K J J J K Y J J J J K J J w.$.e 9 9 u u w 9 9 a 7 7 7 p 7 l } [ ' } } ' [ } } [ } } [ } o. .o.o.o. . .o.o.o.o.o.o. .5XxXsXsXdXsXsXsXsXsXdXsXdXzX&.=.O.4X:.=.=.:.=.=.=.=.*.=.:.:.:.:.:.:.:.:.>.,.>.:.>.:.o.( ' ( ' ~ ' ~ ' ~ ' ~ ' ` ^ u 9 9 r u r 9 9 9 9 9 q w 9 2 2 2 3 x x 3 2 2 2 2 2 2 2 * 2 1 2 x 2 @ 2 @ 2 2 2 2 2 2 2 * 2 2 * 2 2 1 * 2 2 * 2 2 1 2 2 2 2 2 2 2 2 @ 2 2 2 2 2 @ * 2 * 2 * 2 @ 2 2 * 4 1 ",
"3 3 3 4 3 3 2 4 4 2 2 3 4 2 2 4 2 2 2 * 2 2 2 2 2 2 2 6 2 2 2 2 2 2 2 8 6 6 4 2 2 4 2 6 2 2 2 2 2 6 2 x 1 2 2 1 2 x 2 6 2 2 2 2 2 2 2 6 1 2 6 l l l l l l l l l l k l l l m m ~ ~ ~ 6.~ ~ ~ ~ ~ ~ l l ]  .o.o.}  . .@. . . . . ...X.@.&.O.O.&.O.O.O.O.O.&.O.O.O.5XdXsXsXsXsXdXsXsXsXsXfXaXzX4X:.:.:.:.:.:.:.:.:.=.:.=.=.%.%.+.o.O.%.%.O.%.O.%.O.O.%.O.^ l ^ z ^ l ^ l l z j l z l 2 2 2 2 2 * 2 2 2 4 1 6 6 + A J J w.J w.w.P w.J w.J J J J w.w.J J J w.J J w.w.J J J J J J J J w.J w.J J w.J J P w.K w.w.w.w.w.w.w.w.P w.w.K K J J J J J J w.w.J J J J J J J Y Y Y Y Y Y Y Y Y J J J J J Y J J Y Y Y Y Y J Y J J Y J J J J Y Y Y Y Y Y Y Y Y Y Y Y Y Y Y U U Y Y J Y J T J Y Y Y Y Y Y Y Y Y I J J Y Y Y Y J Y J Y J T J J T J Y Y U Y Y I Y Y J Y I Y Y Y Y J J J Y U Y J U T Y Y U Y Y Y Y Y J Y Y Y Y U J J K Y J Y Y Y Y Y Y Y Y H U U H Y Y J U Y Y Y H U J U U J I Y Y Y H U J U I Y Y H Y Y Y J Y Y Y Y J J T K Y Y K Y J J J J K J P 0 r 9 9 9 9 9 9 9 7 p 7 7 7 ~ } [ [ } [ } [ | [ | [ | [ | o.o.o.o.o.o.o.o.o.O.o.o.o.o.4XzXsXsXdXdXsXsXsXsXdXsXsXsXo.=.%.%.:.=.:.=.=.:.:.=.=.=.:.:.,.>.,.>.:.>.>.>.>.:.:.:. .( ( ( ' | ' ~ ' | ' ~ ) ] z 9 r q 9 9 9 r 9 w w 9 9 9 4 2 * 2 2 x x x x 1 2 + + 2 2 2 * 2 2 2 2 * 2 2 @ 2 * 2 * 2 2 2 * @ 2 2 * 2 2 2 1 2 * 2 2 2 * 2 2 * 2 1 2 2 * 1 1 * 2 2 2 2 2 1 2 1 2 * * 2 2 * ",
"2 - 4 3 3 3 3 * 3 2 3 2 4 2 2 * * 2 2 2 2 2 4 2 2 6 2 2 6 2 2 4 2 2 2 2 8 2 4 2 2 6 8 2 2 2 1 2 2 2 1 6 2 1 2 2 1 2 2 2 1 2 2 1 1 2 1 2 1 2 1 g l l l l l l l g l l l l l l ~ 6.~ 6.~ ~ l l 6.6.l ^ 6.[  .o. . . . ... ... .#...#.X.O.O.&.O.O.O.@.&.@.&.O.O.O.O.7XsXsXsXsXsXsXsXsXzXsXsXaXzX4X%.:.:.:.%.:.:.:.%.:.:.:.=.=.O.%.%.O.O.%.O.O.%.O.O.&.+.%.6.l 6.l l l ~ l j k k k z l 2 2 2 2 2 * 2 * 4 2 2 2 * . L P w.w.w.w.K w.K w.J J w.J J J J w.J J J w.J J J w.J w.J J J J w.J J J w.J J J w.w.w.w.w.w.K 8.K P w.K w.K w.K w.w.w.K 8.J P w.w.J J J J Y Y Y Y Y K T U Y Y J J Y Y Y J Y J T J Y Y Y Y I Y Y Y T J J J T Y Y J Y Y Y Y Y Y Y Y Y J U H Y Y H Y J Y Y J J J J J J J U U Y Y Y Y J Y J Y Y Y J Y J Y J U J Y J Y Y K Y Y U T J J T J J J Y Y Y Y Y U Y Y Y Y Y U J J J Y w.K 8.K Y Y Y Y J Y Y I T U Y J Y Y J Y J Y Y Y H Y Y Y H Y Y U J H H H Y H H Y H H H Y Y Y Y Y Y Y Y Y Y Y Y Y Y Y J J J J J J J K Y Y K J H H H K L - 9 9 9 9 9 9 9 9 p 7 7 7 6 6.} [ } [ } | | [ | [ [ } | } o.o.o.o. .o.o.o.o.o.o. . .o.4XdXsXsXgXaXsXaXsXsXsXsXsXsX..4X&.o.=.=.=.=.=.=.:.=.=.:.*.:.:.:.,.:.:.:.>.,.>.:.>.>.] ^ ' ' ' | ' ~ ' ' ' ' ` ' k u 9 9 r u 9 q 9 9 9 9 9 9 4 * 2 2 x x 3 3 2 * 3 * x x x 2 2 2 2 * 2 1 * 2 2 2 2 2 2 2 2 2 2 2 2 2 2 * 2 @ 2 2 2 * 4 2 2 * * 2 2 * 2 1 4 2 2 2 * 2 2 2 2 2 2 2 1 2 2 2 @ 2 ",
"2 2 4 * * 3 2 4 2 4 2 2 4 * 2 2 2 2 2 2 8 1 1 2 2 2 2 6 4 6 2 4 2 2 2 2 8 2 2 2 2 8 2 8 6 2 2 2 2 x 2 1 2 2 1 2 2 1 1 2 1 2 2 1 x 2 1 2 2 2 1 k l g l l l l l l l k g l l l l l ~ l ~ ~ ^ 6.6.^ 6.l ^ [  . . . .X...@. .X.o. .#...@.O.O.O.O.&.@.&.&.&.&.O.&...O.4XsXdXsXsXsXsXsXsXsXsXsXzXzX4X+.:.:.:.:.:.:.:.:.:.:.=.:.=.%.O.O.O.%.O.%.%.o.O.%.o.&.%.^ l ^ ^ z k l l l l k k l l 2 2 2 2 2 4 2 2 2 2 2 2 4 + S J J K w.w.w.w.K w.J J J J w.w.J w.J w.J J J J H J J J J J w.w.w.w.J J J J w.w.J w.K K w.w.w.w.K w.w.w.w.K w.w.8.K K w.8.J w.w.K J w.J J Y K Y Y J J J Y Y Y J J J Y J J Y Y J J Y Y Y Y J Y H Y J J Y Y Y Y Y Y Y Y Y Y Y Y Y Y U U Y Y Y Y Y Y Y Y Y J J J J H I Y U J J Y J Y Y Y J T Y U J Y Y Y Y J J Y J J J J Y Y H K Y Y J J J J J J J J U T K Y U Y Y Y J J J U J 8.K 8.J Y Y Y Y Y Y J Y H J Y Y J Y T Y Y U Y Y J U H Y H Y U H Y I Y J J Y U Y J Y U Y Y Y Y I Y Y Y Y J Y Y Y Y J J J J J J J Y K Y J J K H H K G = 9 u 9 9 9 u a 9 7 7 7 p 6 ^ } [ | } | | [ | [ | | [ [ } o.o.o. .o.o.o.o.o.o.o.o.+.o.4XzXsXsXsXsXsXzXhXsXdXhXsXaX..=.%.4X:.:.:.=.=.=.=.:.:.:.:.:.,.:.>.>.>.>.>.>.>.>.:.>.] | ~ [ ' ^ ' ' ~ ' ~ ' ` ` j 9 r 9 9 9 u 9 r 9 q 9 q 9 3 2 + 2 = x x x 2 1 * * 3 7 2 3 2 * 2 * * 2 2 2 2 * * 2 2 * 2 2 2 @ 2 2 2 2 2 2 2 * 2 2 2 * 1 2 1 2 4 * 2 2 1 1 2 * 2 4 2 4 2 - @ 2 4 4 2 2 2 4 ",
"2 2 4 2 4 2 3 2 2 2 2 2 2 2 4 4 4 6 4 4 4 2 @ 1 1 2 4 8 6 8 8 5 8 8 8 8 9 4 2 2 2 2 4 2 2 2 4 2 6 2 2 6 2 1 2 2 6 2 6 6 6 2 2 2 2 2 6 2 4 6 9 l l l m ~ l l l l l l l l l 6.6.~ 6.~ ~ l n ^ 6.6.l l l [  . . . ...X. .X. ... ... .X.o.O.@.O.@...&.@.@.&.&.@.O.&.tXiXdXdXsXsXsXsXsXsXsXsXaXzX1.:.:.:.:.:.:.%.%.%.%.%.%.%.%.O.%.%.O.O.%.+.%.%.+.%.&.&.o.n ^ l l l k l k k k k l k g 2 2 2 2 * 4 * * 2 * = 2 2 X G K J w.K K w.w.8.w.J J J w.w.J w.J w.J w.w.8.H H J J J J J K w.K J J J w.J J w.J w.w.w.w.P w.w.w.K w.K K w.w.w.8.w.K 8.K K w.K w.H Y Y H Y I H Y Y J Y Y Y Y J J J J J J J J J Y Y Y Y U Y Y Y Y Y Y Y Y Y Y Y Y Y I Y Y Y Y Y Y U U Y Y J Y Y Y Y I Y Y Y J J J H Y Y Y Y Y Y Y J J J J U Y Y Y Y Y J J H J T J Y H U Y Y J Y Y K H J J Y Y H I Y H Y Y Y Y Y Y w.J J w.J J 8.K Y J Y Y J Y Y Y Y I J J J H Y K J Y I U I H U H Y Y Y Y Y T H Y Y Y Y T Y T Y U Y Y Y Y U Y J Y J Y J K Y I H J J J J J J Y Y Y Y Y Y J K H A % 9 w 9 q 9 9 9 9 7 p 7 p 6 ^ } [ } } [ } | [ [ [ | | ' } o.o.o.o.o.o. .o.o.o.o.o.X.o.4XzXsXsXsXsXsXgXzXaXsXsXaXzX..%.%.%.:.:.%.=.%.=.=.=.:.:.1.,.>.>.>.:.>.>.>.>.>.-.:.:.] ^ ' ^ ' ] ' ~ ' ' ' ( ) ' k 9 q 9 q u 9 r r 9 9 q 9 q 0 3 2 * + x . . . X + 3 3 : 0 7 1 * 2 2 2 * 2 @ 2 1 2 2 4 4 4 3 4 2 4 4 2 2 2 * 2 2 2 * 2 4 4 4 4 1 4 @ 4 @ 1 4 @ 4 * - 2 2 4 4 4 4 4 4 4 w 4 4 ",
"2 3 3 3 3 3 2 3 3 2 2 3 3 2 9 i 8 8 a 8 a a i a i a 8 8 8 8 i i i 8 8 a a a s a a a a a a a a s i a 8 8 8 i 8 i 8 i 8 8 i u 8 i a k a i a s j ( l l l l l l l l m l l ~ l l ~ l l 6.l l l l ^ l l l ^ [  .o. .o.#.X..... .#. ...#.X.&.-.*.*.*.*.*.*.&.&.*.%.%.-.4XsXsXsXlXsXsXdXsXsXsXsXaXzX4X4X4X4X4X1.4X5X6X6X5X6X6XtX4XO.+.%.%.%.%.O.o.+.&.%.%.o.+.^ z ^ n ^ l ~ l l l z k k l 2 2 2 2 4 2 3 4 4 4 4 2 2 X A C V 8.8.w.8.8.8.J H 8.8.H H V V J K H V K H H 8.J w.w.w.8.8.8.8.w.w.w.w.w.8.J 8.w.K w.K 8.8.K 8.8.8.8.8.8.K K K 8.8.K 8.8.8.K w.8.V H Q U V U Q H V H H V H V V H 8.H V 8.V H J V V H V U H H Q V U U U V V U V Q U U V V V H H V I V V V V V V V V V V H V H H H H V H H H V H V H H H U V I H H H H H H V K H H V V C V V V V H V V V V V V V V V V V V H H H V H K H H K V 8.J H H V H V V H V V V V V V V V V V V V V V V V V V C Q V V V V V V U V V V Q V V U V V V V H H H V V V V V V V J U U V V V V Q Q 8.8.C C V G * 8 9 9 u u w 9 9 p 7 7 7 7 6.| } } [ } [ } } } } } [ | } o.o.o.%.o.&.+.&.&.o.o.o.+.+.5XdXsXsXsXsXsXsXaXzXhXzXaXsX&.%.4X%.4X4X4X4X4X4X5X5X5X5X1.:.:.>.>.>.:.>.>.<.<.<.<.<.] ' ' ~ ' ] ] ^ ) ~ ' ' ( ` k 9 q r 9 f r 9 f q q 9 7 0 y A M b b > c v c c b b A b b q 2 2 2 2 2 2 2 2 @ 2 2 * w d s g m s a j a 8 s a 8 u 8 i w i w w w w i w w w w w w s s s d g s s s g f w f s f w ",
"2 3 2 = 2 3 2 6 x 6 2 7 4 8 yXaXaXsXaXaXgXaXaXaXzXaXzXaXaXaXsXaXaXaXgXaXiXiXiXiXiXiXpXiXiXiXiXaXiXaXsXaXsXzXsXzXzXaXaXaXzXaXaXiXpXaXdXkXzXxXsX` ~ ~ l l l ~ l l k m k l l l l l l l g l l l l l l l l {  . . . . ...} }  . . . .#.*.>.>.>.1.1.>.1.>.>.>.1.>.>.>.tXiXdXsXsXsXsXsXsXsXsXsXdXdXkXvXvXjXvXjXdXdXdXdXsXsXzXzX0XO.O.&.+.&.&.O.O.%.%.%.%.O.%.l ^ ^ n ^ l l l l j k k k l 3 3 2 2 2 2 2 2 2 2 2 6 7 x a.E.C.oXXXOX'./.Y.V.A..X/././././.T./.XX/./.XXC.XXE.G..X/./.C.V././././.C.Y./.T.D.Y./.T.G.Y././.C.D.Y.Y.D.V./././.Y.R.R.V./.Y.R./.V.Y././.D./.Y.Y.Y./././.Y././././.T./././.Y./.R.V./.R./.V.R.V./.R.V.V.Y.V.V.V.R.V.V.V.C.R.R.V.V.V.V.R.V.V.R.R.V.Y.R.R./.V.V.R.V.V.V.V.V.V.V.V.V.R.V.V.V.V.V.V.V.R.R.R.R.V.V.R.V.V.R.R.V.T.R.R.R.R.V.R.R.V.V.V.V.R.R.V.V.V.V.b.R.V.b.R.V.!.R.R.R.V.R.V.R.R.b.R.R.R.R.R.R.V.R.R.R.R.b.R.R.R.R.R.!.R.R.R.R.b.R.R.R.R.R.V.R.V.R.R.R.V.V.V.R.V.V.R.V.R.R.T.T.R.R.R.R././.~.!.R.!.!.!.).).XX/.V.V.S.+ 3 5 9 9 w 9 9 w 9 9 9 9 9 l [  .[ | #.| | #.| #.| | _ #.*.-.,.-.-.:.>.:.,.>.>.,.>.>.5XaXaXaXaXiXaXaXaXaXaXaXaXaXaXsXsXzXsXzXzXzXzXzXzXzXzXzX2.1.1.>.1.1.1.1.1.1.<.<.1.<._ ( ' { ) ' ' ( ~ | ' ' ' ' ~ p z p z f z z h z z z z z $.%X#XI.L.Q.L.L.Q.A.A.Q.#X%Xa.3 2 4 4 * 2 2 * 2 x 6 x x 4XgXgXhXgXjXaXaXhXhXhXgXgXgXgXgXgXgXgXjXgXjXjXjXjXgXhXjXgXhXhXhXaXhXhXhXaXhXhXhXhXhXhXhX",
"4 3 3 2 3 2 3 3 7 2 2 2 4 i pXxXzXzXzXgXaXhXaXgXhXgXgXaXzXgXgXhXzXhXhXhXhXaXgXhXaXgXhXgXhXgXgXgXgXgXgXgXzXhXhXgXhXgXgXgXgXgXhXgXhXgXjXjXjXxXzX~ ~ l ! ^ l l l l ( k m ! l l l m l ( ~ l l l l l l l k [ X... . . . .X... . . ...| O.>.>.1.<.,.>.<.>.>.1.1.,.>.>.tXkXdXdXsXsXdXfXsXsXsXsXhXpXhXdXdXhXhXyXsXhXdXdXsXdXsXlX0Xo.*.O.&.&.%.%.+.%.%.O.%.O.*.p n ^ ^ j l l l l k k ~ k l 3 2 2 4 2 4 2 2 2 2 2 x x + S.~.`.`.`.'.).).).`.`.`.).).'.).).).'.).`.`.`.'.`.'.`.`.`.`.`.`.`.).^.'.`.).^.).`.'.^.).'.).'.`.`.`.`.'.`.`.`._.`.!.'.`.`.`.`.`.`.`.`.`.`.'._._._.`.`.`.`.`._.`.'._._._.'._._._._.'.)._._.`.`.`.'._.'.`.`.`.`._._.`.`.`.`.`.`.`.`.`.`._._.`.`. X`._.`.`.`.`._._.`.`.`._._._._.`._._.`.`._.^._._._.-X_.^._._.^._._.^._.'._._._._._.'.'.`.[.'._._._._.c._._._.b._._.b._.!.b._._.!.v.~.'.v._.'._._._._.'._._.'._.'._._._._._._._._._._._._._._._._._.^._.v._.v.'.v._._._.v._._.`. X[._._._. X`._._._.`._._._._._.v._.`.`._.`.'.).G.+ 9 7 9 9 9 9 u 9 9 9 9 f 9 z } } |  . .| #.| ..| #.} #.| -.,.>.,.,.>.,.-.:.>.:.>.>.>.5XsXiXsXaXaXaXaXaXaXaXaXaXiXsXaXsXsXsXsXaXzXzXaXzXsXzXxX2.1.1.1.1.1.1.1.<.1.1.<.<.<.' ( ) ' ` ' ' ' ' ' ~ ' ' ^ 6.p z z z g r z h z r g n r P E.R.Y.Y.V.Y.V.V.Y.E.Y.T.Q.$.+ 2 * 1 2 2 2 2 2 x 6 6 x 4XzXgXgXhXhXhXhXaXhXgXhXgXgXgXhXhXhXgXgXgXhXgXhXhXjXhXgXjXhXgXgXgXgXhXjXgXgXgXgXhXhXhXgX",
"3 3 2 3 2 3 7 3 7 6 2 2 2 8 aXzXzXgXgXgXgXgXgXsXgXzXgXgXgXgXgXgXgXgXgXgXgXgXgXgXgXgXgXgXgXgXgXgXgXgXgXgXgXhXgXgXzXgXgXgXgXgXgXgXgXgXjXgXjXjXsX( ~ l l F m l ( l k m l l l l l l l l l l l l l l g l g { o. . . . .X. . . . . . . .O.<.,.1.>.>.>.1.1.,.>.>.<.<.>.tXsXdXdXsXdXsXdXdXsXsXsXdXdXdXdXhXdXdXdXdXdXfXdXdXdXsXzXpXO.*.*.%.%.%.%.%.%.%.%.%.%.O.p z ^ n ^ l ^ k ~ l l l k l 2 4 3 4 2 2 2 2 8 2 2 6 + + S.b.).`.'.'.`.`.`.`.`._._.'._.`.`.`.`.`.`.`.'.`.`.`.'.`.`.`.`.'.`.`.`.`.`.`.`.`.`._.`.`.`.`.`.`.`.'._.`.`.`.`.`.`.`.`.`.`.`.`.`.`.`.`.`.`.`.`.`.`.`.`._._._._._._._._._._._.`._._._._.`._._._.`.`.`.`.'._.`._._.`._._._.`._.`._._.`.[.`.`.`.`.'.`.[.`.`._._._.`.`.`.`.`.`.'._._._._._._._._.`.`._._._._._._.'._._._._._._._. X_. X_._.[._._._._.`._._._.*X_._._._._._.v._._._._._._._._._.v._._._._._._._.v._._._.'._._.`._._.[._._.'._._._._._._._.'._._.'._._._._._.`._.`._._._._.`._._._._._._.[._._._._.v._.c._._._._._._./.+ 3 9 9 9 9 9 9 9 9 a 9 9 8 l } } } | #.| | } #.| | | } #.,.,.-.,.,.-.>.,.>.>.>.>.:.:.5XaXiXiXiXsXiXiXaXaXaXhXaXaXsXgXsXgXsXsXsXhXgXsXzXaXdXzX<.1.1.1.1.1.1.1.1.1.<.<.1.>.| ) ( { ' ) ' ' | ~ ' ~ ' ' ^ j z r z f z z f z z r z y P A.Y.Y.E.E.E.Y.E.E.Y.Y.E.C.a.+ * = @ 2 * 2 2 @ x 6 x x %.zXhXgXgXgXgXgXhXgXgXgXgXgXjXgXgXgXgXgXgXgXhXgXgXgXgXgXgXgXgXgXgXgXgXhXgXgXgXgXgXgXjXhX",
"4 2 3 2 3 2 7 x 7 x 2 2 2 i iXzXgXgXgXgXgXzXzXgXsXzXgXgXgXzXzXgXgXzXgXzXgXgXzXgXgXgXzXgXgXzXgXgXgXgXgXgXgXzXgXgXgXgXgXgXgXzXgXzXjXjXgXgXgXjXdX! l l l l l l l l ( k m l l ( l l l l l l l l l l l l l [  . . . . .o. . . . . . . .o.>.>.>.,.1.>.>.>.>.<.>.,.>.>.tXdXdXiXdXfXfXdXdXsXsXsXfXdXfXdXdXdXdXdXdXdXdXdXsXdXkXzXtXo.O.+.%.%.&.&.+.%.%.o.%.O.O.^ ^ z ^ z l ~ l l k l l l k 2 4 2 2 4 = 4 2 2 2 6 6 2 X S.).).).).).`.`.`.'.`.'._.'.`.`.).`.).`.`.`.`.`.`.`.`.`.`.`.'.].`.`.`.`.`.`.`.`.`.`.`.`.`.`.`.`.`.`.'.`.`.`.`.`.`.`.`.`.`.`.'. X`.`.`.`.`.`.`.`.`.`.`.`.`._.'.`._.`.^._.'.`.`.`.`._.`._.`.`.`.`._.`._._.`.`.`.`.`.`.`.`.`.`.`.`.`.`.`._._._._._._.`.`._.`.`.`.[.`._._._._._.[._._._._._._._._._._._._._._._._._._.[._._._._._._._._._._._._._._._._._._.c._._._._._._._._.[._._._._._._._._._._._.v._._._._._._._._._._._._._._._._.v._._.v._._._._.v._._._._._._._._._.`.[._._._._._._._.`._._._._._._._._._._._._._._.[.[._.#X> 3 9 9 9 9 9 u 9 9 9 9 u 8 k } [  . .|  ...#.| | | #.| | -.-.>.>.>.>.>.>.>.,.>.,.,.>.5XsXsXiXiXiXiXaXaXaXaXaXaXaXsXsXgXsXhXzXhXsXsXsXsXzXhXgX-.1.<.1.<.<.1.1.1.>.<.<.1.<.| { ' ' ' ' ' ( ~ ' ' ' ~ | ^ z z z z g g r z z z z g y R A.Y.E.C.E.V.Y.Y.Y.E.Y.Y.E.a.+ 2 4 2 2 2 2 2 * x 6 x x 4XgXgXhXgXgXhXhXgXgXgXhXgXhXgXgXgXgXgXgXgXgXgXgXgXgXgXgXgXgXgXgXgXgXgXhXgXgXgXgXgXgXgXgX",
"3 2 3 2 3 3 3 3 7 7 x 7 2 u sXzXgXgXgXhXgXgXgXgXgXgXgXgXgXgXgXzXgXhXzXgXgXgXgXzXgXgXgXzXgXgXgXgXgXgXgXgXgXgXgXgXzXgXgXgXgXgXgXgXgXdXgXgXzXjXdXl l l l l ~ l l ` l l l l l ~ ~ n l l l l l l l z k l l [  ... . . . .o. . . . . . .o.-.,.1.>.<.>.>.<.<.<.>.<.:.,.tXiXdXdXdXsXsXsXsXsXsXsXsXsXdXfXdXdXfXkXdXdXfXdXdXsXlXsX0XO.%.%.%.%.%.%.%.&.%.%.%.%.%.j z n ^ ^ k l ~ l l l l k l 2 4 2 2 2 2 2 2 2 3 2 2 9 + Z.XX).).'.^.'._.^.^.`._.`.`.`.`.`.`.`.`.`.`.`.`.`.`.`.`.`.`.`.`.`.`.`.`._.`.`._._.`._.`.`. X'.`.`._._.`.`.`.`.`.`.`.`.`.`.`.`.`.`.`.`. X`.`.`. XoX`. X'.`.`.`.`.`.`.`._.`.`._.`.`.`.`.`.`.`.`._._._.`._._.`.`.`.`.`._.`._.`.`.`.`._.`.`.`. X'._._.`.`.`.`.`.`.`._._._._._._._.`._._.`._.'._._._._._._._._._._.`._._.`._._._._._._._._._.l.[._._._._._._._._.[._._._._._._._._.[._.v._._._._._._._.'._._._._._._._._._._._._._._._._._._._.l._._._._._.[._._._._.l._._._.[._._._._.[._.[._._._._._._.'._._._._._._._.`._._._.`.%X: 9 9 9 u r 9 9 9 9 9 r 9 8 g [ } | } } } } } ..#.| | } | =.>.>.,.,.-.>.-.<.,.>.>.>.>.4XlXiXiXiXiXaXaXaXaXaXaXaXaXsXgXsXsXhXdXgXdXhXhXgXaXgXgX:.4X<.<.<.<.1.1.1.<.<.<.1.>...^ ' ' ] ` ' ' ' ~ ~ ' ` ( k z p h z z r g z t z z p b L A.R.E.E.C.C.E.Y.Y.Y.E.E.A.e.& @ 2 2 2 1 2 * 2 6 6 6 x 4XiXhXhXgXgXgXhXgXgXgXgXgXgXgXgXgXgXgXjXgXgXgXgXgXgXgXgXgXgXgXgXjXhXjXjXgXgXgXgXgXgXgXjX",
"3 3 2 3 3 7 2 2 3 x 3 3 3 i sXgXgXhXgXgXgXsXgXgXgXhXgXgXgXgXsXgXgXgXgXgXgXgXgXgXgXgXgXgXgXgXgXgXgXgXgXgXgXgXgXgXgXgXgXgXgXgXgXgXgXjXgXzXgXgXdX! l ~ l ~ l ~ l l l ~ ~ l l k ~ l l l ~ n l l l l z l z [ ..@. . . . . . . . . . .| o.,.<.<.>.>.,.>.>.,.>.>.>.,.-.tXiXdXdXsXsXsXsXsXsXsXdXdXdXdXdXdXdXdXdXfXdXkXdXdXsXsXzX0XO.%.%.+.%.%.+.+.%.%.o.%.%.%.j z ^ z l k k l k g l ^ l g 2 2 2 4 2 2 3 2 4 2 2 4 9 ; A.`.).`.`.`.`._.`.`.`.^.`.`.^.^.`.)._.`.).`.`.`.^.`.`.`.`.`.^.`.`.`.`._.`.`.^.`.`.`.`.`.`.`.`.`.`.`._. X`.`.`.`.`.`.`.`.`.`.`.`.`.`.`.'.`.`.`.`.`.`._.`._._._._._._.`.`.`.[.`._.`. X_._._._._._._._._._._._._._._.`._.`._._.`._.`.`._._.^._._.'._.`._._._._._._._._._._._._._.^._._._._._.[.`._._._._._._.`._._._.[._._._._. X_._._._._._.[.`._._._. X_._._._._._._._._._._._._._._._._._._. X_._._._.v._._.v._._._._._._._.[.[._._._._._._._._._._._._._._._._._._._._._._.`._.[._._._._._._._._.[._._._._._._._._.[._._._.`.%X> w 9 9 9 9 u u 9 9 9 9 u 6 l [ } } }  .| } } | | #.#.} | =.,.>.-.>.-.,.>.-.>.>.,.,.-.4XsXiXiXiXsXaXsXaXaXaXaXaXaXdXdXsXgXdXdXdXdXzXhXsXgXsXzX:.:.:.<.<.<.1.<.<.<.<.<.<.>.| ~ ' ' ' ' ' ' ~ ' ' ' ( ( k j z r z f z z z f f z f z L C.R.C.E.E.Y.E.V.E.E.V.Y.E.$.+ * 2 2 * 2 * 2 2 3 x x x 4XhXhXhXgXhXgXgXgXgXgXgXgXgXgXgXgXgXgXgXgXgXgXgXgXhXgXgXgXgXgXgXjXgXhXgXgXgXgXgXgXgXgXjX",
"3 2 3 2 6 x 2 2 2 2 6 2 6 i sXgXgXsXgXgXgXgXgXgXgXgXgXgXgXgXgXgXzXhXhXgXgXgXgXgXgXgXgXgXgXgXgXgXzXgXgXzXgXhXgXgXgXgXgXgXgXgXgXgXgXgXgXgXdXgXdXk l l ~ l l ~ ~ l ~ l l l l l l l l l l l l l n l l ~ k { X. . . . . . . . . . . .X...-.<.>.<.>.1.<.1.,.<.>.,.=.=.tXsXdXdXsXsXzXaXsXsXsXdXsXsXsXsXdXdXdXdXdXdXfXdXdXdXsXdX0Xo.%.%.&.%.%.%.&.&.+.%.+.O.&.j z l ^ n l ~ l ~ l k l k ~ 4 2 2 2 4 2 4 2 2 3 2 4 9 ; L.).`.`.`.^.`.`.`.`.^.`.`._.`.)._.`.`.^.`.^.`.^.`.^.`.`.`.`.`.`.`.`.`.`.`.`.`.`.`.`.`.`.`.`.`.`.`.`.`.'.`.`.`.`.`.`.`.`.`. X`.`.`.`.`.`.`.'.`. X`.`.`.^.`._._.`.`._._.`.`.`._.`.`.'._.^.`.`._.^.'.^.`.`._._._._.`._._._._._._._._.`._.`._._._._._.`._.`.`._.`._._._.^.'.`.`._._._.`.`._._.`._.`._._.`._.`._._._.`.`.[.`._._._._._._._._._._._._. X_._._._._._. X_._._._.[._.[.[._._._._._._._._._._._._._._._._._._._._._._._._._._._._._._._._._.v._._._._._._._._._._._._.[._.`._._._._._.l._._._._._._._._._._._.`._._._.`.%X> 9 9 9 q 9 9 9 9 a 9 9 9 2 k [ } } #.| #.} #.| #.| | #.] =.:.=.,.,.>.-.,.,.>.,.>.,.-.4XfXsXiXiXiXaXaXaXaXaXaXaXaXdXhXdXhXdXdXdXgXsXhXhXhXsXgX:.4X2.<.<.<.<.<.<.>.<.<.<.<.} ~ ' ' ' ) ' ' ' ' ' ' ` ( l z z r f g f g g f r z z y S Q.R.E.E.E.V.E.E.C.C.E.Y.C.R X @ 2 2 2 2 2 * 2 2 2 x x ..hXhXgXgXgXhXgXgXhXgXgXgXgXgXgXgXgXgXgXgXgXgXgXgXjXjXgXgXgXgXgXgXjXgXgXgXgXgXgXjXgXgXjX",
"2 3 2 2 2 2 6 6 2 2 6 2 6 a aXgXgXgXgXgXgXgXgXgXgXgXgXgXgXgXgXgXhXzXhXgXgXgXgXgXgXgXgXgXgXgXgXgXgXgXgXgXgXgXgXgXgXgXgXgXgXgXgXgXjXgXgXgXgXgXfXj 6.l l ~ l l ~ ~ ~ n l l l l l z m l l l l l l l l l g {  . . . .} o.} .... . . . .O.,.,.>.>.>.>.1.,.<.>.>.>.=.,.tXdXdXdXdXsXsXsXsXdXdXdXdXdXdXsXdXdXdXdXdXdXdXdXdXdXdXdXtXo.&.&.%.%.O.%.%.%.%.&.%.%.o.z j l ^ ^ l ~ k l k l l k ~ 4 2 2 2 2 * 4 2 6 3 6 4 4 * L.'.).).`.`.)._.).`.`.^.`.'._.`.`.`.^.`.`.`.`.`.`.`.`.`.`.`.`.`.`.`.`.`.`.`.`.`.`.`.`.`.`.`.`.`.`.`.`.`.`.`.`.`.`.`.`.`. X`.`. XoX`.`.`.`.`.`.`.`.`.`.`._._.`.[.`.`._._._.`.`.`.[.`._.`._._._._._.`._.^._._.`._.`._.`.`._._.`.`._._._._._.`.`._._.^._._.^._._.`.^._._._._._.^._.'._._.`._._._.`._._.`._._._.`._.`.`._._._._._._._._._._._._._._._._._._._._._._._._._._._._._._._.[._._._._._._._._._._._._._._._._._._._._._._._._._._._._._._._._._._._._._._.l._._._._.^.`.[.[.[._._._._._._._._._._._._._._._._.[._._._.`.oX, r 9 9 w 9 u 9 9 9 9 9 9 9 ` [ ] } }  .| } | #.| } } } | =.>.,.-.>.>.,.-.<.>.-.>.:.>.5XsXiXiXiXiXaXaXaXaXaXaXaXaXgXdXdXdXdXgXgXdXsXgXhXsXsXsX=.1.:.<.<.1.<.<.<.<.>.<.<.1.| ~ ' ' ' ' ' ' ' ' ~ ) ( ' l f z z z z r z z t f z r r A C.V.C.V.E.E.C.E.E.V.E.E.E.E o @ * 2 2 2 2 2 2 x 3 x . 4XhXgXhXgXgXgXgXgXhXgXgXgXgXgXgXgXgXgXgXgXgXgXgXgXjXgXgXgXgXgXjXgXgXgXgXgXgXjXgXgXgXgXjX",
"3 6 7 7 3 7 7 2 6 2 2 6 2 i iXgXgXhXgXgXgXgXsXgXgXhXgXgXgXgXgXgXgXgXgXgXgXgXgXgXgXgXgXgXgXgXgXhXgXgXgXgXgXgXgXgXgXgXgXgXhXgXgXgXgXgXgXgXgXgXsXa ~ l l ~ l ^ l ~ 6.l l l l l l l l l l l l l l l l l l ]  . . . . . . . . .}  . . .O.>.,.,.1.>.>.>.>.>.>.>.>.>.,.0XzXaXzXaXsXsXsXaXaXzXaXaXaXzXaXdXdXdXdXdXdXdXdXsXdXkXsX0Xo.&.O.O.%.o.%.%.%.%.%.O.O.o.^ n ^ z 6.~ l l ^ z k l l l 2 * 4 2 2 2 2 2 8 3 6 3 5 : A.'.`.).`.`.`.`._.`.^.`.)._._.).`.`.`.).^.`.`.^.`.`.`.`.`.`.`.`.`.`.`.`.[.`.`.^.`.[.`.`.`.`.`.`.`._.`.`.`.`.`.`.`.`.`.`.`.`.`.`.`. X'.`.`.`.`.`.`.`.`.[._._.`.^.`._.`._.`.`._._.`._._._.`.`._._.`.[.^._._._._.`.`.`._.`.^.`.^._._.`._._.`._._._.`._._.^._._._._._.`.^.`._._._.^._._._.`._.`._._._.`.`._._.`._._.`._._._._._._._._._._._._._._._._._._. X_._._._._._._._._._._._.`._._._. X_._._._._.[._._._._.l._._._._.[._._._._._.l._._._._._._._._._._._.v._._._._._._._._._._._._._._._._._._._._._._._._.[._._._._._._.'.XX, 9 9 9 w 9 9 f 9 f 9 9 9 9 ~ { } #.| | #.} | #.| } | #.| =.>.>.-.,.>.>.>.,.>.>.,.1.:.5XaXiXaXiXiXaXaXaXaXaXaXaXaXsXgXsXsXsXgXgXdXdXdXgXhXsXgX%.<.<.-.<.<.>.<.<.<.<.<.-.<.| ~ } ' ' ' ' ~ ~ ' ^ ' ( ' l z z z z f f g z z z r q r P A.C.V.Y.E.E.Y.E.V.C.E.Y.E.$.+ 2 * 2 * 2 2 2 2 2 2 . . 1.hXgXgXgXgXgXgXgXgXgXgXgXgXgXgXgXgXgXgXgXgXgXgXgXgXgXgXgXgXgXgXgXgXjXhXgXgXgXgXgXgXjXgX",
"7 3 7 x x 7 3 6 2 2 2 6 2 f sXgXgXgXgXhXgXgXgXgXgXgXgXgXgXhXgXgXzXhXgXgXgXgXgXgXgXgXgXgXgXgXgXaXgXgXgXgXhXhXgXgXgXgXhXgXgXhXgXgXgXgXzXgXgXjXsXf l ~ ~ l ~ l 6.l l l l l l l l k l ^ n l l l l l z l l ] X.X. .X. . .X. . . . . . .+.>.1.>.>.>.1.>.<.>.>.:.>.,.<.tXaXzXaXsXsXsXsXzXzXaXzXzXzXaXaXdXdXdXdXdXdXdXsXdXsXsXdXtXo.*.&.%.%.%.%.%.%.o.o.O.O.O.z ^ p z ^ l l l l k k k k l 2 2 2 2 4 2 4 2 2 3 2 3 5 - Z.`.`.'.`.).^.`.^.`.`.`.^.`.).'._.`.).`.`.^.`.`.`.`.`.`.`.^.`.`.`.`.`.`.`.`.`.`.`.`.`.`.`.`.`.`.`.`.`.`.`.`.`.`. X`.`.`.`. X`.`.`.`.`.`.`.`.`.`.`.`.`.`.`._._._.`._.`.^._._._.`._._.`._._._._.`.^.`.`._.`.`._._.^._._.`._.`._.`.`._.`._.`.^.`._._.`._.'._.`.^.'._.`._._._.`.`.`._.`._._._._._.`._._._._.`._.`.`.[._._._._._._._._._._._._._. X_._.`._._._._._._._._._._._._._. X`._.[._._._._._._._._._._._._._._._._._._._.[._._._._._._._._._._._._._._._._._._._._._._._.^.`.[._._._._._._._._._._._._._._._._._._._._._.`.XX, f 9 9 9 9 9 9 9 9 9 9 9 4 l [ [ | #.| | #.| ..#.#.| | #.,.=.=.,.-.:.=.,.-.>.>.,.:.:.5XaXaXaXaXiXaXaXsXaXaXaXaXaXsXsXsXgXsXgXdXdXdXdXhXgXsXjX%.<.<.<.>.<.<.<.<.>.<.<.>.<.] ( ] ` ' ' ' ' ' ' ' ~ ' ~ ^ j z p f z z r r g g f z r L A.E.E.V.E.C.E.C.E.E.V.E.C.a.+ 2 * 2 2 2 2 * 2 2 2 1 2 2.gXgXgXgXgXgXgXgXgXgXgXgXgXhXgXgXgXgXgXgXgXgXgXgXgXgXgXgXhXgXgXgXgXhXjXgXjXgXgXgXgXgXgX",
"2 6 x 3 7 7 2 6 6 2 2 2 2 a sXgXgXgXgXgXhXgXgXgXgXgXgXgXgXgXgXgXgXgXgXgXgXgXgXgXgXgXgXgXgXgXhXgXhXgXgXgXgXgXgXgXgXgXgXgXgXgXgXgXgXgXgXzXgXjXzXk l 6.~ ~ ~ l ~ l l l l l l l l ~ l z l l l h l l z ^ l ' X... .X.X.}  . .o.}  . . .O.>.>.>.>.>.>.<.>.<.,.>.<.1.-.6XaXaXzXsXsXsXsXaXzXaXaXaXzXaXzXdXdXdXdXdXhXhXdXhXsXdXkXqXo.&.&.%.O.%.O.%.o.%.%.O.O.o.^ j z ^ l l k ^ l l g ! k m 2 2 2 4 2 2 2 2 6 3 2 3 5 = A.'.'.`.`._._.'._.`.`.^.`.`._._.^.`.`.`.`.`.`.`.`.^.`.^.`.`.`._.`.`.`.`.`.`.`.^.`.`.`.`.`.`.`.`.`.`.`. X`.`.`.`.`.`.`.`.`.`.'.`.`.`.`.`.`.`.`.`.`.`.`.`.[.`._._._.`._.`.`._.`._.`._.`.`._.`.`._._.`.^._.`._._._._._.`._._._._.[.`._._.`._._._.`._._._._._._.`._._._._.`.`._._._.`.^.`.`._._._.`._.`.[._.`.`._._.`._._._._.[.[._._._._.[._._._._._.`.`._._._.`._._._._._._._._._.[._._._._._._._._._._._._._._._._._._._._._._._._._._._._._._._._._._._._._._._._._._._.[._._.[._.[._._._._._._._._._._._._._._._._._.`._._.`.$X> q 9 9 9 9 9 9 9 9 9 9 9 9 g } }  .| #.| | | | } } | | #.>.=.>.,.:.-.>.>.-.>.>.,.:.:.6XaXaXaXiXaXaXaXaXaXaXaXaXaXsXgXdXgXhXdXgXgXhXdXhXhXhXgX:.<.>.<.>.<.<.<.;.<.<.<.<.<.} ` ` ' ^ | ~ | ' ' ' ' ' ' ^ z g f g z z z z g z z g r P #XC.Y.Y.E.C.E.E.E.V.E.W.C.a.+ 2 2 2 2 @ * 2 2 x 2 + 1 <.jXhXgXgXgXgXgXgXgXgXgXgXgXgXgXgXgXgXgXgXgXgXgXgXgXgXgXgXgXgXgXjXjXjXjXgXgXgXgXjXgXgXgX",
"7 2 7 7 x 7 x 2 2 2 6 6 2 a sXgXgXgXgXgXzXgXhXgXgXgXgXgXhXgXgXgXgXhXgXgXgXgXgXgXgXgXgXgXgXgXhXgXgXgXgXgXgXhXgXgXgXgXgXgXgXgXgXgXgXgXgXgXgXgXdXj ~ l l l k l ~ ~ ~ ^ n l l l l n n l l k n l l z n z z [ X. .X.}  .X.} ..} o. . . .O.<.>.1.>.>.>.1.,.>.1.>.,.,.-.0XzXaXsXsXzXsXsXzXaXzXaXzXaXzXaXdXdXdXdXdXdXsXsXsXsXsXdXiX .%.+.O.%.%.%.%.%.o.%.%.%.%.^ z ^ n ^ l l l l l l l k ~ 2 * 2 2 2 4 2 2 4 3 2 3 5 * A.'.'.`.`.'._._.'.`.^.`.`.).`.`.`.`.`.).`.`.`.`.`.`.`.`.`.^.`.^.`.`.`.`.`.`.`.`.`.`.`.`.`.`.`.`.`.`.`.'.`.`.`.`.`.`. X].`.`.`.`.`.`.`.`.`. X`.`.`.`.`.`.`.`.`.`.`.`._.[.`.^._.`._._.`.`.^.^._.`._.`.`._.`.`.`.`._.`._.`.^._.`.`.`.`._.^._._.`.^.`.`.`.`._._.^.`._._.^.^._._.`._._.`._.`._.'._._.`.`.`._._._.`._.`._._._._._.`._._._.[._._._._._._.[.`.`._._._._._._. X_._._._.`. X_._._._._.c.*X_._._._._._._._._._.[._._._._._._._._._._._._._._._._._._._._._._._._._._.v._._._.`._._._._.l._._._._._._._._._._._._.[._.`._.#X> q 9 p 9 w 9 f 9 9 f 9 9 2 z } } | #.} | | #.| ] #.| ] ..,.=.=.-.:.,.-.,.>.>.,.>.:.:.tXaXaXiXiXaXaXaXaXaXaXaXaXaXsXdXdXgXgXdXdXdXdXdXsXgXdXdX:.:.>.1.-.>.<.<.>.>.>.-.<.4.O.] ] ) ' ' ' ' | ~ ' | ' ~ ! z z z r z g f r r z r z r P L.E.C.V.R.E.V.Y.Y.C.E.E.C.a.+ x 2 2 2 2 2 2 @ 2 2 2 1 <.gXgXgXgXgXgXgXgXgXgXgXgXgXgXgXgXgXgXgXgXgXgXgXgXgXgXgXgXgXgXjXhXhXjXhXjXgXjXgXgXgXgXgX",
"7 3 7 7 7 2 x 7 2 7 2 6 6 ^ sXzXjXjXgXgXgXhXhXgXgXgXgXgXgXgXzXgXgXzXgXgXgXgXgXhXzXzXgXgXzXgXgXzXgXzXgXzXgXgXgXgXzXzXgXgXzXzXzXzXgXgXgXgXxXgXzX! ~ ~ ^ l l ~ l ~ l l l ^ l ~ l l ^ l l l l z l l ^ l z [ }  . .X. . . . .} X.}  . .O.1.>.>.1.>.,.1.<.>.>.<.>.1.-.wXaXzXzXaXzXaXaXaXaXaXzXaXzXzXaXyXhXdXdXdXdXdXsXdXdXhXsXqX@.*.O.%.%.%.%.%.%.%.o.%.+.%.^ ^ l l ^ l l k l l k l k l 2 2 2 2 6 2 2 2 2 3 2 3 5 ; A.'.`.oX`.'.`.`.`.`.`.`.`.`.`.`.`.`.`.`.`.`._.'.'.`.`.`.`.`.`.`. X'.`.`.`.`.`.`.`.'.).`.`.`.`.`.`.`.`.'.`.`.'._._.`.`.`.`._.`._.^.`._.^.`.'.`.`.`.`.`.`.`.`.`.`. X_._._. X`._._.[.[.`._._.[.).'.`.`.`.`.`.`._.`.`.`.`.`._._.^._.^.`.).`.`.`.`.`.`.`.`.`.`.`.`.`._.`._._.`._.`.'.`.`.`.`.`._._.[._._._._._._. X_.[._._._._.`.`._._.'._._._.*X_._._._._.`._.`.`._._._._._._.`.`.`.`.`.`.'.'._._._._.`._._._._._.`.`._._._._._._._._._._._._._._._._._.^._.^._._._._._._._._.`.`.`._.`._._._._._._._._._._._.!._._._._._._._.`.`.%X> w 9 9 p 9 9 9 u 9 9 f 9 2 l #.#.| } } | } } } #.| #.| } ,.,.>.>.,.>.>.>.,.:.>.>.:.a.6XiXpXiXiXaXaXaXaXaXaXiXiXaXsXsXsXsXhXsXsXhXhXhXhXdXsXzX=.=.-.>.>.>.>.1.<.<.<.>.-.<.o.( ' ' ] ' ~ ' | ' ~ ~ ( ( ~ p z z r z f z f z z g f t L L.E.E.E.Y.E.R.V.E.E.C.R.A.a.& * 2 2 + 2 2 2 2 2 3 x x <.xXgXgXzXgXgXjXgXgXgXzXgXgXgXgXjXjXgXgXgXgXgXgXgXgXgXgXhXgXgXhXjXjXjXhXgXgXgXgXgXgXgXhX",
"x 7 7 x 7 7 7 7 7 7 2 2 6 ^ zXcXzXzXzXzXzXiXxXgXzXzXhXhXgXsXhXzXhXhXhXzXzXzXzXzXzXzXzXzXzXzXzXxXzXzXzXzXzXzXxXzXzXzXzXzXzXsXzXzXdXdXgXzXzXlXzXj k ^ n ~ ~ ~ ~ l ~ ~ l l l l ~ z l l l z l l l l l l z [  . ...X. . . . .}  . . .} &.>.>.,.>.>.>.,.,.<.>.,.>.,.-.tXaXaXaXzXzXzXzXzXzXaXzXzXzXzXzXkXvXhXvXkXkXsXkXkXdXdXkXqXO.O.*.O.O.%.O.o.%.O.%.+.+.%.l ^ z ^ n k l ~ k l l ! k l 4 2 2 2 2 6 2 6 2 6 2 3 q & L.OXoX+XoX'.).).'.`.'.'.`.'.`.'.OX`.`.`.`.`.`.'.!.`.`.`._.`.^.).^._.^.^.^.`.).`.^.`.].`.^.].`.).`._.'._.`.`.`.`.`.`.'.'.`.`.`.`.`.).).`.`.`.`.`.`.[.^._._._._.^.^.`.`.`.'.`.`.`.'.'.`.`.'.'.`._._.^._.~._.`.`.`.`.`.`.`._._._._._.^.`.`.).).).'.`.`.`.`.`. X`.`.`.`.).`.`.`.^._.^.^._.^._.^._.).`.`.`.`.`.'.'.`.^._.'._.'._.`._.`.v.'.v.!.v._._._._._._._._._._.)._._.!._.`.'.`.`._.`._.'.!._.-X_._.'._.`.`._._.^._._.~.T._._._._._.'._._.^._._._._._._.~._.v._._._._._._._._. X`. X`.`.'._.'.-X_.'.v._.v.v._.v.!._.v.v._.`.+X%X$ 9 9 q 9 u q f 9 u 9 9 9 9 (  . .X. . .#.|  .} } | ] ]  .=.>.,.>.>.>.>.>.>.>.,.>.1.:.tXzXiXpXaXzXlXaXaXaXzXzXaXaXkXgXzXzXzXzXzXzXzXdXdXsXsXzX>.4X>.1.1.=.>.>.<.1.>.>.<.<.#.) ' { ' ' ' ~ ' ~ ' ' ' 6.~ p q z f r z g z f f f z h L #XA.Q.A.E.A.Q.Q.E.A.Q.A.Q.a.+ * 2 2 2 * * * 2 * x 2 x 2.xXhXgXzXzXxXxXzXzXxXxXzXzXgXgXgXgXzXgXzXgXgXzXzXzXgXgXgXzXzXgXgXjXjXjXgXgXgXgXgXgXgXhX",
"7 7 7 6 2 2 2 2 x 7 6 6 7 7 0XiXiXiX0XtXtXqXqXtX0X0X0X0XtXtX0X0XtXtXtXtXtX6X6X6X6XtX6X6XtXtXtXtXtX6XtXpXtXpXtXtXtXtXtX6X6X4XtXtXqXtXtXtX4XtX7Xj 6.^ n ^ l l l l l l l l k l l l l l l l l l l k j l p ]  . .X.}  . . . . .X. . . .X.o.O... ...@.O... . . .@.O.O.:.4X=.4X4X:.1.:.1.1.1.1.1.1.1.1.2.<.<.2.2.<.2.2.2.3.2.<.1.O.O.+.O.O.+.o.%.o.o.O.+.o.%.6.^ z j z l k l k l k l k l 2 2 2 2 7 2 2 2 2 2 2 3 7 0 S.V.V.R.(.Y.Y.R.R.C.Y./././././././././././.T.!.E.XXG./.Y./.T././././././.D./.R.Y./.D./././.Y.D./././././././.T.R./.(.XX/./././.).(.XX).~./.~.(./.~././././.).).(./././././.(./.T./././././././././././././.T././././././././././././.).).).~././././.T.D.Y.Y./././././././././././././././.(./.~.T././.~./././.~./.Y.Y.R.R.R.R.T.T.R.T.R.R.T.!.R.R.V./.R.Y.R.R.V.R.T.!.R.V.V.V.R.Y.Y.R.R.R.R.!.R.R.C.V.V.R.V.R.V.V.V.R.R.R.R.R.R.V.h.V.V.R.R.R.R.R.R.R.R.R.R.R.R.R.V.V.V.R.V.V.V.V.V.R.R.R.R.R.b.R.R.R.!.R.b.T.R.R.~.T.!.R.V.L.: 9 9 9 9 9 9 9 9 9 8 9 9 8 [ ] ] ] ] ] ' ' ] [ ' ] ] { | o.O.o.%.+.+.O.O.+.O.O.O.%.o.%.:.%.4X=.%.4X%.:.:.=.=.4X%.<.*.%.-.%.%.&.&.&.%.=.%.=.*. .o.o.o.o.O.O.O.....@.@.&.&. .) ] ) ] ) ' ' ~ ' ' ' ' ~ ~ p r z z r z f f z z f z q b K K J K K V K K K K J r.w.A z l f r 9 9 9 9 4 9 4 p x 1.4X6X4X4XtX4X4X4X4X4X4X4X4X4X4X4X4X4X4X4X4X4X4X4X4X4X4X4X4X4X4X4X4X4X4X4X4X4X4X4X4X4X4X",
"7 7 x 6 2 7 2 6 6 6 x 6 7 6  .' ' ' ' ' ) ] ^ ^ ) ' ^ ^ ' ' ' 6.^ ' ' | | | ^ | | ^ ' ' _ | ' ' | | ' ' ' ' ' ' ' ' [ ' ^ ' [ [ ' ' ' } ' ] ] k ~ l ^ l ~ l ^ l ^ l z ^ l l l l z l l z z l z k z l z ]  .X.} X. . . . . .}  . . . . . . .o.@.X.X...@.......X...=.:.=.:.%.4X:.1.1.:.1.:.1.:.:.:.-.,.,.;.-.<.>.>.,.-.-.>.=.O.O.o.o.o.%.o.o.o.O.o.+.O.%.^ l ^ z ^ l k k k g l k k l 2 2 8 8 2 9 6 7 6 3 2 2 3 - R 8.9.9.9.9.i.i.9.q.9.9.9.9.7.7.9.7.7.7.7.7.8.7.7.7.7.7.9.8.8.8.q.9.8.9.8.9.w.9.8.9.9.w.9.w.9.9.9.9.9.7.8.9.9.9.9.9.7.9.7.7.7.9.7.7.7.7.9.9.7.9.9.9.7.9.7.8.9.8.7.7.7.7.9.7.7.7.8.9.9.9.9.9.9.8.9.9.9.q.w.9.9.8.8.9.8.7.9.7.9.7.9.9.9.7.7.8.7.9.9.w.9.9.9.8.9.7.7.7.9.9.9.7.9.9.9.9.9.9.9.9.9.9.9.7.9.7.7.7.7.7.7.7.9.9.9.8.9.8.8.7.7.7.7.7.7.9.9.9.9.8.8.9.9.8.9.9.9.9.9.9.9.w.8.9.9.9.8.8.9.9.9.9.9.q.9.9.9.9.9.9.8.9.9.8.9.9.9.q.9.9.9.9.9.9.9.9.8.9.9.8.9.9.7.q.9.9.9.q.9.8.9.8.9.7.7.7.9.7.9.9.9.9.9.9.9.9.9.9.9.i.9.q.9.t.& 3 4 3 4 8 7 4 2 2 2 2 2 2 l ] ' { ) ] ' ' ' ' { { ) { ' o.@.o.&.+.+.O.o.O...@.O.o.o.%.1.4X%.4X4X%.4X:.=.4X:.=.4X:.>.:.>.:.:.:.:.>.:.<.:.>.>.o.o.o.o.....O.O.O.O...&.O...| { { ' ' ' ' ' ' ' ' ' ] ' l z z g g f f r z f z g f f F G K K K K C A K K K G K P Z 9 g r 9 9 4 9 3 3 4 3 7 x ] | | ..| | _ | _ ^ } } | | ..| | | ....| | | ..| _ } | | _ _ _ _ _ _ _ | _ _ | | _ ..| ",
"7 7 x 7 7 7 x 7 3 2 2 2 6 2 ] [ [ [ [ [ [ [ [ [ [ [ [ [ } } } [ } } } } [ } } } [ [ } [ [ } [ [ [ [ [ [ [ [ [ [ [ [ #.[ [ [ [ [ | [ [ [ [ [ [ l k k ~ l l ~ l ^ l l l l z l j l z j l k k z k z z k z ] X.}  . . . . . . . . . . . .X.o. .o. .@.o.o.o.o...o.o...:.:.:.:.1.:.:.1.:.:.1.:.:.1.:.:.:.:.:.:.:.1.:.:.:.:.:.:.:.o.%.o.O.o.o.o.O.o.%.o.%.o.%.6.^ ^ z ^ z z ^ z z ^ 6.p k 2 2 3 8 2 6 4 2 9 3 2 2 6 + R w.r.q.i.q.q.q.u.q.q.q.u.9.9.q.q.u.q.q.q.q.q.9.q.q.0.q.q.q.q.q.q.q.q.q.q.q.q.q.q.q.i.q.q.9.q.q.i.q.q.q.u.q.q.q.q.9.q.9.q.q.q.q.q.q.q.w.q.w.r.w.r.w.w.w.q.w.w.q.w.q.0.q.q.q.q.r.q.q.q.q.q.q.q.q.9.9.q.q.q.q.9.q.q.q.0.0.9.0.0.0.T 9.q.q.0.0.0.0.0.9.0.q.9.q.q.9.q.q.q.q.q.q.q.9.9.9.0.q.8.0.0.9.0.q.0.0.0.0.0.0.w.0.0.0.0.9.9.q.9.q.q.q.i.0.q.q.0.9.q.0.9.0.0.9.0.q.0.0.0.8.q.9.q.q.q.w.q.9.q.q.0.q.q.9.q.q.q.q.9.q.q.q.q.q.i.q.i.q.q.u.9.q.i.r.q.q.q.q.q.q.q.q.q.q.w.w.q.q.q.q.q.q.q.q.q.q.r.q.q.q.q.u.9.r.q.q.q.u.9.u.9.9.q.r.= 4 5 5 7 7 9 2 8 2 9 2 3 2 l ] ' ' ' ' ' ' ] { ) ' ' ] ' O.o.O.O.o.o.o.&.o.o.o.O.o.o.%.:.:.:.:.4X:.:.4X:.:.1.:.:.:.:.:.:.:.:.:.:.:.,.>.:.>.>.o.o.o.o.o.&.O...o.o.o.o.o.o.} ] ' ' ' ] ' ' ' ' ' ' ' ' ^ z z f f g z f g f z z z r b J K P K K K K G G K G P A b = 7 3 3 3 3 9 2 4 4 2 4 . [ }  . .|  .}  .} } } ....} ..} } } ..} o.} ....} } ..} ..| } } } } } ..} } | } ..} } ..",
"7 7 3 7 7 x 7 3 6 2 6 2 2 u ` [ ' [ [ [ [ [ [ [ [ } [ [ } [ [ [ } } [ [ ' [ ' [ [ } [ [ ' [ [ [ [ [ [ [ [ [ [ [ [ #.X.[ [ #.[ [ } [ [ #.[ [ [ z ~ k k l l k l l l l l ^ ^ z z l l z z z z k z j j z j [ X.X. .}  .#. . . . .|  . . . .o.O.X.O. .....o.o...@.@...:.1.:.1.1.1.1.:.1.1.:.1.:.1.1.:.1.:.1.:.1.:.:.1.1.:.1.:.:.o.%.%.%.o.%.o.o.O.O.o.o.o.%.^ ^ 6.^ z z ^ z ^ ^ z z l l 2 2 2 2 9 7 4 8 2 3 2 2 2 + R q.q.q.q.q.q.q.9.9.q.q.q.q.q.q.q.9.q.q.q.q.q.q.q.0.9.0.q.q.q.q.q.q.q.q.q.q.q.q.q.q.q.q.q.q.9.q.q.q.q.q.9.q.q.q.q.q.q.q.q.q.q.0.0.0.q.q.q.q.q.q.q.q.r.w.q.q.q.q.q.q.r.q.0.q.r.r.w.q.q.q.q.q.q.q.q.q.q.0.0.0.q.0.q.q.q.q.0.0.q.0.q.q.q.0.q.q.0.0.0.0.q.0.w.q.9.0.0.r.q.q.q.0.0.q.0.q.0.q.q.q.q.0.q.q.q.0.q.q.q.q.q.q.9.q.q.q.q.i.q.0.0.9.q.0.9.q.q.q.q.q.q.i.0.0.0.q.w.0.q.q.q.q.0.9.q.q.9.q.q.0.9.9.0.q.q.q.q.q.r.q.q.q.q.q.q.q.q.q.q.q.q.q.q.q.q.q.q.q.q.r.q.q.q.q.q.q.w.q.q.q.9.q.q.q.r.r.r.r.q.q.q.q.9.w.q.q.q.q.9.q.i.q.q.e.0 5 5 3 9 7 7 9 6 6 2 7 6 2 l ] ' { ) ' ' ' ' { ) ' ' ' ' O.@.o.O.+.&.o.o.O.O.O.o.%.o.%.1.:.:.:.:.:.:.:.:.:.:.:.1.:.:.:.:.:.:.:.>.:.>.>.>.>.:. .o.&.o.o.o.o.o.o.o.o.o.o.o.| | ^ ' ' ) ' ' ) ' ' ' ' ' k p r z z r z z z f f g z r n P K K K K P K K K G K K K b & 3 3 7 3 2 3 4 2 3 4 3 2 [ } } } } }  .} ..} } } } } } } } } } ..} } } } } } } } } } }  .} .. . .} ..} ..} } ..} ",
"3 7 7 x 7 6 6 2 2 2 2 2 3 f ` } [ } } } [ [ [ } [ [  .[ ] [ } [ [ [ [ [ } [ } [ } } [ [ [ [ [ [ [ [ [ { [ [ [ [ [ [ [ #.[ #.[ #.[ [ [ [ [ [ [ ^ ~ k l l l l ^ l l n ^ l l l z ^ z l l z l z l z z j k { .. . . . . .}  . . . ... .X. .O...@.o.@.@.o.o.@.o.@.@.o.%.:.:.1.:.1.:.1.:.1.1.:.1.:.:.1.:.:.:.1.:.:.:.:.:.:.:.:.:.o.%.o.o.o.o.o.o.o.o.o.o.o.%.6.6.z ^ z ^ p 6.z ^ z ^ ^ l 2 2 2 2 8 3 6 8 6 3 2 2 6 + R q.q.q.q.q.q.q.q.9.q.q.9.q.9.q.q.q.u.q.q.q.q.q.q.q.q.q.q.q.r.q.r.q.q.q.q.r.q.q.q.r.q.r.q.q.q.q.q.q.q.q.q.q.q.q.w.q.q.q.0.q.w.0.0.w.q.q.q.w.q.w.w.w.q.w.q.w.q.q.q.q.q.q.q.q.q.q.q.q.q.q.q.9.r.r.q.q.q.r.q.q.q.q.r.q.r.q.q.r.q.r.r.q.q.9.q.q.q.q.0.q.r.r.q.r.q.q.0.0.q.9.q.q.q.q.q.q.q.q.q.q.q.q.0.q.q.q.0.q.0.0.0.9.q.q.0.q.q.q.0.0.0.q.0.0.0.0.0.q.0.0.0.0.0.0.q.q.0.0.0.9.0.q.q.0.q.q.0.q.q.q.q.q.q.r.q.q.q.q.r.r.q.q.q.q.q.q.r.q.u.q.q.r.q.r.r.r.r.q.r.q.r.r.r.q.q.r.q.r.r.q.q.q.q.q.q.q.q.r.q.r.q.q.q.q.q.q.r.q.q.q.q.r.r.e.3 4 4 4 8 9 2 9 7 4 4 6 7 2 l ] ] ) { ] ' ' ' ] { ' ' ] ' X.O.o.o.o.o.o.o.o.o.o.%.%.o.%.:.4X%.4X:.:.:.:.:.:.1.1.:.:.:.:.:.:.>.>.:.:.>.>.:.>.>. .o...&...o.o.&.O.O.o.&.O.O.} ' ' ' [ ' ' ' ' ' ' ' ' ' k f z z f g f z f f z f f z n w.P K K K K K G K K K K A b + x 3 7 = 2 2 2 3 2 3 2 1 [ } } ..} }  .} } } } } } } } ..} ....} ..} } } ..} } } } }  . . .} |  .} } } ..} ....} ",
"7 7 7 7 x 6 2 2 2 6 6 2 2 p ` } [ [ [ [ [ [ } [ [  .[ [ | | [ [ [ [ [ [ [ } [ [ [ [ [ [ ' ' [ [ [ [ { [ [ [ [ [ [ #. .} #.#.[ [ [ [ [ [ [ [ [ p l l l k l l l j j ^ j l j z l z l l z k z l j j z k z [  . . . . . . . . . . .#. . . . . .O. ... .O.o...o...o...:.:.1.:.1.:.1.:.1.:.1.:.:.1.:.:.:.1.:.1.:.:.:.1.:.:.:.:.:.o.%.o.o.%.O.O.O.%.o.o.o.o.%.6.p ^ z ^ p 6.z ^ z l l j l 2 2 6 6 2 6 4 3 3 6 2 6 7 + e.q.q.q.q.q.q.q.q.u.q.q.q.q.q.q.q.9.q.q.q.q.u.q.q.q.q.q.q.q.q.q.q.q.q.q.q.q.q.q.q.r.q.q.q.q.q.q.q.q.q.q.q.q.q.q.q.q.q.q.q.q.q.q.q.q.0.0.q.q.q.q.q.q.q.q.q.q.q.q.q.q.q.q.q.q.0.q.q.q.q.q.q.0.q.q.q.q.q.q.q.q.q.q.q.q.q.q.q.q.q.q.q.q.q.q.q.q.q.q.q.q.q.q.q.q.0.0.q.q.0.q.q.0.q.q.q.q.q.0.q.0.q.q.0.q.0.q.q.q.q.q.q.r.q.q.q.0.q.0.q.q.0.q.q.q.q.q.0.9.q.q.q.q.q.0.q.q.q.w.0.0.q.q.0.q.0.q.q.q.q.q.q.q.q.q.q.q.q.q.q.q.q.r.q.u.q.q.q.q.q.q.q.q.q.q.r.q.q.q.q.r.q.q.q.q.q.r.q.q.r.q.q.q.q.r.r.q.q.q.r.r.r.q.r.r.r.q.q.q.q.q.q.q.r.r.= 4 3 3 6 7 9 8 2 7 6 3 3 2 ~ ] ` { _ { ' ' ] { _ ' ] ' { o.O.O.O.o.+.+.O.o.%.%.o.o.%.%.:.:.:.%.:.4X:.:.:.:.:.:.:.:.>.>.>.:.:.1.:.:.:.:.:.:.:. .&...o.o.&.o.o.O.&.o.&.O.o.} ' ' ) ' ) ' ' ' ' 6.' ' 6.l f p z z f z r z g r z p z b P K K K P K K K K K K K w.b = 3 3 3 3 4 2 3 4 4 2 3 2 [ } } } | } ..} } ..}  .....} } } ..} } } ..} } } } } .. ...| | } ..} } } } ..} } ..} ..",
"3 7 x 7 7 3 2 2 6 2 3 6 7 f ] } #.[ [ [ [ [ [ }  .[ } [ [ [ [ } } [ [ [ [ [ [ [ [ [ [ [ ' [ [ [ { [ [ { [ } [ [ [ [ } }  .[ [ [ [ [ [ [ [ [ [ n l l k l l l l z l j l l l l z l l z k z z k k z z k z ]  . .}  . . . .#. ...#. . . .o...@.o. .o.@...o.@.o.@.O...%.:.:.1.1.:.1.:.:.1.1.:.:.1.1.:.:.:.:.:.:.:.:.:.:.:.:.1.:. .%.o.o.%.o.o.o.o.o.o.o.o.+.6.^ p ^ z z ^ ^ ^ l z l ^ l 2 2 2 8 6 2 6 2 4 6 2 2 2 = a.u.q.9.u.q.q.u.9.q.q.q.q.q.q.9.u.q.q.u.9.q.q.q.q.q.q.q.q.q.q.q.q.q.q.q.q.q.q.q.q.q.q.q.q.q.r.q.q.q.q.q.q.q.q.q.q.q.0.q.0.0.0.q.q.q.q.q.q.q.q.r.q.q.0.0.q.q.q.q.q.q.q.q.q.0.q.q.0.q.q.q.0.q.q.q.q.q.q.q.q.q.q.q.q.q.q.q.q.r.q.q.q.q.0.q.q.q.q.q.q.q.q.q.0.0.q.q.0.q.0.0.q.q.q.q.q.q.0.q.0.0.q.q.q.0.0.q.q.0.q.q.0.q.q.q.q.q.q.0.q.q.q.q.q.q.0.9.9.0.0.0.q.q.0.q.q.0.q.q.q.w.q.0.q.q.0.0.q.q.0.q.w.q.q.q.q.q.q.q.q.u.q.q.r.q.q.r.q.q.q.q.q.q.q.q.q.q.q.q.q.q.q.r.q.r.q.r.q.q.q.q.q.q.q.r.r.q.r.r.q.r.q.q.q.r.q.q.q.q.q.q.q.r.r.r.0 4 3 4 2 9 2 7 7 2 7 7 3 2 6.] ' ' ' ' ' { _ ] ' ] ] ) ] o.O.O.o.+.+.o.&.o.%.o.o.%.o.%.:.:.4X:.:.:.:.:.1.1.:.1.:.:.:.>.:.:.:.>.>.>.>.>.:.>.:.o.o.&.o.&.&.o.&.O.O.&.&.o.&. .' ' ' ' ' ) ' ^ ' ) ' ' ( ^ z f r g f g f f z z g z r A K P K K K K K K K K K A K b 3 4 4 2 4 2 4 2 2 3 2 3 6 }  .| ....} } ..} ..}  .} } ..}  .....} } ..} } } ..} .... . . . . . .| } ..| .. . ...} ",
"x 6 7 7 2 2 2 3 2 2 6 7 2 z [ } [ [ } [ } [ } [  .[ [ } [ [ [ | [ [ [ [ [ [ [ [ [ [ [ [ [ ' [ [ [ [ [ [ [ [ [ [ [ [  . . .[ [ [ #.[ [ #.[ [ [ ^ ^ l k ^ l ^ j l l l l k z l j z k z z l k z k z k z z ' } .. . . . . .| #. ...}  . . . .O. .o.o.o.o. .O.o...O. .:.:.1.:.:.1.:.:.:.:.:.1.:.:.:.:.:.1.:.:.:.:.:.:.:.1.:.:.:.o.%.o.%.o.%.%.%.o.O.o.o.o.o.6.z ^ z z ^ p n p l ^ z j l 2 2 2 2 2 6 2 6 7 2 2 2 9 : $.q.q.q.q.q.9.q.q.q.q.u.9.q.q.q.9.q.q.q.q.q.q.q.q.q.q.q.q.q.q.q.q.q.q.q.q.q.q.q.q.q.q.q.q.q.r.q.q.q.q.q.q.q.q.q.q.q.q.0.q.q.q.q.0.q.q.q.w.q.q.w.r.q.q.q.0.q.w.q.q.q.q.q.q.q.q.0.q.q.0.q.q.0.q.q.q.q.q.0.q.r.q.q.r.q.q.q.q.q.q.q.q.q.q.q.q.q.q.q.q.q.q.q.q.q.0.q.q.q.q.q.0.0.q.q.q.q.q.q.q.q.8.q.0.q.q.q.0.q.q.0.q.q.q.q.q.q.q.q.0.q.q.q.q.0.0.0.0.0.0.q.0.0.q.q.0.0.q.0.q.q.0.q.q.q.q.q.0.q.q.q.0.q.q.q.r.q.q.q.q.q.q.q.q.u.r.i.q.q.q.q.q.q.q.q.q.q.q.q.q.r.q.q.q.q.q.q.q.r.q.q.q.r.q.q.q.q.q.q.q.q.r.r.q.r.q.q.q.q.q.q.q.q.q.r.0 4 2 3 9 8 9 6 6 7 3 7 7 6 ~ ] ' ' ' ' ] ) { ] ] ' ' { ] O.@.O.o.o.o.+.o.O.O.o.%.%.o.%.:.:.%.=.%.1.1.:.:.:.:.1.:.>.:.>.:.:.>.1.>.>.>.>.:.>.>.o.&.o.o.&.&.&.&.&.O.%.o.&.o.} ' ' ' ' ' ' ' ' ' ' 6.' ' k p z z z g z r z f f f f z n K K K P P K K P K K K K C A = 4 * 2 * 2 2 4 * 2 2 3 7 }  . .} } } } } } } ..} ..} } } } } } } ..} ......} ..}  .| |  .|  .|  .} }  . ...| } ..",
"7 7 7 7 6 7 6 7 6 2 6 2 7 j ` } [ [ [ [ [ [ [ } [  .[ [ [ [ [ [ } [ [ [ [ [ [ [ [ [ [ [ [ 6.6.[ { [ [ [ [ [ [ [ [ [ [ [ [ [ [ #.[ [ [ [ [ [ [ ^ l j l l j l l l l l l j j l l l l z z l z k z k z l k { X.}  . . . . . . . . .X. . ...@. ...@. . .o. . ...o.@...:.:.1.:.1.:.:.1.1.:.:.:.1.:.1.:.:.:.1.:.1.:.:.1.:.:.:.:.%.%.o.%.%.o.o.o.o.o.o.o.o.+.o.6.6.z z ^ p ^ n ^ z z l z g 2 2 6 8 2 2 6 2 2 2 2 2 2 - R q.q.q.q.9.9.q.q.9.q.9.q.q.q.q.q.q.q.q.q.q.q.q.r.q.q.q.q.q.q.q.q.q.q.q.q.q.q.q.q.q.q.q.q.q.q.q.q.q.w.q.q.q.q.r.q.q.0.q.q.q.q.w.q.0.w.q.q.w.q.r.w.0.q.q.q.q.q.q.q.q.q.q.0.0.q.q.0.q.0.q.0.0.q.q.q.q.0.q.q.q.q.q.q.q.0.q.q.q.q.q.q.q.q.q.q.q.0.q.q.q.q.q.q.q.q.q.0.0.q.q.q.q.q.0.0.9.q.0.0.0.q.q.q.0.q.0.q.q.0.q.0.q.q.q.0.0.q.0.q.q.0.q.0.q.q.q.0.9.9.q.q.0.q.q.0.q.q.q.0.q.q.q.0.0.q.q.q.0.q.q.q.q.q.q.r.q.r.q.q.r.q.r.q.q.q.q.i.i.q.q.q.q.q.q.q.q.q.q.q.q.r.q.r.q.q.r.q.q.r.r.q.r.q.q.r.r.q.q.r.q.q.q.q.q.q.q.q.q.q.q.q.w.r.e.q 3 3 7 4 3 9 6 7 7 6 3 7 2 ( ' ' ' [ ] ] { { ' ] { ) { ] o.o.o.o.o.O.o.o.o.O.o.O.o.o.=.=.:.4X%.4X:.1.:.:.:.:.:.:.>.>.>.>.>.:.>.>.>.>.:.:.>.>.%.o.o.&.o.&.&.O.O.&.&.&.o.&.} ' ' ' 6.' ' 6.' ' 6.' ` 6.~ f z f f f f z g z z f f r n J K K K K K K K K K K K C b 3 5 - 2 4 4 * 2 2 3 3 7 7 } o.}  ... . .} .... ...} } } } } } } ..| } ..} } | ..}  . ...|  . .|  .....}  . ...} } ",
"7 7 3 x x 7 x 7 2 2 2 2 7 p [ [ } [ [ [ [ } } [ [ [ [ [ [ [ | [ | [ ' [ [ [ [ [ [ [ [ [ [ [ [ [ [ [ [ [ [ [ [ ] [ [ } [ [ [ [ [ [ [ [ [ [ [ [ z l ^ j j ^ l k l ^ j l l l j z z l z k z k z k z z k j [ X.} } }  . . ... . . .X. . .X.@.O. .@.o.@...O. .@.o.o. .:.1.:.:.1.:.1.:.:.1.1.:.:.1.:.:.1.1.:.:.:.:.:.:.:.:.:.:.:.%.o.o.%.o.%.o.O.O.o.O.o.o.+.6.^ ^ ^ z z z ^ z ^ ^ z ^ l 2 2 2 2 8 2 6 2 4 2 2 2 2 = J q.q.q.q.q.u.q.q.q.9.u.q.9.q.q.q.q.q.q.q.q.q.q.q.q.q.q.q.q.q.q.q.q.q.q.q.q.q.q.q.q.q.q.i.q.q.q.q.q.q.q.q.q.q.q.q.q.q.q.q.q.9.0.q.q.q.q.q.q.q.w.r.r.0.0.q.q.q.q.q.q.w.0.0.0.q.q.0.0.q.q.q.q.q.0.0.q.q.q.q.q.q.q.q.q.q.q.q.q.q.q.q.q.q.r.q.q.q.q.q.q.q.q.q.q.0.q.0.q.0.0.q.q.0.q.q.0.q.q.0.q.q.0.0.q.q.0.q.0.q.q.0.q.0.0.q.q.0.q.q.q.0.q.q.q.0.0.q.q.r.0.0.q.q.0.q.q.w.q.0.q.q.0.q.q.0.0.q.q.0.q.q.q.q.q.q.q.q.q.q.q.q.q.q.q.q.r.i.q.q.q.u.q.q.q.q.q.q.q.q.q.q.q.q.q.r.q.r.q.r.r.q.q.q.r.q.q.r.q.r.q.q.q.r.q.r.r.q.r.q.r.w.r.r.r.0 4 9 2 2 8 6 7 7 2 6 2 2 2 ~ ' ' ' ' { ' ' ) ' ' ' ] ' ' o.o.O.O.O.O.o.O.O.o.O.O.o.o.=.4X:.:.:.:.:.:.1.:.1.:.1.:.:.>.:.:.>.>.>.>.:.>.:.>.>.>.%.o.o.&.o.&.o.&.O.&.o.&.o.o. .' ' ^ ' ) ) ' ' ) ' ^ ( ( ~ f r z z g f f f z f z f t b P K K K A K K K A K K K A b + 4 4 2 2 3 4 2 2 x 3 7 6 6. .}  . .}  . .} } } } } ....} ..} ..} } ..| } ..} ..} |  . . . .|  . .} } ..}  .| } } ",
"7 7 7 7 3 2 3 2 6 2 2 6 6 u ' [ [ [ [ [ [ [ [ [ [ [ [ ] [ ] ] } ] [ [ [ [ [ [ [ [ [ [ [ [ [ 6.[ [ [ { [ { [ [ [ [ [ [ } [ [ { [ [ [ [ [ [ [ #.l l k k k ~ k k l l z ^ z l z l z l z l j z k k z z k l [  . . .}  . . . . . .}  . . . .@.O. . .O. .o.X.o. .@.o...:.:.:.:.1.:.1.:.:.:.:.1.1.:.:.:.:.:.1.:.:.:.:.:.:.:.:.:.:.+.o.%.O.O.o.O.o.o.%.%.o.o.%.^ 6.p ^ ^ ^ z z ^ j l j j ~ x 3 7 2 6 2 2 2 2 2 x 2 3 + R 9.q.q.q.u.q.q.q.q.q.q.q.9.q.q.q.9.q.q.r.q.q.w.r.q.q.q.r.q.q.q.q.q.q.r.w.q.q.q.w.q.q.q.q.q.q.q.q.q.q.q.r.q.q.q.q.q.0.q.q.q.q.q.q.q.r.q.q.r.r.w.r.r.0.0.0.r.0.0.0.0.0.0.0.0.q.q.q.q.q.q.q.q.q.q.q.q.q.q.q.q.q.q.q.q.q.r.r.r.0.q.q.q.q.0.q.q.0.r.q.q.q.q.q.q.0.0.q.q.q.0.0.q.0.q.0.0.q.q.q.q.0.0.q.0.0.q.0.q.0.0.0.q.q.q.0.q.0.q.q.q.q.q.0.q.0.q.0.0.0.0.9.q.0.q.q.q.q.q.q.0.w.q.q.q.0.0.0.q.q.q.9.q.q.9.r.r.r.q.q.q.q.q.q.r.q.q.q.q.q.r.q.r.q.q.q.q.q.r.r.r.w.q.r.q.q.r.q.r.q.r.q.r.r.q.q.r.q.r.q.0.q.q.r.q.r.q.q.q.q.q.q.0.r.R > 7 7 7 2 7 7 7 7 9 9 2 7 2 ~ ` ' ] ' ] ' ' ' ' ' ] ] ] ] @.o.O.O.o.o.O.O.o.O.o.O.o.o.%.:.%.4X:.%.:.1.:.:.:.:.:.:.:.>.>.>.>.:.>.>.>.:.:.>.:.1.&.o.&.&.&.O.o.&.O.O.o.%.o.o.} ' ' ' ' ' 6.) ^ ' ' ' 6.' ^ p z z p f g z f z f z g t S P K K K P K K K K K K K G A . * 4 4 2 2 2 2 3 2 2 2 2 ~ } }  .| .... . .} | ..}  . .} } ..} } } ..} } } } } } } ..} } }  . .| } }  . .| ....} ",
"7 x 6 x 7 7 2 2 3 3 3 3 7 6 ` [ } } ] [ [ [ [ [ [ [ } ] ] ] ] ] ] [ [ [ [ [ [ ' [ [ [ [ [ [ } [ [ [ [ { [ [ [ [ [ [ [ [ #.[ [ { { [ [ { [ [ [ k k l l ~ l l l ^ l ^ l l j l l j z j l z z k k k z k j [  . . . . . . . .#.} X.X. .X... .O.@... ... . .@.O. . .o.:.:.:.:.:.:.:.:.1.1.:.:.:.:.:.:.:.:.:.:.:.:.:.:.1.:.:.:.:.+.%.+.O.O.o.O.%.o.o.o.o.%.:.6.z p z z z ^ z z z j l l ~ 7 3 3 6 2 2 6 2 2 2 2 2 7 + P q.9.9.q.9.9.q.9.q.r.u.9.q.q.q.q.q.q.q.r.q.r.q.0.r.q.q.e.q.q.q.q.q.w.w.r.r.w.q.r.q.q.q.q.i.r.i.r.r.q.q.q.q.q.i.r.r.q.0.0.q.w.r.0.0.0.r.w.0.0.0.0.0.0.w.0.w.r.r.0.r.0.q.r.0.r.0.q.q.q.q.q.q.r.q.q.r.q.q.q.0.q.q.r.0.q.q.e.0.0.0.0.0.0.0.r.0.0.0.0.q.q.q.0.0.r.r.q.q.r.0.0.0.q.0.q.0.0.q.q.q.9.0.0.0.0.0.0.0.0.0.0.0.0.0.q.q.q.0.0.r.0.0.q.q.q.0.0.0.0.q.q.q.0.0.0.0.0.0.9.0.q.q.0.0.0.0.0.q.q.q.q.q.q.r.r.9.i.q.q.r.r.q.q.q.r.r.r.i.r.q.q.q.q.r.r.q.q.q.r.q.r.r.w.q.r.r.w.q.r.w.r.q.r.q.r.r.r.r.r.r.q.q.q.q.q.0.q.q.q.q.q.0.r.R + 7 3 3 7 7 7 3 7 6 2 3 2 6 n ' ' ] ' ' ' ' ) ] { { ) ' { O.o.O.o.+.o.o.O.o.o.+.o.O.o.=.4X:.:.:.4X:.:.:.:.1.:.:.:.:.>.>.:.:.>.>.>.:.:.:.:.:.1.o.O.O.&.&.&.&.o.O.O.&.%.&.&.} ' ' ' ' ) 6.' ' ' ^ ' ^ ' 6.j p z z z z f f r f f f r F K K K G G A K K A G K C G F % 2 3 2 2 2 4 4 2 2 2 2 2 ( o. . . . .} }  . .| } }  . . .| }  .} ..| } } o.} } .. .} | ....|  .| } ..} }  ...}  .",
"9 7 2 6 2 2 2 2 2 x 7 2 7 u ] } [ { ' [ [ [ [ [ ] [ ] ] ] ] ] ] ] ] [ [ [ [ [ } } } [ [ [ 6.[ [ { ' { ' { ` { [ [ [ } [ [ [ [ } [ } #.#.} [ } k l k l ~ ~ l ~ l ~ l l ^ l j k z z z j j k z k k j j j ] X. . . .#. .|  ...#.] } #.|  . . . .o. .@.o. ..... .o.o.:.1.:.:.1.:.:.:.:.:.:.:.:.:.:.:.:.:.:.:.:.:.1.:.:.:.:.:.:.o.+.%.%.o.o.&.o.%.o.O.o.+.%.^ 6.^ 6.p ^ z ^ j z l l j l 6 2 2 2 6 2 2 2 2 2 2 6 6 = P e.K r.a.a.r.r.r.u.r.r.r.r.r.a.r.a.r.u.r.w.R 0.e.w.e.r.r.e.w.r.e.w.r.e.w.r.r.r.r.r.r.r.r.r.u.r.r.r.r.r.r.r.r.r.r.r.e.e.e.r.r.e.e.e.0.e.J w.e.e.r.e.e.R w.Y e.Y 0.e.e.e.e.e.e.e.e.r.e.R e.t.r.r.r.e.e.r.q.e.e.e.r.e.e.e.e.e.e.e.e.E e.e.e.e.e.e.e.e.e.r.r.t.t.r.e.e.e.t.e.e.0.q.q.E 0.0.E 0.e.e.E E 0.0.r.e.e.e.e.e.r.e.e.e.r.r.r.e.r.e.r.r.0.r.r.r.e.q.e.r.r.r.r.e.r.e.e.r.e.r.r.r.r.r.r.r.r.r.r.q.e.e.e.e.r.r.r.e.r.r.r.u.r.r.r.u.r.r.0.r.r.r.e.r.r.e.e.e.e.r.e.r.e.e.r.e.r.r.r.t.e.r.r.u.r.r.t.r.r.t.e.e.r.q.0.q.r.r.r.r.Y $.+ 7 2 3 7 7 7 7 7 7 7 7 2 2 ` ' ' [ ' ] ' { { { ] { ] _ [ &.o.O.O.+.o.+.+.O.O.O.o.O.o.:.:.:.:.=.=.:.:.:.:.:.:.:.:.:.:.>.:.>.:.:.:.>.>.>.:.:.4XO.O.O.&.o.o.o.o.O.O.&.o.o.o.} ' ' ' ' ' 6.) ^ ' ' ^ 6.' ^ p z r p z l l z z z z g l n $.L L A A A S b A A A P P F 3 3 2 3 2 2 2 * 4 2 2 2 6 ( X.X.}  .o.X.X.&.o.X.o.O... . .o.&. .o.} o.o.%.o.o.o... ... . . . ... ...} }  .}  .} } ",
"+ x . . . x @ * 2 1 2 1 2 6 { ` ` ` ~ ~ [ #.[ ' 6.~ { { ` ` ` ` ' 6.6.6.6.6.6.z ^ ^ ^ 6.6.6.6.^ l l l z z z z z z r f 9 q q f f p p 7 n l l l u p p p p u 9 q 9 u p 7 6 2 l l l k l k z k g l l l l l ( [ [ ] ] ] ] ] ] ] _ ) { ' '  .@. ... . . .X.O. .@. . ...o.%.%.%.%.+.+.o.+.+.+.o.%.%.%.%.+.+.+.+.+.+.+.+.+.+.+.o.+.[ [ [ } } } } o. . . .} } o.^ p ^ p ^ j j j z z z j j k 2 2 2 2 2 6 2 2 2 3 x x 6 + e c b n A b b b b b b n b b b b b b b b b b b A b b b b b b b b b S S n S n S b b S b b b b b b b b S S b S b b b b S S Z A b b A b S A n A A n b n S S F A A F A S S F S S S Z S S S S S S S Z S S S S S S S S b S b S b S S S S S S S A A A A A A A A A S S S A A A A A A A A A A A A A A D A S A A A A A A S A A S A S A A A S A A A A A L A A L L A D A L A A G A A A L A A A A A L A A A A A A A D A A A A S S S A A A S A S S S A A A A A A A n A A A A A A A A n A b A A n S S S Z S Z S S S S A L A A S A A A L L A L F + x 2 2 7 3 6 7 x 2 2 3 2 2 6.{ ] ' ' ' ' ) { _ ' ' ' { ) o.o.O.@.o.o.o.o.o. . . .} } o.%.%.O.%.%.%.%.%.%.%.%.%.%.&.&.%.&.&.&.&.O.%.%.&.O.&. .o.} } } .. . .} .... . ...o.} ^ ' ' ' ' ) ' ' 6.' ' 6.' p 7 7 7 q p 9 9 9 q 9 9 9 9 b 0 0 = - & % = : 0 0 : + 0 e 2 2 3 2 2 * 2 2 2 2 2 2 2 f ,.+.,.%.%.:.%.:.%.,.*.%.O.*.l s p l p ^ ^ ^ ^ ^ ^ ^ ^ l l ~ l k l ~ l ^ ^ l l l ^ l k ",
"7X7X7XtX0XwXeX0XeXwX8XwXeX3.2 2 6 2 2 2 6 2 x 2 2 2 6 6 2 2 x 6 6 6 6 x 3 x 6 3 7 x x x 7 7 x 7 2 2 3 2 2 2 3 7 7 9 2 6 2 6 9 2 3 3 3 2 3 3 9 6 7 3 2 7 7 7 4 4 x 7 6 2 2 z z l l k l l l l ! l k ~ l ' [ ] ] ] ] ] ] ] ] ] ' ] ] ] X.@...@.o.o.o.@.O. ... .O.o.o.+.%.o.+.o.o.o.+.+.o.+.o.+.o.o.o.+.+.o.+.o.+.o.o.+.+.+.+.o.+.[ ..}  .} } }  . . .o. .^ ^ 6.p ^ z j j j z j j l l 3 x 6 2 2 2 2 2 2 2 2 2 2 2 3 7 = : 0 = 0 7 0 7 7 0 = = 3 3 0 = 3 0 3 q 0 7 7 q 7 0 7 q q 7 0 7 7 0 7 7 7 3 3 3 0 7 q 7 0 3 7 0 7 3 3 3 3 3 0 3 7 0 3 7 7 7 0 7 0 7 0 q 7 3 0 7 0 0 7 0 7 0 3 2 3 3 3 4 - 3 0 3 0 7 3 x 7 3 3 7 3 3 3 0 3 0 9 0 7 7 0 5 0 0 7 3 0 0 3 4 3 0 0 3 - 3 3 - 3 3 3 3 3 = 3 3 - 3 3 3 - 3 3 4 4 5 - 3 = 4 3 3 0 3 3 4 5 3 0 3 = 3 0 4 - 3 = 3 = = 3 * 4 3 = 4 = 3 = 4 4 3 5 : 3 5 - 4 3 - 3 3 = 2 4 5 3 0 3 5 - - 3 = = = * = = * = = 3 = * * = = = 0 0 = 0 - - 3 3 = 0 = 3 0 3 = = - 3 = 3 = 3 * = * * * * = 3 * * 3 3 3 = = + = 2 2 2 2 2 2 2 6 6 2 2 2 2 2 6.' ' ' ] { ) { ' ) { ' ' { { #. .#.| } } } } } } } } } } } O.O.o.O.o.O.o.o.o.o.o.o.o. . .o.o.o. . .o.o.o.X.o.o.o. .} } } } } ..}  .}  .} }  .| ' ' ] ' ' ' ' ' ' ' 6.' ] p x 3 x x 3 4 3 2 2 2 1 + 6 x 3 2 2 + x x 2 3 7 x 7 2 x 2 1 2 2 2 2 4 * 2 2 2 2 2 . f HX                        mXO.x 3 x * x x 7 7 p 6 6 x 2 2 2 2 2 2 2 2 2 x 2 2 2 2 * * ",
"                          0X6 9 2 3 6 6 6 3 6 9 7 7 7 6 7 3 7 7 6 7 7 7 7 7 7 7 7 7 7 7 7 7 x 7 9 4 7 7 9 6 9 9 3 7 6 4 9 2 2 9 7 7 7 3 3 3 7 7 7 7 2 6 2 2 3 4 3 7 3 2 2 k l l l l l l l l l l l ~ l ' [ ] ] ' { ) { ] ] ] ] ] ] | O.O. .o.O.@.o. .O.o.@.X. .O.o.%.+.+.+.+.+.+.+.+.+.+.%.+.%.+.%.+.+.+.+.+.+.+.+.+.+.+.o.o.[ o. .}  . .} o.}  . .} [ 6.^ p 6.p z ^ z j z ^ j l k 2 2 2 2 6 6 x 6 2 x 2 2 2 6 6 q 3 3 7 7 7 7 7 q 7 7 7 7 3 3 7 3 3 7 7 9 9 9 9 7 p q 7 7 7 q 7 q 7 q q 7 q q 7 3 7 7 7 7 7 7 7 9 7 9 7 7 3 3 5 7 0 7 7 7 q 9 7 7 7 7 7 7 7 9 7 7 3 7 7 7 7 5 9 9 9 9 9 9 9 9 7 7 7 7 9 9 9 7 7 6 7 7 7 7 u 7 9 9 9 9 7 7 9 7 9 7 7 7 9 9 9 7 7 9 4 3 3 3 5 3 9 3 3 3 3 4 9 3 3 3 4 5 3 4 5 9 4 9 9 5 9 7 9 5 9 9 5 9 7 7 7 7 9 4 4 4 3 4 4 9 3 4 4 3 3 4 9 7 7 4 4 4 9 3 3 3 3 5 5 4 4 4 9 4 4 4 3 3 4 4 4 3 3 4 4 2 9 2 4 3 4 7 3 4 3 4 9 9 4 7 7 7 7 5 3 0 7 7 7 7 7 7 7 3 q 4 4 3 4 2 2 2 4 4 4 2 3 2 3 3 2 3 3 7 3 3 3 2 x 2 x 2 x 2 x x 2 x 2 x 2 2 6.` ` ' ' _ { ' ' ] ' ' ' ) _ | |  . .} }  . .} }  .} } }  .O.o.O.O.o.o.O.o.O.o.%.o.o.o. .o.o.o.o.o.o. .o.X.o.o.o.} }  . .}  . .} }  .}  . .} } ' ' ' ' ' ' [ ] ' [ ' ' ' ^ x 3 3 6 3 2 2 2 2 2 2 2 2 x 7 2 2 2 2 x 2 x 3 3 x 2 2 6 2 2 2 * 2 4 2 * 2 + 2 2 1 f                             { * 3 7 3 3 3 x x 7 6 x 6 2 2 2 * * 3 2 2 3 3 2 3 * 2 2 2 ",
"                          eX2 2 2 3 3 4 2 4 3 3 2 9 3 2 3 3 3 7 7 7 7 6 7 7 7 7 7 7 7 7 7 7 7 7 4 9 3 9 9 2 4 3 3 4 3 4 3 9 3 4 7 7 3 3 3 3 3 3 2 2 7 7 3 2 3 2 3 3 3 3 x k l l l l l l l l l l ~ l ~ ( [ ] ' ] ] ] ] ' ] ' ] ' ] [ ..@.@.O.O.o.o.o...@.@.O...@.o.%.+.+.+.+.+.%.+.+.+.+.o.%.+.+.+.+.+.o.+.+.o.+.+.o.+.+.o.[ o.[ } o.}  .}  . . .}  .} ^ 6.p ^ 6.z ^ z ^ l z ^ z l 6 2 2 2 2 2 6 2 2 2 2 x 3 3 7 3 7 7 7 p 7 7 7 7 7 7 7 q 7 q 3 7 7 7 7 3 3 3 3 7 7 7 3 3 7 3 3 3 3 7 7 3 3 3 7 7 7 7 7 7 3 7 0 7 0 7 7 3 2 7 7 7 7 7 9 3 7 7 7 7 7 7 7 3 7 3 0 3 7 7 7 7 7 9 9 9 9 7 7 7 7 9 9 3 3 3 3 7 7 3 7 7 7 3 3 6 6 3 3 7 7 7 7 7 7 7 7 7 7 7 3 3 3 2 7 4 3 2 3 3 3 7 6 7 7 7 7 9 6 6 2 3 3 6 8 7 9 9 9 7 7 9 7 7 9 6 6 9 9 9 6 7 7 7 7 7 7 7 7 7 7 7 7 3 7 3 7 7 7 7 7 7 7 7 3 3 3 3 9 3 9 3 7 6 7 7 7 3 3 6 2 2 6 3 7 4 4 9 3 6 4 4 8 9 7 9 7 6 6 3 3 3 7 3 3 3 3 3 3 3 7 3 3 3 7 7 7 4 3 3 9 9 2 3 3 3 7 3 3 7 7 3 3 3 7 3 3 3 2 2 2 2 x 2 2 2 x 2 x 2 x 2 2 2 ` { ] ' ' ] { ' ' ' ' ] ' ( { } } } #.} } } } }  .} } } }  .O.o.O.o.o.o.o.o.o.o.o.O.o.o. .o.o.o.o.o.o.X.o.o.o.o.o.}  .}  . .}  .}  .} }  . . .} ] ] ' ' ' ' ' ] ' ' ' ' ' ^ x x x 3 x 2 2 * @ 2 1 2 1 x x 3 2 x x 2 2 2 2 3 2 2 2 2 4 2 2 2 * * 2 2 2 * 2 2 2 9                             @.x x 3 3 3 3 x 7 7 x 7 6 2 2 2 2 2 2 2 3 3 2 2 2 4 2 4 2 ",
"                          wX4 2 2 3 4 3 3 4 4 3 4 3 9 2 3 3 3 7 7 x 7 7 3 3 3 3 7 7 7 7 x 7 7 7 3 4 3 4 4 4 3 4 3 3 4 3 3 4 3 4 3 7 3 3 3 3 4 2 7 6 6 2 6 2 3 3 x 3 * 3 6 k l l l l l l l l l ~ ! l ~ ' ] ' ] ' ] ] ] { ] ] ] ' ] [ @.....@...o.o.o.O. .o. . .O.o.+.+.+.+.%.+.+.+.+.+.+.+.+.+.+.o.+.+.+.o.+.+.o.+.o.o.o.+.o.[ o.o.} }  . . . . . . . .^ p 6.6.p ^ z ^ n j l z ^ l 7 2 2 2 6 2 2 2 * 2 2 3 7 x 7 0 3 7 7 3 7 7 7 7 7 7 7 7 7 7 7 7 7 7 q q 7 7 7 7 7 7 7 q 7 7 7 q 3 7 7 7 q 7 7 q 7 7 7 7 7 3 7 7 3 3 3 3 7 6 7 7 7 9 9 3 3 3 q q 7 7 7 7 q 7 7 7 7 0 7 3 5 3 9 3 7 7 3 7 7 7 3 q 3 7 7 0 7 7 7 7 9 7 7 7 7 7 7 7 7 7 7 7 7 7 7 7 7 7 3 3 7 3 7 4 3 4 4 3 3 3 3 7 7 7 7 7 7 7 7 3 3 7 2 7 3 3 3 3 7 7 7 7 7 7 7 9 9 6 7 7 7 7 7 7 3 7 8 4 9 3 3 4 2 8 4 9 3 3 3 4 9 3 9 3 4 4 4 3 3 3 4 9 9 3 3 3 3 6 2 9 8 9 3 3 3 3 5 4 4 3 9 3 9 4 7 3 3 7 3 3 7 7 7 7 7 3 7 7 7 3 7 7 3 3 3 3 3 3 3 3 3 3 3 3 3 3 3 3 7 3 2 3 3 3 3 3 3 2 2 2 2 2 x x 2 x 2 x 2 2 2 2 ( [ ` ] ' ] ) ] ' ] { { ] { ) #.| } | } o.} } } } } } } [ } O.o.o.o.o.o.o.o.o.o.o.O.o.o. .o.o.o. .o.o.o.o.o.o.o.o.} } } } } }  . . . . . . . . .' ' ] ' ] ' [ ' ' ' ' 6.] ^ 7 x 3 x 3 * 2 2 2 * 2 2 2 7 3 * 2 2 2 2 2 2 2 3 x * 2 2 * 2 2 2 2 2 4 2 * 2 2 x 2 w                             { 3 x 3 7 x 3 x 7 7 6 6 6 2 2 2 2 2 2 2 2 2 3 2 2 2 2 2 3 ",
"                          eX2 6 2 2 6 2 2 8 2 3 9 6 9 2 7 9 2 8 2 7 7 7 2 7 7 7 2 7 2 7 7 7 7 7 7 7 7 3 7 7 7 7 6 9 6 9 2 8 4 7 7 6 6 3 7 7 7 x 6 9 6 2 2 2 2 8 3 2 2 2 7 k l l l l ~ ^ l ~ ~ l l ~ k ` ] ] ] ] ] ] ' { _ { ] ' ] ] o.o...@.o.O. .O.o.o.o.@.O. .O.O.+.o.+.O.+.+.O.+.O.O.%.o.+.+.+.+.+.o.+.o.+.+.+.+.+.+.o.[ +.[ [ X. . .} X. . .X.}  .z j j l j ^ j l j l ^ ^ z k 7 3 x 3 7 7 x 2 2 2 2 2 6 2 6 9 4 9 7 9 2 7 9 2 2 9 9 9 6 9 8 3 8 2 9 8 9 6 9 6 9 9 7 9 7 7 7 7 7 7 7 7 7 7 7 7 7 7 7 7 7 7 7 7 3 7 7 3 7 7 7 7 7 7 7 7 7 7 7 7 7 7 7 7 9 7 7 7 2 3 7 7 7 7 7 7 7 7 7 6 7 7 3 3 7 3 7 7 7 7 7 7 7 7 7 7 7 7 7 7 7 7 7 7 7 7 7 3 7 7 6 2 2 7 7 7 3 7 6 x 7 7 7 3 7 7 7 7 6 x 7 7 7 7 7 7 7 3 7 2 9 7 3 2 7 7 7 7 7 7 7 7 7 7 3 6 9 3 8 3 8 8 2 7 4 2 8 2 8 2 3 4 9 3 8 8 3 9 2 3 9 9 8 3 9 2 6 6 7 7 7 7 7 2 7 3 3 3 3 4 5 3 7 7 7 7 7 7 7 9 6 8 2 7 8 3 3 7 7 2 7 2 7 6 4 7 6 3 8 3 6 4 7 2 9 9 2 6 2 2 6 6 4 4 2 3 4 3 7 6 x 2 2 2 x 2 1 1 6 2 2 2 2 2 { { ' ' ' ' { ' ' ` ] ) { ) ] ] } #.| #.|  . . .[ [ |  .|  .o.@.X.O.O.@.o.O.X.O...@.O.o. .o...X.X.o.o.o. .o.o.o.o. .}  . . . . . . .}  . .} }  .' ' ] [ ' ' ' [ ' ' ' ( [ ~ 6 2 2 x 2 x 7 x 7 2 2 2 2 2 * @ 2 @ 2 2 @ * 2 2 2 2 2 2 * 2 * 2 2 1 2 6 2 2 2 6 . 4                             [ 4 * 2 * 2 2 2 2 4 * 4 2 4 2 2 2 4 2 2 8 2 2 2 2 4 2 2 2 ",
"                          wX2 2 2 2 6 2 6 2 2 8 4 9 4 8 6 2 9 2 6 3 6 3 7 7 7 7 7 7 2 7 x 7 3 7 7 7 7 7 x 7 6 7 2 9 9 2 8 2 6 2 2 2 7 7 7 7 7 7 3 2 2 2 9 6 2 2 2 2 2 6 3 z l ~ l l ~ n ~ ~ l ~ ! l l { ] ] ] ' { ] ] ] ' ' ] ' ) #.O.@.O.o.O. .@...@...o... .O.o.%.+.+.O.+.O.O.+.+.+.O.o.+.+.o.+.o.+.o.+.+.+.+.o.+.+.o.+.o.[ o.X. . . .X.}  . .} X.} ^ ^ l l l l l j l z z l l l 7 2 2 x x 7 7 2 2 6 2 2 2 2 6 9 8 9 6 8 9 8 3 9 8 9 6 4 9 2 9 2 9 9 7 2 9 9 2 7 9 7 7 7 9 7 7 7 7 7 7 7 7 7 7 7 7 7 7 7 7 7 7 7 7 3 7 7 7 7 7 7 7 7 7 7 7 7 3 7 7 7 7 7 7 7 7 7 7 7 7 7 7 7 7 7 7 7 7 3 7 7 7 7 7 3 3 7 7 7 7 7 7 7 7 7 7 7 7 7 7 7 7 7 7 7 7 7 3 7 2 7 3 7 7 7 7 3 7 7 7 7 7 7 3 7 7 7 7 7 7 3 7 7 7 7 7 6 7 9 3 8 7 7 7 7 2 7 7 7 7 7 3 7 7 9 3 8 9 8 9 3 7 2 6 9 3 7 2 9 8 6 6 9 6 7 8 9 6 6 2 2 6 9 6 6 4 7 7 7 7 7 2 7 7 3 2 3 3 4 4 3 9 7 7 7 7 7 7 2 9 9 3 9 6 6 3 2 7 7 7 7 6 2 9 6 4 9 2 8 2 6 4 2 6 6 2 4 7 9 2 2 4 3 2 4 2 3 7 x 2 x x 2 2 x 2 2 x 1 1 2 6 2 ` [ ' ' ] ] ' ] ' ] { ) { { ] } } } } | #.#.| |  . .#.#.[ ..o...O.O. .o.o.@...o.O. .O.o. .o.o.X.o.o.o.o.o.o. .o. . . .}  .}  . .} }  .}  . . . .' ' ' [ [ ' [ ' [ ' ' ` ] ~ 6 2 x 2 x 3 x 7 x 2 x 2 2 2 2 2 * 2 * 2 2 2 2 * 2 * 2 2 2 2 2 2 2 2 2 1 2 1 2 2 2 2                             { 2 2 2 2 2 2 * 2 2 2 2 2 2 2 2 2 2 2 2 2 2 2 2 2 2 2 4 2 ",
"                          eX2 7 3 6 2 6 2 6 2 9 6 8 3 6 6 7 2 6 6 7 7 2 7 7 7 7 7 2 7 7 7 7 x 2 3 6 x 7 3 6 2 7 2 9 4 6 3 6 3 9 6 7 7 7 3 7 2 7 2 6 2 8 2 2 2 6 3 2 2 2 2 l ~ l ^ l l ^ l ~ k l l ~ l ' ] ' ' { ' ] ) { ] ) { { _ ] ..@.@.O.o...X.@.o.o.O.O.O...O.+.+.+.O.+.+.+.+.+.O.+.%.+.+.o.+.+.+.+.+.o.+.o.+.+.o.+.o.o.[ [  .[  . .[ X.#. . .X.} z j l j l l z ^ z ^ l l l z 2 2 2 7 3 x 7 6 2 2 2 6 2 2 6 3 9 9 9 9 9 6 9 6 9 9 8 9 6 6 2 6 2 9 8 2 9 8 2 7 7 7 7 7 7 7 7 7 7 7 7 7 7 7 7 7 7 7 7 7 7 7 7 7 7 7 7 7 7 3 7 3 7 7 7 7 3 3 7 7 7 7 7 7 7 7 7 7 7 7 7 7 7 7 7 7 7 7 2 7 7 7 7 7 7 3 7 7 7 7 7 7 7 7 7 7 7 7 7 9 7 7 7 7 7 7 7 6 7 7 7 6 3 7 7 7 7 3 3 7 7 7 7 6 6 7 7 7 2 2 7 7 6 7 7 6 9 7 9 3 8 9 7 7 2 7 7 7 7 7 7 7 x 7 7 2 8 2 7 2 7 6 4 9 8 4 6 6 4 6 9 9 2 9 9 9 2 9 2 8 9 2 9 6 2 4 9 7 7 7 7 7 2 7 7 3 4 4 3 3 3 3 7 7 7 7 3 2 9 9 8 8 2 9 9 3 3 7 7 7 7 3 6 8 2 6 6 2 3 6 7 2 9 8 2 2 9 6 6 6 2 2 3 4 2 2 3 2 3 6 2 2 x 6 x 2 2 2 2 2 x 2 + x ` [ ' ] ' ' ' ` ] ' ' { { ) ]  .#. .}  .|  .#.#.#.| | | [ X.@.O. .O.@.o.o.O.O.o.o.O.@.X.o.o.o.o.o.o.o.o.o.o.o.o.o. .} }  . . .}  . .} }  . . ...' ' ] 6.' ' ' ' ' ' ' ` ' l 7 2 2 x 2 x 7 x 7 2 2 2 x @ 2 2 2 2 2 * 2 * 2 2 2 2 @ 2 2 2 2 2 2 6 2 2 2 2 2 1 9 2 HX                          { 2 2 2 2 2 2 2 4 4 2 2 4 = 4 2 2 2 6 2 2 2 2 * 2 4 * 4 2 ",
"                          iX4 9 7 2 2 6 2 6 2 6 2 9 9 2 4 2 2 8 2 7 7 7 3 6 3 7 2 7 3 6 7 7 7 6 2 6 7 7 7 7 2 6 8 2 7 2 6 4 8 2 2 7 7 7 x 6 7 3 3 2 2 6 2 6 2 6 2 3 2 3 x j z ^ l l l ~ l ~ ~ ~ l l k ' [ ] ] ] ] ' { _ ' ] ' ] { ' O.O...O.@.o.O. .o.o. . .@.X.o.o.+.o.+.+.+.+.+.O.+.+.+.o.+.+.+.o.+.o.o.+.+.o.o.+.+.+.o.[ o.[ X.X. . .X.[ } } X.} } l j l l l ^ z j l l z j l j 2 2 7 7 x 7 7 2 6 2 2 2 2 2 8 9 9 8 9 2 9 2 8 2 2 9 2 2 6 9 9 9 9 8 3 9 6 9 9 7 7 7 7 7 7 7 7 7 7 7 7 7 2 7 3 7 7 7 7 7 7 7 7 7 7 7 7 7 7 7 7 7 7 7 7 7 7 7 7 7 7 7 7 7 7 7 7 7 6 7 7 7 7 7 7 7 7 7 7 7 7 7 7 7 7 7 7 7 7 7 7 7 7 7 7 7 7 7 7 7 7 7 3 7 7 7 7 3 7 2 7 3 7 7 2 7 x 7 3 7 3 x 7 x 2 7 7 7 7 7 7 3 6 x 7 4 2 6 2 8 9 3 7 7 7 7 7 7 7 7 7 7 7 7 7 6 2 8 3 8 2 6 7 6 2 6 7 4 6 2 9 2 9 2 8 2 9 7 4 3 2 8 2 4 9 6 2 2 7 3 7 7 7 7 2 3 3 4 3 9 3 2 7 7 3 7 7 7 3 7 2 6 9 2 2 7 6 2 7 2 7 2 2 2 9 2 2 2 8 6 4 8 6 2 9 6 7 2 7 2 8 4 2 2 2 3 2 2 7 2 2 x 2 x x 2 1 1 2 2 2 * 2 2 ` [ { ] ' ' ] ' ' ' ' { ( { '  .| #.}  .| [ | |  . . . . . .O. .O.o...o.o...@.o.o.o.o.o. ...o.o... .o.o.o.o...o.o. .}  .} }  . . .}  .}  . .}  .] ' ' 6.[ ' ' ' ' ' ' 6.' k 2 2 2 2 2 7 x 7 x 6 x 2 x * 2 @ 2 2 * 2 1 2 2 * 2 2 2 2 * * 2 2 2 2 2 1 2 x 2 2 2 2 HX                          { * 2 2 * 2 * 2 2 2 2 2 * 2 2 2 2 2 2 6 2 3 4 4 4 2 2 4 2 ",
"                          rX2 2 7 2 6 6 3 6 7 2 2 2 7 6 2 2 6 9 2 7 7 3 7 2 7 7 6 6 7 3 7 7 7 2 2 2 2 7 6 2 9 2 2 8 2 9 6 3 7 4 8 6 9 2 3 7 6 6 6 2 7 2 2 6 2 2 3 2 2 6 6 l ^ l l l l l ~ l ~ k l l l ' [ ] ] ) ' ] ' { ] ' ' ] ) ] @.O...@.o.O.o.o.o.o.@.X.O. .O.O.+.+.o.+.+.%.+.o.+.o.+.o.+.o.o.+.+.+.+.%.+.o.+.o.+.o.+.[ +.[ X. . .[  .}  . .} X.} 6.k k l l l z l l l l l ^ z 2 2 2 2 2 7 x 2 6 2 2 2 2 2 6 7 9 9 6 7 6 6 3 9 2 3 6 2 7 7 7 2 9 7 7 2 4 9 7 7 7 9 7 7 7 7 7 7 7 7 7 7 3 7 6 7 7 7 7 7 3 7 7 7 7 7 7 7 7 7 7 7 7 7 7 7 7 7 7 7 7 7 7 7 7 7 7 7 7 7 7 7 7 7 7 7 7 7 7 7 7 7 7 7 7 7 7 7 7 7 7 7 7 7 7 7 7 7 7 7 7 7 7 7 7 7 7 7 7 7 3 7 7 7 7 7 7 7 3 6 3 6 7 7 7 7 7 7 6 7 3 6 7 3 7 6 3 8 2 6 4 9 7 7 7 7 7 7 3 7 7 3 7 7 x 4 9 2 8 7 6 2 2 4 9 2 6 7 2 6 6 8 6 4 6 7 3 7 8 9 2 6 3 6 2 2 8 3 7 3 3 2 7 7 7 4 3 3 4 9 3 2 7 7 7 7 7 7 3 6 8 6 9 2 8 2 7 2 7 7 7 3 6 7 2 3 7 6 7 7 2 2 9 2 8 7 2 7 2 2 6 2 2 3 2 4 3 3 3 2 2 2 2 x 2 x 2 1 x 1 x 6 2 1 f { ' ' ' ] { ' { [ ' { { ) {  .} } } |  . . .[  . .[  .|  .O.@.o.O.@.@...O.@.o.@.O. .O. .o.o.o.o.@...o.o.o.o.o. . .}  .} }  . . .}  . . .} }  .] ' ` ' 6.[ ' ' ' ' 6.' ] ^ 7 2 x 2 x x 7 x 7 2 2 2 2 2 2 2 * 2 * 2 2 2 * * 2 * @ 2 2 2 @ 2 2 1 2 2 2 2 2 2 2 2 HX                          { * 2 2 2 2 * 2 2 2 * 2 2 2 2 2 2 2 2 2 2 2 2 2 2 2 2 2 2 ",
"                          rX2 6 7 2 6 6 9 2 2 7 6 6 7 2 6 2 2 2 6 7 3 6 7 7 3 3 7 x 3 7 7 2 7 2 7 7 7 3 3 6 2 8 9 2 2 6 4 8 2 6 2 7 2 7 7 3 3 2 3 6 2 6 6 2 2 6 2 3 2 2 + j l l j ^ l l l l l k ~ k l ' [ ] ] { ] ] ] ] ] ' ' ' { [ o.&.o.o.@.@.o.o.X.X... .O. .o.+.+.o.+.+.+.o.+.+.+.o.+.+.+.+.+.+.o.o.o.o.+.+.+.o.o.+.+.o.[ [ [ X. . . .} }  .} X.} l k l l ~ ^ l ^ j l k l j l x 7 x 2 2 2 6 2 2 6 2 6 2 2 8 7 7 6 9 7 7 2 6 2 8 6 6 6 7 7 7 9 6 3 7 6 8 9 6 7 9 9 9 7 7 7 7 7 7 7 7 7 7 3 7 7 7 7 7 9 7 7 7 7 7 7 7 7 7 7 7 7 7 7 7 7 7 7 7 7 7 7 7 9 7 7 7 7 7 7 7 7 9 7 7 7 7 7 7 7 7 7 2 7 7 7 7 7 7 7 7 7 7 7 7 7 7 7 7 7 7 7 7 7 7 7 7 2 2 7 7 6 x 7 7 7 7 7 7 3 7 3 3 7 3 7 7 7 3 3 7 3 3 7 7 4 6 9 9 9 3 6 7 7 7 7 7 7 7 7 7 7 7 7 7 7 2 7 2 2 6 7 6 7 2 2 8 6 2 7 2 2 7 2 9 7 3 9 6 7 6 3 7 9 9 7 2 7 7 7 7 7 7 2 7 3 4 2 9 4 3 3 3 7 2 7 3 7 6 3 2 6 9 6 3 7 7 7 3 7 2 3 7 6 7 7 3 2 2 6 7 7 2 9 2 7 7 6 2 6 6 2 2 2 4 2 2 2 6 3 2 6 x 6 x 2 2 2 2 2 1 2 2 2 6.' ] ] ' { ' { ' ' ' ( ) { ] | } #.} [  .#.| | #.|  .| #. .O.o.o...o.O.O. ...O.....O. .o. .o.o. .@...o.o.o.o.o.o. .}  . . . . .} }  .}  . .}  .' ' ] ' ' [ ' ' ' ' ' 6.' j 6 2 2 x 2 7 x x 3 2 2 2 2 2 @ 2 2 2 1 * 2 1 2 2 2 2 2 * 2 2 2 2 1 2 2 2 2 2 2 2 2 2 HX                          ` 2 2 2 2 2 4 4 2 2 2 2 2 2 2 2 2 2 6 1 2 2 2 2 2 * 2 4 2 ",
"                          rX6 7 7 6 7 7 7 7 3 3 2 3 3 7 3 3 2 7 2 3 7 3 6 7 3 7 7 7 7 3 7 7 7 3 7 7 2 7 7 3 9 7 9 6 6 2 6 3 2 6 7 2 7 2 7 7 6 2 2 2 7 2 7 6 3 2 4 3 2 2 x l ^ ~ ^ ~ l 6.l ~ ~ k l k k ( [ ' ] ] ] ' { ] ] { ' ] ' ] @.o.o...O...X.o.o...o. . . .o.o.+.+.+.+.+.o.+.+.+.+.+.+.o.o.+.o.o.+.o.+.+.+.+.o.+.o.o.[ [ o.[  .[  . . . . . . .X.l ~ l l l l l l l l l ~ k ^ x 3 2 2 7 7 2 7 6 7 6 6 6 6 9 3 3 7 7 7 2 7 7 7 7 7 7 7 7 7 7 7 7 7 7 7 9 3 9 7 7 9 9 7 7 7 7 7 7 7 7 3 7 7 7 7 7 3 7 3 3 7 7 7 7 7 7 7 7 7 7 7 3 7 7 7 7 7 7 7 7 7 7 7 9 9 9 9 9 7 7 9 9 9 7 7 7 7 7 7 7 6 6 3 7 3 3 7 7 7 7 7 7 7 7 7 7 7 7 7 7 7 9 7 9 7 3 7 7 7 7 3 3 7 3 7 7 7 7 7 7 7 7 7 7 7 3 7 7 7 7 7 7 9 3 6 9 6 4 7 8 9 3 7 7 4 9 7 7 7 3 7 7 3 7 3 7 7 3 6 3 2 6 6 7 7 2 3 7 7 7 7 7 9 7 3 7 7 7 7 7 7 7 7 7 7 3 7 7 x 3 7 3 3 2 3 3 3 6 3 2 3 2 2 2 2 7 2 3 6 8 7 7 7 7 7 7 3 7 7 7 3 7 3 7 7 7 9 7 7 7 2 7 3 7 x 7 3 3 3 3 6 2 2 2 4 4 2 3 3 2 x 3 x 6 2 2 2 2 2 2 1 x 2 6.{ ' { ' ' ] ' ' ` { { ) { ] } }  .| | #. .|  .| [  .#.|  . .o. .o.o. .O.O.o.o.o.@.o.o. . . . .o.o.o. .o.o.o.o.o. . .#. .} X.}  . .}  . .}  . .' ` ` ' ' 6.' 6.' ' ' ' 6.p 6 2 2 2 2 x 2 7 x 2 2 2 6 2 1 @ 2 2 * * 2 2 2 . 2 2 * 2 2 2 * 2 2 2 2 * 2 x 2 . 4 2 HX                          ( 2 2 2 2 4 2 2 4 2 4 2 4 * 2 2 2 2 2 6 2 2 2 3 3 4 3 2 2 ",
"                          rX9 6 7 7 7 2 7 9 7 q 9 7 3 3 3 3 7 9 9 7 3 7 2 3 4 2 x 7 7 3 3 3 6 7 7 7 9 7 9 9 4 7 7 3 9 9 9 2 6 7 7 6 7 9 7 7 7 2 2 2 2 2 7 7 2 3 4 9 9 6 6 l n ^ n l l ^ ~ l ~ ~ ~ ~ m ) | ] [ ] ' [ ' ) { _ ] ' ' | %.o.O.O.O...o.O.O.o.X. .X.O.o.+.o.+.o.+.+.+.+.o.+.o.o.+.+.+.o.+.+.o.+.o.+.o.+.+.o.+.o.o.o.[ o. . . . . .[ } } }  .6.z l ~ ~ l ^ l l l k k l z x x 2 6 9 9 7 9 9 9 9 9 6 2 6 2 2 3 2 2 3 3 2 x 3 2 2 2 3 2 3 9 9 9 q p 9 q 9 q 9 p 9 q q q 9 u q u 9 9 9 9 7 3 3 3 3 x 3 2 2 3 x x 3 x 2 2 2 2 2 3 3 7 q 7 9 q q 7 q 9 q q 9 p 9 q 9 9 q 9 9 7 7 2 3 7 7 2 7 7 7 3 3 3 3 3 3 2 2 2 2 7 7 7 9 9 9 9 7 9 3 9 9 7 7 9 7 7 7 7 2 7 x 3 3 7 x 3 2 x 3 3 3 2 2 x 2 2 2 9 9 9 9 9 9 9 9 9 9 9 9 9 4 7 7 7 x 3 3 x 2 2 2 2 2 2 2 2 2 2 2 2 2 3 3 3 7 7 7 9 9 9 q 9 4 9 9 q 9 7 7 9 9 7 7 7 2 2 x 2 2 2 2 2 + 2 2 2 2 2 2 2 2 2 2 3 2 3 9 7 9 q 9 q 9 9 q 9 9 7 9 q 9 9 9 q 9 7 3 3 2 2 2 2 x 2 2 2 2 * 2 2 * x x 2 3 7 7 x 7 2 6 2 2 3 7 7 9 3 ` { ' ' { ` [ ' [ { { { { ) ] #.X.} }  .| #.[  .#.}  . .[ O.O.O.O.O.o.O. .O.o...o.o.o.o. .O.O.o. . .o.o.o.o.o.o.o. . .}  .} }  . . . . .}  .} } ' ` ` ' [ 6.[ ' ' ' ' ' ` j 6 2 7 9 8 7 7 2 7 6 2 1 + 2 2 2 2 2 2 2 2 2 2 2 2 * 2 2 @ 2 * . 2 2 2 4 . 2 9 3 3 @ HX                          F 3 2 2 2 2 4 4 4 4 4 * 2 1 4 2 2 2 2 2 2 2 2 2 4 4 2 4 2 ",
"                          yX2 2 1 2 1 . @ * 2 2 2 * * 1 2 * @ @ * @ @ 1 @ @ @ . * * 2 2 2 * 2 2 2 2 @ 2 * 2 * 1 2 2 @ 1 * 2 * + * 1 + 1 . . . X X . . X + 6 2 2 2 . . X + l n ~ l l l ` l ~ ~ l k k ! ( _ ( { ( ' ) { ' ) ' ) ( ~ ] &.&.o.o... . .o.X.X. .o. . .o.o.@.o.@.+.@.+.+.X.o.o.@.@.o.o.o.+.o.o.+.o.+.+.o.+.+.o.+.[  .o.[ o. . . .o.[ [ } }  .l l 6.( ( 6.l ~ l l z l z g X X x 2 6 9 7 9 7 9 9 q 3 X + x + X . . . . . 1 + . . . 2 4 9 9 9 9 9 4 4 3 4 4 9 9 9 9 9 4 9 7 3 4 2 * 2 * . X . . . . . . . . X . . . . X . X . . . 2 2 3 2 3 3 2 4 2 4 9 9 3 7 7 9 3 3 3 2 . + 1 + 1 + + . + x . . x + x + . . . . x 2 + 2 * 2 * 2 2 * 2 2 2 x * 2 + 2 + . . . + . . . . . x + . . x + 1 + + x 2 x 2 2 * 2 2 2 * 2 2 2 @ @ 2 2 * * @ . . . 1 . . 1 . . . . . . 1 . . 1 . 1 2 2 2 6 4 2 2 2 3 2 9 2 2 4 2 2 1 * * . . . X X . X X X X X X X X X X X . X X X X . + 2 2 2 2 4 4 4 4 4 5 4 2 4 3 4 4 3 2 2 * 2 . . . . X . X X X X X X X X X X X 2 4 2 * 2 + . 2 2 3 2 + [ [ #.{ { ' } ] [ [ [ ] ' ' ]  .] [ |  . .#.| #.|  .} } } o.o.o.o.o.o.O.o.o.o.o.o.o.o.o.o.o.o.o.X.o.o.o.O.O.@.o. .} #. .} } }  .#.|  . .| .. .[ ' ~ ` 6.[ 6.[ [ ' 6.' ' ` u . + 2 2 1 . x 1 . . 1 X . . . . . . @ @ @ X . . . . . @ . X X X @ . @ . X X @ @ 2 2 HX                          ` @ * . . . * 1 + * * . * @ . @ @ @ . . @ 2 @ * 2 * 2 4 * ",
"                            eXrXrXwX0XeXeXeXeXwXwX0XwXwXeXeXeXeXeXeXeXeXeXeXeXeXeXeX0XwXeXeXwXwXwX8X0X8XwX0XwX8XwX8XwXeXwXeX0XwXwXwXwXeXwXwXwXrXrXyXrXwXeXrXeXeXrXrXeXlX:.p p u u u p 9 u q u 9 9 9 8 g ( k m ) ( ( ( m k ! m l ^ ~ } } } | [ [ ] } } } } | } } }  .X. . . . .X.#.X.X.X. . .X.X. . .o.o. .+.[ o.o.[ o.[  .[ [ [ [ [ [ [ [ [ } [ } } } 9 2 q 9 u p q u 9 p 9 8 6 . 7XwXeXwXeXlXrXrXrXrXrXrXrXiXyXiXyXrXrXrXyXyXyXrXrXiXHXrXyXyXeXrXrXeXrXyXrXrXrXrXrXeXrXrXrXrXeXeXeXeXeXwXeXwXeXeXwXeXwXeXeXeXwXeXeXwXeXeXeXeXeXeXeXrXrXeXeXeXeXeXeXeXwXwXwX8X8XwX8X8X8X8X8X7X7X8X8X7X0X7XtX8X8X7X8X7X7X8XwX0X8XwXwXwXwXeXeXeXwXwXwXwXwXwXwX8XwX8XwXwXwX0XwXwX0XwX8X0X8X8X7X8X8XtX8X8X8X8X8X0X8X0X8X8X8X8XwX0X8X8XwXwX8XwXwXwX8XwX8X0X8X8X0X8X8X7X8X8X7X7X7X8X7X7X7X7X7X7X7X8X8X7X8X7X7X8X8X0X8X8X8X0X8X0XwXwXwX0XwX0XeXeX8XwX8X7X8X7X8X0X8X7X0X8X0X8X7X8X7X7X7X8X7X7X7X7X7X7X8XwX8XwXwXwX0XwXwXwXwXeXeXeXeXeXeXeXeXeXeXeXwX0X8X0X8X8X8XwXwXwX0X8X8X8X8X8X7X7X7X7XrXyXyXlXX.f z f f n z l l l l w w 8 z ' | [ [ | [ | [ | | [ | } |  . .o. .o.o. . ... .o..... . .X. .....X. . . . . . .o. . . .} }  .} | #. .|  .#.[  .j 2 9 4 7 7 p q q q 7 3 2 2  .wXwXwXwXrXeXeXeXeXeXrXeXeXeXeXrXyXyXeXrXeXeXrXrXeXeXeXeXeXyXrXeXeXyXrXyXeX8XwXeXyXeX                            HXrXlXyXeXrXyXfXfXyXyXrXyXyXyXyXyXyXrXyXlXyXyXyXyXfXyXyXyX",
"                                                                                                                                                                        s.2 2 2 8 4 9 9 9 9 3 9 6 6 2 g ( k ( ( ! m ! ( ( m k k ! ' } } | } [ | } } } ] [ } } } }  . . . . . .} }  . . . . .X.} o.o.[ o.+.[ o.[ o.+.[ o. .[ [ [ [ [ [ [ [ [ [ [ ] } ~ 2 2 2 6 6 6 7 7 7 2 2 6 2 X HX                                                                                                                                                                                                                                                                                                                                                                                                                                                                                                                                                                                    HX#.9 q 3 9 9 9 9 9 9 9 2 2 6 8 ' ] | ] ] ] ] ] ' [ [ ] [ ' }  . . . . . . . . . . . . .}  . . . . . . . .|  ...|  .[  .} } [ } | } } } |  .|  .f 2 2 3 7 7 7 7 = 3 3 3 2 * +.                                                                                                                                                                          ",
"                                                                                                                                                                        3.2 9 2 2 7 9 9 9 4 7 2 4 2 1 g ( ( k l ( ! ( l k ( ( ( ! ' } | [ } | } ] | } } [ [ } ] }  . .X.}  . . .}  . . . . .#. .[ [ o.[ [ o.[ o.[ [ [ o.+.[ [ [ [ [ [ [ [ [ [ [ ] [ [ . + 6 2 6 7 x 7 7 2 2 2 2 @ HX                                                                                                                                                                                                                                                                                                                                                                                                                                                                                                                                                                                    HX@.9 9 3 9 5 9 4 5 9 5 9 6 1 u ] ] ] [ ] ] ] ] [ ] [ ] | ' }  . . .}  . .} }  .|  . .| } } | | |  .}  . . .|  . . .| | [ [ } [ | #.| } | | [ [ f 2 3 = 7 7 x 3 3 3 3 x = 3 +.                                                                                                                                                                          ",
"                                                                                                                                                                        3.2 2 2 2 4 4 4 4 3 3 3 2 4 2 f ( ( ( ( ! m ( ! ( l ( l ~ ' } | | } | | } [ } [ [ | [ | [ X.} }  .#. . .X.} X.} #. . . .o.o.+.[ o.[ o.[ o.[ [ o.[ [ [ [ [ [ [ [ [ [ [ [ } [ ' a 1 2 2 2 2 2 2 2 2 2 2 2 @ lX                                                                                                                                                                                                                                                                                                                                                                                                                                                                                                                                                                                    HX@.4 0 3 5 5 5 3 4 4 4 3 3 2 9 | ] ] [ ] ] ] ] ] ] ] ] ] [ [ } }  .}  . .} |  ... .|  . .|  . .|  . . .|  . .| } } | [ [ | | | ] | | | | #.| | g 2 3 3 3 3 3 3 3 3 + 3 2 2 X.                                                                                                                                                                          ",
"                                                                                                                                                                        3.4 4 2 2 9 9 3 3 9 4 4 4 6 4 f ( l l ( ( ! ! m m ( ( ( ( ] } } | } } [ | [ | | | [ | [ [  .} X. . .} } }  . . . . . . .[ [ [ [ [ o.[ o.[ o.o.[ o.[ [ [ [ [ [ [ [ [ [ [ ] ] ' 9 @ 2 1 2 2 2 2 2 2 2 2 2 *                                                                                                                                                                                                                                                                                                                                                                                                                                                                                                                                                                                       HX@.9 5 3 7 3 3 7 7 7 3 3 3 9 z  .] ] ] ] ] ] #.] ] ] | [ | }  . . . .} }  . . . . .|  . .| | } #. .| |  .| |  .} } ] } [ } | | #.| | | | [ [ | g 2 * 3 + 3 * 7 3 3 x 3 x 1 @.                                                                                                                                                                          ",
"                                                                                                                                                                        3.2 4 2 8 2 3 8 9 3 4 4 2 6 2 z ( ~ ! ~ ! ( l ! ! ! ( ( ( { |  .[ } } [ [ [ [ [ [ | [ | }  . . . . . . .#. . . . . . .| o.[ [ o.o.[ o.[ o.+.[ o.[ [ [ [ [ [ [ [ [ [ [ [ ] ] ' u 2 2 2 2 2 2 2 2 2 2 2 3 @ HX                                                                                                                                                                                                                                                                                                                                                                                                                                                                                                                                                                                      @.9 9 4 3 7 7 7 7 7 7 4 3 9 l  .] ] ] ] ] ] { ] ] ] | ] ] }  . . .} } }  . .} }  . . .#.| |  .| | |  .|  . .#.| } ] ] [ [ | ] ] ] | ] ] | | ] j 2 2 = 3 7 7 * 3 = 3 x 2 1 @.                                                                                                                                                                          ",
"                                                                                                                                                                        3.2 9 2 6 2 9 2 9 2 4 2 4 9 9 l ` m ( ( ( l m ! ( ( m ! ! ) [  .| } | | [ | | } } [ | [ } }  . .}  . . . . . . . . . .#.[ o.+.[ [ o.[ o.[ [ +.[ [ [ [ [ [ [ [ [ [ [ [ [ ] ] ] 9 * 2 2 2 2 2 2 2 2 2 * 2 . HX                                                                                                                                                                                                                                                                                                                                                                                                                                                                                                                                                                                      { 4 4 3 3 7 7 9 7 7 7 5 3 9 l } { ] ] ] ] ] ] ] ] ] ] ] ] } }  .} X...} }  .}  . .| #. .|  .|  . .#.|  . .| | ] ..] ] ] | ] ] ] ] ] ] ] ] | #.z 2 2 2 3 3 x 3 3 3 x 3 + 1 @.                                                                                                                                                                          ",
"                                                                                                                                                                        3.@ 2 2 6 2 9 6 9 2 2 4 2 8 8 l ) ( k ( ( ! m ! ( l l ( m ) } | |  .] | [ | } } [ ] } ] |  . . . .#.X.} X.X.#. .|  . . . . . .#.X.} [  .X.} X.} } ] [ ' [ [ [ [ 6.[ [ [ [ [ [ p 7 7 x 7 2 2 x 2 2 2 2 2 X lX                                                                                                                                                                                                                                                                                                                                                                                                                                                                                                                                                                                      #.2 4 4 4 3 9 7 7 7 7 4 3 9 l  .] ] ] [ [ ] ] | ' ' [ | ] |  . . . . .} } }  . .}  .} } | } } } | } | } } } } } } ] ] ] ] ] ] ] ] ] ] ] ] ] } l 2 3 + + 3 * 7 2 2 2 x + . #.                                                                                                                                                                          ",
"                                                                                                                                                                        s.@ 2 6 4 8 8 2 3 4 4 3 2 9 6 g ( m ( ( m ( ! ( ( ( ( ~ ~ ]  . .[ [ [ ]  .| | ] ] } ] } [  . . . . .}  .} }  .| #. . . .[  .}  .[  .}  .} X.} X. .[ [ [ [ [ [ ' [ [ [ [ [ [ } p 7 x 7 x 2 2 6 2 1 2 * 2 . HX                                                                                                                                                                                                                                                                                                                                                                                                                                                                                                                                                                                      { * 4 4 3 7 7 7 7 3 7 4 9 9 l } ] ] ] ] ] ' ] [ [ | | ] ] } } }  . .} }  . .} }  . .} } } } } | } } | } } } } } } | ] ] ] } ] ] ] ] ] ] ] ] } ~ 7 3 3 3 3 3 * 2 2 * 2 x 1 @.                                                                                                                                                                          ",
"                                                                                                                                                                        s.4 2 4 2 9 2 9 3 4 3 4 9 2 9 l ( k ( k ! ( ! ( m ! ( ~ ( )  .[ | | [ ] [ } [ [ ] } } ] |  . . . . . .} #. .X. . . . . . . . . .X.} }  .} X. .} } [ ] [ } ' [ [ [ [ [ [ [ [ [ p 7 x 7 6 2 1 2 2 2 2 * 2 X lX                                                                                                                                                                                                                                                                                                                                                                                                                                                                                                                                                                                      { @ * 2 6 3 7 7 7 6 7 5 9 9 ~ } [ ] ] ] ] ] ] ' ' [ ' [ ' }  . .}  .} } }  . .}  .} } } } } } } | } } | } | } } } } ] } ] | [ ] | } ] | ] ] } l 3 7 3 + 2 3 x + 2 * 2 2 2 @.                                                                                                                                                                          ",
"                                                                                                                                                                        s.2 2 4 9 9 6 2 4 2 4 4 2 2 1 g ( l l ( ! ( m ( ! ( ! ~ m '  .|  .} | | | [ | ] [ ] } ] [  .#. .|  .}  ... . . . .| #. .| #. .X. . . .} } X.#. . .[ [ [ } [ [ [ [ [ [ [ [ [ } ^ x 6 6 x 2 2 2 2 2 2 2 2 . yX                                                                                                                                                                                                                                                                                                                                                                                                                                                                                                                                                                                      { @ * 3 2 7 3 3 7 7 7 3 3 9 z X.] ] ] ] ] ' ] ] ] [ ] [ ] }  .}  . .}  . . .}  .}  . . .}  .} } } } } } ..| } | | ] ] ] | ] | ] ] | ] ] | } } f 2 + x 3 2 3 3 2 2 2 2 2 2 X.                                                                                                                                                                          ",
"                                                                                                                                                                        3.9 2 9 6 3 9 2 2 7 4 2 9 9 2 g l ( l ( ( m ! ! ~ ~ ~ ~ ! )  .] } |  . .} ] ] [ | [ ] [ } }  . .}  .}  .}  . . .#.|  . . . . . . . . . .} } X.X. .] [ [ ' } [ [ [ [ [ [ [ [ ' 7 7 x 7 6 2 2 . 2 2 2 2 9 X eX                                                                                                                                                                                                                                                                                                                                                                                                                                                                                                                                                                                      ( @ 2 3 7 7 9 7 7 9 2 4 3 4 9 [ { [ ] ' ] ] ] ] ] ] | | |  . . . . . .}  . . .} } } } } } }  .} }  .[  .| }  .} ..] | | [ | | ] ] ] | | ] |  .g 2 x 3 7 * 2 2 2 + 2 2 2 2 @.                                                                                                                                                                          ",
"                                                                                                                                                                        8X9 2 4 4 9 4 4 9 4 4 4 2 2 2 f ( ~ ( l l ( ( ( ( ~ ( ~ ~ ` }  .] [ [ [ ] ] } [ | } } | #. . .[  . .X. .X.|  . . . .}  . . .#. . .}  . .X.} }  .X.[ ] ] [ ' [ [ [ [ [ [ [ [ ' 6 7 x x x 2 2 2 2 2 2 x 3 X fX                                                                                                                                                                                                                                                                                                                                                                                                                                                                                                                                                                                      m @ * 3 7 3 3 9 9 9 9 3 2 2 l [ [ [ ] | ] ] ' ' ' ] [ ' ' [  . .} }  .}  .} } } } } } } } } }  . .} [ .. .[ } ] } ] [ ] ] ] [ } ] | ] | [ |  .a 6 6 3 x 7 2 2 2 2 2 2 2 2 X.                                                                                                                                                                          ",
"                                                                                                                                                                        3.* X . @ . @ * 2 2 2 2 4 4 2 z ` ( ( ( ( { ( ( ` ( ~ ~ ( ' o.X.o.X.} } } X.X. .X.} } }  .X.o.X. .[ [ [ #.|  . .#.[ }  . . ...@.+.X. . . . .#.} @. .} } [ [ [ [ [ [ [ [ } } [ 6 7 7 7 7 3 = 3 3 2 x 2 3 X lX                                                                                                                                                                                                                                                                                                                                                                                                                                                                                                                                                                                      { @ @ x 2 * 2 2 4 2 4 2 2 2 f [ } [ [ [ [ } [ [ [ [ [ [ [  . .o. .}  . . .[ } | [ } } }  .} } [ } [ [ } }  . . . .} [ [ [ [ [ [ [ ] } } ] }  .s . 2 + * + x + 1 . . 2 . * [                                                                                                                                                                           ",
"                                                                                                                                                                        lXO.,.,.,.,.,.,.4.4.,.,.,.,.,.+.4 9 9 8 9 9 a a p p u u 9 u f f p f p u p p j j p p q p f f f 9 9 w p u w w w w 9 a w 9 w 9 9 8 7 7 q p q q 7 q f f z l ^ ^ 6.^ 6.6.^ p z z n [ 6.z 6.' #.{ { { [ [ ` ` a                                                                                                                                                                                                                                                                                                                                                                                                                                                                                                                                                                                         7X3.3.3.4.4.4.3.3.3.,.,.,.,.#.z z f j 6.6.~ ~ n l l 6.^ z z ^ ^ p p p p z p ^ ^ p ^ ^ p ^ z z p z z z ^ j ^ z ^ j j ~ ' 6.^ 6.( ( l ( ~ j g z F ,.:.,.,.,.,.,.,.,.,.,.,.,.7X                                                                                                                                                                          ",
"                                                                                                                                                                                                      eX@ 9 4 2 7 7 7 6 2 2 2 2 2 2 6 2 6 2 3 2 6 6 4 4 3 2 2 2 7 2 6 2 2 2 2 6 2 2 2 6 2 7 7 7 2 2 2 x 2 1 2 2 2 2 2 2 2 1 2 x 6 2 2 1 2 x 2 2 6 6 3                                                                                                                                                                                                                                                                                                                                                                                                                                                                                                                                                                                                                                                 7X2 2 2 * x 3 3 7 7 7 3 7 7 x x x x x x x x x 3 3 x x 6 6 x 3 3 x 3 3 x 3 x x x + x 6 2 9 6 6 7 7 2 2 x 7 2 x x x +.                                                                                                                                                                                                      ",
"                                                                                                                                                                                                      8X* 8 2 4 2 2 2 2 2 2 2 2 x 2 2 2 2 3 3 3 3 2 4 3 2 3 2 2 2 x 2 2 2 2 2 2 2 6 2 2 2 2 6 3 2 2 2 2 2 2 2 2 2 3 2 2 2 2 2 2 6 6 2 2 2 2 2 7 7 7 3                                                                                                                                                                                                                                                                                                                                                                                                                                                                                                                                                                                                                                                 s.@ 2 2 2 7 x 7 3 3 3 3 3 3 3 7 3 7 3 3 3 3 3 x 3 3 3 3 x 3 3 x 3 = 3 3 x 3 x 2 3 x * 7 x 6 x x 3 2 x 2 2 3 3 2 x @.                                                                                                                                                                                                      ",
"                                                                                                                                                                                                      eX. 3 2 2 3 2 3 3 7 3 3 2 3 3 2 3 2 2 2 x 2 2 2 * 3 2 2 2 3 2 3 3 2 2 2 2 2 2 2 2 2 7 7 3 2 3 2 2 2 2 2 2 2 2 2 2 2 2 6 3 2 2 2 6 6 2 6 6 6 7 7                                                                                                                                                                                                                                                                                                                                                                                                                                                                                                                                                                                                                                                 s.* 2 3 * = x 3 x = 3 3 3 3 x 3 = 3 = x 3 3 x 3 = x = 3 x = x = 3 x = 3 3 * x + 3 * 7 3 + x 3 x 3 x x 2 2 3 x 2 x X.                                                                                                                                                                                                      ",
"                                                                                                                                                                                                      eX2 7 2 6 7 7 x 7 2 2 6 3 2 2 2 3 2 3 7 7 3 2 3 2 2 3 2 3 7 7 3 7 6 2 3 6 6 2 2 7 2 2 x 3 2 2 7 2 2 2 2 2 2 2 4 6 2 2 2 6 2 6 6 2 6 2 2 2 x 7 7                                                                                                                                                                                                                                                                                                                                                                                                                                                                                                                                                                                                                                                 s.2 2 3 3 3 3 3 3 3 x 3 x 3 3 x 3 3 3 = 3 x 3 3 3 3 3 3 3 3 3 3 x 3 3 3 x 3 7 3 3 3 3 3 7 x 3 2 x 2 2 2 2 x x 2 x @.                                                                                                                                                                                                      ",
"                                                                                                                                                                                                      rX. 7 2 2 x 7 7 x 7 7 3 7 x 2 3 x 3 2 7 x 2 3 * 3 3 2 3 2 7 7 7 7 x 7 x 7 2 2 7 2 7 7 x 7 7 2 7 2 2 6 2 6 2 6 2 2 8 2 2 2 2 2 6 2 6 2 6 2 2 3 3                                                                                                                                                                                                                                                                                                                                                                                                                                                                                                                                                                                                                                                 3.* 2 2 2 3 x 3 x 3 = 3 = x 3 = = 3 = 3 x 3 3 = 3 3 3 = 3 3 3 = 3 3 3 3 3 * x = 3 3 3 * x x 3 7 x 2 x 2 x x 2 2 2 @.                                                                                                                                                                                                      ",
"                                                                                                                                                                                                      fX1 3 2 2 3 7 7 7 x 7 x 7 7 7 7 7 2 3 2 6 3 3 4 2 2 3 2 3 x 7 7 x 7 3 7 7 2 7 x 6 x 7 7 7 2 7 2 2 2 2 2 2 2 2 8 2 3 6 2 8 8 2 2 8 2 2 2 2 2 2 2                                                                                                                                                                                                                                                                                                                                                                                                                                                                                                                                                                                                                                                 3.@ * 3 2 3 3 3 3 x 3 3 3 7 3 3 3 3 = 3 3 = 3 x 3 x 3 3 3 3 = x 3 = 3 x = 3 3 3 x * 3 3 * 3 x 3 x 2 x 6 x 2 2 2 x @.                                                                                                                                                                                                      ",
"                                                                                                                                                                                                      HX+ 7 2 6 x 7 x 6 7 7 7 x 7 7 x 7 2 3 3 3 4 4 4 3 3 3 3 3 7 3 7 x 7 7 7 x x 7 7 7 x 7 7 7 7 2 2 6 8 2 8 2 2 6 2 6 2 2 2 6 2 6 2 2 2 2 3 2 2 2 4                                                                                                                                                                                                                                                                                                                                                                                                                                                                                                                                                                                                                                                 3.2 3 3 2 3 x 3 x 7 3 3 3 x 3 3 x 3 3 3 3 3 3 3 3 3 3 = 3 3 3 3 3 x 3 3 3 = 3 3 = + 7 3 2 * 2 * 6 7 x x x 2 x 2 3 #.                                                                                                                                                                                                      ",
"                                                                                                                                                                                                      HXx x x 6 7 7 7 2 7 3 6 2 3 x 7 7 2 3 2 3 4 3 3 3 2 2 3 2 7 x 7 6 2 2 3 7 7 7 7 x 2 6 2 2 2 7 6 2 2 2 6 2 2 6 4 2 6 2 2 8 2 2 6 2 2 2 2 2 2 2 4                                                                                                                                                                                                                                                                                                                                                                                                                                                                                                                                                                                                                                                 s.* * 3 3 3 = 3 3 3 3 3 3 3 7 = 3 3 3 x 7 = 3 3 = 3 3 x 3 7 x = 3 3 3 3 3 x 3 3 3 3 3 x 2 + 2 * 7 x 7 x 7 2 2 2 2 @.                                                                                                                                                                                                      ",
"                                                                                                                                                                                                      HX. 2 6 7 2 7 2 2 7 6 2 x 2 2 3 2 2 3 3 2 3 2 3 2 2 3 2 3 6 2 2 2 2 6 x 7 2 6 3 2 2 6 7 7 7 x 7 7 6 2 6 2 2 6 6 2 2 6 2 6 6 2 2 2 2 2 2 3 2 2 2                                                                                                                                                                                                                                                                                                                                                                                                                                                                                                                                                                                                                                                 s.* 3 2 3 3 2 3 3 3 3 3 3 3 3 3 3 3 x 3 3 = 3 3 = 3 3 3 3 = 3 3 3 7 7 3 7 3 3 3 = 3 3 = x 2 * 2 x 3 x 2 x 6 x 6 7 X.                                                                                                                                                                                                      ",
"                                                                                                                                                                                                      HX* 2 2 2 2 6 7 7 3 3 7 7 3 3 3 3 3 3 3 3 3 7 3 3 3 3 3 3 3 3 7 3 x 6 7 x 2 2 2 2 x 2 x 7 x 7 x 3 2 2 2 2 2 2 2 2 2 2 2 2 6 2 2 6 2 2 x 2 2 2 9                                                                                                                                                                                                                                                                                                                                                                                                                                                                                                                                                                                                                                                 s.* 3 3 3 3 3 3 3 3 3 2 3 7 7 3 3 3 3 3 3 3 3 3 3 3 7 3 x 7 3 3 3 + 3 3 + 3 3 3 3 3 x 3 3 2 3 2 3 3 3 2 7 x 6 x 7 #.                                                                                                                                                                                                      ",
"                                                                                                                                                                                                      HX. * 4 2 2 3 3 3 3 7 3 3 2 3 3 2 2 2 2 2 6 7 2 x 2 6 2 2 2 2 3 7 7 7 7 x 2 7 3 2 6 6 3 7 2 6 7 7 2 2 2 7 2 7 2 6 2 6 2 2 7 7 9 7 7 6 2 2 2 2 9                                                                                                                                                                                                                                                                                                                                                                                                                                                                                                                                                                                                                                                 s.* 3 4 4 2 3 3 4 7 7 3 3 6 x 3 3 3 3 3 3 3 x 3 7 3 0 9 3 3 3 3 3 3 3 3 3 3 = = 3 3 3 3 3 4 3 4 4 3 3 3 7 x 7 3 7 X.                                                                                                                                                                                                      ",
"                                                                                                                                                                                                      HX. 2 2 2 3 9 9 r q 9 3 3 4 8 9 8 7 7 7 2 6 7 1 + . 2 2 4 7 6 2 2 3 7 7 7 2 7 2 2 7 7 7 x x x x + 2 7 2 2 2 6 7 2 6 2 2 6 7 q 9 9 9 2 7 2 * 4 2                                                                                                                                                                                                                                                                                                                                                                                                                                                                                                                                                                                                                                                 s.4 5 4 4 2 3 4 9 q 3 7 7 0 7 7 7 = 7 3 x = 3 3 7 5 3 3 4 3 7 = 3 3 q 7 3 7 7 q 7 7 3 3 3 5 5 9 9 9 9 2 7 9 9 7 7 @.                                                                                                                                                                                                      ",
"                                                                                                                                                                                                      yXX @ 2 4 w w 9 9 9 2 . . . . @ . @ @ . @ x 2 * 1 4 4 4 2 2 2 2 4 3 3 4 3 2 2 2 2 2 2 2 2 x . . . X X X . . . . . . 1 . . . 2 5 4 9 X * 2 * 2 2                                                                                                                                                                                                                                                                                                                                                                                                                                                                                                                                                                                                                                                 7X@ 2 9 9 1 4 1 2 * * + 2 . . . @ . . . X x 7 0 7 3 3 3 2 3 3 0 q 0 3 3 * + 1 x x + x + + . . . 4 9 2 1 2 2 x . . #.                                                                                                                                                                                                      ",
"                                                                                                                                                                                                              HXyXlXlXHX                                                                            HXHXHXHX                                                                                                                                                                                                                                                                                                                                                                                                                                                                                                                                                                                                                                                                                            HXHX                              HXHXHXHX                            HXmXMXHXHXHXHXHXHX                                                                                                                                                                                                                                ",
"                                                                                                                                                                                                                                                                                                                                                                                                                                                                                                                                                                                                                                                                                                                                                                                                                                                                                                                                                                                                                                                                                                                                                                                                                                                                                                                                ",
"                                                                                                                                                                                                                                                                                                                                                                                                                                                                                                                                                                                                                                                                                                                                                                                                                                                                                                                                                                                                                                                                                                                                                                                                                                                                                                                                ",
"                                                                                                                                                                                                                                                                                                                                                                                                                                                                                                                                                                                                                                                                                                                                                                                                                                                                                                                                                                                                                                                                                                                                                                                                                                                                                                                                ",
"                                                                                                                                                                                                                                                                                                                                                                                                                                                                                                                                                                                                                                                                                                                                                                                                                                                                                                                                                                                                                                                                                                                                                                                                                                                                                                                                ",
"                                                                                                                                                                                                                                                                                                                                                                                                                                                                                                                                                                                                                                                                                                                                                                                                                                                                                                                                                                                                                                                                                                                                                                                                                                                                                                                                ",
"                                                                                                                                                                                                                                                                                                                                                                                                                                                                                                                                                                                                                                                                                                                                                                                                                                                                                                                                                                                                                                                                                                                                                                                                                                                                                                                                ",
"                                                                                                                                                                                                                                                                                                                                                                                                                                                                                                                                                                                                                                                                                                                                                                                                                                                                                                                                                                                                                                                                                                                                                                                                                                                                                                                                ",
"                                                                                                                                                                                                                                                                                                                                                                                                                                                                                                                                                                                                                                                                                                                                                                                                                                                                                                                                                                                                                                                                                                                                                                                                                                                                                                                                ",
"                                                                                                                                                                                                                                                                                                                                                                                                                                                                                                                                                                                                                                                                                                                                                                                                                                                                                                                                                                                                                                                                                                                                                                                                                                                                                                                                ",
"                                                                                                                                                                                                                                                                                                                                                                                                                                                                                                                                                                                                                                                                                                                                                                                                                                                                                                                                                                                                                                                                                                                                                                                                                                                                                                                                ",
"                                                                                                                                                                                                                                                                                                                                                                                                                                                                                                                                                                                                                                                                                                                                                                                                                                                                                                                                                                                                                                                                                                                                                                                                                                                                                                                                ",
"                                                                                                                                                                                                                                                                                                                                                                                                                                                                                                                                                                                                                                                                                                                                                                                                                                                                                                                                                                                                                                                                                                                                                                                                                                                                                                                                ",
"                                                                                                                                                                                                                                                                                                                                                                                                                                                                                                                                                                                                                                                                                                                                                                                                                                                                                                                                                                                                                                                                                                                                                                                                                                                                                                                                ",
"                                                                                                                                                                                                                                                                                                                                                                                                                                                                                                                                                                                                                                                                                                                                                                                                                                                                                                                                                                                                                                                                                                                                                                                                                                                                                                                                ",
"                                                                                                                                                                                                                                                                                                                                                                                                                                                                                                                                                                                                                                                                                                                                                                                                                                                                                                                                                                                                                                                                                                                                                                                                                                                                                                                                ",
"                                                                                                                                                                                                                                                                                                                                                                                                                                                                                                                                                                                                                                                                                                                                                                                                                                                                                                                                                                                                                                                                                                                                                                                                                                                                                                                                ",
"                                                                                                                                                                                                                                                                                                                                                                                                                                                                                                                                                                                                                                                                                                                                                                                                                                                                                                                                                                                                                                                                                                                                                                                                                                                                                                                                ",
"                                                                                                                                                                                                                                                                                                                                                                                                                                                                                                                                                                                                                                                                                                                                                                                                                                                                                                                                                                                                                                                                                                                                                                                                                                                                                                                                ",
"                                                                                                                                                                                                                                                                                                                                                                                                                                                                                                                                                                                                                                                                                                                                                                                                                                                                                                                                                                                                                                                                                                                                                                                                                                                                                                                                ",
"                                                                                                                                                                                                                                                                                                                                                                                                                                                                                                                                                                                                                                                                                                                                                                                                                                                                                                                                                                                                                                                                                                                                                                                                                                                                                                                                ",
"                                                                                                                                                                                                                                                                                                                                                                                                                                                                                                                                                                                                                                                                                                                                                                                                                                                                                                                                                                                                                                                                                                                                                                                                                                                                                                                                ",
"                                                                                                                                                                                                                                                                                                                                                                                                                                                                                                                                                                                                                                                                                                                                                                                                                                                                                                                                                                                                                                                                                                                                                                                                                                                                                                                                ",
"                                                                                                                                                                                                                                                                                                                                                                                                                                                                                                                                                                                                                                                                                                                                                                                                                                                                                                                                                                                                                                                                                                                                                                                                                                                                                                                                ",
"                                                                                                                                                                                                                                                                                                                                                                                                                                                                                                                                                                                                                                                                                                                                                                                                                                                                                                                                                                                                                                                                                                                                                                                                                                                                                                                                ",
"                                                                                                                                                                                                                                                                                                                                                                                                                                                                                                                                                                                                                                                                                                                                                                                                                                                                                                                                                                                                                                                                                                                                                                                                                                                                                                                                ",
"                                                                                                                                                                                                                                                                                                                                                                                                                                                                                                                                                                                                                                                                                                                                                                                                                                                                                                                                                                                                                                                                                                                                                                                                                                                                                                                                ",
"                                                                                                                                                                                                                                                                                                                                                                                                                                                                                                                                                                                                                                                                                                                                                                                                                                                                                                                                                                                                                                                                                                                                                                                                                                                                                                                                ",
"                                                                                                                                                                                                                                                                                                                                                                                                                                                                                                                                                                                                                                                                                                                                                                                                                                                                                                                                                                                                                                                                                                                                                                                                                                                                                                                                ",
"                                                                                                                                                                                                                                                                                                                                                                                                                                                                                                                                                                                                                                                                                                                                                                                                                                                                                                                                                                                                                                                                                                                                                                                                                                                                                                                                ",
"                                                                                                                                                                                                                                                                                                                                                                                                                                                                                                                                                                                                                                                                                                                                                                                                                                                                                                                                                                                                                                                                                                                                                                                                                                                                                                                                ",
"                                                                                                                                                                                                                                                                                                                                                                                                                                                                                                                                                                                                                                                                                                                                                                                                                                                                                                                                                                                                                                                                                                                                                                                                                                                                                                                                ",
"                                                                                                                                                                                                                                                                                                                                                                                                                                                                                                                                                                                                                                                                                                                                                                                                                                                                                                                                                                                                                                                                                                                                                                                                                                                                                                                                ",
"                                                                                                                                                                                                                                                                                                                                                                                                                                                                                                                                                                                                                                                                                                                                                                                                                                                                                                                                                                                                                                                                                                                                                                                                                                                                                                                                ",
"                                                                                                                                                                                                                                                                                                                                                                                                                                                                                                                                                                                                                                                                                                                                                                                                                                                                                                                                                                                                                                                                                                                                                                                                                                                                                                                                ",
"                                                                                                                                                                                                                                                                                                                                                                                                                                                                                                                                                                                                                                                                                                                                                                                                                                                                                                                                                                                                                                                                                                                                                                                                                                                                                                                                ",
"                                                                                                                                                                                                                                                                                                                                                                                                                                                                                                                                                                                                                                                                                                                                                                                                                                                                                                                                                                                                                                                                                                                                                                                                                                                                                                                                ",
"                                                                                                                                                                                                                                                                                                                                                                                                                                                                                                                                                                                                                                                                                                                                                                                                                                                                                                                                                                                                                                                                                                                                                                                                                                                                                                                                ",
"                                                                                                                                                                                                                                                                                                                                                                                                                                                                                                                                                                                                                                                                                                                                                                                                                                                                                                                                                                                                                                                                                                                                                                                                                                                                                                                                ",
"                                                                                                                                                                                                                                                                                                                                                                                                                                                                                                                                                                                                                                                                                                                                                                                                                                                                                                                                                                                                                                                                                                                                                                                                                                                                                                                                ",
"                                                                                                                                                                                                                                                                                                                                                                                                                                                                                                                                                                                                                                                                                                                                                                                                                                                                                                                                                                                                                                                                                                                                                                                                                                                                                                                                ",
"                                                                                                                                                                                                                                                                                                                                                                                                                                                                                                                                                                                                                                                                                                                                                                                                                                                                                                                                                                                                                                                                                                                                                                                                                                                                                                                                ",
"                                                                                                                                                                                                                                                                                                                                                                                                                                                                                                                                                                                                                                                                                                                                                                                                                                                                                                                                                                                                                                                                                                                                                                                                                                                                                                                                ",
"                                                                                                                                                                                                                                                                                                                                                                                                                                                                                                                                                                                                                                                                                                                                                                                                                                                                                                                                                                                                                                                                                                                                                                                                                                                                                                                                ",
"                                                                                                                                                                                                                                                                                                                                                                                                                                                                                                                                                                                                                                                                                                                                                                                                                                                                                                                                                                                                                                                                                                                                                                                                                                                                                                                                ",
"                                                                                                                                                                                                                                                                                                                                                                                                                                                                                                                                                                                                                                                                                                                                                                                                                                                                                                                                                                                                                                                                                                                                                                                                                                                                                                                                ",
"                                                                                                                                                                                                                                                                                                                                                                                                                                                                                                                                                                                                                                                                                                                                                                                                                                                                                                                                                                                                                                                                                                                                                                                                                                                                                                                                ",
"                                                                                                                                                                                                                                                                                                                                                                                                                                                                                                                                                                                                                                                                                                                                                                                                                                                                                                                                                                                                                                                                                                                                                                                                                                                                                                                                ",
"                                                                                                                                                                                                                                                                                                                                                                                                                                                                                                                                                                                                                                                                                                                                                                                                                                                                                                                                                                                                                                                                                                                                                                                                                                                                                                                                ",
"                                                                                                                                                                                                                                                                                                                                                                                                                                                                                                                                                                                                                                                                                                                                                                                                                                                                                                                                                                                                                                                                                                                                                                                                                                                                                                                                ",
"                                                                                                                                                                                                                                                                                                                                                                                                                                                                                                                                                                                                                                                                                                                                                                                                                                                                                                                                                                                                                                                                                                                                                                                                                                                                                                                                ",
"                                                                                                                                                                                                                                                                                                                                                                                                                                                                                                                                                                                                                                                                                                                                                                                                                                                                                                                                                                                                                                                                                                                                                                                                                                                                                                                                ",
"                                                                                                                                                                                                                                                                                                                                                                                                                                                                                                                                                                                                                                                                                                                                                                                                                                                                                                                                                                                                                                                                                                                                                                                                                                                                                                                                ",
"                                                                                                                                                                                                                                                                                                                                                                                                                                                                                                                                                                                                                                                                                                                                                                                                                                                                                                                                                                                                                                                                                                                                                                                                                                                                                                                                ",
"                                                                                                                                                                                                                                                                                                                                                                                                                                                                                                                                                                                                                                                                                                                                                                                                                                                                                                                                                                                                                                                                                                                                                                                                                                                                                                                                ",
"                                                                                                                                                                                                                                                                                                                                                                                                                                                                                                                                                                                                                                                                                                                                                                                                                                                                                                                                                                                                                                                                                                                                                                                                                                                                                                                                ",
"                                                                                                                                                                                                                                                                                                                                                                                                                                                                                                                                                                                                                                                                                                                                                                                                                                                                                                                                                                                                                                                                                                                                                                                                                                                                                                                                ",
"                                                                                                                                                                                                                                                                                                                                                                                                                                                                                                                                                                                                                                                                                                                                                                                                                                                                                                                                                                                                                                                                                                                                                                                                                                                                                                                                ",
"                                                                                                                                                                                                                                                                                                                                                                                                                                                                                                                                                                                                                                                                                                                                                                                                                                                                                                                                                                                                                                                                                                                                                                                                                                                                                                                                ",
"                                                                                                                                                                                                                                                                                                                                                                                                                                                                                                                                                                                                                                                                                                                                                                                                                                                                                                                                                                                                                                                                                                                                                                                                                                                                                                                                ",
"                                                                                                                                                                                                                                                                                                                                                                                                                                                                                                                                                                                                                                                                                                                                                                                                                                                                                                                                                                                                                                                                                                                                                                                                                                                                                                                                ",
"                                                                                                                                                                                                                                                                                                                                                                                                                                                                                                                                                                                                                                                                                                                                                                                                                                                                                                                                                                                                                                                                                                                                                                                                                                                                                                                                ",
"                                                                                                                                                                                                                                                                                                                                                                                                                                                                                                                                                                                                                                                                                                                                                                                                                                                                                                                                                                                                                                                                                                                                                                                                                                                                                                                                ",
"                                                                                                                                                                                                                                                                                                                                                                                                                                                                                                                                                                                                                                                                                                                                                                                                                                                                                                                                                                                                                                                                                                                                                                                                                                                                                                                                ",
"                                                                                                                                                                                                                                                                                                                                                                                                                                                                                                                                                                                                                                                                                                                                                                                                                                                                                                                                                                                                                                                                                                                                                                                                                                                                                                                                ",
"                                                                                                                                                                                                                                                                                                                                                                                                                                                                                                                                                                                                                                                                                                                                                                                                                                                                                                                                                                                                                                                                                                                                                                                                                                                                                                                                ",
"                                                                                                                                                                                                                                                                                                                                                                                                                                                                                                                                                                                                                                                                                                                                                                                                                                                                                                                                                                                                                                                                                                                                                                                                                                                                                                                                ",
"                                                                                                                                                                                                                                                                                                                                                                                                                                                                                                                                                                                                                                                                                                                                                                                                                                                                                                                                                                                                                                                                                                                                                                                                                                                                                                                                ",
"                                                                                                                                                                                                                                                                                                                                                                                                                                                                                                                                                                                                                                                                                                                                                                                                                                                                                                                                                                                                                                                                                                                                                                                                                                                                                                                                ",
"                                                                                                                                                                                                                                                                                                                                                                                                                                                                                                                                                                                                                                                                                                                                                                                                                                                                                                                                                                                                                                                                                                                                                                                                                                                                                                                                ",
"                                                                                                                                                                                                                                                                                                                                                                                                                                                                                                                                                                                                                                                                                                                                                                                                                                                                                                                                                                                                                                                                                                                                                                                                                                                                                                                                ",
"                                                                                                                                                                                                                                                                                                                                                                                                                                                                                                                                                                                                                                                                                                                                                                                                                                                                                                                                                                                                                                                                                                                                                                                                                                                                                                                                ",
"                                                                                                                                                                                                                                                                                                                                                                                                                                                                                                                                                                                                                                                                                                                                                                                                                                                                                                                                                                                                                                                                                                                                                                                                                                                                                                                                ",
"                                                                                                                                                                                                                                                                                                                                                                                                                                                                                                                                                                                                                                                                                                                                                                                                                                                                                                                                                                                                                                                                                                                                                                                                                                                                                                                                ",
"                                                                                                                                                                                                                                                                                                                                                                                                                                                                                                                                                                                                                                                                                                                                                                                                                                                                                                                                                                                                                                                                                                                                                                                                                                                                                                                                ",
"                                                                                                                                                                                                                                                                                                                                                                                                                                                                                                                                                                                                                                                                                                                                                                                                                                                                                                                                                                                                                                                                                                                                                                                                                                                                                                                                ",
"                                                                                                                                                                                                                                                                                                                                                                                                                                                                                                                                                                                                                                                                                                                                                                                                                                                                                                                                                                                                                                                                                                                                                                                                                                                                                                                                ",
"                                                                                                                                                                                                                                                                                                                                                                                                                                                                                                                                                                                                                                                                                                                                                                                                                                                                                                                                                                                                                                                                                                                                                                                                                                                                                                                                ",
"                                                                                                                                                                                                                                                                                                                                                                                                                                                                                                                                                                                                                                                                                                                                                                                                                                                                                                                                                                                                                                                                                                                                                                                                                                                                                                                                ",
"                                                                                                                                                                                                                                                                                                                                                                                                                                                                                                                                                                                                                                                                                                                                                                                                                                                                                                                                                                                                                                                                                                                                                                                                                                                                                                                                ",
"                                                                                                                                                                                                                                                                                                                                                                                                                                                                                                                                                                                                                                                                                                                                                                                                                                                                                                                                                                                                                                                                                                                                                                                                                                                                                                                                ",
"                                                                                                                                                                                                                                                                                                                                                                                                                                                                                                                                                                                                                                                                                                                                                                                                                                                                                                                                                                                                                                                                                                                                                                                                                                                                                                                                ",
"                                                                                                                                                                                                                                                                                                                                                                                                                                                                                                                                                                                                                                                                                                                                                                                                                                                                                                                                                                                                                                                                                                                                                                                                                                                                                                                                ",
"                                                                                                                                                                                                                                                                                                                                                                                                                                                                                                                                                                                                                                                                                                                                                                                                                                                                                                                                                                                                                                                                                                                                                                                                                                                                                                                                ",
"                                                                                                                                                                                                                                                                                                                                                                                                                                                                                                                                                                                                                                                                                                                                                                                                                                                                                                                                                                                                                                                                                                                                                                                                                                                                                                                                ",
"                                                                                                                                                                                                                                                                                                                                                                                                                                                                                                                                                                                                                                                                                                                                                                                                                                                                                                                                                                                                                                                                                                                                                                                                                                                                                                                                ",
"                                                                                                                                                                                                                                                                                                                                                                                                                                                                                                                                                                                                                                                                                                                                                                                                                                                                                                                                                                                                                                                                                                                                                                                                                                                                                                                                ",
"                                                                                                                                                                                                                                                                                                                                                                                                                                                                                                                                                                                                                                                                                                                                                                                                                                                                                                                                                                                                                                                                                                                                                                                                                                                                                                                                ",
"                                                                                                                                                                                                                                                                                                                                                                                                                                                                                                                                                                                                                                                                                                                                                                                                                                                                                                                                                                                                                                                                                                                                                                                                                                                                                                                                ",
"                                                                                                                                                                                                                                                                                                                                                                                                                                                                                                                                                                                                                                                                                                                                                                                                                                                                                                                                                                                                                                                                                                                                                                                                                                                                                                                                ",
"                                                                                                                                                                                                                                                                                                                                                                                                                                                                                                                                                                                                                                                                                                                                                                                                                                                                                                                                                                                                                                                                                                                                                                                                                                                                                                                                ",
"                                                                                                                                                                                                                                                                                                                                                                                                                                                                                                                                                                                                                                                                                                                                                                                                                                                                                                                                                                                                                                                                                                                                                                                                                                                                                                                                ",
"                                                                                                                                                                                                                                                                                                                                                                                                                                                                                                                                                                                                                                                                                                                                                                                                                                                                                                                                                                                                                                                                                                                                                                                                                                                                                                                                ",
"                                                                                                                                                                                                                                                                                                                                                                                                                                                                                                                                                                                                                                                                                                                                                                                                                                                                                                                                                                                                                                                                                                                                                                                                                                                                                                                                ",
"                                                                                                                                                                                                                                                                                                                                                                                                                                                                                                                                                                                                                                                                                                                                                                                                                                                                                                                                                                                                                                                                                                                                                                                                                                                                                                                                ",
"                                                                                                                                                                                                                                                                                                                                                                                                                                                                                                                                                                                                                                                                                                                                                                                                                                                                                                                                                                                                                                                                                                                                                                                                                                                                                                                                ",
"                                                                                                                                                                                                                                                                                                                                                                                                                                                                                                                                                                                                                                                                                                                                                                                                                                                                                                                                                                                                                                                                                                                                                                                                                                                                                                                                ",
"                                                                                                                                                                                                                                                                                                                                                                                                                                                                                                                                                                                                                                                                                                                                                                                                                                                                                                                                                                                                                                                                                                                                                                                                                                                                                                                                ",
"                                                                                                                                                                                                                                                                                                                                                                                                                                                                                                                                                                                                                                                                                                                                                                                                                                                                                                                                                                                                                                                                                                                                                                                                                                                                                                                                ",
"                                                                                                                                                                                                                                                                                                                                                                                                                                                                                                                                                                                                                                                                                                                                                                                                                                                                                                                                                                                                                                                                                                                                                                                                                                                                                                                                ",
"                                                                                                                                                                                                                                                                                                                                                                                                                                                                                                                                                                                                                                                                                                                                                                                                                                                                                                                                                                                                                                                                                                                                                                                                                                                                                                                                ",
"                                                                                                                                                                                                                                                                                                                                                                                                                                                                                                                                                                                                                                                                                                                                                                                                                                                                                                                                                                                                                                                                                                                                                                                                                                                                                                                                ",
"                                                                                                                                                                                                                                                                                                                                                                                                                                                                                                                                                                                                                                                                                                                                                                                                                                                                                                                                                                                                                                                                                                                                                                                                                                                                                                                                ",
"                                                                                                                                                                                                                                                                                                                                                                                                                                                                                                                                                                                                                                                                                                                                                                                                                                                                                                                                                                                                                                                                                                                                                                                                                                                                                                                                ",
"                                                                                                                                                                                                                                                                                                                                                                                                                                                                                                                                                                                                                                                                                                                                                                                                                                                                                                                                                                                                                                                                                                                                                                                                                                                                                                                                ",
"                                                                                                                                                                                                                                                                                                                                                                                                                                                                                                                                                                                                                                                                                                                                                                                                                                                                                                                                                                                                                                                                                                                                                                                                                                                                                                                                ",
"                                                                                                                                                                                                                                                                                                                                                                                                                                                                                                                                                                                                                                                                                                                                                                                                                                                                                                                                                                                                                                                                                                                                                                                                                                                                                                                                ",
"                                                                                                                                                                                                                                                                                                                                                                                                                                                                                                                                                                                                                                                                                                                                                                                                                                                                                                                                                                                                                                                                                                                                                                                                                                                                                                                                ",
"                                                                                                                                                                                                                                                                                                                                                                                                                                                                                                                                                                                                                                                                                                                                                                                                                                                                                                                                                                                                                                                                                                                                                                                                                                                                                                                                ",
"                                                                                                                                                                                                                                                                                                                                                                                                                                                                                                                                                                                                                                                                                                                                                                                                                                                                                                                                                                                                                                                                                                                                                                                                                                                                                                                                ",
"                                                                                                                                                                                                                                                                                                                                                                                                                                                                                                                                                                                                                                                                                                                                                                                                                                                                                                                                                                                                                                                                                                                                                                                                                                                                                                                                ",
"                                                                                                                                                                                                                                                                                                                                                                                                                                                                                                                                                                                                                                                                                                                                                                                                                                                                                                                                                                                                                                                                                                                                                                                                                                                                                                                                ",
"                                                                                                                                                                                                                                                                                                                                                                                                                                                                                                                                                                                                                                                                                                                                                                                                                                                                                                                                                                                                                                                                                                                                                                                                                                                                                                                                ",
"                                                                                                                                                                                                                                                                                                                                                                                                                                                                                                                                                                                                                                                                                                                                                                                                                                                                                                                                                                                                                                                                                                                                                                                                                                                                                                                                ",
"                                                                                                                                                                                                                                                                                                                                                                                                                                                                                                                                                                                                                                                                                                                                                                                                                                                                                                                                                                                                                                                                                                                                                                                                                                                                                                                                ",
"                                                                                                                                                                                                                                                                                                                                                                                                                                                                                                                                                                                                                                                                                                                                                                                                                                                                                                                                                                                                                                                                                                                                                                                                                                                                                                                                ",
"                                                                                                                                                                                                                                                                                                                                                                                                                                                                                                                                                                                                                                                                                                                                                                                                                                                                                                                                                                                                                                                                                                                                                                                                                                                                                                                                ",
"                                                                                                                                                                                                                                                                                                                                                                                                                                                                                                                                                                                                                                                                                                                                                                                                                                                                                                                                                                                                                                                                                                                                                                                                                                                                                                                                ",
"                                                                                                                                                                                                                                                                                                                                                                                                                                                                                                                                                                                                                                                                                                                                                                                                                                                                                                                                                                                                                                                                                                                                                                                                                                                                                                                                ",
"                                                                                                                                                                                                                                                                                                                                                                                                                                                                                                                                                                                                                                                                                                                                                                                                                                                                                                                                                                                                                                                                                                                                                                                                                                                                                                                                ",
"                                                                                                                                                                                                                                                                                                                                                                                                                                                                                                                                                                                                                                                                                                                                                                                                                                                                                                                                                                                                                                                                                                                                                                                                                                                                                                                                ",
"                                                                                                                                                                                                                                                                                                                                                                                                                                                                                                                                                                                                                                                                                                                                                                                                                                                                                                                                                                                                                                                                                                                                                                                                                                                                                                                                ",
"                                                                                                                                                                                                                                                                                                                                                                                                                                                                                                                                                                                                                                                                                                                                                                                                                                                                                                                                                                                                                                                                                                                                                                                                                                                                                                                                "
};
