/* XPM */
static char *result[] = {
/* columns rows colors chars-per-pixel */
"640 640 249 2 ",
"   c #0F0705",
".  c #0E0906",
"X  c #0E0C0B",
"o  c #110705",
"O  c #130B06",
"+  c #190D06",
"@  c #130D0B",
"#  c #190E0C",
"$  c #100709",
"%  c #0F100C",
"&  c #15100D",
"*  c #1A110D",
"=  c #151007",
"-  c #140F10",
";  c #190F11",
":  c #151111",
">  c #1C1412",
",  c #1E1915",
"<  c #1F1919",
"1  c #0F0F11",
"2  c #22140E",
"3  c #21180F",
"4  c #221613",
"5  c #291713",
"6  c #241915",
"7  c #2A1B16",
"8  c #251C19",
"9  c #2B1E1B",
"0  c #231719",
"q  c #311E1A",
"w  c #210F0E",
"e  c #26201D",
"r  c #2C211D",
"t  c #2C2017",
"y  c #33231E",
"u  c #3B261F",
"i  c #34281F",
"p  c #202124",
"a  c #2D2421",
"s  c #2F2825",
"d  c #332622",
"f  c #3A2622",
"g  c #352925",
"h  c #3B2A25",
"j  c #362C29",
"k  c #3C2D2A",
"l  c #342728",
"z  c #3D312D",
"x  c #38302A",
"c  c #3E3331",
"v  c #3E3934",
"b  c #3D2F31",
"n  c #2B1E20",
"m  c #422C26",
"M  c #422E2A",
"N  c #43322D",
"B  c #4A342D",
"V  c #49382F",
"C  c #443532",
"Z  c #4A3632",
"A  c #453934",
"S  c #4C3A34",
"D  c #463B39",
"F  c #4C3D3A",
"G  c #453738",
"H  c #523C35",
"J  c #533E3A",
"K  c #543A35",
"L  c #402F30",
"P  c #4D413C",
"I  c #49403A",
"U  c #54423D",
"Y  c #5A433D",
"T  c #57473D",
"R  c #4F3E40",
"E  c #4E4441",
"W  c #4E4945",
"Q  c #564441",
"!  c #5A4542",
"~  c #554944",
"^  c #5C4A44",
"/  c #564B49",
"(  c #5C4D49",
")  c #5B4748",
"_  c #5D514C",
"`  c #5C5047",
"'  c #5E5351",
"]  c #5E5955",
"[  c #5E4F51",
"{  c #614C45",
"}  c #634E4A",
"|  c #664C4A",
" . c #625147",
".. c #65534D",
"X. c #69554E",
"o. c #6B584F",
"O. c #65594E",
"+. c #655551",
"@. c #6A5652",
"#. c #665954",
"$. c #6C5A55",
"%. c #655B59",
"&. c #6E5D59",
"*. c #665658",
"=. c #715C56",
"-. c #725E59",
";. c #725854",
":. c #6B554F",
">. c #6D615C",
",. c #6A6058",
"<. c #746057",
"1. c #75625C",
"2. c #79635E",
"3. c #7C685E",
"4. c #77665A",
"5. c #6E6461",
"6. c #756461",
"7. c #7B6662",
"8. c #756963",
"9. c #7E6A64",
"0. c #7D6C69",
"q. c #766A68",
"w. c #7D716C",
"e. c #7B7067",
"r. c #7E7471",
"t. c #705F60",
"y. c #81685E",
"u. c #816762",
"i. c #826B65",
"p. c #836E69",
"a. c #886E69",
"s. c #847067",
"d. c #84716B",
"f. c #8A736D",
"g. c #8C786F",
"h. c #87766C",
"j. c #91786E",
"k. c #847571",
"l. c #8C7671",
"z. c #857A73",
"x. c #8C7A73",
"c. c #8B7D79",
"v. c #877C7A",
"b. c #927C75",
"n. c #947E79",
"m. c #997E7A",
"M. c #937873",
"N. c #B37D68",
"B. c #8D817B",
"V. c #8A8176",
"C. c #948177",
"Z. c #94827C",
"A. c #9B837D",
"S. c #9C897E",
"D. c #97857C",
"F. c #A0847F",
"G. c #A1897F",
"H. c #9A7F81",
"J. c #948581",
"K. c #9C8581",
"L. c #958A83",
"P. c #9C8A84",
"I. c #9C8D89",
"U. c #978B88",
"Y. c #9D918B",
"T. c #9D9287",
"R. c #958A88",
"E. c #A08580",
"W. c #A48C86",
"Q. c #A98D87",
"!. c #A68E89",
"~. c #A98F8A",
"^. c #A59086",
"/. c #A99087",
"(. c #A6918B",
"). c #AA918C",
"_. c #AC998E",
"`. c #A6988E",
"'. c #B0988E",
"]. c #A49592",
"[. c #AC9591",
"{. c #A59A93",
"}. c #AC9B94",
"|. c #AC9D99",
" X c #A79B99",
".X c #B29C94",
"XX c #B39E99",
"oX c #B19795",
"OX c #ADA19A",
"+X c #ADA196",
"@X c #B3A196",
"#X c #B4A39C",
"$X c #BAA59C",
"%X c #B5A99E",
"&X c #BCA99E",
"*X c #B9A197",
"=X c #B5A5A1",
"-X c #BAA6A1",
";X c #B6A9A2",
":X c #BCACA3",
">X c #BCAEA9",
",X c #B5ADAA",
"<X c #BEB1A6",
"1X c #BEB2AA",
"2X c #B7B0AA",
"3X c #B2A9A5",
"4X c #B39FA0",
"5X c #C1A99F",
"6X c #C2ADA4",
"7X c #C3AEA9",
"8X c #C8AEA6",
"9X c #C3B1A6",
"0X c #C9B3A6",
"qX c #C5B3AB",
"wX c #CBB5AC",
"eX c #C5B9AE",
"rX c #CCBAAE",
"tX c #D0B7AD",
"yX c #D1BAAE",
"uX c #C5B5B1",
"iX c #CBB6B1",
"pX c #C6BAB2",
"aX c #CDBCB3",
"sX c #CDBEB9",
"dX c #C6BBB8",
"fX c #D0B7B1",
"gX c #D2BDB3",
"hX c #D8BFB4",
"jX c #D3BFB8",
"kX c #DBBFB8",
"lX c #D2C1AF",
"zX c #CEC1B5",
"xX c #CEC1BA",
"cX c #C7C0B8",
"vX c #D4C2B5",
"bX c #D9C3B6",
"nX c #D4C3BA",
"mX c #DAC5BA",
"MX c #D6C9BD",
"NX c #DAC9BD",
"BX c #DBC8B7",
"VX c #E1C9BD",
"CX c #D5C6C1",
"ZX c #D6CAC2",
"AX c #DBCBC2",
"SX c #D9C8C2",
"DX c #DFD1C4",
"FX c #E1CEC4",
"GX c #E2D1C6",
/* pixels */
"p p p p p p p p p p p p p p p p p p p p p p p p p p p p p p p p p p p p p p p p p p p p p p p p p p p p p p p p p p p p p p p p p p p p p p p p p p p p p p p p p p p p p p p p p p p p p p p p p p p p p p p p p p p p p p p p p p p p p p p p p p p p p p p p p p p p p p p p p p p p p p p p p p p p p p p p p p p p p p p p p p p p p p p p p p p p p p p p p p p p p p p p p p p p p p p p p p p p p p p p p p p p p p p p p p p p p p p p p p p p p p p p p p p p p p p p p p p p p p p p p p p p p p p p p p p p p p p p p p p p p p p p p p p p p p p p p p p p p p p p p p p p p p p p p p p p p p p p p p p p p p p p p p p p p p p p p p p p p p p p p p p p p p p p p p p p p p p p p p p p p p p p p p p p p p p p p p p p p p p p p p p p p p p p p p p p p p p p p p p p p p p p p p p p p p p p p p p p p p p p p p p p p p p p p p p p p p p p p p p p p p p p p p p p p p p p p p p p p p p p p p p p p p p p p p p p p p p p p p p p p p p p p p p p p p p p p p p p p p p p p p p p p p p p p p p p p p p p p p p p p p p p p p p p p p p p p p p p p p p p p p p p p p p p p p p p p p p p p p p p p p p p p p p p p p p p p p p p p p p p p p p p p p p p p p p p p p p p p p p p p p p p p p p p p p p p p p p p p p p p p p p p p p p p p p p p p p p p p p p p p p p p p p p p p p p p p p p p p p p p ",
"p p p p p p p p p p p p p p p p p p p p p p p p p p p p p p p p p p p p p p p p p p p p p p p p p p p p p p p p p p p p p p p p p p p p p p p p p p p p p p p p p p p p p p p p p p p p p p p p p p p p p p p p p p p p p p p p p p p p p p p p p p p p p p p p p p p p p p p p p p p p p p p p p p p p p p p p p p p p p p p p p p p p p p p p p p p p p p p p p p p p p p p p p p p p p p p p p p p p p p p p p p p p p p p p p p p p p p p p p p p p p p p p p p p p p p p p p p p p p p p p p p p p p p p p p p p p p p p p p p p p p p p p p p p p p p p p p p p p p p p p p p p p p p p p p p p p p p p p p p p p p p p p p p p p p p p p p p p p p p p p p p p p p p p p p p p p p p p p p p p p p p p p p p p p p p p p p p p p p p p p p p p p p p p p p p p p p p p p p p p p p p p p p p p p p p p p p p p p p p p p p p p p p p p p p p p p p p p p p p p p p p p p p p p p p p p p p p p p p p p p p p p p p p p p p p p p p p p p p p p p p p p p p p p p p p p p p p p p p p p p p p p p p p p p p p p p p p p p p p p p p p p p p p p p p p p p p p p p p p p p p p p p p p p p p p p p p p p p p p p p p p p p p p p p p p p p p p p p p p p p p p p p p p p p p p p p p p p p p p p p p p p p p p p p p p p p p p p p p p p p p p p p p p p p p p p p p p p p p p p p p p p p p p p p p p p p p p p p p p p p ",
"p p p p p p p p p p p p p p p p p p p p p p p p p p p p p p p p p p p p p p p p p p p p p p p p p p p p p p p p p p p p p p p p p p p p p p p p p p p p p p p p p p p p p p p p p p p p p p p p p p p p p p p p p p p p p p p p p p p p p p p p p p p p p p p p p p p p p p p p p p p p p p p p p p p p p p p p p p p p p p p p p p p p p p p p p p p p p p p p p p p p p p p p p p p p p p p p p p p p p p p p p p p p p p p p p p p p p p p p p p p p p p p p p p p p p p p p p p p p p p p p p p p p p p p p p p p p p p p p p p p p p p p p p p p p p p p p p p p p p p p p p p p p p p p p p p p p p p p p p p p p p p p p p p p p p p p p p p p p p p p p p p p p p p p p p p p p p p p p p p p p p p p p p p p p p p p p p p p p p p p p p p p p p p p p p p p p p p p p p p p p p p p p p p p p p p p p p p p p p p p p p p p p p p p p p p p p p p p p p p p p p p p p p p p p p p p p p p p p p p p p p p p p p p p p p p p p p p p p p p p p p p p p p p p p p p p p p p p p p p p p p p p p p p p p p p p p p p p p p p p p p p p p p p p p p p p p p p p p p p p p p p p p p p p p p p p p p p p p p p p p p p p p p p p p p p p p p p p p p p p p p p p p p p p p p p p p p p p p p p p p p p p p p p p p p p p p p p p p p p p p p p p p p p p p p p p p p p p p p p p p p p p p p p p p p p p p p p p p p p p p ",
"p p p p p p p p p p p p p p p p p p p p p p p p p p p p p p p p p p p p p p p p p p p p p p p p p p p p p p p p p p p p p p p p p p p p p p p p p p p p p p p p p p p p p p p p p p p p p p p p p p p p p p p p p p p p p p p p p p p p p p p p p p p p p p p p p p p p p p p p p p p p p p p p p p p p p p p p p p p p p p p p p p p p p p p p p p p p p p p p p p p p p p p p p p p p p p p p p p p p p p p p p p p p p p p p p p p p p p p p p p p p p p p p p p p p p p p p p p p p p p p p p p p p p p p p p p p p p p p p p p p p p p p p p p p p p p p p p p p p p p p p p p p p p p p p p p p p p p p p p p p p p p p p p p p p p p p p p p p p p p p p p p p p p p p p p p p p p p p p p p p p p p p p p p p p p p p p p p p p p p p p p p p p p p p p p p p p p p p p p p p p p p p p p p p p p p p p p p p p p p p p p p p p p p p p p p p p p p p p p p p p p p p p p p p p p p p p p p p p p p p p p p p p p p p p p p p p p p p p p p p p p p p p p p p p p p p p p p p p p p p p p p p p p p p p p p p p p p p p p p p p p p p p p p p p p p p p p p p p p p p p p p p p p p p p p p p p p p p p p p p p p p p p p p p p p p p p p p p p p p p p p p p p p p p p p p p p p p p p p p p p p p p p p p p p p p p p p p p p p p p p p p p p p p p p p p p p p p p p p p p p p p p p p p p p p p p p p p p p p p p p ",
"p p p p p p p p p p p p p p p p p p p p p p p p p p p p p p p p p p p p p p p p p p p p p p p p p p p p p p p p p p p p p p p p p p p p p p p p p p p p p p p p p p p p p p p p p p p p p p p p p p p p p p p p p p p p p p p p p p p p p p p p p p p p p p p p p p p p p p p p p p p p p p p p p p p p p p p p p p p p p p p p p p p p p p p p p p p p p p p p p p p p p p p p p p p p p p p p p p p p p p p p p p p p p p p p p p p p p p p p p p p p p p p p p p p p p p p p p p p p p p p p p p p p p p p p p p p p p p p p p p p p p p p p p p p p p p p p p p p p p p p p p p p p p p p p p p p p p p p p p p p p p p p p p p p p p p p p p p p p p p p p p p p p p p p p p p p p p p p p p p p p p p p p p p p p p p p p p p p p p p p p p p p p p p p p p p p p p p p p p p p p p p p p p p p p p p p p p p p p p p p p p p p p p p p p p p p p p p p p p p p p p p p p p p p p p p p p p p p p p p p p p p p p p p p p p p p p p p p p p p p p p p p p p p p p p p p p p p p p p p p p p p p p p p p p p p p p p p p p p p p p p p p p p p p p p p p p p p p p p p p p p p p p p p p p p p p p p p p p p p p p p p p p p p p p p p p p p p p p p p p p p p p p p p p p p p p p p p p p p p p p p p p p p p p p p p p p p p p p p p p p p p p p p p p p p p p p p p p p p p p p p p p p p p p p p p p p p p p p p p p p ",
"p p p p p p p p p p p p p p p p p p p p p p p p p p p p p p p p p p p p p p p p p p p p p p p p p p p p p p p p p p p p p p p p p p p p p p p p p p p p p p p p p p p p p p p e p p p p p p p p p p p p p p p p p p p p p p p p p p p p p p p p p p p p p p p p p p p p p p p p p p p p p p p p p p p p p p p p p p p p p p p p p p p p p p p p p p p p p p p p p p p p p p p p p p p p p p p p p p p p p p p p p p p p p p p p p p p p p p p p p p p p p p p p p p p p p p p p p p p p p p p p p p p p p p p p p p p p p p p p p p p p p p p p p p p p p p p p p p p p p p p p p p p p p p p p p p p p p p p p p p p p p p p p p p p p p p p p p p p p p p p p p p p p p p p p p p p p p p p p p p p p p p p p p p p p p p p p p p p p p p p p p p p p p p p p p p p p p p p p p p p p p p p p p p p p p p p p p p p p p p p p p p p p p p p p p p p p p p p p p p p p p p p p p p p p p p p p p p p p p p p p p p p p p p p p p p p p p p p p p p p p p p p p p p p p p p p p p p p p p p p p p p p p p p p p p p p p p p p p p p p p p p p p p p p p p p p p p p p p p p p p p p p p p p p p p p p p p p p p p p p p p p p p p p p p p p p p p p p p p p p p p p p p p p p p p p p p p p p p p p p p p p p p p p p p p p p p p p p p p p p p p p p p p p p p p p p p p p p p p p p p p p p p p p p p p p p p p p p p p p p p ",
"p p p p p p p p p p p p p p p p p p p p p p p p p p p p p p p p p p p e p p p p p p p e p p p p p p p p p e p p p p p e p p t r p e p e p p p e p p a p p p p p p p p e p p t e p e p e p p p p p p p p p a p p p p p e p p y r p p p 8 p p p 8 p p p p p p p p a p p p p p p p p p p p p p p p p p p p p p p p p p p a p p p p p p p p p p p p p p p p p p p p p p p p p p p p p p p p p p p p p p p p p p p p p p p p p p p p p p p p p p p p p p p p p p p p p p p p p p p p p p p p p p p p p p p p p p p p p p p p p p p p p p p p p p p p p p p p p p p p p p p p p p p p p p p p p p p p p p p p p p p p p p p p p p p p p p p p p p p p p p p p p p p p n p p p p p 0 p p p p p p p p p p p p p p p p p p p p p p p p p p p p p p p p p p p p p p p p p p p p p p p p p p p p p p p p p p p p p p p p p p p p p p p p p p p p p p p p p p p p p p p p p p p p p p p p p p p p p p p p p p p p p p p p p p p p p p p p p p p p p p p p p p p p p p p p p p p p p p p p p p p p p p p p p p p p p p p p p p p p p p p p p p p p p p p p p p p p p p p p p p p p p p p p p p p p p p p p p p p p p p p p p p p p p p p p p p p p p p p p p p p p p p p p p p p p p p p p p p p p p p p p p p p p p p p p p p p p p p p p p p p p p p p p p p p p p p p p p p p p p p p p p p p p p p 8 p p p p p p p p p p p p p p p p 8 p ",
"7.-.-.L w 4 # # ; # w ; # ; 4 R M.M.J.J.H.K.Z.A.A.A.A.Z.Z.A.n.n.b.f.i.a.i.a.a.y.i.a.i.a.i.i.a.a.a.a.a.i.s.a.a.i.a.s.s.a.s.f.y.a.i.a.s.a.s.i.i.a.i.s.y.s.a.y.i.s.a.i.s.a.s.s.y.j.i.s.i.a.i.y.s.i.a.i.i.i.i.y.a.i.i.i.a.i.i.i.y.a.i.y.a.a.i.i.a.i.a.i.i.i.i.a.i.a.y.i.i.i.i.i.u.3.4...D S , & & & @ @ @ O & * z z Y J J J -.2.K.!.!.!.W.!.W.!.P.!.W.W.W.!.W.!.!.!.!.!.!.!.!.(.W.W.W.W.W.(.W.!.!.!.!.!.!.!.!.!.!.I.H.!.!.!.!.!.!.!.!.!.!.!.!.!.!.I.!.!.!.!.!.!.!.!.!.!.!.!.W.!.~.~.!.H.~.~.!.!.!.!.!.!.!.!.!.!.!.!.!.!.!.!.!.!.!.~.!.!.!.!.!.!.!.!.!.].H.!.!.!.!.I.!.!.H.!.!.!.!.!.!.!.!.!.!.!.!.I.!.!.!.!.!.!.!.!.!.!.!.!.].H.!.!.!.].H.[.!.!.!.H.m.) R K ) ! ) R ! Y ! ) Y ) ) ) R w $ $ $ . . X X $ O O O d q.q.I.K.K.P.K.P.E.J.J.K.K.P.K.K.P.E.S.P.E.P.G.P.P.W.W.S.S.g.=.=...=.$.>.&.&.' , 0 @ @ X . @ X . X X X O X X X d f k.}.[.[.oXoXoXoXoX[.[.[.).[.).].~.).~.).).!.).Q.~.Q.~.~.Q.).Q.).!.Q.).Q.!.).Q.).Q.).Q.).Q.Q.).!.).!.Q.).Q.!.).!.Q.Q.!.).Q.!.Q.Q.!.~.W.Q.~.Q.!.~.~.~.!.~.~.!.~.~.!.~.!.~.~.~.!.~.!.n.n.a.m.m.u.k b < > > < > > > > > > > > : > > > 8 E E +._ _ / _ / ( / / ^ ~ ~ T ~ ~ ~ ~ U ~ ~ ~ ~ E ~ E P P F S A A A D A D A D D D D D D D D D D A D I S A I A I A D S I A D A D A D A z A z z c k c k b j b k k j j p 9 ; , > > > , : : : : ; : ; 9 9 Z Y Y Y Y Y Y Y Y Y H H K V H S S S S V B m u u u q q u ",
"-.-.-.M 4 w # # ; # w ; # > ; R M.c.J.K.K.Z.A.A.A.A.A.A.m.A.C.b.b.g.i.i.a.a.a.a.y.a.a.a.a.a.a.a.s.y.a.a.y.j.y.y.j.j.y.a.j.a.y.a.a.a.j.y.j.y.y.y.a.y.s.a.y.a.a.y.y.a.a.a.a.y.a.y.y.a.a.a.a.y.a.y.y.a.y.a.a.y.a.i.a.y.a.i.a.a.y.a.y.a.y.a.a.y.a.a.y.a.a.y.a.u.a.y.i.u.a.y.i.i.u.3.3. .I S 6 = & @ # @ O @ @ > z N U J J J -.-.Q.!.I.W.!.!.W.W.!.I.W.W.W.!.I.!.!.!.!.!.!.!.W.!.W.W.W.W.!.!.!.!.!.!.W.!.!.!.!.E.!.!.!.~.!.!.!.!.!.!.!.!.!.!.!.!.!.].!.!.!.!.!.!.!.!.!.!.!.!.!.!.~.~.H.!.!.!.!.!.!.~.!.!.!.I.!.H.~.!.!.!.H.~.!.!.!.~.!.!.!.].!.!.H.!.!.!.!.!.!.H.[.!.!.!.!.!.!.!.!.!.!.!.!.!.!.~.!.!.!.!.!.!.!.!.I.!.!.!.!.!.!.!.!.!.!.!.!.!.!.I.I.H.M.) R Y ! ! ! Y | Y Y | Y | Y R U # . . . X . X X X O O O l 9.q.I.K.P.K.K.K.P.P.K.K.K.P.P.A.S.G.W.S.S.P.W.W.S.W.G.G.S.g.;.<...$.&.>.&.>.' 0 , @ X X X O X X O O X X X O O d d k. XoX[.oX~.oX[.oX).oXoX~.).~.~.~.[.~.~.).~.~.).Q.).Q.Q.Q.).Q.!.).).).Q.).Q.).Q.!.).).Q.).Q.).Q.Q.Q.).Q.Q./.!.Q.!.Q.!.Q.!.Q.Q.Q.!.~.W.~.~.W.~.~.!.~.~.~.~.~.~.~.~.~.~.!.~.!.~.~.~.H.M.a.n.n.7.L L < > > , > , : > > > > > > : < , 0 E Q ' / ' _ ( _ ` / ` ~ ~ ~ ~ T ~ ~ T Q ~ ~ ~ E ~ ~ F F P F D D D D A A A D D D D D D D D D F D D I S I D A I D I I D D A D A A A S A C z z z c c k b c k k b k k j p e : > > > > > ; > - : ; & # 9 9 F Y Y Y Y Y Y Y Y Y H H H H V H V H V B B m u u u q q q ",
"7.@.@.h w w # ; # ; ; # ; # # 7 ' } n.J.J.K.Z.A.A.A.A.A.C.A.A.b.C.a.a.a.a.y.y.a.a.a.y.y.y.y.a.y.a.a.a.a.a.a.j.y.y.y.a.s.y.a.a.a.y.s.y.y.y.a.a.j.s.a.y.a.a.y.y.j.a.y.a.y.a.a.y.a.j.a.y.y.y.a.y.a.y.a.y.i.y.a.y.a.y.a.y.a.a.y.y.y.a.y.a.u.y.a.u.y.a.u.u.a.u.a.u.a.y.a.y.a.a.u.3.;.<.T g h & . X @ @ @ @ @ O * k z U U J J | | M.Q.~.W.W.E.W.W.!.W.W.W.W.!.!.!.!.!.!.!.I.!.W.!.W.!.!.!.W.!.E.!.!.!.!.!.!.!.!.!.!.!.!.I.!.!.!.!.!.!.!.!.!.!.H.!.!.~.!.!.!.!.!.!.!.!.!.!.!.!.!.!.~.~.~.!.!.!.!.!.!.~.!.!.!.!.!.!.~.].!.!.!.~.!.!.!.H.!.!.!.~.!.!.[.!.!.!.!.].!.!.!.!.!.!.!.!.E.!.I.!.!.!.!.!.!.H.!.W.!.!.!.!.!.!.~.!.!.!.!.!.!.!.!.!.!.!.].!.!.!.!.H.H.| Y K Y Y ! Y Y Y Y Y Y Y ) R Q # . . . . X . X . O O O G c.n.I.K.P.K.P.K.K.K.P.P.K.K.K.P.S.P.P.S.W.E.S.P.S.S.j.4.4.| ^ T ^  ...#.%.%.] 8 8 @ X O X X O X X X X O X X O D D J.oXoXoXoXoXoXoXoXoX).oX).).oXoX~.~.).~.~.Q.~.Q.).Q.Q.).).Q.).Q.Q.Q.Q.Q.!.).Q.Q.).Q.Q.Q.Q.Q.).).Q.Q.Q.).).^.).Q.Q.Q.Q.Q.Q.).!.Q.Q.Q.~.Q.Q.~.Q.~.!.~.~.~.~.~.~.~.~.!.~.!.~.~.~.~.H.H.H.a.n.m.t.l k > < < , , , > > > > > > > > , : < P F ' _ +.' / ( / ` ^ ^ ~ ) ~ ~ ~ ~ ~ ) W E Q E F F F A D D A A A A v A D A D D S D D F D D D D D D A I A D I A S A D D I D A A A A A C z c c z z b z k b k x j k k 8 8 & & & - - ; - - @ @ # # & 8 7 S U U U K Y Y Y H U V H H V V H H H H K Z S K Z V B B B ",
"6.( ( 9 > # ; # # ; # ; ; # # > k k 0.x.x.m.A.Z.Z.C.A.A.A.C.A.j.j.s.s.a.a.a.y.i.a.y.a.a.a.a.a.a.y.a.y.a.y.a.a.s.y.a.a.y.a.s.a.y.a.y.y.j.y.j.y.y.s.a.y.s.j.y.y.a.a.a.a.a.a.a.y.a.y.y.y.s.a.y.a.y.y.a.a.a.y.a.y.a.a.y.a.y.y.a.y.a.a.y.y.a.a.a.y.a.y.a.a.y.u.a.a.y.a.y.i.i.y.y.y.X. .S t y = O X @ O @ O @ @ * k h Y Y Y J Y { i.W.!.!.!.!.I.~.W.!.!.!.I.!.W.!.!.!.!.!.!.!.!.!.!.W.!.!.!.!.!.!.!.!.!.!.I.!.!.!.!.W.!.!.!.!.!.!.!.!.!.!.!.!.~.~.H.~.!.I.!.~.!.!.!.!.!.!.!.!.~.!.!.~.!.!.!.!.!.!.!.H.!.!.H.~.!.!.H.!.!.!.!.!.!.!.!.!.!.H.!.H.!.!.!.!.!.!.!.~.!.!.!.!.!.!.!.~.!.!.!.!.!.!.!.!.!.!.!.I.!.!.H.!.!.!.!.!.!.!.!.E.H.[.I.!.!.!.!.I.I.!.I.H.H.@.Y Y | Y ! Y Y Y Y Y ! Y Y ! R # . . . X . X . X O # # F J.H.K.W.W.K.W.K.P.E.E.P.P.P.E.P.E.P.S.A.A.Z.A.x.3.3.X.{ Y { { Y { { } +.&.*.' 0 8 @ O X O O @ X O X O X = X : ( [ (.oXoXoX[.oXoXoXoX).oX).~.~.oX~.~.~.~.Q.).).Q.~.Q.).!.).!.Q.).Q.).Q.).).Q.).Q.Q.).Q.).).!.).!.Q.Q.).!.).Q.Q.).!.Q./.Q.!.!.Q.^./.!.~.!.~.~.Q.~.~.~.~.~.~.~.~.].~.~.!.~.~.~.~.!.~.~.M.m.a.n.n.-.f l > < < > : > , > > > > > > > : > < R R +.*.' ' _ _ / / / ` ~ / ~ / ~ ~ ~ W Q E E R D D D G A D A A A A G v D D C A A D D v D D A A A A A N A A A A A A A A A A A A A A A C A c b z b k N k j k b k k j 8 8 # @ @ ; - @ @ @ @ - @ @ # 4 4 M U U U Y K K V V H V H H V H V H V V H S S S H V H K K ",
"6...} q # # # # # # ; # # # # * k c q.M.c.m.Z.A.A.A.A.C.A.A.Z.j.j.a.a.a.y.a.a.a.a.a.y.a.a.y.y.a.a.a.y.a.a.a.y.y.j.y.a.a.a.y.a.a.y.j.y.j.y.y.j.y.y.y.a.a.y.y.j.y.y.a.y.a.y.a.a.y.y.a.a.a.y.a.y.a.a.y.a.y.a.y.a.f.y.a.i.a.a.y.a.y.a.y.a.a.y.u.a.y.a.u.y.a.a.y.a.a.u.a.i.u.u.i.y.....V r r O = @ X @ @ O O O * k k Y Y J Y ! ! i.Q.E.!.!.!.!.!.~.W.!.!.!.W.!.W.!.!.!.!.!.!.!.W.!.!.W.!.!.~.I.!.!.~.!.!.!.!.!.W.!.!.!.!.!.!.!.E.!.!.!.!.!.!.!.!.!.!.!.!.!.H.!.!.!.!.~.H.!.!.!.~.H.~.!.~.!.!.!.!.!.].!.!.!.!.].~.~.!.!.!.!.!.].~.H.!.!.~.!.!.!.!.!.!.!.!.H.~.H.!.!.!.!.!.!.~.!.!.!.!.I.!.!.!.!.!.!.!.!.!.!.!.E.!.!.!.!.!.!.!.!.!.!.!.I.!.!.!.!.I.].H.H.;.Y R Y Y Y ! Y | Y | ! | ! Y ! # . . . . X . X . O # @ R R.J.I.K.P.P.P.E.P.P.P.E.E.P.E.P.S.P.S.P.S.Z.D.M.3.7.| { { ^ Y { {  .} +.%.*.*.0 0 @ % X & X X = X & X @ % O ; ( / (.].oXoXoXoXoXoXoXoX).oX~.~.~.~.~.).~.).Q.Q.).).Q.).Q.Q.Q.).Q.Q.).~.Q.).Q.!.).Q.Q.Q.Q.).Q.Q.Q.).).Q.).Q./.!.Q.).Q.!.Q.Q.).Q.Q.Q.Q.~.~.~.~.!.Q.!.~.~.~.~.H.~.~.~.~.~.~.!.~.~.!.~.~.H.m.a.n.n.-.h l ; < > , > , > : > : > > > > > > > F R ] +.*.+.` _ ( / / / / / / ~ / / ~ ~ ~ E E F F D F D D C D D v D A G v A A D A A v D A D D v A A A A v N A A A I A A A A A A A A C c C N c c c k z c k k k j k j 8 8 @ @ @ - @ @ - - - @ @ @ # 4 6 k U J Q H Y Y V Y V H V H H V H K K B H H K Z K H H H K ",
"6.Q Q 7 # * # ; ; # # ; # # & * d y #.9.9.l.n.n.C.A.A.C.m.A.b.f.f.y.a.i.s.a.a.a.y.a.a.y.y.a.a.a.a.i.y.a.a.a.y.a.y.s.y.a.a.y.y.a.y.y.j.y.a.y.j.a.y.a.y.y.y.y.y.a.j.y.s.y.a.y.a.a.j.y.j.y.y.y.a.y.y.a.a.y.a.a.a.y.a.u.a.y.a.y.y.y.y.y.y.a.u.a.u.a.a.u.a.u.y.a.u.a.a.u.a.a.u.u.<.T Y m t 3 # O @ @ X @ @ $ @ # f g Y Y Y Y Y Y 2.G.K.!.!.!.!.I.!.!.!.!.!.!.I.!.!.!.!.!.!.I.!.!.(.W.W.W.^.!.!.!.!.I.!.!.!.!.!.!.W.!.E.!.!.!.!.!.!.!.I.H.~.~.~.].~.!.[.H.~.[.!.!.!.!.!.!.!.!.~.H.~.!.!.!.!.!.!.!.H.~.!.!.~.~.!.!.~.~.!.!.!.H.~.~.!.!.!.!.!.!.H.[.!.!.!.!.H.!.[.].H.[.W.!.!.H.!.!.!.!.!.!.!.H.!.!.!.!.!.I.!.!.!.H.!.!.!.!.!.!.!.!.!.!.!.!.!.!.!.!.!.!.H.u.Y K Y Y Y Y ! Y | Y ! ! ) Q U # $ O . . . X O . O & + ~ J.U.I.K.P.W.K.K.P.E.W.P.K.K.A.A.A.C.g.g.y.;.=...{ ^ Y T { ^ ^ ^ ^ ^ ^ ..*.*./ 0 0 @ O X X O X = O X & X O @ 0 6.5. X XoXoX[.oXoX[.oX~.oX~.oX[.~.oX~.).Q.Q.Q.).Q.Q.).Q.Q.).Q.Q.).!.Q.).!.!.Q.).Q.Q.).).Q.Q.).!.).).Q.Q.).Q.Q.).!.Q.!.!.Q.Q.Q.Q.Q.Q.^.~.~.~.~.~.~.~.~.~.~.~.!.!.~.~.~.~.!.~.!.~.~.~.~.m.m.a.n.n.$.d l ; 4 , > > > > > > : : : > : > > , F D ] ] ' ` W ~ P D P F F D F D E P D E D D A A c c v c c c c c c z z g d g a r a r r r r 8 r e t r r r r r a r r r r a g s g g x j z z c z N N k c z k k c j b b j 0 8 # @ @ @ ; $ - @ @ @ @ @ # * * u P I T T K H V U V H H B H V H V B H B Z H H H Z K K B ",
"-.F F 4 # # * # # ; ; ; ; # # # 7 7 } 6.1.7.f.a.b.b.m.m.b.b.j.a.a.s.s.s.y.y.s.a.a.y.a.a.a.a.y.s.a.y.a.a.y.s.a.a.y.a.a.a.a.a.y.j.j.y.y.y.y.a.y.y.a.a.y.j.y.j.s.y.y.y.y.a.y.a.y.y.y.y.y.y.a.i.y.a.a.y.y.a.y.y.y.a.y.a.y.a.y.a.a.a.a.a.y.a.u.a.a.u.a.a.u.a.a.u.a.u.u.a.i.i.9.9. .S S x * > @ O @ O @ O @ O @ # i g Q Y Y Y Y K :.C.H.!.!.W.!.W.W.!.!.!.!.I.!.!.!.!.!.!.!.!.!.!.W.!.!.!.W.!.!.!.!.!.!.!.!.!.!.!.!.!.I.!.!.!.!.!.!.~.!.!.~.!.H.!.!.!.~.~.~.H.H.~.!.!.~.~.!.~.~.~.!.!.!.~.!.!.!.~.~.~.!.!.~.H.!.~.[.H.!.!.!.~.~.~.~.!.!.].!.!.!.~.!.!.!.~.[.!.!.!.~.~.~.!.!.~.!.!.!.!.W.!.!.~.!.!.!.!.!.~.!.!.!.!.!.~.!.!.~.H.!.!.!.!.!.!.!.!.!.!.!.H.H.a.Y Y Y | Y Y Y ! Y Y ! ! ) R R # . o X . . X . X O & & F J.B.J.H.J.Z.Z.Z.Z.b.n.x.l.l.i.=.1.X.| | { { Y ^ ! ^ { { ^ ^ ^ ^ ^ ^ ^ _ ' _ / > 0 @ X & & X X X X X @ O @ @ l k.k.oX[.[.oXoX[.oX).[.[.~.oX~.~.~.~.~.)./.).).Q.).Q.!.).Q.!.).).Q.Q.).).Q.).Q.Q.).Q.).Q.).Q.).Q.Q.Q.!.).Q.Q.).Q.^.Q.Q.Q.!.).!.~.!.Q.~.~.H.~.~.~.oXH.~.!.~.~.~.~.~.~.H.~.~.~.~.~.!.~.~.n.m.l.x.n.$.l y # : ; , > > : , > > > , > , > > : j l c j j r 0 6 4 4 , 4 , 0 < < , 0 0 0 0 6 0 0 0 8 0 4 6 4 < , < , , > > : * & & # @ # @ # # @ # # @ # & # & * * * * * * * > > > , 0 r r d j j k j c c j j j j j j 0 0 @ # @ - ; $ @ @ - - @ # O # # 2 i i I I T T H V I H V V H H P H Y V H S H K Z V H V H ",
"-.F F 4 * * # # ; # ; ; ; # # * 7 7 ( 6.1.3.f.f.b.m.m.b.b.b.j.i.a.a.y.s.s.y.s.y.a.a.a.s.a.y.y.a.s.y.a.y.a.a.s.y.a.a.a.y.y.j.y.y.j.y.j.y.y.y.y.a.y.a.y.y.a.y.a.y.j.y.y.y.j.y.y.a.j.y.a.y.u.a.u.a.i.y.a.y.a.y.a.a.y.a.a.y.a.y.a.a.a.y.a.y.a.u.u.a.u.a.a.u.u.a.a.u.a.i.a.i.9.9...S V x 3 3 @ @ O @ @ @ @ @ O # l g U Y Y Y Y Y X.m.H.!.W.~.!.!.W.!.!.!.!.!.!.!.I.!.W.!.!.!.!.W.!.!.!.W.!.W.H.~.!.!.W.W.!.W.W.~.!.!.~.!.!.!.H.~.!.!.~.!.!.!.!.!.!.!.!.~.~.~.H.~.~.!.~.~.!.~.~.~.~.~.~.~.~.!.~.!.~.~.!.~.!.!.~.~.~.~.H.~.~.!.].~.~.~.!.!.H.~.H.[.!.[.!.!.!.!.~.~.H.~.~.!.!.~.!.H.!.!.!.!.!.!.!.!.!.!.!.!.!.!.!.!.!.I.!.!.I.!.!.!.!.!.!.!.H.].~.~.~.~.H.M.Y Y Y | | Y { Y J { ! { ) R J # O   . . . . X X O * * P J.J.J.A.Z.Z.J.A.Z.b.n.n.l.f.i.2.-.o.{ | Y Y Y { ^ Y ^ T T { ^ ^ { ^ ^ ( ' ..W 0 , O X O X O X X X & O @ O O d k.k.].oX[.[.[.[.).).oX).oX~.~.[.~.~.~.Q./././.Q.).Q.).).Q.Q.).).Q.Q.).Q.Q.).Q.Q.).!.Q.Q.).Q.Q.).Q.Q.).).Q.).!.).Q.Q.Q.Q.Q.Q.Q.Q.!.~.Q.~.~.~.!.~.~.~.~.~.~.!.~.~.!.~.~.~.~.!.!.~.~.~.~.H.m.l.n.n.+.y y # : : 4 , > > > > > , : > > > > > j s c j g r 6 0 , 4 , 4 , , , , 0 0 0 0 8 8 0 8 0 0 0 0 0 , , 0 < , > : > : * * * # # # & # @ # # # @ # & # # * & * * * * * & > 4 , 6 r a d j j j c j k j x j j j j < 0 @ @ @ @ @ - @ # @ @ @ @ # * * 3 u i I T T V V P V V S H H V V V V H P H H H H K K K H ",
"..M M 4 # # * # # ; ; ; - & & # 6 6 ^ 6.2.2.2.4.i.a.f.j.g.g.a.i.y.s.a.s.a.f.a.y.s.y.a.y.a.y.a.y.y.a.y.a.a.y.a.a.a.y.y.a.a.y.y.a.y.y.j.y.j.y.a.y.a.y.y.j.y.a.y.a.y.a.y.j.y.y.s.y.y.y.y.j.a.y.a.y.y.a.y.a.s.y.y.y.a.y.y.a.y.a.y.a.a.a.y.a.u.a.a.u.a.u.a.u.a.u.a.a.u.a.i.i.<.1.Y V N y * * O @ @ @ @ O $ @ @ ; g f Q Y Y Y Y Y X.j.M.I.!.W.W.!.!.!.!.!.!.!.I.I.!.!.!.!.I.!.!.!.!.!.W.!.W.!.!.!.!.!.!.!.!.!.~.!.!.W.!.!.!.!.!.~.!.~.!.!.!.!.!.!.!.~.[.H.~.~.~.!.~.!.~.H.~.!.~.~.~.~.~.H.~.!.~.~.~.~.~.!.!.~.H.~.~.~.~.~.~.~.H.~.~.~.!.!.].~.].!.!.H.!.!.!.!.~.~.~.~.!.~.!.~.~.~.!.!.!.!.!.!.!.!.!.!.!.!.!.!.!.!.!.!.!.!.!.!.!.!.!.!.!.!.!.!.~.~.~.H.~.M.| | Y Y Y Y Y Y { Y ! ! ) Q J # . . . . . . . O O & # z 5.6.t.-.1.-.=.-.$.$.+.X.{ { { ^ Y Y { T { ^ ! Y ^ { ^ ^ { T { Y ^ ^ ^ / / / R > : O O X & X X O O O % @ O O C J.H. X[.oX[.[.oX[.[.oX~.~.oX~.~.).).~.)././.).Q.!.Q.).Q.Q.).Q.Q.).Q.Q.).Q.Q.).).Q.Q.).).!.Q.).Q.).).Q.Q.Q.).Q.Q.^.Q.!.).!.!.).Q.~.Q.!.~.!.~.~.~.~.oXH.].~.!.~.~.!.~.!.!.~.~.~.~.H.~.[.m.H.l.n.n.+.q y o # # : : > > : > > > : , > > : : # & # @ @ @ # @ # # # & # # # @ @ # # & & # # @ : & # # @ # ; & # ; ; ; # * : # ; & # # @ @ # @ # @ # @ # # @ # # # * # & & # * & # # & & : 4 , 4 8 9 a l l l s s n , 4 ; @ ; ; $ @ @ - - @ @ # * + = = > * t i i V V V V P F V P V U H H H V V H V H B K H V ",
") h h 2 # * * # ; * # ; : # # # 2 2 F 1.6.7.2.2.2.y.2.u.i.i.i.y.i.i.i.a.s.i.i.a.y.i.y.a.a.y.a.a.y.a.a.y.y.a.y.a.y.a.y.a.y.a.y.s.y.y.j.y.y.a.a.y.y.a.y.s.a.y.a.y.a.y.y.a.a.a.y.j.y.a.y.y.a.y.y.a.a.y.a.a.y.a.y.a.y.a.a.y.y.a.u.a.y.a.u.a.u.y.a.a.u.a.u.a.a.u.a.u.u.a.u.u.| ..S N k 8 + * @ O O @ @ $ @ O # * g h Y | Y Y Y Y | j.f.W.!.!.W.!.W.!.~.~.!.W.I.!.W.I.~.!.!.!.!.!.!.E.~.~.~.W.!.!.!.!.!.!.~.~.~.!.~.~.W.!.!.!.~.~.~.~.~.~.H.~.~.!.!.!.!.~.oXH.oXoX~.~.H.~.~.~.~.!.!.~.!.~.~.~.~.~.~.H.~.~.~.~.H.oXoXH.~.~.~.H.~.H.~.!.!.H.!.!.!.!.H.[.!.H.~.!.~.!.~.~.~.~.!.~.!.!.!.!.!.E.!.!.!.!.!.!.!.!.!.!.H.!.!.!.[.H.!.!.!.!.[.H.!.[.H.[.oXH.oXH.oXH.:.;.! ! ! Y | Y Y Y | Y ) F R #     . . . . . X O * # d ~ ~ ~ ^ ^ T Y ! Y { ! Y { Y Y ^ Y Y Y ! { ! { Y { ! ^ ^ ^ ! T ^ Y ^ ) ~ ~ / F , , @ X & X O @ X @ X O @ # ; / !.!. XoX X[.oXoX).'.oX).).~.~.).).~.~.Q.).).).Q.Q.!.).Q.Q.).Q.Q.Q.).!.Q.~.~.~.~.Q.Q.).~.~.Q.Q.~.Q.Q.~.).Q.).Q.^.!.Q.Q.~.~.!.H.~.~.~.W.~.~.!.~.~.~.~.!.~.!.~.!.~.~.~.~.~.~.~.~.~.!.~.~.K.H.v.M.c.} q n + $ O # : * : > : > > : > : > & @ & @ @ & O O % @ & @ & & & & : @ : @ & & : @ ; @ & @ & & & @ : & & # : & & & & & & @ @ @ @ X @ & O @ @ @ @ @ & @ & X O & X @ @ @ @ @ @ & @ & # O & & # # * > : : > # ; & @ & @ - @ @ - @ @ @ @ @ # @ # # # ; # , > 7 r y g N z z A N V C V V V V S S S S S S S ",
"{ k h 4 4 # * : ; : ; : ; # * & > 2 F 6.6.1.2.2.2.2.3.y.i.i.y.a.s.y.i.y.y.i.i.s.s.i.s.y.y.y.a.y.a.y.a.y.a.y.a.a.a.y.a.y.a.y.a.y.a.s.y.y.s.y.y.a.a.y.a.y.s.y.y.y.y.a.a.y.y.y.y.y.a.y.a.a.y.a.a.i.y.a.y.y.a.a.y.y.a.y.y.a.a.y.a.u.a.y.a.u.a.u.a.u.a.u.a.a.u.a.u.a.a.u.a.u.| :.Z k z 7 * + O O @ O O @ @ @ @ * g h Y Y Y Y Y Y Y a.f.W.W.!.!.!.!.!.~.~.W.!.!.!.!.!.I.!.W.!.!.!.!.!.~.~.!.!.!.!.!.!.!.~.~.~.!.~.~.~.!.!.!.~.!.~.~.H.!.!.~.~.~.~.!.!.[.H.H.~.~.H.H.~.~.!.~.~.!.~.~.~.!.H.~.~.~.~.~.!.~.~.~.~.oXH.~.~.~.~.~.!.~.~.!.!.~.~.~.~.!.!.H.].!.!.~.!.!.~.~.~.!.~.!.~.~.!.!.!.!.!.!.!.!.!.!.~.!.!.!.!.!.!.!.!.!.!.!.!.!.!.~.!.].H.!.~.H.].~.].!.H.*.;.! Y ! ! Y Y { Y | Y ) R F #   $ . . . X X X O + & j Q Q Q Q Y Y Q ! ! J Y ^ Y ! ^ Y Y { { Y ! ! ! { ! { Y ^ { T ^ T T ^ Q Q ~ ) F , > @ O X @ X X @ X @ @ $ ; # E I.I.[.[.oX[.[.'.).'.).).).[.~.).).~.~.Q.)././.).Q.).Q.Q.).).Q.).Q.Q.)./.~././.~.~.~.Q.~.~.Q.Q.~.~.~.~.).Q.Q./.Q.).Q.!.!.~.~.~.~.~.Q.~.~.~.~.~.~.!.~.~.~.~.~.~.~.!.!.~.~.~.~.~.~.~.~.~.A.H.l.l.x.} 9 9 o $ O ; * : : > * > > > * > > & @ @ @ @ O & & @ @ & @ # & & # @ & @ & & # & & @ : @ : @ # & : & # & & & & ; : # & & & @ & @ @ @ @ & & @ X & @ @ @ @ @ & & @ @ & @ & @ @ @ & @ & & @ # & : > > : > > * & : @ @ & - @ @ - @ - - @ @ @ # @ # - # ; > 4 6 y r h z z N N N C V V C V S V S S S S S S ",
") h h 4 # # & : * # ; ; ; # # # * # h &.&.9.3.3.y.y.2.y.y.y.i.y.i.s.i.s.s.y.s.i.a.y.y.a.y.a.y.a.y.a.y.a.y.a.a.y.y.a.y.a.a.y.y.s.y.y.y.y.a.y.a.y.y.a.a.y.a.y.a.a.a.y.a.a.a.y.a.y.a.y.a.y.a.a.y.a.a.y.y.a.y.a.y.a.y.a.a.y.y.a.u.a.a.a.y.a.a.a.a.u.y.a.u.u.a.a.a.a.a.a.a.;.J K B h h 3 O + @ @ @ @ @ @ @ @ O * j h Y Y { Y Y Y K y.7.P.!.!.!.W.!.!.!.H.~.~.W.W.W.!.~.!.W.!.!.!.!.!.~.H.~.oX!.~.~.~.!.!.~.H.H.~.~.~.!.!.~.~.!.~.~.~.!.!.!.!.~.~.~.~.~.[.~.oX~.~.~.~.!.~.~.~.~.~.~.~.~.~.~.~.~.~.!.~.!.!.H.~.~.H.H.oXH.~.!.~.~.~.~.!.~.[.~.[.[.H.[.~.!.!.!.!.!.~.!.H.!.!.H.~.!.!.H.~.!.!.!.!.!.!.!.H.!.!.!.!.!.!.!.!.!.!.~.~.!.!.!.!.~.H.!.!.~.~.oXH.!.H.7.t.Y Y | Y | Y Y | Y ! | K F O . . X . X . . O O & & d E ~ ^ Q ^ Q ! ! ! { ^ Y ! ! Y { Y { ! { { ^ Y { ! { { Y T T ! T Y Q Q ~ / Q E 0 8 @ X = X @ @ X O @ @ O 0 0 *. X].oX[.oX[.[.oX'.~.oX).).oX~.).).~.~.).Q.).~.!.Q.).Q.).Q.Q.).Q.).).Q./.~.~.~.Q.).Q.).~.~.~.'.~.Q.Q.~.!./.).Q.~.!.Q.).!.~.!.~.~.~.~.~.W.~.W.!.~.~.!.H.!.!.~.~.H.~.~.~.~.~.H.~.!.!.~.~.K.K.x.a.a.) 9 y $ @ O @ & # * > > > > : > : * & & = X & % @ @ @ @ & & & : & & & % & & & & & & % & @ & % : & & & : - & & @ : & @ : @ & @ @ & % & X @ X @ @ & X & & @ X @ O @ & % % @ @ & & @ & @ & O @ @ # @ - @ @ @ @ & & & : @ @ @ @ @ @ - @ @ @ @ ; @ @ - @ # # ; # * : > 6 6 e t r r i r i i i f h z N N C Z ",
"! j h 2 # # # # : # # : # ; : # # & r ....7.7.3.y.2.y.4.3.y.i.y.y.s.y.y.i.a.i.i.i.a.a.y.a.i.a.y.y.y.a.y.a.y.y.a.y.a.y.y.j.y.a.s.j.y.j.y.y.a.y.a.a.y.y.a.y.a.a.y.y.a.s.y.y.a.y.a.u.a.y.a.y.a.a.y.y.a.a.y.a.y.a.u.y.a.y.a.y.a.a.u.y.y.a.u.y.u.a.a.a.u.a.a.u.a.u.a.u.u.u.! M Z L y y * O O O @ X O O @ O # O : M k { Y Y Y Y Y K y.;.H.!.!.!.!.!.!.~.!.Q.~.!.!.W.I.!.~.~.!.H.!.!.~.~.oXH.H.!.H.~.~.[.H.~.~.~.~.H.~.!.!.~.H.~.!.Q.~.~.~.!.~.H.oXH.oX~.H.~.H.H.~.~.~.!.~.~.~.!.H.~.~.~.~.~.H.H.!.!.!.~.H.~.~.~.oX~.oX~.~.~.!.~.~.~.~.].H.~.H.~.~.!.!.!.!.!.~.~.!.!.~.!.!.~.~.!.].!.~.!.!.!.!.!.!.!.!.!.!.!.!.!.!.!.!.!.~.[.H.!.!.~.[.~.].!.!.H.].~.].!.!.p.p.| | ! Y Y Y Y Y ! ! ! L C O   O . . . X X O O * & a D I ~ ~ ^ Q ! ! ! ! Y { ! ! Y Y ! Y { Y Y Y ! Y Y Y Y Y T Y J U U T U ~ Q ~ W 0 6 @ O X @ X O @ X @ @ @ n l 0.[.[.[.).).oX[.oX~.oXoX).).~.~.~.).~.).~.~.Q.~.).Q.Q.).Q.).Q.!.!.).Q.Q.~.~.Q.~.~.Q.~.Q.~.~.~.~.~.~.~.~.Q.!.!.Q.~.Q.Q.!.~.~.~.~.~.~.~.~.~.W.~.~.~.~.~.~.~.~.~.~.~.~.~.~.!.!.!.~.!.~.~.~.K.K.x.1.6.Q y n $ O O @ @ @ * > : > * > : & & @ O X % O X @ % @ & X @ X X : @ : X & & X : % : % % & : % : X : X & & % 1 1 % & : % & % % % @ X & & % & 1 % X & X X @ & & % @ X O @ & @ & # & @ @ O & # @ : @ @ : : : @ - @ : X @ @ - 1 @ $ @ - @ - @ @ @ - @ @ - @ @ # # @ # @ # & & = * * = * * > * 6 6 7 r 9 u ",
") h h * # # * * # : # ; # ; ; & # + t O...8.9.3.4.y.3.3.y.3.u.i.s.y.y.i.y.i.s.i.i.s.y.a.y.a.y.a.a.y.j.y.y.a.y.a.a.a.y.y.y.a.a.y.y.y.y.y.a.y.j.y.a.y.a.y.a.i.y.i.a.y.a.a.a.a.y.a.a.u.a.i.a.i.i.y.a.a.y.a.y.u.a.a.a.a.y.a.u.y.a.a.a.u.a.y.a.a.u.u.u.a.a.a.a.a.u.a.a.u.u.! B N N y d * # O @ @ X @ @ @ @ O O * k k Y Y Y Y Y Y Y y.;.H.!.!.!.!.!.~.~.~.~.~.H.Q.~.H.~.H.H.~.~.~.~.H.H.oX~.~.oXH.H.~.~.oX~.H.~.~.H.~.!.~.H.~.H.).~.~.H.~.~.~.H.~.~.H.oXH.H.~.oX~.~.H.!.!.~.~.~.~.~.~.~.~.oX~.H.oX~.!.~.!.!.!.].H.[.H.~.oX~.~.!.~.H.~.~.~.~.oX!.[.~.H.~.~.~.!.~.~.H.~.!.!.!.].!.~.].~.!.!.!.!.~.~.~.H.!.!.H.~.!.!.!.!.!.~.~.~.~.H.[.H.].H.[.~.!.].~.~.~.~.a.u.! Y Y | Y ! Y Y ! Q { C C $ . . . . X . O O O & * r I F T ^ ^ Q ) Y ) ! Y { Y Y { { Y { { Y { Y Y Y Y Y T U Y T U U U U Q Q ~ ~ ~ , 6 @ % O % @ O X @ @ @ # d d 0.[.[.[.oX).oX).oX).oX).~.oXoX~.).).~.~.~.~.).~./.~.~.~.Q.).).Q.).!.Q.)././.~.~.).Q.Q.).~.~.'.Q.).).~.~.Q.!.Q.!.!.~.!.~.~.~.~.~.~.!.~.~.!.~.~.~.~.~.!.~.~.!.!.~.~.~.~.H.~.!.H.~.~.!.~.~.K.K.M.6.6.Q n y O O @ @ @ @ : : : > > : > & & @ & X % % O X @ & X @ @ 1 @ : : X : % & 1 : & % : : X : % X : % : & % : % & % & 1 & % % & & % & X X 1 : % @ & @ X & @ X X @ & & X @ # & @ # & @ # & @ & O & @ : @ @ - & @ : X @ : - X @ 1 - @ @ - - @ & @ @ - : @ - @ ; @ @ @ ; @ * & + * & + * * 3 3 6 6 9 r r d ",
"! l h 2 # * # # ; # # * : # @ & * # t ~ / 8.3.3.y.2.y.3.3.y.y.y.y.y.s.y.s.a.y.i.s.y.a.i.i.i.a.y.y.a.y.y.a.y.a.y.y.a.y.a.a.y.y.a.y.j.y.j.y.s.y.y.y.a.y.a.y.i.a.a.y.a.y.y.y.a.a.y.y.a.y.a.y.a.i.a.y.a.y.a.a.a.a.y.y.a.a.y.y.y.a.y.y.a.u.u.a.u.u.u.a.u.u.a.u.u.u.u.:.J K B h h h 9 7 & O O O X @ O $ @ @ @ # 2 N c { Y Y Y Y Y Y | | l.E.E.W.!.!.!.~.~.~.H.~.~.~.Q.~.~.oXoX~.~.~.oX~.~.H.oX~.~.oX~.~.H.~.oX~.~.oX~.~.!.~.~.~.~.~.~.~.~.~.~.~.~.oXH.~.~.oXoXH.oX~.oX~.~.H.~.~.~.H.~.~.!.H.~.H.~.~.~.!.!.!.!.!.~.H.oX~.H.H.~.!.~.~.~.H.[.H.H.].H.~.[.H.~.!.!.H.~.oX~.H.!.!.~.H.~.!.!.!.!.!.!.~.~.~.!.!.!.!.!.!.~.!.!.~.H.~.~.!.!.!.].~.[.H.~.[.H.~.[.~.H.M.M.| ! Y Y Y { | Y ! ) ) j j O .   . . X X & X = & & r A C F I U U Y ! Y ! Y Y { { Y Y { Y Y Y Y Y Y U Y Y H U J H H J J J J Q E Q D , * O O X O X X @ X O O ; Q Q I.[. X[.).oX).oX'.oX).).[.~.~.~.~.).~.~.~.).~.~.~.~./.~.).Q.Q.Q.).Q.).Q.~.~./.~.~.Q.).Q.Q.~.Q.Q.~.~.~.~.).~.Q.Q.Q.~.!.~.~.~.~.~.~.~.~.~.~.~.~.~.!.!.~.H.~.~.~.H.~.~.~.~.!.~.~.~.W.~.H.~.W.W.l.*.$.R d 9 O O O O @ @ : : : * : : # # @ @ O X X O % @ X X X : : X : @ @ % % & & & % : : X % : % : : % : % @ : % & & 1 X & - % - X % O % % & & X X % 1 @ @ X = & @ X X @ @ @ & @ & & @ @ @ # @ @ & - @ X - - X - - - - - - @ - @ @ @ - X @ @ X X - X @ X @ - @ @ - - # @ @ & & = & # # = * + & # # * : > > ",
"Q f l w # # # ; # ; ; # ; ; ; & * # 6 A N `  ...=.2.3.3.y.3.3.y.y.s.s.y.i.i.i.i.i.a.y.a.i.a.y.a.j.y.a.y.y.a.y.a.a.y.a.y.y.y.y.a.j.y.y.y.j.y.j.y.y.a.a.a.a.y.a.y.a.y.a.a.a.y.a.y.a.u.a.y.a.y.a.y.a.y.a.y.a.y.a.y.a.y.u.a.y.y.y.;.a.u.y.y.y.y.| | ;.;.| | | ) K K M m m m h h g 6 6 O O @ @ X O @ @ @ O @ O 6 B B Y Y | Y | Y Y Y ! -.n.n.W.!.W.~.H.).~.Q.~.~.~.Q.~.~.~.H.oXH.H.[.~.~.H.~.H.oX~.~.~.H.H.oXH.~.~.~.~.!.~.~.oXQ.~.oX~.!.~.~.~.H.oX~.H.oXoXH.~.~.~.~.~.~.H.~.~.~.H.oX!.H.~.~.oX~.~.~.!.!.!.!.~.~.H.~.~.oX[.~.~.~.~.~.oXH.oX~.oXH.~.!.!.!.!.~.~.~.oX~.[.!.H.~.].!.!.H.~.~.!.!.~.~.!.!.!.!.!.!.~.~.~.~.~.!.~.~.!.!.!.!.!.~.!.[.~.~.!.H.~.!.M.M.| | | Y { Y ! { ! ! ) r y o O O X X . X @ O O & & r c z N S A F J U J Y Y Y Y Y { Y K Y H K Y H U H H H H U H P J J J P P P E U z * * O X @ % @ @ @ O ; ; b v.M.].oX[.[.oXoX).).).oX).oX~.~.~.~.~.~.~.~.Q.Q.~.~.~.Q.~./.!.Q.Q.).Q.Q.).!.~./.~.~.Q.).~.~.'.Q.~.~.~.~.~.~.!.Q.!.Q.!.~.~.~.H.[.~.~.!.~.~.~.W.~.H.~.~.!.~.~.~.~.H.!.!.~.~.!.!.~.~.~.~.!.~.!.W.!.M.[ | F n d O O O @ @ @ ; @ * # @ # @ O @ @ @ % X X @ X & @ @ : @ @ @ @ : : % : % & : X & : % : : @ : & - @ 1 : @ 1 % - & % % @ & X % O X & % @ % & % & & X & X @ % & @ @ @ @ # & # @ & @ @ & O @ @ @ 1 X - @ & X X @ @ X % X - 1 @ X @ - X % - X : : X X - X @ @ X @ @ @ @ @ @ @ @ @ @ @ # @ # # @ : & : # ",
"Q l f 2 * # & # : # & ; # : # & # * 6 N A ~ O...=.3.3.y.3.y.3.s.y.i.y.y.i.s.s.y.i.i.a.y.a.y.a.y.y.y.y.j.a.y.a.y.a.a.a.y.a.y.a.y.y.y.a.y.y.a.y.y.a.y.y.y.i.a.a.y.y.a.y.a.y.a.y.a.u.a.y.a.i.a.a.y.u.a.u.a.u.a.u.a.u.a.y.a.N.y.y.N.y.y.u.y.y.y.| y.;.| | | | Y Y K B m f h h h g 6 6 = O O @ @ X @ @ $ @ @ + 5 B K Y { Y { Y Y Y | { -.n.H.W.W.~.W.~.Q.~.~.~.~.~.H.~.H.[.H.~.~.oXH.H.~.oXoXH.~.~.H.~.~.oXH.~.~.~.~.H.~.!.~.H.~.~.H.~.~.!.H.~.~.H.oXH.~.H.~.~.~.~.H.~.~.~.!.~.~.~.~.!.~.~.~.H.oXH.~.!.!.!.!.~.~.~.oXH.H.~.~.~.~.~.H.~.oXH.!.!.!.!.!.!.!.!.~.~.~.H.~.!.!.!.!.!.!.~.~.H.!.!.W.!.!.!.!.~.!.!.!.H.!.].~.H.~.!.!.oXH.!.!.H.[.].H.H.[.!.].H.].m.m.| Y Y ! J { Y ! ! ! ( a n o   . X X . X @ # = = & r z z C V A K U J Y Y Y Y Y Y K Y Y Y Y Y K H Y H Y V H H U H I J J U U U P P c * & O O % O X O @ @ ; ; G M.v.[.[.oX[.oX).oXoXoX).oX).~.[.oX~.~.oX~.~.).~.~.).Q.).~./.Q.).).Q.).Q.Q.).~.~.~./.~.~.Q.Q.Q.~.~.Q.~.~.~.~.!.Q.~.Q.Q.~.~.!.~.~.!.~.!.~.oXH.~.!.!.~.!.~.~.~.~.~.~.!.~.!.!.~.!.!.~.~.~.W.!.!.W.!.l.+.+.F d a # O @ @ @ @ # # @ # @ @ @ @ O X X X = @ % O X @ @ X 1 @ 1 & @ % & X & % % : % X : % & 1 % : X ; & % : % : % @ 1 % @ % % & % & X & % @ % @ X % & O % @ O & X X @ @ & @ & & # & # @ & & O @ @ : @ - X : @ X : - @ X @ @ @ - - X - @ 1 @ X @ 1 : X @ - - @ @ - - @ @ @ & @ @ @ & @ # & @ & @ ; & : ",
"Q l d w # # ; # & & # * ; # # & & * e g g h N z H {  .;.4.4.y.y.y.y.y.y.a.y.i.a.i.i.y.a.s.a.y.a.y.s.y.j.y.y.a.y.y.a.y.a.y.a.y.a.j.y.j.y.u.a.y.a.y.a.u.a.a.a.y.i.a.a.y.a.y.a.a.i.a.y.a.u.a.y.a.a.a.y.y.u.u.u.u.u.N.;.y.;.;.;.;.;.| K | K K K K K B B B M M M m f f h f h h h d > > O . O @ O @ O $ @ X @ @ 0 G S Y Y | Y | Y Y Y { | y.y.m.H.H.Q.H.~.Q.H.H.oXH.Q.~.~.H.[.!.!.H.~.~.~.!.!.~.~.~.!.~.~.~.~.~.~.~.~.oX~.H.H.oX~.oX~.oXH.~.oXoXH.H.~.~.~.~.~.~.H.~.~.~.~.!.~.~.~.H.oX~.~.!.~.~.~.~.).!.!.!.!.H.~.~.~.H.oX~.[.~.~.!.!.H.H.oX~.!.!.!.~.~.!.!.H.~.H.oX~.!.!.!.!.!.!.H.!.!.!.!.!.!.!.!.!.!.!.!.!.!.I.~.!.!.!.!.!.!.!.oX~.!.!.~.!.!.W.W.!.[.~.n.n.:.! Y ! Y Y ! ! ! ! ) 0 6 O . . X X X X @ @ @ & * a c z N N C S S S K H K K K K H Y H K Y V Y V Y H H Y J Y H H H H U P U E E P k & & @ X = O @ @ @ @ d l d.]. X[.[.[.oX'.oXoX).oX).oX).[.~.).~.~.).~.~.~.Q.!.Q.~.~.~.~.~.~.).Q.~.~.~.~.~./.~.~.~.~.~.~.~.~.~.~.~.~.~.~.Q.!.Q.~.!.~.~.~.~.~.!.~.~.~.~.~.H.~.~.~.!.~.H.~.~.~.!.!.H.~.~.~.~.H.~.~.~.~.!.!.!.!.k.( ( F a d $ @ @ O @ @ @ @ @ X O @ X O X O . % = & X O @ & @ X @ 1 @ : @ : : % & % : : @ : @ - - - @ : - @ - @ - @ @ X @ @ @ @ @ @ @ X @ @ X @ @ @ @ @ @ @ O = & O @ @ @ @ @ @ @ # @ # @ @ @ @ @ @ X & - X - - - X - @ @ @ : 1 : X 1 - @ X @ X : @ @ X 1 @ - @ @ - X @ @ - @ X @ - @ @ @ - @ @ : @ - : & @ ",
"J d y w # # # ; : # : & & ; ; & * * t g g g i f f m m V Y Y X.;.o.y.y.y.y.a.i.i.i.s.i.i.y.y.a.y.a.y.a.y.y.a.a.a.a.i.a.i.a.y.a.i.y.y.a.y.a.y.a.u.a.y.a.y.y.i.a.i.a.y.i.i.i.i.y.a.y.a.y.a.a.y.y.i.u.y.;.y.y.| | { K | K B B K m m m m u u u f f f m u f f f f f f f h h h h h 9 * * X O O @ @ @ @ @ O @ # @ 9 F J | K Y Y Y Y Y | ! ! ! | u.m.H.oXoXQ.~.oX~.oXoXQ.~.~.~.~.!.~.~.~.~.~.H.!.~.~.~.~.~.~.~.~.H.~.~.~.H.~.oX~.oXH.H.~.~.oXH.H.H.~.oXoX[.~.~.~.~.~.~.~.~.~.~.H.~.~.~.oX~.H.!.~.~.~.~.H.!.!.~.!.~.~.H.~.~.~.!.H.!.!.!.!.oX~.oXH.!.!.!.H.].~.~.~.oXH.H.oX~.!.~.H.~.!.~.~.!.!.!.!.!.!.!.!.!.!.!.!.!.!.!.!.!.!.!.!.~.H.H.~.!.~.!.!.!.!.!.!.H.~.m.n.;.Y Y ! { Y Y { { ! R w * X X X . 1 X X @ @ # : * r b c c N N C B V B H K K K K Y V H H V Y K Y V H U V P H H P Y H H U J F C G r @ O # X X X @ @ O > %.[ ].[.[.[.[.[.[.~.oX~.oX).oX).oX).~.~.~.~.~.Q.~.~.!.~.~.~.~.Q.~.~.~.Q.).).~.~.~.).).~.).~.).~.~.~.~.~.[.~.~.~.~.~.~.~.!.~.~.!.~.!.~.!.~.~.~.~.~.~.~.!.~.!.~.~.~.~.~.!.~.~.!.~.~.~.~.~.H.~.~.!.~.!.I.k.) Q F d s @ O @ @ O @ O X @ X X X X O O % X = . O O @ @ @ : & @ @ : X : X @ - : @ @ @ @ @ - @ # @ @ # - # @ @ # @ # O @ @ O @ O O @ O O O @ @ O O O @ @ O & O @ = O # # O # # # @ & # @ # # & @ @ X @ @ 1 X X - - 1 1 - 1 : X X - - X X : @ 1 @ 1 @ : @ @ X X - X - @ - @ - @ @ - @ - - X 1 @ @ 1 @ @ - : ",
"U d y ; # # # : # : # & @ ; ; : * * r g g g f f f k m V Y Y  .;.y.;.y.y.i.a.y.s.y.a.s.i.s.i.y.a.y.a.y.a.y.a.y.a.a.y.i.i.i.i.i.i.y.a.y.a.i.a.u.u.y.a.i.i.a.i.a.i.y.s.i.a.a.i.a.a.u.u.a.i.y.a.y.y.u.y.y.y.y.| | { K K K K B B m B m m m m f f f f u f m f f m f m f h h h h h 9 & & O O X @ $ @ $ @ @ @ # # 9 F F Y | Y Y Y Y Y Y Y | | | u.m.H.H.~.~.~.H.~.H.oXH.H.~.~.H.~.~.~.H.~.~.~.~.H.~.!.~.~.H.~.~.~.~.~.H.H.oXoXH.H.H.oXoXH.oXoX~.oX~.~.H.H.~.~.~.H.!.~.~.~.~.~.~.~.~.H.H.~.~.~.~.~.H.~.~.H.~.~.~.oXH.[.~.H.[.H.!.!.H.~.!.H.oX~.H.!.!.!.!.~.~.~.~.oX~.H.~.~.~.~.~.!.!.!.!.!.!.!.!.!.!.!.!.!.!.!.~.!.!.!.!.H.[.!.!.~.H.~.~.~.H.!.I.W.!.!.W.~.~.H.H.;.! ! Y J { ! { ! ) R w * @ . . % X X % @ - @ * # a c c C N c Z V B S H K K K K P H U H H K V Y H P U H P H U K H P U U U F C A r # O @ @ O X O @ X 6 *.[ ]. X[.[.[.oX[.oXoXoX'.oX).oX).).~.~.~.~.Q.~.Q.~.Q.Q.~.~.~.~.~.~.~.Q.Q.~.~.~.~.).~.~.~.).~.).~.oX~.~.~.~.~.[.~.~.!.~.~.~.!.~.~.!.~.~.~.~.~.oXH.~.~.~.!.~.~.~.H.~.~.~.H.~.!.~.~.~.~.~.~.!.~.~.!.W.!.k.) ) D a s @ @ $ @ @ @ @ X X X O O X O % X % O X @ @ O @ @ @ @ 1 @ @ : @ : : @ - - @ - : @ ; # # # # ; @ @ @ @ @ - # @ O = # O O @ O @ O # O @ O @ @ O O & = O O & # @ # @ @ # # # & @ # O @ O & X : : - - - - - 1 - X - - % & X % 1 @ @ : : @ X & 1 @ 1 1 - @ - @ @ - - @ @ @ @ @ @ - X @ 1 @ 1 @ - @ : X ",
"F 9 9 # # # # & * & : : : # # @ * , r g g g h h f h h u u u m B B K K K T X.X.;.4.y.i.i.y.a.a.a.a.y.a.y.a.y.a.y.i.y.a.a.a.y.y.a.a.y.a.y.i.i.a.y.i.a.y.i.i.i.y.i.s.i.a.y.y.a.y.y.i.y.y.y.;.;.X.Y Y K B B m m m m m u u u u u u u u u u m u m m f m u f m m f m f h f h h l l 0 @ = X X O @ O @ @ O @ $ # # a F U Y Y | Y | Y | Y Y Y Y Y | u.u.N.Q.~.H.oXoXH.Q.~.oX~.~.[.~.~.~.~.~.~.~.~.!.!.~.!.~.~.~.~.H.~.~.[.~.oXH.~.oX~.~.H.H.~.H.~.oXH.oXH.oX~.H.~.~.~.~.~.~.~.H.~.H.[.oX~.oXH.~.~.~.~.~.~.~.~.~.!.~.~.oXH.~.~.[.!.!.!.~.].oXH.~.oX!.!.!.!.].~.H.].H.~.oXoX!.~.~.~.!.!.!.!.!.!.!.!.!.!.!.!.!.!.!.H.!.!.!.!.!.!.!.!.].~.~.~.~.~.!.!.W.!.!.!.~.].H.H.;.Y Y Y { Y J ! ! ! G # # @ % . X X X X @ @ @ * & n c c c C c C S Z Z G G K J J H H H H H V Y V P U V S U I U U F S V h j a 8 0 * O # @ & X & @ # # k B.H. X[.oXoX[.[.[.).'.).oX).oX).[.~.).~.~.~.~.~.Q.Q.Q.~.Q.~.Q.~.Q.~.~.).~.~.~.~.~.~.).~.~.~.).~.~.H.].[.~.~.~.H.oX~.~.~.!.~.~.!.~.~.~.!.~.~.oXH.].~.~.H.~.~.~.~.~.~.~.~.~.!.~.~.~.~.~.!.!.!.!.~.!.!.!.k.Q Q D d l @ O @ @ O @ O O @ X X X X % O O O X O @ @ @ @ & @ - @ @ 1 @ : @ @ : & @ # @ @ # @ @ # O # @ @ @ # # @ @ # O # + O O # O # O # O @ O # O O # = = @ & O = O @ @ @ # @ @ # O # # @ @ & O & @ X X - - @ @ - @ - X & @ 1 1 & @ % - X X @ - @ @ @ @ @ : X X @ - X @ @ # - - @ 1 X @ - @ @ @ : X : @ - ",
"S 5 5 # # # # & & # : # : @ # & * * e g g j h l h h u m u u u u u u m m u m m m K K Y | | :.;.;.y.i.y.y.a.s.s.s.i.a.i.y.i.i.i.u.y.a.y.y.y.y.y.y.y.-.;.;.;.;.$.o.X.X.| { { Y Y Y K K K B m m m m m u u u u u u u u u u u u u u u u u u m f f m m f m f f L f m f h h h h r i & = X . O O @ @ @ O @ @ @ # & l U U | Y Y | | K Y | Y | Y Y | K Y ;.a.a.H.oX~.H.H.oX~.~.~.~.~.~.!.!.!.!.~.~.~.~.~.~.~.~.H.~.[.~.~.H.~.H.oXoX~.~.~.~.oXoX~.H.H.~.~.oX~.~.~.~.~.~.~.~.~.~.~.~.~.~.~.~.~.~.H.oX~.~.~.).H.~.oXH.H.H.oXH.~.H.[.!.[.H.!.!.~.H.~.H.oX~.!.!.!.!.!.!.H.[.~.H.~.H.!.!.~.!.!.!.!.!.!.!.!.!.~.!.!.!.!.!.!.!.!.!.H.[.!.!.!.oXoXH.~.H.[.~.!.!.!.!.!.!.H.m.;.K Y Y J Y J J J Q C # # O X X X X X X @ @ & * : a c c c G c C C G G G K G F H F H J F T V P H P V A S m h h g 9 9 3 * * * # # @ @ O @ % @ X # > > _ ].].oX X[.).oXoX).oXoX~.oX[.~.[.[.).).~.).~.~.Q.Q.~.Q.~.~.Q.'.~.~.~.~.'.Q.~.~.~.~.~.~.~.~.).~.~.~.~.~.~.~.~.~.).~.~.!.!.!.~.!.~.~.~.~.~.~.~.!.~.~.~.~.H.~.~.~.!.!.!.~.~.~.~.~.~.~.!.~.~.!.~.~.~.~.!.!.0.R J D s l @ @ @ @ @ @ @ @ O X X X X O % O X O X O O @ @ # @ 1 @ @ @ - @ ; - ; @ # @ @ # @ # O # # O # & + # + + O * + = + # O + + = # O * # # O = # O & O = @ O & @ O # @ # O + & * # @ @ @ @ O O X @ @ @ @ @ @ @ @ @ @ @ @ % @ % % & X - @ @ 1 1 X - X @ @ @ X : @ X - ; @ @ @ - @ X @ - : @ X X - % X & ",
"S 0 5 # # # # & : & & & & # @ @ * * e g l j h h h h h u u u u u u u u u m m m B H V Y  .| ;.<.<.4.y.y.y.s.y.s.s.y.a.a.a.i.i.i.u.a.y.a.y.y.y.-.y.y.-.y.;.;.;.;.o.X.X.| { { { Y Y K K K B m m m u u u u u u u u u u u u m u u u u u m u m m m m f m f m f f f L f h h h h d r * . O X = . O @ $ @ @ O @ # & g ~ U Y K Y Y Y | Y K Y Y | K K | Y ;.a.a.H.H.~.oXoXH.~.H.~.~.H.~.~.~.H.~.H.!.~.~.~.~.H.~.oX[.~.~.~.~.oXH.~.H.~.~.H.~.~.H.~.oX~.oX[.H.~.~.H.~.~.~.~.!.~.[.H.[.~.~.H.~.H.oX~.~.~.~.H.).oX~.~.~.oX~.~.~.oXH.~.~.!.!.!.~.~.oXoXH.~.~.!.~.H.!.~.~.~.~.oXH.~.~.~.~.!.~.!.!.H.!.!.!.!.!.H.!.!.!.!.!.!.H.!.!.!.!.!.!.!.H.!.!.~.~.~.~.!.!.!.I.!.!.n.H.;.Y Y K K J J Y ! U G # # O @ . X X X % @ @ # * * a c c C L C c G C Z S S F F F H I I H I T V U V P S S B h h i 9 9 2 * * * # # # # # @ @ @ @ @ > > / ].].oX[.oXoX).oXoX).oXoX).[.[.).).).Q.).Q.Q.~.Q.~.Q.Q.Q.Q.~.~.~.~.Q.~.Q.Q.~.~.[.~.~.~.~.~.~.).~.).!.[.~.~.~.~.~.~.~.~.!.!.!.).~.~.~.!.oXH.~.~.~.!.~.!.!.!.~.~.~.!.~.!.~.H.~.~.H.!.~.!.!.~.H.~.~.~.!.!.d.R J G s j # @ @ $ = O O X O X O O O O X = O X = X @ @ @ # @ @ @ 1 - # : @ @ @ @ # @ # @ # # O # O # # + + # $ = + O + + = + O O O + O O # + O # O + + O = & O & & @ # @ # # # & & # # # O # @ & = & @ @ @ @ @ @ - @ @ & X % @ % % @ % 1 @ - X @ @ & @ - @ X : X @ : X @ @ - ; @ @ @ - - X X @ - @ @ @ @ @ ",
"k 4 4 # # # * # : # & # # @ # & * & * e 9 j k k h h u u u u u m u u u u u u u u u u u m m m m m B B B K Y Y Y { Y | { | { ! J { Y Y Y K K K K B B B m B B m m m m m u m u u u m m u m u u u u u u u u m m u u u u u m u u m u u u u u u f f f f f L f L f L f f h g g g e t % . O . X X X O X O O @ O > ; k U Q K | Y K Y Y K | Y | Y | | K | Y ! Y | u.u.a.H.H.~.H.oXH.~.~.~.~.~.~.~.~.~.!.~.~.~.~.].H.].!.~.~.oX~.~.~.~.~.~.~.~.oXH.oX~.H.oXH.~.~.H.oX~.~.H.~.~.H.~.[.~.!.~.~.~.~.H.oXH.).~.oX~.H.oX~.~.oX~.[.oX~.H.~.!.~.H.oXH.H.oXoXH.~.~.~.~.~.!.[.H.H.oXoX~.H.~.!.!.H.~.!.!.!.!.!.!.!.!.!.H.~.!.!.~.I.!.!.!.!.].[.!.!.!.!.!.[.!.!.!.!.I.!.W.K.a.a.) K K K K F F K F J z O O X . @ X O X @ ; @ * : * a c c v v v v C G G G G G G S A C C N u m i y i t 6 6 = 2 + * + # O # # # O # @ # # @ @ @ @ @ 8 8 r.oX X[.oXoXoX).[.[.oX).).oX[.).).[.).).).~.Q.).~.~.~.~.~.~.~.~.).~.~.~.~.~.~.~.~.~.~.~.~.~.~.~.~.~.~.~.~.~.].~.~.~.~.~.).).).~.~.~.~.~.~.[.~.~.~.~.~.~.~.~.~.~.~.~.~.~.!.!.~.~.~.~.~.!.!.!.!.!.].~.!.!.6.F F D l s @ O $ O X X O X X X X X @ X @ O X @ O O @ O O O O $ @ @ # O @ @ # O O O O O * * 6 r t t 7 9 t t q y h g h u x i y i r t t 8 8 t 7 8 8 8 7 8 7 e t e t t e t t e 8 6 6 , * * O O O O O O O @ O O O O O @ @ @ @ @ @ @ & @ X @ @ @ @ & - - 1 - - 1 - 1 - @ - @ - X @ X 1 @ @ : @ X % - : % % 1 & X ",
"d ; * # # # & : & : @ & @ : & @ # & & , > a k k M h m m m u m u u u u u u u u u u u u u u u u u u u u u u u u u u u u u u u m f u u u u m u u u u u u u u u u u u u u u u u u u u u u u u u u u u u u u u u m u u u u u u u m u u u u m m f f L f f f L f f f L k g g r , & = . = X O X X O X X @ @ O > : C Q Q | K | | K | | K Y Y Y Y K | K Y Y Y K K K K Y Y | 7.t.M.H.H.H.~.~.~.!.!.!.~.H.~.~.~.~.~.H.!.!.~.H.oXH.[.H.~.~.H.~.H.~.~.oXH.~.~.oXH.~.[.H.~.~.~.oXH.~.H.!.!.~.H.!.oXH.~.~.oXH.H.~.oXH.oXH.H.oXH.H.~.oX~.[.H.oXH.oX~.~.H.oX~.H.~.~.].!.H.oX~.~.H.].~.~.!.!.!.~.!.!.!.!.!.!.!.!.!.~.!.!.!.!.!.!.!.~.[.H.H.!.!.!.!.!.H.!.!.I.!.!.H.H.7.) ! K G Z Z Z Z Z S G F g # O O X X @ X X @ & # * : : p b k b x b b x j j l l 9 7 7 4 4 > # = 2 = = + + O O = = O = + # # @ # @ @ @ @ @ @ @ @ & @ : j j J. X[.[.oX[.oXoX[.oX).).oX).[.).[.).).(.(.).(.).~.~.~.).~.).Q.).~.~.~.~.~.~.~.~.~.~.].~.[.~.~.).~.~.~.~.~.[.~.~.~.).~.).!.).).).~.~.~.~.~.~.~.~.[.!.!.~.!.~.~.~.~.!.!.~.~.~.~.!.!.~.~.!.!.!.!.!.!.!.Z.K.[ G D D s l @ X X O O X X X O X O X X O @ O O # O O # $ # + # # O O # 4 4 d N C ^ <.1.z.W.I._.}.+X_._._.`._._..X+X@X@X+X+X_.}.}._.`.`.(.(.T.(.(.(.`.{.`.{.{.{.{.{.{.+XOXOXOX+X`.{.Y.D.J.z.>.>.E j j > O + O O O O O O O O @ & X X @ & & X @ X & X @ X @ & X @ @ & X @ X @ - @ @ @ & X X @ & @ @ X @ % @ % & ",
"d w > # # # & * # & : # @ # - @ @ & & > > a k k M h k m f m u f m u m q u u u u u u f u u u u u u u u u u q f q f u m q u f f f u u u u u u u m u u u u f f u u u u u u q u f u u m u u u u u u u u u m u u u u u m u u u u m u u u u m h f h h h h h f f l f f h g g a > > . X = . % % O X X O O @ O > * c Q Q ! Y Y Y Y Y Y | K | | K K | K | Y Y Y K K K Y Y | t.u.a.m.H.H.H.E.Q.~.~.Q.Q.~.Q.~.!.!.!.oXH.oXoXH.oX~.H.oX~.H.~.~.!.~.oX~.H.oX~.H.H.oX~.~.H.oXoX~.H.oX~.~.].~.[.~.!.H.oX~.H.oX~.~.!.H.~.~.~.H.[.[.H.oXH.~.H.[.~.oXH.oXH.[.H.!.~.[.H.~.oXoXH.H.~.!.!.!.!.!.!.!.!.!.!.!.!.!.!.Q.!.!.!.!.!.!.!.!.H.!.!.!.!.!.!.~.~.~.~.!.].H.H.H.H.H.u.) Y K K Z Z Z Z Z Z G F j O O X X O X X X # @ & & : > r x b b b b c x b k l l y 9 0 0 w w ; # # # # O O O # O O # O O @ # @ @ @ # @ O # # @ @ @ & @ j j J. X X X[.|.[.[.[.].[.`.[.[.).[.).).).).(.).Q.(.~.~.~.~.~.~.~.~.~.).).!.~.~.~.~.~.[.).Q.).~.).!.~.~.~.~.).).).~.).).~.~.).~.).!.).~.).!.).(.~.~.~.^.~.~.~.Q.~.~.Q.Q.~.~.!.Q.~.Q.Q.!.~.!.!.!.!.!.^.!.D.Z.} F G D j l @ O X X X O X X X O X X O O O O o O O # + $ # + o $ + o + 5 4 d N Z ^ 1.,.x.T.I.}.+X}._.`._.`._._._.@X+X+X+X@X}.}.|.`.(.`.(.(.Y.Y.(.`.(.].`.{.{.{.{.+X XOX@XOX+X+X{.{.Y.L.L.z.,.>.W g j > O O O . O O O = O . = O X @ & @ @ X X & & @ X X - @ @ @ 1 & X & & @ X & O % X & @ @ & X X & % % % & X ",
"5 # # # & & & & & & @ & & & & & & - # # # 6 l l k k h h m h f m u f u m d u u u u u u f f u u u u u y u u u u u u f q u u d u u u q u u u u u q u u u u u f q u u u u f m f u f u u u u u m u u u m u m u m u m u u u u m u u u u u u u f f h j h h h h L h f L g d g 6 O & . = . X X . X X O % @ O # : > N ! ) ! Y | Y | Y K | | Y K | | K | Y Y Y Y K K K K K K K K K K Y | | :.y.a.l.H.Q.Q.Q.~.~.~.].H.H.[.H.oXH.oXH.~.~.~.~.~.~.!.H.~.[.H.[.oX~.oXH.oXH.~.H.H.oXoXH.~.H.!.H.!.!.~.[.H.oXoXH.!.!.~.~.oXH.!.~.H.oX[.oX~.~.~.~.~.~.~.~.~.].~.~.~.].~.H.H.[.[.!.!.!.W.!.!.!.!.!.!.!.!.!.Q.Q.!.Q.~.!.!.!.!.].~.[.!.].!.!.].~.~.~.!.H.H.H.u.u.t.| R K Z K L B Z Z Z Z Z C S Z n O O @ X X @ X O & & & & * * : , , > > : : - - - - - @ @ - @ - - $ @ @ O @ # @ @ @ @ O @ @ # @ @ & @ @ @ @ @ @ @ @ @ # # & I I Y. X].}.oX[.oX[.[.oX}.}.[.[.[.[._.`.[.).).`.].).).).[.!.!.[.~.~.).!.).(.!.!.).!.!.!.!.).!.).!.[.).~.[.!.).(.).).[.).].[.).).).).[.`.[.).).).[.(.(.W.(.(.(.(.(.!.!.!.!.K.K.A.A.Z.A.n.H.H.n.n.n.n.n.d... .F D G D a a X X . O X O X O X X X = X O O O + # + w q q C ( { 7.J.K.|.&X:X0XqXqXwXqXwX9XrX0XwXwXwX0XrXeXwXrXrXrXqXrXrXrXrXrXwXeXeXrXeXeXeXrXpXpXeXrXrXeXeXpXeXeXeXrXpXeXeXeXeXeXeXeXqXeXuXeXeX1X;X=X{.z.h.O.I I 6 + + O = = % & O X % @ & @ @ X @ & @ - - X @ @ X = @ X @ & X & @ @ & X @ % @ & @ @ @ & @ @ ",
"* * # # # & & & & & # @ & # # @ & # & # # * 6 8 j h k m m m m f m f f f u f u u u u f i q f u u i u u i u d u y q u m u u u u i u u u u u u u u u u u u u q u u u u u u u u u u u u u u u u u u u u m u u u u m u u u u u u m u u u u u h f g h l h l h h l h l d 8 8 & X = X . = O . = X O X X @ @ @ ; # l U Q ! Y Y Y Y | K K K | K Y K | Y Y | K Y Y Y K K B K B K B K K K K K K K K K | Y ;.t.p.p.a.H.M.H.H.H.~.~.~.H.!.!.!.~.~.H.[.H.H.[.H.H.~.~.H.oX~.~.~.~.~.~.H.].~.H.~.!.!.H.H.!.~.~.~.!.!.!.!.~.!.!.!.!.!.H.oX~.!.~.~.~.].~.~.~.~.~.~.~.H.[.].oX~.!.!.!.!.(.!.W.!.!.!.!.!.!.(.!.!.!.!.!.!.!.!.!.!.!.!.K.K.n.f.l.t.;.;.Y K G Z B Z L K Z L K Z Z Z Z Z Z Z Z Z C C 6 O O X O X @ @ X : & & & & & : 1 & @ X @ @ @ @ $ $ $ - - $ $ - 1 - X - - X X @ X - X O O @ @ @ @ X O & @ X @ # @ # @ @ @ * ~ / Y. X X X}.}.].}.[.].].(.W.K.J.Z.l.x.l.k.k.f.f.h.f.g.l.l.x.x.x.b.x.n.n.n.b.n.x.n.x.n.x.l.l.k.d.f.i.9.u.7.9.9.6.7.7.1.7.7.7.7.7.9.8.7.7.7.9.1.1.1.1.1.-.-.-.;.-.$.X.X.Q Y Y H K J H K Z K K F S S G S S A A D D G 8 p X O X X X X O X O O X O O O # 6 R 0.7.!.6X6XiXfXgXgXfXiXrX0XrXrXwXqX0XwX9XwXwXwXrXiXwXrXrXwXrXiXrXiXiXgXrXfXfXaXvXgXfXaXaXaXsXaXaXaXaXaXiXsXaXaXaXaXaXaXzXaXaXaXiXaXaXpXrXaXpXeXeXeXqXeX<X<X:X;X%X&X`.8.4., = . O & & % % @ @ @ = % X = O X X @ X @ X O = . X O = X O X = % O O O = O = = O = = ",
"2 # * * * & & : # & # & @ & @ : @ & @ # # # 6 6 h k k h h m f m f f u f f i f f f i u f f f f f i y u i u y u u f u u u i i y d u u u u u u u f u u q m q m u u u u u u u u f u u u u u u m u q u u u u u m u u u u u u u u u u u u m u f g h h h h h h h h h h d 8 8 # O . . = . X X X X O X & @ O O & ; h Q R ! ! ! Y Y Y Y | | K | K | K ) Y K | Y Y Y K K K K K B K Z Z B K K K K K K | | ;.u.p.t.H.M.H.H.H.H.H.H.~.~.].H.!.H.[.~.H.oX!.~.].~.oXH.oXH.~.~.~.H.~.~.~.~.~.~.~.!.!.[.].!.[.H.~.!.!.!.!.!.!.H.[.H.~.~.~.].!.!.~.oXH.[.H.].!.~.H.[.[.H.!.!.~.!.!.!.!.!.(.!.!.!.~.!.!.!.!.!.!.!.!.!.!.!.!.!.!.].H.K.K.n.f.k.7.| *.Y R K Z B B B B Z K L B B B Z Z Z Z C C C C 6 O @ X O X X @ @ # & # : & & & & & - - X - @ X X - $ - X - $ - $ - - X X @ X & - @ @ @ @ @ @ @ @ @ & X @ @ @ @ @ # & @ @ > / ~ Y. X X}.].}.}.[.].[.(.(.W.J.K.Z.l.b.f.d.l.d.k.h.f.l.l.l.c.M.b.c.b.x.n.c.n.x.n.b.b.x.b.b.x.l.f.d.p.9.0.9.0.7.7.7.7.3.7.7.7.0.7.9.9.9.9.q.7.7.7.1.4.1.-.-.-.;.$.;.....! J U J S J H H K G K G S S S S D S A D D D 8 8 . X X O O X X X X X O X O # # 6 F 0.q.P.-X-XiXgXaXgXtXiXrXrX0X0XwXwXwX9XrXwXwXqXwXfXiXiXrXrXrXiXiXaXaXgXiXgXgXsXfXaXsXgXaXaXaXaXaXgXgXaXaXaXaXaXaXaXaXaXaXaXaXaXaXpXaXaXaXiXpXeXeXeXeX1X<X:X9X;X%X%X`.8.8.* = = % X @ @ O & X @ % = X @ X @ @ X @ X O % X X = X O % & = % O & = & & O @ & = = = ",
"* # & # & # & @ @ : # & : & @ : : @ @ @ # ; ; ; 9 h j h M h h h m f f h f u f i f f f f f f f f f f d f d f f u d d u y d u u y y f u u f q f f u u u f u u i f f u f u u f f u u u u m u u m m u u u m m m u m m u m m m u u h m u u h h h x u l h j h l L l l r * * @ . = . % . % % X O X X O @ @ $ # @ 7 G C U ! Y ! ! ! ! Y K | K ) Y Y ) Y | Y ) K Y J K K B B K B K B K K K Z B K K Z Z B B Z B B K B K K K Y ! | [ | *.;.;.;.u.u.a.a.M.M.H.H.H.H.~.W.H.~.oXH.H.oXH.~.H.~.I.E.E.!.H.~.H.~.E.!.E.W.K.E.K.J.H.H.H.m.M.M.M.M.H.M.M.M.M.l.l.l.H.a.a.a.a.p.a.u.0.u.0.9.9.6.9.6.6.2.2.t.1.1.1.-.;.t.;.;.[ | ) ! K Z G Z Z Z M M B B L B Z B L B B B K L B L K L C Z B Z k k ; @ O O X O @ @ O - & & : @ & : - @ X X - X X - X - X @ X - X - X 1 $ - 1 X X & 1 % X X - @ X : @ & O @ @ & O & @ O @ O O & z j %.%.#...( ( ) Q Q U F F S Z Z M M M N k z N m N N h M M N N N N V Z A Z S G S G Z Z A Z N N N N N z L M N z N N N z L L M M N N z N M M N k N z N z N N M N N z V N Z Z C Z Z Z A A Z S A Z Z A Z A A A A D A c > 4 O X X O X X X O O X O X @ g g w.-XiXiXgXrXrXwXwXwXwX0X0XyX0X0XyXtX0XrXwX0XwXwXwXwXiXwXiXfXiXrXrXgXaXgXgXgXgXaXgXgXgXgXgXgXvXgXgXhXgXjXgXgXnXgXgXvXgXgXvXgXaXvXaXgXrXrXaXrXaXrXrXrXrX0X0X9X<X&X&X&X%X&X+XOXx O O O X O $ @ X @ $ O . O X O O O O O O O O O O O O O O O O + = X = O O = % = & = = ",
"* & * # : @ @ : # @ & @ @ # & @ @ # ; # @ # # @ ; 0 5 l j k j h h f f f i f u i d f f f f f f f f f f l f f f i d f u u u u u u y f q u f f f f u u f f u g f u f f f y f u u g m u m q m f u f m m u u u u u u f u u u u u m u m u h h i h u x g h h l l l l y * @ @ O % . O O . X O X O X X % O @ O @ O ; y q S ! U ) ! Y ! Y Y Y | K ) K K ) K Y Y Y Y K J J K K K K Z K B K B K K B Z Z B K K B K B B B B B B B m M L M m M M M M M L L L B G K G K ! ! | | *.t.t.t.t.u.2.2.7.7.7.2.q.t.;.t.*.:.*.| ) ) U K K R B Z m L M M L l L l L M M M l L L L f m L m m k L M m M M M M L M M M M k N M L M M L B L M B B B L M M B B B B B B L B K L K B L K Z Z L K G Z G C d a @ O X O $ @ @ O X - X & & : & X 1 @ - - $ X - $ - X - X @ X - $ - $ 1 $ X - % X X & - @ X - @ & @ @ & @ & O @ & @ & & O @ O 6 6 k j x k k k k k h k M k M M M M k M N N m N N k M z M N N N N N k N N N N N N N N N N N N N N N N V C G C N N N N A L Z C Z N N N N C C C N N z N N N N C N N N V C Z Z V A A C A Z A A Z S Z Z V S A A A A D j # = X O X O X O X O X X O O x B.B.eXpXgXiXiXrXrXwXrXwXwXrXwX0X0X0X0X0X0X0X0X0X0XwXwXwXwXtXrXaXrXrXrXiXyXgXiXfXaXgXfXgXgXgXgXgXgXgXvXgXnXgXjXjXgXgXhXvXgXvXgXvXsXaXaXyXzXaXrXlXrXrXrXrXrXeXeX9X;X&X&X&X%X%X%X;XC O o X O X O X O X O O @ O $ O O O O O o + O + O O O # + # * * * , t t r i s x v x I ",
"# & & & @ : @ # : @ @ : : @ # & @ - @ @ # ; # # ; 7 7 l h h h h h f f f f i f f f f f f f f f f f f f f f f u g f d i u u u u i f q l u u f u l f f f f f u f f u f f u u u u f f u f f u f u m u u u m m m m u f m u m m u h h u u u h h i h i h g j h h j l y * O O O . . X . . X O X X X O O @ X @ @ @ # n q F U U ! ! ! ! ) ) K K ) ) ) Y Y Y ) Y Y Y J H U K K K K K Z B K B Z K B K B Z Z B B Z B B B B B B M M M L m m m M M M M M M B M K Z K K R Y ) | ;.;.t.;.u.;.u.7.7.7.2.;.t.;.t.;.@.....+.) { U K R Z Z L L m L M M M M L M M M M L m L f m L m M M M M M M M M M M M M M M M M N M Z L B M B B M L M Z B B M B M B B B L B B Z Z L L L L L K K L C Z Z Z n a @ @ X O X O @ @ @ @ & & : & - @ @ @ X $ - X $ X - X X - @ X - 1 - $ X - - X X : X : & X & X @ X @ @ # & @ @ & O # & # # O # > , k x x z z k h h k N k M M M M M k M k N z k N N N N N N N N N k N N N N N N N N N V N N z N N N N A N N Z C A N A N C C C C N A A N C N N C N A C N N C N V N A V A Z C N Z A Z A Z B S S Z S Z Z A A A v D A j & &   O X . X O X X X O X O x B.B.1XpXiXiXrXrXiXwX0XwX0XwXwX0X0X0XyX0X0X0XwX0X0X0XwXwXtXwXwXrXrXlXrXyXrXaXrXrXgXgXiXgXsXgXgXyXvXvXgXjXgXjXgXhXjXgXgXvXgXgXvXvXgXaXgXaXyXzXvXaXrXrXaXrXeX0XqX<X:X<X&X&X&X%X%X%XA $ $ O X O X $ O @ X O O O @ O O O O $ # O O + O O O = = = * * 3 3 t 6 t x i x I x I ",
"# & & & & # @ & @ & # & @ # : @ # # ; ; # @ # # # # # , r d g g h l g l f f f f f d d h d d f d d f f g d d g g f f i u d i y f f f u l f l f f f f f f h f f f f f f f h f f f f m f f u m f f u m u m u u m u u m f f m f h f u m h h i x h x j j j l l n n ; # @ & X % = O % = % X O O % X % X @ O @ $ # # ; q L G J R R U ! K ) ) K K ) K ) K K Y K H Y J H K K K K K K K Z K K Z K V K H Z K Z Z K K B K B K B B B M B B L M M M M M M M L L m m m m m m m m f M m m m f M m L M L L m m L M M M h m h m h h f f f f m f f f f m f f f m f f L f f f m h h f h M h k M k k k M M M N k M k M L M B L L B L B M L M L Z Z M L L Z B B B Z B L K K L K L L K C Z G j 4 4 $ @ @ O @ @ @ O @ @ @ & @ & @ - X - 1 - $ $ 1 - $ - - X @ X $ $ 1 1 - X - X X & X % X - @ - @ % @ & O O & @ @ @ @ O @ O O & 6 6 x z z z z z N k z N M N z N k N N N N m M N h N h N k N N k N N N N N N N C N N C N Z N N N Z N N N Z C N C N C N A C C C Z N A N N C N A N N A N N A N C C N C Z N C Z Z A Z Z Z S Z S G A Z G A Z A A D A v r O = X X X X X X O X O X 6 , w.1X2XaXaXyXfXrXrXrXrX0XwXwX0X0X0XyX0X0XrXwX0XwX0X0XwXwXwXwXrXrXwXrX0X0X0X9X6X6X6X6X6X6X6X6X7X6X9X5X6X9X>X6X6X7X6X6XqXwXqX0XrXwXrXiXiXrXaXaXrXrXrXaXrXrXrXrXeX0X9X:X&X&X:X:X&X%X%Xz O O X O X O O X $ O X O O O O $ O @ + + 2 2 4 9 i g A ~ T o.e.s.D.T.T.+X%X%X%X<X<X<X",
"@ ; # & @ : # @ & # & # & @ # : @ @ # # @ # # @ @ @ # @ * * 6 r r d d g d f d f d f l f f d f d f f d f g f d d g i f f d f f f f d d l g g g u h g f h f g f f f f h f h f h h h f h h h h h h u m u f h h h m f h u h f f f h f g g f g d d g f a e 8 6 * # @ @ @ @ % % X % O % X & X X & @ % @ X @ @ @ @ $ # # 4 4 q d d h L K G K G K F F K H J F F H U J F K R K R K R R K J K F F K S S K S K K S Z K Z Z B K K B Z Z Z B Z Z M Z Z M M B M L L M M M M M M M M M M M M M L M M L B M m k z M k m k k h h h h h h h h h h m f f l f m h h h h h h k h h k h L k M k M k k k N N z N z z N M L L M M C M C M M Z B B M Z Z Z L L Z Z L Z B B K B K L L L K C k c 9 * # @ @ X O O X X O O @ & & @ & @ X - X @ X - X - X - X $ X X $ - X - X @ 1 @ 1 X X % X 1 @ X - @ @ @ & O & @ O & & & & # O @ @ 8 8 c b c z z z z N z N N M z k M M M k N M M M N k N M k N N k C N M C N N M C C M C C C C M M C N C C A N N N N v N A C C C C C C N C C N A z C N N A N A A N A V A N Z A Z V Z C Z A A S G Z Z G Z G A S A j x > X . X X . 1 X O X @ X = E W +XpXpXaXlXlXeXlX0X0X0XlX0X0X0X0X0X0X0X0X0X0X0XtX0X0X0X0X5X*X*X'.'.G.G.S.A.g.s.g.f.s.f.s.s.s.d.s.s.s.a.s.s.d.s.d.f.f.f.b.C.C.S.S.^._.`._.@X#X@X&X<X&X5X9X9X9XwX9XeX9X9X9X<X9X:X%X@Xs X O X O X O X O X O X O O # 2 9 9 k K F X.i.e.L.@X+X9XaXrXzXvXMXnXvXvXvXzXzXvXlXlXyX",
": @ : : & @ & : @ : @ : @ : & @ : # @ & ; @ # & # # @ # * * 7 y r d g f d d f f f f f d d f d f i g g i g d g f i g d i i d d f d f f d g f f g f i f g h f f h f f f f f f h f f f h f h u f f m f f m h f h f h f f u f u h f g f g i d d g d s y 8 t 6 & & O @ = @ O X = X % = O X O X X O X X @ @ @ @ @ # O # 4 4 9 d f k L L Z G G G F F J F J J J H F H J K K K K K K K K K K K K K K K K K Z K K Z K Z Z K B B K Z Z Z Z Z Z Z M M Z B M Z B M M M L M m M M k M M L M M M M M M L M M M M M N k k m M h k h h h h h h h m l L f f m h h h h h h f L h h M h h k h M k m k M k N k N N k L M M C L M C M B L L N Z M B L M Z B B B Z B B B L L K L K L L C b b 9 # * @ @ & X & & @ & X & X & & X & 1 X - 1 @ X - X - X - X - X @ X @ X - X - X @ % @ X & 1 @ @ : 1 @ @ @ @ @ & X & O O @ @ @ O # e p x x c z z z z z z z N N M C k C N k k k C k M N M k N N N C k N C M N N C M N C N N M C C C N C N C N A N v N A N c C C C C C C N C N C N A N A C N N N A A N A N A Z G C A V A Z A A Z Z G G Z S G A A A j x * X X . . X X X X X X X & W E OXpXpXaXlX0X0X0X0XeX0X0XrX0XrX0X0X0X0X0X0X0X0X0X0X0X0X0X5X*X*X+X'.G._.S.S.j.g.h.g.s.f.s.d.d.s.a.s.f.s.s.f.i.d.s.s.d.g.g.j.D.S.S.P.`.`._.@X*X#X&X&X<X9X9X9X0XqXqX9X9X<X9X6X<X:X@X%Xr O O O X O O O X O X O O # O * r 9 k F F O.i.s.S.@X@XeXaXzXvXMXvXnXvXvXzXvXvXzXlXlXyX",
"@ & & @ # & & # # : @ @ & # # @ @ & # @ @ @ & @ @ @ # O # # # # * 6 r r a f d l d l f d l l g f d g g g g f f g f l f l f l h d l d l d g g g f g h h f g g g i l f d f f f d d f d d d i i u d d f y n d d d u y y y r 9 r 9 9 7 9 8 8 6 6 * * * & & & & O # @ & X X @ X O X O X O & X O % X @ X - X @ X @ @ O O # # $ # $ # ; w w 0 0 9 y y y h g k M z N Z Z L L Z K Z Z Z G K G G K S G S S S S S S K Z F K G K Z K K K K Z Z Z Z Z Z B Z B B L B L L M L L L L m M L L L L L M L L L M M b M k k M M M k k M k k h h h j h L l m m m l h l h h k h k h k M h h M M k M L M L N M M N M N N C M L C L C C M B L Z M M Z Z M Z Z Z Z Z Z Z G K L L L L K K L C d d > # # # @ @ @ X O X O O % @ & @ X @ X % X X X X @ @ X @ X - X - X X @ X - X % X & X % X X @ @ X X : X X & & % @ X @ @ & @ @ @ O @ a p x v b c z z z z z N N z M C C N N N C M L C C k k C c N c M C N C N z N C C C C C L M C N C Z C C C A A C C A A C C C C C C C C C C C C C C A C C C A N A N C C A A C A C Z C Z C A C G Z A Z G G D D A c 8 8 O O . X X X X X X X X O s V.V.eXpXeXrX0XlX0X0X0X0X0X0X8X8X0X0X0X0X0X0X0X0X0X5X8X*X/.G.j.y.y.<.<.o.o.<.o.<.o.<.o.;.;.<.$.<.=.=.=.=.=.=.=.$.<.<.<.$.=.=.<.o.=.<.=.<.$.<.<.3.4.s.s.h.g.S.D.^._._.%X5X9X0XrXeXqX`.`.8 # O X O O X X O O # # 8 A A +.b.c.XX0XqXgXnXmXmXnXmXnXbXvXnXvXvXNXvXMXbXBXBXBXvXbXbX",
"& @ # @ : @ @ : & @ & # @ & @ : & & @ @ @ @ @ @ @ # @ # O # # # # * > * 0 8 9 q a a d d f d d d g d f d g i g d g f f g l g g l h d f f i d d r y r r r t t 7 8 5 7 7 0 4 5 4 4 6 4 4 4 2 4 > 2 w 4 ; w > ; # * * * * + # # # # # # # # = O O O # O # O @ & & @ X @ & = O % & X @ X X @ X O @ X @ X @ X @ X O @ O O O O O O $ O w # $ # $ $ $ # O # # w * 2 4 4 0 0 0 0 7 7 9 n 7 n y y d y i f h h h h k k h k L L L L L L L L L Z L Z G L L Z L Z L L G G G L L G G L G Z C L L L Z L L L L L L N C k N c L L L L b M M L M k M L L l L m L L b k M k L L L k L L L L L L b C L b C C N C C L L L Z L C L C C L Z L Z L G Z G Z G Z Z G L Z Z L K K G G L K L k 4 0 ; # # @ @ @ X @ @ % & X & X X @ & @ 1 @ X - @ X - X - X @ X - X @ @ 1 X X - X % X - X : X X : : @ @ @ & X O X & & @ @ O & @ @ @ # s s v b c x z z N z z z b N b M M b L N C L M C M C C z C z N N z C z C N C M C C M C C C C C C C z N C C C C C A N C C C C C C C C C Z C A C C C C C A N A N A C A A N A C A A A G A C C Z Z G Z G S C j x 8 & & . X X . X X X X X X : * %.3X3XuXqXqXqX0X0X0X0X9X6X5X5X0X5X5X9X0X0X0X0X5X5X'.G.D.s.<.<.o.;.o.o.;.o.;.=.<.=.=.=.<.<.<.o.<.$.<.$.=.<.$.=.=.=.=.$.$.<.$.<.;.,.=.o.$.<.<.$.$.@.=.o.<.o.o.;.,.$.4.<.3.g.V.P..X|.qXL.P.* @ X O . X . # O 9 E E d.OXOXaXnXnXmXmXmXBXbXvXmXvXmXbXbXmXhXBXvXBXmXbXbXbXbXbXBXBXBX",
"# & @ & @ : @ @ @ # & @ : # @ : & @ # @ @ # @ @ O # @ @ @ # $ $ O # * * 0 9 7 n n d d d d l l l g l g g g l l h g g l h h l g h f i g i i y d r y r r r t 9 9 6 7 0 8 0 8 4 4 0 4 4 4 4 4 * 2 * 4 ; : > 4 # : * * + * * + # O # O # # O O O # O O X O & & @ = X X O & X & X @ % X X @ O X & X & X @ - X @ @ O X @ O @ O O O O @ O $ O O # o # + O # # ; ; 4 4 4 4 5 7 7 7 7 7 9 7 q y y d d d h g h h h k M k M L L M L L G Z L B Z L Z C Z L G Z Z L G C C C C G C C L G L G C G L B L B L L L C L M C N L N L L L M k k M b M M L L k L L L M k k L M k b M k b M b M L L C L L C M L C C C C C L C C L C C L Z L C B L Z Z Z L K Z L Z Z G Z G Z Z Z L G G L j 0 0 # # # @ - @ & X @ O % @ @ & @ & @ X X X & X @ 1 @ X @ - X - @ X - @ X @ X @ % X % X X % @ : X @ X X 1 @ @ @ X & @ @ @ & @ @ @ @ # a s c v c z z z z z z N C k C C b N k C M L N N C M c N k N z C C N C N N C N C M C M C C C C C C N C C A A C C C A C Z C C A C C C C C A C C N z A A N N V C C V C C V A A C A A A A A A Z A G G Z F D j z 8 & @ X X . % X % X X X X , > *.=X=XuXeXqXqX0X0X0X9X5X0X5X0X5X0X9X0X0X0X0X0X5X5X'.F.C.y.<.;.<.o.;.o.;.o.;.o.=.=.=.=.<.<.o.<.$.<.$.<.<.=.=.=.$.<.<.$.<.<.$.<.o.<.,.<.<.$.=.$.$.o.=.$.<.o.$.,.o.=.<.4.s.g.C.S.+X@XqXP.P.> O O X X O X @ & t ~ W r.|.OXiXmXnXmXbXbXbXkXvXbXBXbXbXbXmXmXkXmXbXbXbXmXbXBXbXbXBXbX",
": @ - # & # & # & & @ & @ & & @ @ # @ & @ @ # @ @ @ @ @ # @ # @ # @ @ # # ; ; ; 4 > 0 0 8 0 9 7 9 r 9 r 9 r 9 y 9 r r 9 9 r 9 r e 9 9 7 8 8 6 6 6 > * * & # # # # # # # # # # # @ # # O # # # # # # @ @ @ O @ @ # O O O O # # @ # @ # @ & & & & & = & % = & & @ & @ X & X O X O = X X % O X O X - X X @ X X @ @ @ # @ X @ O O @ @ @ @ $ $ O O o X O O O O O @ O @ $ @ O - @ # @ # # @ $ o # O O # # # # w # * 4 w 5 0 0 0 0 0 q n n n n n n d a n l n l l d l l l l l j l k l h h k l j h l k M h k k b k b k b k k k c z k k b b k b k l L k k k C k b k k b c b c k C C k M c c L b c k b k b L N b c L k b C C L L C G L C G G L L Z C G G G L G G L K L L L 8 # # # @ @ @ @ @ @ X & & X & X & X X @ @ & @ X - X @ X @ X X @ X X @ X X 1 - X X X - X % : X X X @ - : - @ % @ @ % O % @ & O @ @ @ @ @ e a j j j g z z z k z z z N k k k N b M M L M L k C M c C z c M z N z C z z C N C C C C c C C C v c C v v N A c C c c v z C c z c z c z z z z z z z z z x z z x x z z z z z z A N C C v c C c v C C c j 8 0 # O X . X O . % X X X 1 X b x U.uXuXuXqXqXqX9X0X9X0X0X0X5X5X5X5X5X5X0X5X5X'.C.C.y.o.<.;.;.o.;.o.o.=.<.o.=.=.=.=.=.-.=.;.=.,.<.=.<.$.$.$.<.=.<.$.=.<.$.=.<.$.<.;.=.=.$.<.$.<.<.$.o.<.o.<.<.o.<.=.$.o.o.o.o.#.1.4.B.w.w.* % X O O O O g s r.,X:XnXSXnXVXbXmXmXBXhXBXBXbXbXbXbXbXbXbXbXbXbXbXbXvXBXbXbXbXhXkXbX",
": @ & @ @ & @ @ & @ & @ @ & @ & @ & @ @ @ @ @ - @ @ @ # @ @ # @ @ @ @ @ ; ; @ @ @ @ @ ; # - # ; # : : # * * # # # > # : ; w ; # & & * & @ & & O & O O @ # @ # @ O @ O # # # @ # # @ @ O # @ # @ O # @ & # @ - & & # & @ & @ & @ @ & @ & & O = % & & & = & % % @ & X @ X X X X X @ X @ X O % X X X @ @ X @ X X X X @ X @ @ @ @ @ @ @ @ @ @ O O X X O X O O @ O @ # O $ @ O # @ $ O @ @ @ O O @ O O @ O @ $ O # $ @ $ ; $ $ # w ; @ @ @ @ @ @ @ # @ # ; @ @ : # ; * : > : 4 ; > ; 4 ; > 4 4 4 0 4 6 8 4 8 8 8 8 9 9 8 9 9 8 r 9 e 9 9 9 n n 9 9 n 9 9 9 n n 9 n 9 9 n 9 n a 9 n a 9 a n n 9 9 9 9 9 9 n 9 9 n 0 9 9 9 n n 9 n q 9 9 n n n a 9 a 9 n n q n n 0 0 w @ @ @ X X - X % % X @ & & @ X @ @ @ X @ X @ X @ X @ X @ - X @ X @ X X @ @ X X 1 X - 1 X @ X X % 1 @ @ X : X @ @ @ @ X @ @ @ @ @ @ @ X @ : : , < , , e 8 r g g k z z k C N z z z N k z N L N z C C k C z c C N C c C c c c c k c c x z z j z x j j g a a a r a e r e e r e 9 8 9 t 8 8 t t 8 6 6 t t 6 8 6 6 6 t 8 r t s x j x z z c c c j a a > : : X X X X X X X X X 1 X X > ] *.=XuXuXuXqXqXqX0X5X5X5X*X*X*X&X*X5X&X*X/.C.C.3.;.o.o.;.o.o.o.$.o.o.o.o.o.o.=.=.=.=.=.=.=.$.=.<.<.$.,.=.,.=.=.,.$.=.<.$.$.=.$.=.=.=.=.=.$.<.$.$.<.o.<.o.=.o.,.<.o.,.o.=.<.o.<.#.,.O.,.~ ~ & X O X O O , ,.%.aXCXCXmXmXmXbXbXbXhXkXhXbXbXbXbXbXbXbXbXbXbXbXkXbXbXbXbXlXbXbXbXbXlX",
"@ & @ & : @ & : @ & & @ & @ & @ @ @ @ @ @ @ @ @ @ @ @ @ @ @ @ @ @ & @ # $ $ # # @ - @ @ ; # - # * : # * : # > # ; # # > # ; ; ; & * & & & # = & O & @ O # O O # O # @ # # # @ O O @ # @ # O O @ O # - # ; # @ # & # @ & & # # & @ @ & & = & & & = % X & % & % & @ X & & % O = X X % O X X X & @ @ X X @ @ X @ X O X @ @ O X O @ @ O O @ @ @ X @ @ X X X @ @ X @ @ @ @ @ @ $ $ @ @ $ @ O @ @ O @ @ O @ O $ @ $ @ $ # $ $ ; $ # $ # @ @ @ @ @ ; # @ - @ # # # : ; * > # > ; > > 4 > 0 4 0 4 4 0 0 0 8 7 8 8 8 7 9 p 9 n 8 t 8 9 9 0 n n 9 9 n 9 9 9 9 a 9 9 a 9 9 a 9 n a 9 r n 9 a 9 r 9 9 n 9 9 9 9 9 n 9 9 n 9 9 9 9 q n 9 n a n n n y 9 a r n n q n 0 n 0 n w @ @ @ @ @ X & X & = @ X X @ & @ X & & X @ X @ X @ X - X X @ 1 @ X - - X @ 1 X @ 1 X @ @ % 1 & X 1 @ : X @ @ & X % O & & @ O @ @ @ X @ X : : , > , , 7 e r d d k k z z z z z N c k M c k z N z z z C b C C C c c C c C z c c k c c c z z j j x g j g a s r a r a t r t t 8 e 9 8 e 8 8 8 e 6 e t 6 , e 6 t e 6 8 e r r s j j z x c x b x j a a < & @ X . . @ @ X X 1 X X 1 X > %.] =X7XuXuXwXqXqX9X0X5X0X*X5X*X*X&X5X*X&X_.C.D.3.;.o.o.o.o.o.;.o.;.o.=.$.;.,.=.$.$.=.=.=.=.=.<.$.=.=.=.=.,.$.,.$.<.$.$.$.<.$.<.$.,.<.o.,.=.$.<.$.$.=.$.<.o.<.;.o.;.=.=.$.$.=.,.$.#.O.,.` ~ & X X O O O 6 &.&.dXCXCXnXmXnXbXkXbXhXBXbXbXbXbXbXhXbXhXbXbXbXbXbXbXhXbXbXbXbXbXhXbXbX",
"& @ @ @ : @ & @ @ - @ : @ X % & X % X - @ @ - @ - @ - - @ @ @ @ @ & # @ @ - @ @ - $ - @ $ - @ X $ - @ @ $ @ - $ - @ @ @ @ $ @ - # O @ O # O @ @ @ @ @ @ @ @ @ O @ @ @ # @ @ @ @ @ # @ @ @ @ # @ # @ & : & # @ & @ & & @ @ & & @ & @ & @ @ @ & & % & % & % : X & X & X & X % O % % X % X X = X X X @ X @ @ X @ X O X O @ $ @ @ @ @ @ @ @ @ @ X @ @ X X O X X O % X O @ @ @ O O @ @ $ @ @ @ @ O $ @ @ @ - @ @ @ $ $ - @ - @ $ - @ $ $ @ @ @ X @ X @ $ X X X O O X O @ @ @ $ O @ $ $ $ O $ @ $ O O O @ O O @ @ @ @ @ @ O O @ O O O @ @ @ @ O O O O # O O O @ O O @ O O @ O @ $ O O @ O @ O O O O O O O O $ O O O O O O O O O O . O # @ O O O @ O O O O O . O O O O O X O X @ X X : @ & X @ @ @ % @ X @ @ X @ X O X @ X @ @ X @ @ X @ X @ @ @ @ X - - $ @ X X X @ X X @ & @ & @ @ @ @ @ X @ @ @ X @ X X X X X X @ @ X O @ O # 4 2 7 r r d g g x g g g g g h g g g g l l g g l g f s a d a a a 8 0 p 8 0 0 < , < , > : > : : ; # & # & & @ @ @ # O O & @ & # @ & & # # # # : # # @ & # & & > , , e e e e < 8 < : : @ O X X X X X - X 1 % % % & % g J.B.1XuXqXwX7XqX8X:X*X$XoX.X.X&X*X*X/.C.C.4.=.;.;.o.o.$.o.o.o.;.o.$.$.$.$.-.$.-.$.=.<.$.=.=.<.$.<.$.=.=.$.<.<.$.=.$.=.$.<.$.=.=.$.=.<.$.$.$.=.$.=.=.=.<.$.<.$.<.$.$.=.$.$.<.$.=.#.,.#.#.x x O X X $ O O 9 J.J.nXnXnXmXkXnXbXvXbXbXbXhXbXbXbXbXbXbXhXlXlXlXbXbXlXbXbXbXbXlXbXbXbXbX",
"@ # # - @ @ @ # # @ @ # @ & @ @ @ @ @ @ - # @ @ @ @ @ @ $ $ - @ @ @ @ @ - @ $ - @ @ @ @ X X - $ @ @ - $ - @ @ - $ @ $ - @ - - $ @ O @ @ $ # @ # # @ @ # # @ @ # @ O # @ # @ @ # @ @ O # @ & @ & @ @ @ @ @ & @ @ & & X & & @ & & @ & & @ @ - ; @ @ & & & & X % @ - @ - X @ X X % X = % O % % % O O % O X X @ X O X @ @ @ @ @ @ @ @ @ @ @ @ @ @ @ @ @ @ & & @ @ @ # $ @ @ @ @ @ @ @ @ @ @ @ @ @ @ O - @ - @ - - @ @ @ @ $ @ - $ @ - ; - $ X - X @ X X X @ X X X $ @ O $ @ @ $ $ @ @ @ @ O @ O X O O $ O O @ O O $ O O X O X X X . O X X $ . X O X X X O X $ X $ $ X $ $ X $ O $ X X $ $ O . . O X X X O X O . . X X O X . . . X X X . X X . X . X X . O . O . O X @ X X @ X @ - X X @ & @ % @ @ X - X @ @ X @ @ @ @ @ @ O @ O O O O # # @ @ @ @ $ @ @ @ X @ O @ @ @ O @ O O @ O # @ @ O @ O X O X X X X X X X X X $ @ $ O o O O O # # * 2 > > 3 3 , 3 6 > 3 > 4 > > * > : * * : * # ; ; # ; ; @ - @ @ @ X @ X X @ @ - ; @ - - - @ @ @ @ @ @ & & & @ @ & @ @ @ @ @ # @ @ @ # @ & @ @ @ & @ & % & & % : 1 X X X X @ X @ @ @ @ @ X X X % X X * > _ ;X;XuXqXuX7X7X>X-XXX@X#X$X.X.XW.j.b.3.o.o.o.=.o.o.@.;.o.$.$.$.$.$.$.;.*.$.$.$.=.=.=.=.=.,.=.$.<.$.$.<.$.<.$.$.<.$.<.$.<.o.<.$.$.<.=.$.$.<.<.o.<.$.<.$.o.=.$.=.$.=.<.$.<.$.$.,.,.$.#.,.I 6 * = O X @ O O d ].(.CXnXnXkXmXhXbXhXhXmXbXbXbXbXbXhXbXhXbXbXhXbXbXbXbXhXbXgXgXbXbXhXbXhX",
"@ @ @ # # @ @ # - @ # @ @ @ X - : @ & - @ @ @ @ @ - @ @ ; @ - @ @ @ @ @ - @ - @ @ - X @ @ X @ @ $ @ $ @ @ - @ @ $ - $ - @ @ - @ @ @ @ O @ $ @ # @ O # @ @ @ @ @ @ # # @ @ # @ @ @ @ @ @ @ @ @ @ @ @ @ @ @ @ @ @ @ & & @ @ % & X & @ @ @ @ @ @ : & & % 1 % & - @ 1 @ @ & % X X % O X % X X O % X @ X X @ @ @ @ X @ @ @ @ @ @ @ @ @ # @ @ @ @ @ @ @ @ @ O % O % @ @ @ $ @ @ @ @ @ @ @ @ O @ @ @ O @ @ - @ @ - @ @ @ @ @ @ @ ; - @ @ @ $ - @ X - X X @ X $ O @ X @ $ $ @ $ $ @ @ O @ $ $ @ O $ O O O O O $ @ O @ $ O O O . . X O O X O O X X $ X $ O X X X X $ X X . O $ X X X     o X X X X O X O O . X $ X X X O X O O X X X X . O . X X . O X O . O . X O O X O O O . @ @ @ - @ @ & X @ @ O @ @ X @ - X @ O O @ X O @ @ O # @ @ X & & # O @ @ @ $ O @ O @ O @ X & # @ # @ X O @ @ @ @ O @ @ @ X X X X X X X X $ $ O o o O + O + # # * * * , , > , , > , > > 3 * 4 > * * > ; * > ; # ; - @ ; - @ - @ X @ @ @ - - - @ - - - @ : @ @ @ & @ & O @ @ @ O & @ @ @ @ & & @ # & @ @ & @ @ & @ X % & & & & % @ & @ X X @ @ X @ X @ X X @ X @ X 1 > * ' =X;XeXeXqXqX>X7X-X#X.X@X#X.X.XW.g.b.3.o.;.o.o.$.$.@.;.o.$.$.$.$.$.$.;.$.;.-.;.-.=.1.$.=.=.$.1.=.$.<.$.-.$.$.=.$.=.$.=.$.<.$.$.=.o.=.$.=.o.$.<.$.=.$.$.=.$.=.$.<.o.$.=.=.$.=.$.,.,.,.,.I * * O X X O O O a Y.{.MXjXjXnXmXnXbXbXvXbXhXvXvXbXbXbXbXbXhXbXbXbXlXhXhXbXvXbXhXhXhXbXgXbX",
"# # # # # # @ # # # O O # @ @ @ @ X @ @ - - @ @ @ @ - - ; - @ # # @ @ @ $ @ - $ X - X @ X - X - - @ - @ $ $ - $ - X - - $ - $ @ @ O @ @ @ @ @ @ @ @ @ @ @ @ # @ @ @ @ @ @ @ @ @ @ @ # @ @ @ @ @ @ & @ & @ @ & @ % X & X % @ : X X & @ @ - @ - X X & X & & X : X @ @ 1 X X & % O % % X = % % O O X & O X @ X @ X @ X O @ # @ @ # @ # @ # ; @ @ @ @ @ @ @ @ & X @ @ # @ @ @ @ @ @ @ @ @ @ @ @ @ @ @ @ $ - - $ - @ - $ @ - $ $ @ @ @ @ - $ X - X @ X @ X @ X X $ @ X @ X @ X X $ @ X O X @ @ X @ X X @ X X X X O X X X X X X O X X X X X O O X O @ X O o O   X O   X   X $ X $ O X O . $ X X O $ X X O O X @ O X O O X . @ . O X X X X X . X X X X @ X X O X X X X X X X X @ X X - @ X @ X X @ X X - X X @ X @ @ O # O O # r 8 I ,.%.q.q.q.>.] ' ~ D D k s s 8 6 , * * * * # # # O O @ O O O X @ O X X X X X X X - @ O # # + o O + O + O # O = O = O = O = = = @ @ @ O # @ O @ @ O @ @ @ $ @ X X @ X @ - 1 1 X - X X - @ X & & % - % % @ % X % & % % % % @ % & % X @ @ @ @ @ @ X & = X % & & % X % & X 1 X % X X 1 - X X @ X - 1 X @ X X & j z L.qX1XuXqXqX:XXXXXoX=X.X|.A.f.s.1.$.$.o.#.o.$.o.$.$.$.$.o.,.$.$.,.$.$.$.-.*.-.$.$.<.$.<.$.<.<.$.<.=.$.<.$.=.<.$.<.$.<.$.=.o.$.<.$.<.$.<.$.<.=.$.<.=.$.<.$.<.$.<.$.=.<.$.=.<.$.,.$.>.` / t & = O X O O O O d L.L.nXnXCXkXkXhXnXvXkXbXbXbXbXhXhXlXhXhXhXlXhXlXbXbXlXhXvXvXhXhXhXvXbXhX",
"_ ' ' _ ' ' _ / _ _ ~ ~ E A v g t 8 , : # # # @ @ @ # @ @ @ X & @ @ @ @ @ - @ @ - $ X X X X X @ @ X @ X - - $ - - - $ $ $ - $ - $ @ @ - @ $ $ ; @ @ @ @ # O # # @ @ @ @ @ # @ # # @ # O @ @ @ @ X X & @ @ X @ @ @ @ - @ @ X & @ @ & @ @ X @ - @ @ - ; @ X @ X - X @ X @ @ O X @ O X X = X X = X X X O X X O @ O @ @ @ O ; @ # @ # ; & & # # # @ ; @ # @ & @ @ @ @ @ - - - @ - @ @ @ @ @ @ X - X X @ @ - @ @ - @ $ - @ - X - X @ @ @ - $ $ $ - - @ $ X X X $ @ $ @ X $ @ @ - $ X X X @ X X @ @ X O X X @ X X O X X X X % X O O X $ O O X O X $ @ @ $ O $ O O X @ $ @ X @ X @ X $ X O X $ @ X @ $ O @ $ X X O X X X X X O O X O O O X X O X O @ $ $ X $ X O X O X X X @ @ @ @ @ @ @ X @ O % X @ @ @ @ @ $ @ @ @ # > D S 8.P.P.%X1X1XuXpXpX1X1X2X-X%XOX{.].Y.U.B.J.B.z.z.r.e.q.5.#.*.~ c c d 4 4 # O X @ X $ X O @ @ @ # o O O O O O # # O O = O & % O O O @ O @ @ @ @ - @ # @ - @ $ - $ - X @ @ 1 1 X - X - X - - @ - - - @ - - - @ % % - % @ & X & @ X & = % @ & - @ - X @ X & & X & O % & % X = % % X 1 X X - @ X X 1 @ % @ % & % @ O , #.#.>XuXuXqX>X>XXX=X#X-X(.p.p.&.$.$.$.;.$.,.$.$.,.$.$.$.$.<.$.$.<.&.$.$.$.$.&.$.$.&.$.$.=.$.=.$.<.$.-.=.-.$.-.$.$.=.$.-.$.=.$.=.$.=.$.$.$.<.$.<.$.$.$.$.$.$.$.=.$.$.$.$.$.$.$.$.&.&.&.%.c A 4 & * O X O @ $ O 4 &.t.aXmXjXnXmXvXhXhXvXmXbXvXbXbXvXbXnXkXmXkXkXmXBXkXVXhXkXmXmXmXmXmXkXkX",
"_ ' _ ' _ _ ' / / _ E ~ P v A g 6 e * % # ; @ ; # : @ @ @ @ @ 1 @ @ - # @ $ - $ X - @ X O @ X X X @ X - $ - $ - $ - - - - @ - X - @ $ - - @ $ - - - @ @ @ @ @ @ @ @ @ # @ @ @ O @ @ @ @ @ @ @ @ @ @ & X @ # @ @ & @ - @ @ @ @ @ @ @ @ @ - X @ @ @ @ @ @ @ @ @ X @ @ @ X X X O @ O X X % = . X O O O X O O X @ X @ @ @ # @ # @ ; @ : # ; & @ @ # @ # @ @ & @ & @ @ - # @ @ - $ @ @ @ X - @ - @ @ @ @ - @ @ - - $ - - @ $ - @ @ - @ X - - - - - $ X - - X X X @ X X $ - X X X @ X @ X X $ X X $ @ X @ $ $ O X O X O X . O X X X X X O X O @ $ X @ @ X @ X X O X $ X @ @ $ $ $ @ @ @ X @ $ X $ X X X X O X X O X O X O X X X X X $ X O O X O X X O O @ O O X O O X @ X X @ @ $ @ @ @ X X % O @ X X X @ @ @ @ @ $ # 4 A D 8.P.U.OX1X1XuXuXuXeX2X1X;XOX#X X].{.L.B.J.v.z.v.w.w.e.5.*.*.Q C c a 6 6 * O O X @ @ $ $ @ O O $ # # O # + O O O O # O O X O X = X @ X @ X $ @ @ @ @ @ @ - - @ - - - - 1 @ X - X - @ - - X - - X - 1 - 1 - X & X : @ % & X X % = % X & = X X @ X & & & X X @ % % & = X & % X & & % 1 X X % X @ X - X & @ % @ @ & 6 #.#.>XqXqXuX7X>X#XXX$X:X^.p.p.1.$.$.$.$.=.$.$.$.$.$.$.>.$.$.$.,.$.$.$.,.$.>.$.&.$.1.1.$.$.=.$.<.$.-.$.&.$.-.$.-.=.$.-.$.<.$.<.$.<.$.<.$.$.$.$.<.$.$.=.,.$.=.$.,.,.=.$.=.-.$.&.$.&.&.&.#.A A * & & = X % O $ @ 4 >.&.aXjXmXjXhXhXhXbXbXhXhXmXmXhXmXhXbXmXmXhXmXmXBXVXVXhXmXkXkXmXkXkXSXkX",
",X;X;X:X;X;X:X;X;X;X%X%X%XOXOX{.U.T.J.r.w.5.[ [ v p a < # # 1 1 @ @ @ @ - @ @ $ @ $ @ X X X $ X @ X - X $ - - - $ - - - @ $ - @ @ @ @ @ $ @ - @ # @ @ # @ @ @ @ @ # @ @ @ # # # # $ # $ # # O O O O O @ # O O # # @ @ # # # O O @ # # @ @ O @ # @ @ $ # O $ @ X @ . O O O o O O O O O . . O . O O O O O O O O O o # @ @ # # # # # # ; # ; # # # # # # @ @ # O & @ @ @ - - $ @ X X - X @ X - $ X - X - X @ @ @ - - $ - $ $ @ @ X X - $ - - - - $ $ X - X - X $ - $ - - $ X X X X $ X X X @ X X $ $ @ X @ O X X X O X X O X O X O O $ @ $ @ @ $ $ $ X $ @ @ O O X @ $ X $ @ X $ X $ X @ X @ @ X $ X O X X X X O X X O O X X O X O O . @ O X @ X X X O @ X O X X @ @ X O @ O @ @ @ @ X @ O X X O @ @ @ @ @ @ # a d q.@X@XeXsXsXnXnXnXnXnXnXnXnXxXnXnXnXnXxXxXsXcXzXaXpXpXpXeXeXqX1X2X:XOXOX].L.U.v.5.~ ~ z r r > O # O O + # o + O # + # O # O O = O & O @ X = O @ @ @ @ @ @ - - @ @ - @ - - - - 1 - - - @ - - - - - - @ - @ ; ; @ @ - X @ X @ & & & X O & % O X & X : @ & X @ @ & @ O & X @ @ X % @ @ @ X @ - @ - X @ X & @ X & X & O = d J.Z.uXuXuXqXuX7XqX-X-Xn.2.@.$.$.$.;.$.$.$.$.$.$.$.$.$.$.$.#.$.1.>.$.&.=.$.&.-.$.&.$.$.$.<.$.<.$.=.$.-.=.-.$.;.$.$.-.;.&.<.$.$.<.$.=.o.<.$.$.$.o.$.$.$.o.$.,.$.$.o.$.$.$.&.#.$.$.#.&.&.+.g x t 6 6 O X O @ @ # * F F >XnXjXkXhXnXhXhXhXnXhXvXbXvXhXbXbXbXjXtXtX6X8X8X0XtXwXiXwXwX8X8X5X4X",
"aXzXaXzXzXsXsXzXzXpXzXzXcXcXzXpXpXdX1X1X2X2X,X3X3X{. XR.5.5.W j j 0 # # @ @ @ - @ @ X X @ @ - X X - X @ - @ - $ - - $ $ @ - @ O @ $ @ @ @ @ # @ @ @ @ @ # O # @ # # O # # O $ O # + # + O O O O O + + O o + + o # # O O + + O + # O O # # # # : > ; 4 4 4 8 6 9 a g d g x h z z z v N A A I A I A A z g h y 4 4 w + # # # + w ; ; * # 2 # # # # # @ # # O # @ @ @ - # @ @ - - @ - X @ X @ X X - X - @ @ - - $ - - $ - - - X @ X @ X @ - $ $ - - - @ X @ X @ X - $ @ $ @ @ @ X - @ X - @ X @ $ - $ - @ @ X X @ O X X & X @ X X @ @ X @ X $ X @ X $ @ X O X $ X O X $ - @ $ @ - $ @ $ $ - X X X @ X X X O O X X X O X O X O X O X X O X O $ O $ O O X X O X O X @ X @ X @ @ $ $ @ @ O X @ & X & O O @ @ # * k c.B.iXsXnXnXvXnXgXnXvXnXvXvXvXnXvXnXvXnXvXjXnXvXnXnXgXnXnXxXvXsXnXxXnXsXnXvXnXsXgXaXqX2X2X;XOX+XU.0.q...S Z d 5 5 * + + + O O O O O O O O @ O @ & O @ @ - @ @ @ @ @ @ @ @ @ @ $ @ @ @ - @ @ @ @ @ @ @ @ @ @ @ @ @ @ & @ @ & & @ X @ @ = X & @ & X @ & X - X @ X X & @ % X & X & & O @ - @ - @ - @ @ - @ - @ @ @ @ O O , , ~ OXOXiXaXdXiX-X:XJ.9.0.$.@.@.$.$.$.*.$.-.$.$.$.,.,.=.$.&.1.1.$.#.$.&.$.$.>.$.$.>.$.=.,.=.$.=.$.=.$.-.$.-.*.-.-.$.-.$.-.$.$.=.$.$.=.o.$.$.o.<.$.$.,.o.,.;.=.o.o.=.,.$.$.,.$.$.&.#.&.&.&._ v z z s s = X X @ @ # * z k @XnXnXjXvXkXvXbXvXhXmXvXhXhXhXmXgXgX!.j.j.j.j.a.l.M.l.M.x.M.l.f.l.l.",
"zXaXaXaXsXsXaXzXaXaXzXzXzXzXcXcXcX1XcX1X1X2X2X2XOXOX XR.q.q.W s j < & & & @ # @ @ @ X X @ @ X @ @ X @ @ @ @ @ - X - - $ X @ @ @ X @ @ @ @ @ = & - # # @ # # # O O # O # # # O O O + O + + O O O O + O + + + + O # O O O + + + + + = O + = & & * * 2 > 4 4 6 6 9 a g g h x k z z z z v I A D D F A C z g g t 6 6 * # + # + + # w w # # # # # # & @ # # # # O # @ # @ - ; ; @ - @ X - X @ - X $ - @ @ @ - X - @ - X - - $ X @ X @ X - $ - @ $ - - - - X @ X - @ $ - $ - X @ X - @ X @ X - X - @ @ @ $ @ - X @ X X @ X O X @ X @ X @ @ @ O $ X X O X @ O X @ O @ $ $ @ X X @ $ X @ X @ @ X X @ @ X @ X X X O O X O . @ X X X O X O O X O X O X O X @ $ O @ X O X @ X @ X O @ O O @ @ X O @ X @ @ X @ @ # & & k B.c.uXnXjXnXvXnXvXvXvXnXvXvXvXnXvXvXxXvXmXvXvXnXjXjXnXxXnXxXnXxXxXnXxXnXxXnXvXzXsXpXqX1X2X;XOXOXL.e.9._ D S d 6 5 2 + + + + O O O O O O O & O # O # @ # @ # # # @ # @ # @ @ # # @ # @ @ @ - @ @ # @ # @ # $ # O @ @ @ @ # @ @ @ X @ @ @ @ @ & & X @ @ % @ - X @ X @ & @ @ @ @ @ @ @ X & @ - @ - @ @ - - @ @ @ @ @ @ @ , 6 / |.|.pXiXiXdX:X=XL.0.9.-.@.@.$.$.$.$.*.;.$.&.$.,.#.&.$.&.#.$.$.>.$.$.>.$.$.,.$.-.$.>.>.=.=.$.$.=.=.-.=.=.-.;.-.$.-.$.-.;.$.<.$.<.$.$.<.$.$.$.$.$.$.o.$.$.o.$.$.o.$.,.$.$.$.$.$.$.&.&.&._ N z z s s & @ X @ # @ # z h @XnXmXjXkXnXhXvXvXhXbXhXvXbXhXnXfXfXW.b.j.g.j.f.j.l.x.M.M.l.l.k.l.a.",
"vXvXzXvXzXvXvXvXzXzXzXzXzXzXzXpXcXpXcXcXcXcXcXcXcX1XcX2X2XdX2X3XOXR.] ] g & & @ @ @ @ @ @ @ @ X X - - X @ X @ @ @ $ @ @ O O @ @ @ O @ = O O @ & # $ = & O O + * 6 3 r h g A ~ U ) _  .O.@.o.$.1.1.4.9.9.e.s.s.s.h.h.z.g.z.z.z.g.g.x.x.V.B.B.D.S.L.P.Y.(.`.}.}.OX=X;X,X;X:X<X<X<X<X<X<X<X1XeX1X1X1X9XeX<X<X&X+X+X[.c.x.+.G B q 4 5 5 4 2 2 # + O O @ = = O # @ @ @ - $ $ ; $ @ - - X - @ X @ - $ X - - X @ - - @ - $ - - - X @ 1 @ X $ - - - - $ $ X - X @ X @ @ @ @ @ @ X @ X @ - X @ X @ X X @ - @ $ @ @ X @ @ X @ X @ X O @ O @ O @ O O @ @ X - $ @ O $ X O X - X $ @ $ - $ @ $ $ X @ X X X X @ X O X X X X X @ X . @ X O O @ X O X O X O X O O X $ @ $ @ @ X @ X @ @ @ O @ @ O @ @ @ @ X O O $ @ * z z U.sXaXhXbXvXvXvXvXbXvXvXvXvXvXvXbXvXbXvXvXvXvXgXvXgXvXhXvXvXgXvXvXgXnXvXvXzXzXvXvXvXnXnXxXnXvXcXaXsXaXaXpXeX1X#X(.(.z.*.;.R M z y t t , + + + O O O O o $ $ $ $ O $ O $ O o # + # @ O @ @ # @ # # # @ # @ @ # @ # # @ # @ O @ # @ @ # O & X @ X @ @ % @ @ @ X @ X @ : X @ X @ X @ @ # @ @ @ # @ @ @ @ O O @ @ # 0 P P q.{.{.>XuXuXiX:X-XW.p.0.-.$.$.$.@.$.$.$.$.$.$.$.=.$.$.$.$.$.$.$.$.-.&.=.$.&.$.=.$.<.&.$.$.$.$.$.=.=.=.$.$.$.&.$.-.-.$.-.$.-.-.$.$.<.$.o.$.$.o.=.o.$.<.$.$.,.$.$.,.$.$.<.$.$.$.$.,.=.$.$.&.&.&./ A A v x j & X O @ # # # g y U.mXjXkXhXhXvXhXhXnXhXnXhXhXhXbX@X*Xi.u.u.i.i.i.i.a.i.i.p.u.p.u.p.p.",
"nXzXvXvXzXvXnXvXzXnXxXxXxXxXxXxXpXcXcXcXcXcXcXxXCXcXcX1X1X1X2X3X3X XU.Y.5.& * @ @ # @ @ # @ # @ @ @ @ $ @ # @ O $ # O O O O O & * 8 t r g x N P F _ 6.5.h.B.B.T.+X X%X<X1XeXrXpXaXeXrXzXzXaXgXgXaXyXzXzXlXzXzXlXzXlXzXlXlXvXrXaXzXaXaXzXlXzXzXzXvXzXzXzXzXzXzXnXnXxXxXnXvXnXMXxXMXnXMXxXMXnXnXMXMXxXMXnXnXnXNXnXmXnXmXjXiXaX7X-X-X#X.X|._.(.`.T.v.x.>.P P r # ; @ # - X # # @ $ $ @ $ - @ @ @ @ @ - @ X @ X - @ X @ @ - @ & X & X @ - - # @ @ @ $ @ @ @ @ @ @ @ - $ $ X @ X X X @ @ @ @ @ @ @ O O @ @ @ @ @ @ @ @ O O O O @ @ O $ O # $ O @ O # @ # ; : > : : # O O O O O O @ @ @ @ X X @ @ X @ X X @ X O X O O O O @ O O O O O $ O O   o O O @ O O @ O O O O   O O O O O @ O @ @ @ O @ @ # @ # 4 , ~  X|.zXxXnXgXlXlXhXhXbXbXgXvXvXvXvXvXvXlXbXvXvXvXvXvXvXnXvXvXnXnXhXnXvXvXvXvXvXnXvXvXvXvXvXzXnXxXvXzXvXzXvXzXnXzXzXnXsXvXsXaXsXiX>X<X#X+X X`.P.L.x.8.9.#.^ ( I N Z g r r 6 2 2 w # * + + + o # $ # # $ @ O + # # $ O + + O X O . O O O O O O @ @ O X X % & @ % @ % 1 X - X @ @ @ @ @ O O $ O # 8 8 9 l l G [ +.r.I.I.,XsXdXaXpXaXpX7XqX^.s.p.-.&.-.$.$.$.-.-.$.;.*.;.$.-.-.$.=.$.$.<.$.<.&.>.&.$.$.$.=.,.=.,.o.,.o.$.$.$.=.$.=.$.-.-.$.$.=.$.=.$.$.&.$.#.$.$.o.$.$.o.$.o.$.$.$.$.o.$.o.$.o.$.$.o.$.$.$.$.$.$.#.,.$.$.&.$.^ G A D z z * O X # & & # r t z.nXnXkXjXbXhXhXvXhXhXhXjXmXmXkXW.E.i.u.i.i.i.p.p.i.a.i.u.p.p.p.p.p.",
"vXvXvXzXnXzXvXvXnXzXnXxXcXcXxXxXcXcXcXcXcXcXcXcXdXcXcXCXcX1X2X3X3X XY.U.6.& # # @ @ O # @ @ @ @ @ # @ @ O # @ O O @ @ O O . O & , 7 e r g g v P J +.5.1.r.Z.B.T.{.+X%X<X1XeXpXrXeXaXrXaXaXzXsXgXvXzXlXaXzXlXzXzXeXzXlXlXaXaXzXzXrXzXzXlXzXlXlXzXzXzXvXzXnXnXzXnXnXnXnXnXMXxXzXnXMXnXxXnXnXxXnXnXMXnXnXnXnXNXnXNXCXmXmXjXiXgX7X#X-XXX.X|.{.(.T.U.v.V.>.P P r ; # # - - 1 @ - @ @ - @ @ @ - $ @ @ @ X @ - - @ @ @ - - X @ X & @ X - - @ @ - @ @ @ - @ - $ @ O @ & @ @ - $ X X @ @ @ X @ @ @ O X X @ $ @ X X O O # @ @ # O O O O # $ # $ @ O O @ @ O # * * 2 * * # X O O @ @ @ @ O @ @ - @ $ X % X X @ X O $ O X @ X O O O O O @ O O O O O o O @ @ @ O $ O $ . O O X O O X @ @ @ $ @ $ @ @ O @ # # 4 4 / |.OXsXnXzXbXhXbXbXbXgXlXbXhXbXvXvXvXbXvXbXvXvXvXvXvXvXvXnXjXnXgXnXvXnXvXvXvXvXzXnXvXvXvXnXnXvXzXnXvXxXvXxXzXzXzXvXxXvXnXnXaXsXqX9X9X%X X+X`.L.D.z.8.9.$./ ^ I N z d r t 6 > 2 2 2 + * # O + + o # O # O O $ $ + + + O # O o O O O . O O X @ X X O O % & X % @ % % & % X & @ @ @ @ # O O O O : 4 4 n l h G [ [ r.I.I.2XdXpXcXpXdXpXqX>X`.s.p.-.-.$.-.$.-.$.$.$.-.$.*.;.$.$.&.$.=.=.,.$.$.$.$.$.>.$.$.,.$.$.$.$.<.;.,.=.<.$.-.$.-.=.$.=.<.$.;.$.$.&.$.$.$.$.$.=.$.$.<.$.$.$.$.o.$.o.$.<.$.;.o.o.$.$.=.,.$.$.,.>.#.$.$.$.&.( S A D j k * X . @ # & & 7 r l.mXmXnXjXhXhXmXhXvXjXbXjXkXnXbXP.G.s.i.i.i.i.p.i.p.i.i.p.u.u.u.0.u.",
"nXMXnXmXnXMXMXnXMXnXnXMXxXxXxXxXcXcXcX1XcX2X;X;X XR.R.v.q.q.5.5.5.5._ _ e & # O O # # # @ # # # # # O # # + 8 d f A _ ' e.V.V.T.+X;X=X2XeXeXcXzXxXxXMXxXMXnXMXnXxXMXnXMXMXMXMXMXNXmXvXvXmXmXmXmXnXBXvXmXvXmXvXvXlXvXvXvXvXvXvXvXmXvXvXvXlXvXbXbXvXzXvXvXnXnXnXnXjXnXnXnXxXnXnXnXxXnXnXnXnXnXnXnXnXnXmXnXSXnXmXCXFXSXVXFXSXFXmXFXmXVXFXAXDXNXVXDXDXZXDXMXZX2XJ.J./ l l p ; @ - $ $ - $ @ @ @ @ - @ @ @ @ @ @ $ @ @ @ # @ @ @ O & O @ O & O # & = O @ O O # O & O $ O X X O O O @ @ @ # 4 6 9 g g b A D E / / ' #.#.>.w.w.z.c.B.B.n.c.Z.J.U.I.Y.(.].]. X X#XU.U.%.P P A x z x j j a p 0 0 1 1 1 1 X @ $ @ @ $ O @ < 8 x c v c z c C D A D D A A v A A D D A D D P P D I I D D D I F F D F A P E 5.Y.{.pXzXzXvXvXnXhXlXbXbXbXgXvXhXvXvXvXvXhXvXvXvXvXvXvXvXvXvXvXvXhXjXvXvXnXhXvXgXvXvXvXvXvXvXnXvXzXnXnXvXhXvXvXzXvXvXzXvXzXgXvXgXvXvXvXvXzXvXvXvXzXvXzXnXzXaXzXzXvXaXrXeX<X<X<X%X}.}.T.Z.B.h.e.e.=.@.+.../ ^ T Z Z f y r r y r g z C C A N N z j j s a p & % % % = X & & - X - @ @ O @ , j j _ r.r.Y.OXOX>XdXdXjXnXnXjXjXsXsXaXsXaX:X:XZ.3.9.,.=.$.=.$.$.$.-.$.;.*.;.-.$.-.$.$.;.=.=.$.=.$.$.<.>.$.$.$.$.,.$.<.$.$.,.$.,.$.=.&.$.$.&.$.-.$.=.$.=.=.=.$.$.&.&.$.$.=.$.$.=.$.$.o.,.$.#.o.,.$.o.$.o.$.$.$.$.$.=.$.#.$.#.$.&.$.$.#.) A A A z j > @ @ @ & & + 6 3 ,.nXjXjXhXnXhXhXvXhXbXhXhXjXkXgXM.b.y.i.i.i.p.p.p.p.i.i.u.p.u.p.u.p.",
"lXeXeXeX9X9X%X(.`.B.z.g.z.k.d.k.w.w.e.8.8.,.,.#.] %.%.,.>.5.,._ / x , * * & # # # # # # # 4 9 a z ) / w.`.`.1XxXxXCXZXMXMXMXMXMXnXMXMXnXnXMXvXMXMXvXMXBXvXMXBXnXBXbXMXbXvXvXBXvXBXmXvXBXbXbXmXmXBXvXmXBXBXvXvXBXbXbXbXbXvXbXvXbXvXmXvXvXbXbXbXlXvXvXmXvXvXvXvXnXmXnXmXhXmXvXmXMXvXnXnXvXvXnXnXnXnXmXnXmXmXmXNXmXmXmXmXSXmXmXFXNXAXFXVXVXVXDXVXNXMXDXMXZXZXMXZXZXZXdXdXr.0 0 @ @ @ @ $ - - $ @ $ @ @ # @ # # # # @ @ # O # # # # # # * 6 > 8 r r l j g A W P / ] %.&.8.8.w.B.v.].|.|.,XpXiXsXxXCXCXCXCXSXAXZXZXCXCXZXCXMXCXnXnXZXSXAXAXAXAXAXAXCXSXAXaXaXJ.c.x.I.].(.{.{.{.].].Y.].Y.].Y.v.R.B.] ] , O @ X O O ; r.0.,XaXpXaXcXsXxXxXxXxXxXCXxXCXxXCXxXxXMXxXxXCXxXCXCXxXMXxXMXxXxXnXCXnXMXxXMXxXMXvXvXzXzXvXgXvXbXhXhXlXhXbXhXvXnXhXnXjXvXvXvXvXbXvXbXhXnXhXvXnXmXvXmXkXvXmXnXmXnXvXvXnXjXvXbXjXvXmXvXbXjXnXhXvXvXnXvXgXvXvXgXvXgXvXvXvXnXgXaXvXvXzXvXvXzXvXvXaXzXzXzXzXzXzXgXzXvXzXzXvXvXnXxXnXnXnXNXnXnXmXnXnXnXjXaXaXzXxXsXnXnXnXnXnXsXnXzXpXdXdX2X,XA & & % % X % X X @ @ @ , _ _ ].dXpXCXZXCXCXCXCXjXaXiXuXuXqXuXuXwX1XOX.Xx.#.$.#.o.,.$.,.$.$.-.;.-.$.-.$.;.-.$.-.$.$.-.$.$.=.=.$.<.$.$.$.1.=.,.=.=.$.,.$.$.<.=.$.$.$.$.-.-.=.&.;.-.$.<.$.$.$.=.&.$.$.%.&.$.o.$.o.$.o.,.o.,.o.,.o.$.o.$.$.o.=.o.$.$.o.$.$.$.<.#.&.$.>.&.~ A A A z z * O @ O & @ # * * ) iXiXkXvXhXvXhXhXhXbXjXmXjXjX6Xi.f.u.i.u.i.i.u.u.p.i.i.p.u.p.u.p.u.",
"aXaXeXeX<X<X&X`.`.Z.h.z.h.h.k.d.w.w.e.4.8.,.#.#.%.] 5.,.5.>.>._ ] x , , & # # # # # O # # 4 r 9 N / / d.`.`.1XxXxXMXZXMXMXMXMXMXMXnXMXMXMXnXMXxXMXbXxXMXBXMXMXvXbXMXMXbXBXMXbXbXbXBXBXBXbXVXmXmXbXmXBXbXBXbXBXvXbXbXbXbXbXvXvXbXvXbXmXvXbXlXlXbXbXmXmXvXvXvXmXvXnXbXvXvXvXnXvXvXnXnXnXvXnXnXnXnXNXnXmXnXmXmXmXCXSXVXVXSXVXmXNXFXNXVXVXFXVXNXDXNXDXMXZXMXZXSXDXZXCXdXdXr.0 0 @ @ @ @ @ @ - @ @ @ - # $ # @ # # # # # $ O O # # & & * * , 3 8 t r f j k v P E / ] +.,.8.8.w.B.B.Y.=XOX>XaXuXsXMXCXCXSXCXCXZXZXZXCXCXCXMXMXMXZXnXZXNXSXSXAXAXAXAXCXCXZXaXaXJ.z.x.U.].]. X{.{.].].].Y.Y.Y.Y.R.R.H.] ] > @ O O O O # w.r.2XpXpXaXaXsXsXxXxXCXMXxXxXMXCXxXMXxXMXxXxXCXnXxXxXxXxXxXxXnXxXMXxXxXnXnXxXMXxXxXzXvXvXvXvXbXhXhXhXhXbXhXhXvXbXjXhXvXhXvXvXbXvXgXvXjXhXjXnXhXbXnXvXbXnXmXvXnXmXjXnXhXbXhXbXhXvXvXvXvXvXbXvXvXzXvXvXvXgXvXgXgXvXvXvXvXvXzXgXgXgXgXvXaXvXzXgXzXvXzXzXaXzXzXgXzXzXvXzXvXzXvXnXvXnXnXNXNXNXnXNXnXnXnXsXaXsXzXsXnXnXnXMXxXnXxXsXdXpXdX2X,Xv & & % % & X % & % # - 6 ' ' ].pXpXCXCXCXCXjXCXjXaXaXuXqXqXwXqXuX7X@X+Xg.$.$.O.$.o.$.$.=.$.$.-.$.;.$.-.*.-.$.;.-.$.$.-.=.$.=.$.=.$.$.&.$.$.$.,.$.=.$.=.$.$.$.=.,.=.$.$.$.-.$.-.=.=.$.<.<.$.$.$.$.&.$.&.$.$.$.=.$.o.$.#.o.,.o.#.$.$.$.@.$.o.=.$.o.$.$.#.$.$.$.&.-.$.&.Q Z A A g z * & O @ & @ * 2 * ^ wXiXhXhXnXhXhXnXvXhXbXjXkXkX6Xp.p.i.i.i.i.p.i.i.u.i.i.u.p.0.p.u.p.",
">.<.<.1.,.1.$.@.X.o.#.@.#.#.#.#.o.#.#.$.#.#.,.#.,.,.%.%.] _ v e < % & & # # # + 4 4 U B.Z.=XaXaXnXZXAXAXMXZXMXMXMXMXnXMXMXMXnXnXmXMXnXvXMXvXBXBXbXBXBXBXzXvXBXBXBXBXlXbXbXBXBXvXBXbXvXBXmXbXbXbXBXbXbXbXbXbXbXbXbXbXbXlXbXbXbXbXbXbXbXlXbXbXbXbXlXvXvXvXmXbXbXbXbXbXvXmXvXmXvXvXbXvXbXbXbXmXmXmXmXmXmXmXmXmXVXmXmXmXBXmXFXmXBXFXVXFXAXVXVXDXVXNXDXMXZXxXxX2X X XJ.q.5.c # # - $ @ @ @ - $ @ @ @ @ # # # ; w # 4 4 7 h g D _ ` 8.V.V.Y.%X%X1XcXeXpXxXcXMXMXZXMXMXxXCXZXxXZXZXZXCXCXnXnXnXnXMXnXnXnXMXMXMXnXnXnXnXnXMXMXnXMXMXZXNXAXSXAXAXNXAXNXSXNX:Xq.7.1.Z.J.!.].].}.{.OX X XOX X{. X XY.Y.J.W W ; O $ @ O $ d ].{.aXaXaXzXsXxXsXnXxXcXxXxXxXxXcXxXsXxXsXxXnXcXxXxXnXnXzXnXsXnXzXvXxXnXzXvXzXvXzXvXvXlXvXlXbXyXbXlXlXbXvXvXbXvXhXvXvXvXbXlXvXgXbXbXhXbXbXvXhXbXhXbXbXbXvXgXhXbXhXbXvXhXhXbXgXbXvXvXbXvXbXgXhXvXvXvXvXvXvXgXlXhXvXgXvXgXgXvXgXvXvXgXgXvXaXvXzXvXzXaXgXzXgXsXsXgXaXgXaXaXlXzXzXlXvXaXsXrXaXaXzXvXgXvXsXvXvXvXvXzXxXvXzXzXsXzXgXxXxXcX3X,Xc & % % @ % & & X @ , , &.sXsXCXCXnXnXjXjXsXaXsXsXiXiXiX7X9X$XI.W.d.o.$.O.o.o.$.$.=.,.<.$.=.-.$.-.-.-.*.-.$.-.$.-.-.&.<.$.=.$.<.=.=.,.$.$.>.$.=.,.$.,.$.=.,.$.,.$.$.$.;.-.$.-.$.=.$.$.$.=.$.$.&.$.$.$.$.$.$.o.o.$.$.$.o.$.$.o.$.$.$.$.$.=.$.=.<.4.1.4.3.7.8.7.7.9.>.1.U z A A z z * @ & & # & * + + N .XXXjXvXgXvXhXhXhXjXhXkXmXkX^.u.u.i.i.u.i.u.i.i.i.i.i.p.u.u.u.p.u.",
"@.$.$.$.%.$.$.$.$.$.$.$.$.-.&.$.$.;.$.$.#.&.%.&.&.#.@.~ g g 6 # # # # # O # # # / ) iXAXSXNXSXNXNXnXNXNXmXmXVXmXmXNXNXmXBXNXNXmXmXBXBXmXBXmXBXbXmXBXmXbXmXmXVXbXbXbXbXbXBXbXbXbXBXkXbXbXBXbXVXbXbXVXkXbXbXVXbXbXbXbXbXVXhXhXbXbXbXbXbXbXbXbXbXBXlXbXbXbXmXVXmXVXVXBXmXkXhXhXvXhXgXnXnXmXnXmXnXmXmXmXmXbXkXnXhXhXvXnXmXmXmXvXvXxXnXzXlXeX9X*X@XS.V.V.o.T T I i i 4 # O @ # # @ @ @ @ @ & # @ - > 8 z k / >.,.h.U.L.OXeX1XaXMXxXnXMXMXxXMXxXMXxXMXMXnXnXnXnXnXnXnXMXnXnXnXmXnXnXnXnXmXnXnXmXnXmXmXkXmXmXmXNXmXmXmXNXNXNXNXNXNXAXNXNXAXNXAXNXAXNX#X*X3.4.4.D.`.(.{. X X@XOX@X X}.}.].Y.Y.I.L.L.5.a n O O @ # o # C XXXXsXsXsXsXvXzXnXsXgXxXnXvXnXsXsXnXjXjXnXgXgXnXgXnXvXvXvXvXvXvXvXvXvXnXhXvXjXvXgXgXvXhXvXhXyXgXbXlXhXlXlXlXlXbXbXlXbXbXvXbXvXbXbXhXvXbXbXvXbXmXvXbXbXbXbXbXlXbXlXbXvXbXbXbXbXlXbXlXvXvXvXlXvXlXgXbXlXbXvXvXlXvXbXyXlXvXgXvXgXvXgXnXvXvXvXgXgXzXaXvXgXsXnXzXgXzXzXgXvXgXjXaXjXaXgXaXaXaXgXaXgXaXgXsXzXvXvXzXvXgXsXaXaXzXsXaXzXaXdX3X5.%.< X % & @ % @ & O & d d Y.ZXCXnXvXvXeX-X;X&X%X$X@X^.(.Z.9.9.$.o.o.o.o.+.$.o.$.$.$.o.;.$.=.=.=.$.=.=.$.<.=.=.$.=.;.=.;.-.;.;.;.$.$.=.;.-.$.-.-.$.$.=.$.=.=.$.=.o.=.$.$.=.$.$.;.&.$.@.;.$.$.$.$.o.@.o.@.@.@.@.@.o.@.$.$.=.=.1.-.=.1.3.1.7.7.9.7.9.9.u.i.0.i.p.i.p.i.$.$.H N A I z z * O & @ ; ; * O # r z.l.jXhXjXkXbXhXjXkXhXhXyXhXb.u.y.i.y.a.y.i.i.i.i.i.i.i.i.u.i.i.u.",
"*.$.%.$.$.$.$.#.$.#.$.$.$.*.*.$.*.*.%.%.%.#.#.#._ I I g 6 6 * # # # @ # # # # 9 |.oXSXmXmXmXNXNXNXNXNXNXBXVXmXmXBXmXBXNXNXmXmXmXvXBXBXmXmXBXBXmXBXmXBXmXmXmXVXbXVXbXBXbXhXVXbXhXbXVXBXbXbXbXkXbXbXbXVXbXbXbXmXbXkXmXbXbXbXbXbXbXvXBXbXvXBXvXvXbXvXBXmXbXBXFXFXFXGXFXFXFXnXbXvXgXhXgXgXiXrX6X6X:X$X$X#XoX}.`.(.(.`._.}.}._.+X`.D.S.z.<.,. .P T I I V V I I I i i : # # @ @ @ # @ @ @ @ # : l j ' I.uXuXCXMXMXMXZXMXMXnXnXMXnXnXnXnXMXvXMXMXvXMXvXnXmXnXnXnXmXNXnXmXmXmXmXmXmXmXmXmXmXmXmXmXmXmXmXmXmXmXmXmXmXmXVXnXmXmXNXNXNXNXNXAXNXAXAXNXNX#Xs.e.9.U.P.`.}.[.`.`.(.J.c.c.d.0.w.9.w.e.w.1.4.C & # @ # O + # $ ) ,X:XxXjXnXzXzXgXxXvXsXnXnXsXnXvXnXjXgXnXjXnXnXgXvXgXgXvXvXgXvXvXvXvXvXvXnXgXvXhXvXnXhXvXbXgXbXbXhXbXbXvXbXvXlXbXlXbXvXlXlXvXbXvXgXbXvXvXBXlXlXlXyXvXvXyXyXyXyXyXlXrXlXyXyXlXbXgXlXvXvXvXvXmXvXmXbXhXbXvXvXlXbXlXlXvXvXgXbXvXvXvXvXvXgXgXgXgXvXvXvXsXvXvXsXgXzXsXgXsXsXaXaXgXaXaXaXaXgXaXaXaXaXjXaXgXsXgXsXgXsXaXaXrXqXrXuXpX1X{.].5.s a : % & X % % @ X @ & C v 2XMXMXjX&X:XD.h.h.w.e.9.1.$.@.O.o.X.o.o.o.@.@.o.o.@.o.@.$.$.$.$.$.$.$.=.$.=.$.o.$.=.,.=.-.;.-.*.-.$.;.-.;.-.-.$.$.$.$.$.$.-.=.$.$.$.$.$.$.$.$.$.$.=.$.$.$.$.$.$.$.@.$.o.$.$.$.$.$.<.1.1.4.4.9.9.9.u.i.i.s.9.u.d.i.i.i.i.p.p.p.p.p.9.p.i.s.o.o.S N N V z z 3 & @ ; # # : # # 2 ....wXnXjXhXjXkXmXjXnXhX6X5Xa.i.i.i.a.y.i.i.i.y.s.u.i.u.i.p.i.i.i.",
"*.;.@.#.$.$.$.$.$.$.$.$.$.*.*.$.$.&.%.$.%.$.#.#._ P I g 6 8 * # # # # # # O # t }.|.AXSXSXmXmXSXNXNXmXNXmXmXmXmXmXmXmXmXmXmXmXmXBXmXmXmXmXBXmXBXnXmXmXmXkXVXmXmXbXbXbXbXbXbXbXVXbXbXBXkXbXbXBXbXbXbXVXbXbXbXbXVXbXbXBXvXbXbXbXBXbXvXvXBXvXvXBXvXBXBXBXBXBXVXVXFXGXGXGXNXmXvXvXgXgXgXgXsXrX6X6X>X$X%XXX}.|.{.(.(.`.}._.+X+X@X^.S.D.h.>.<.{ P P I V V V V I I i i : # # @ @ @ @ @ @ @ @ @ : j s *.T.uXuXnXZXMXnXNXMXMXnXnXxXMXnXnXnXnXvXvXvXMXnXmXnXmXnXBXmXmXnXmXmXvXnXvXmXmXmXkXmXmXmXmXnXmXmXmXmXmXmXmXmXmXmXmXmXNXNXNXNXNXmXAXNXAXFXNXNXNX&X9.e.9.P.P.].}.{.}.].(.P.x.x.k.w.d.w.w.e.0.>.8.z * # # # $ o o o } :X,XsXnXxXgXsXzXvXsXvXzXnXnXsXvXnXgXnXjXjXjXvXnXjXnXgXhXgXvXvXvXgXbXvXhXvXgXjXhXhXvXvXgXvXhXvXhXbXvXlXlXlXvXbXvXlXbXBXlXbXmXvXbXvXmXbXgXlXlXlXlXvXlXvXyXyXrXlXyXyXlXyXlXlXvXyXlXhXvXvXvXmXvXbXvXbXvXmXvXbXlXlXbXvXlXvXvXgXvXvXvXhXgXnXgXgXgXgXxXzXgXvXgXgXzXvXaXsXaXgXgXgXsXaXgXjXaXsXgXaXaXgXaXgXzXgXsXgXgXsXsXaXqXpXrXeXqX1X{. X>.a s & X % X X = @ X X # c v ,XCXnXsX;X;XS.h.h.d.9.9.2.$.$.X.X.o.o.o.o.@.@.o.@.o.$.$.$.o.$.;.$.=.$.$.$.=.=.$.$.$.$.;.$.-.$.-.;.;.$.=.;.;.-.;.-.$.$.-.$.$.$.$.;.$.$.$.=.$.$.=.$.$.$.$.$.$.$.$.$.$.$.$.@.$.$.=.#.1.1.<.1.1.3.9.9.9.9.i.i.i.i.i.d.9.i.p.p.p.p.i.i.p.p.i.i.@.X.G A N V x z 3 = & @ ; # # # # * ..+.qXnXkXjXnXjXhXbXjXhX6X5Xg.i.y.i.i.i.i.y.s.i.y.p.u.i.i.u.p.i.i.",
"$.#.$.$.$.#.$.$.$.#.#.$.;.*.;.*.-.*.$.#.#.+.P ~ N r r 3 * * # # # # O # # # + S nXvXmXmXmXmXmXmXmXmXVXmXmXVXVXkXVXmXmXVXmXmXmXmXBXmXBXBXmXmXbXbXBXBXmXBXbXmXkXVXVXbXVXbXVXbXbXbXbXkXVXbXBXBXbXbXVXhXbXbXmXbXkXkXmXnXBXvXkXbXvXvXvXvXvXvXvXvXvXrXrXrXwXwXwX6X6X6X&X&X&X#X|..X`.!.^.W.P.S.l.s.d.9.7.7.3.1.1.4.<.>.<.<.>.1.#.,.O.T T P P P I I P I I I I I I v , , @ ; @ # - # @ @ @ @ , , / ].].sXCXMXCXmXnXnXnXmXnXnXkXmXnXnXkXmXmXmXmXmXvXmXbXBXvXBXbXbXvXmXkXmXmXmXkXmXkXmXmXkXmXmXkXmXmXkXmXmXSXmXVXmXmXmXmXVXmXBXNXmXmXNXmXBXmXjXhXiXXX@Xh.e.9.S.T.U.D.x.l.q.7.7.7.7.6.7.6.6.1.8.6.>.~ P 4 # O O # # # # + 2.qXeXgXsXjXzXvXvXxXnXnXjXsXgXjXnXjXnXgXnXjXvXjXhXvXhXnXgXvXhXvXvXvXhXbXbXvXbXbXvXvXvXvXvXhXbXlXbXhXvXbXbXbXbXlXvXbXlXlXlXlXlXrXwX9X0X5X$X&X+X_._./.^.^.^.^.^.^.^.T.^._._..X.X*X@X$X&X&X&X9X9XqX0X0X0X0XrXrXrX0XrXrXtXrXgXyXtXfXfXgXgXgXgXgXvXvXgXgXzXaXvXaXsXsXaXvXaXsXfXsXgXjXaXaXaXaXaXaXgXaXaXaXaXgXaXaXsXaXiXeXqXeX-X].{.d._ ..C < < & & % & & % @ & & & D I uXnXnX>XC.V.<.$.@.o.@.@.X.@.+.o.o.o.$.o.o.@.#.$.$.@.@.o.$.o.$.@.o.o.$.$.$.o.$.$.;.$.$.$.$.;.$.;.$.$.;.$.@.$.$.;.@.@.$.#.$.$.$.$.@.$.o.@.o.$.o.$.$.$.$.$.$.o.o.$.$.o.;.=.=.-.3.4.9.9.9.i.i.d.p.9.p.s.i.d.d.i.d.d.d.i.i.p.i.p.p.i.p.i.i.p.i. .{ S N A I z z 6 & & # ; ; # # # * N c ].jXjXhXhXhXjXbXhXbX'.'.y.i.y.y.i.i.y.i.i.i.i.i.i.i.i.p.u.i.i.",
"*.$.$.@.$.@.#.#.#.#.$.$.$.$.&.-.*.$.@.( ( F z h a 6 > # O + # # O # # # + + * 1.AXFXBXmXmXmXVXVXVXVXmXVXmXVXmXVXmXVXmXVXmXBXBXVXmXNXBXBXBXBXBXBXbXBXBXBXVXVXbXbXBXVXBXVXmXmXbXbXbXkXbXyXtXtX0X0X0X5X5X5X5X*X$X$X*X$X*X*X#X#X@X#X+X@X@X+X_.}.`.^.^.D.g.x.d.3.9.<.,.o.$.o..... . .^  .O.....X.O.X.O.X.X.O.O... ._ ^ `  .` / ` ~ T ` P P P I I I I I D I D I s = * # & @ : @ & @ # @ # ~ W =XCXCXnXnXnXmXjXbXmXkXnXBXmXvXmXmXhXvXnXhXbXvXbXBXvXbXvXbXvXbXvXbXvXbXbXvXmXbXkXmXkXmXmXmXmXmXVXVXkXVXkXmXmXmXVXVXkXmXbXmXhXfXfXwX8X6X5X.X!.^.b.9.9.4.u.9.9.1.1.&.-.&.1.6.1.1.1.6.1.1.>.&._ _ U i i O # # O # O # w ; v.iXiXnXsXgXvXgXxXjXxXnXnXgXnXsXvXsXnXgXgXnXgXvXvXvXgXvXvXvXvXvXbXvXlXbXbXlXbXvXbXvXvXvXlXbXvXlXbXlXbXbXlXlXlXtX0X0X0X*X&X'._._.D.f.h.4.<.<.o.<.o.o.<.o.<.o.o.<.o.<.,.$.o.=.=.=.<.<.<.<.4.3.3.s.h.f.x.C.x.B.D.D.S.G.G.^.^.).`.[.'.|.#X@X$X-X-X6XiXpXiXvXgXsXgXaXaXaXsXgXaXaXaXjXaXgXiXjXaXgXiXaXaXiXaXaXiXiXwXpXwX-X(.(.d._ _ P U U z , > O X & % X & @ X @ - A C >XnXnX X3.1.@.o.o.o.$.o.o.o.o.$.o.$.X.o.@.o.@.@.o.@.@.$.@.@.$.@.@.+.X.@.o.o.X.@.@.@.@.o.@.@.@.@.@.@.@.;.o.@.X.@.@.@.@.@.X.X.@.@.@.@.@.;.;.@.$.$.$.-.$.$.=.=.<.<.2.2.3.9.i.i.d.i.d.d.i.d.i.d.i.d.p.i.i.s.p.i.i.p.i.i.p.i.i.i.p.i.i.p.i.p.9.^ { A A N I z N e = @ @ # # : @ # O 7 7 q.gXgXjXhXhXhXkXmXgXA.A.y.y.i.i.u.a.y.i.y.s.y.i.i.i.i.y.i.i.i.",
"$.$.#.@.$.#.$.$.$.$.@.$.$.*.*.*.*.-.*.( _ I k z d 6 6 # # + # # # # # @ + + + 4.FXAXmXmXmXBXmXmXmXmXVXmXmXVXVXmXVXmXmXmXBXBXmXmXBXBXBXBXmXmXBXBXbXBXBXBXbXmXbXVXBXBXBXbXVXmXmXbXbXhXbXyXyXyX0X0X0X5X&X5X*X*X$X$X$X$X*X%X*X*X#X#X@X+X+X+X_.+X`.^.^.S.x.g.s.3.3.>.<.#.o.o. . . .{  . . ...O.X.X.X.+.O.X.O.O. ... ._ _ _ ^ ` ` ~ ~ W T P I I I I I S I D I I i * * # & & @ & @ # # O > / ~ 3XCXCXCXnXnXnXmXmXjXnXbXnXbXhXmXmXhXmXbXvXmXmXvXvXbXvXbXvXbXbXbXbXbXbXbXvXbXbXnXhXmXhXmXmXkXkXkXkXkXkXVXVXkXmXkXmXBXkXkXkXhXgXfXwX6X8X5XXX^.^.b.u.9.3.9.9.7.4.6.-.&.&.1.1.6.6.1.6.1.-.1.#... .T d d O O O # O # # # 4 k.iXdXgXsXvXxXnXgXnXnXgXgXnXgXnXjXvXjXnXsXjXvXjXgXgXvXvXvXvXvXvXhXbXlXlXbXbXlXbXlXvXbXvXvXbXlXbXlXbXlXbXlXyXvXwXrX0X5X&X*X+X^.^.D.h.s.4.<.<.<.o.<.<.o.<.o.o.<.o.<.o.,.,.<.,.,.=.=.<.<.4.4.e.3.s.h.h.x.x.C.C.D.D.S.T.S.^.`.^.).}._..X@X#X$X6X-XqXwXwXsXaXgXgXsXvXsXsXgXgXaXaXaXaXgXaXaXgXiXaXaXjXiXgXiXaXaXpXrXwXqX;X(.(.d._  .U E P z * > & % = X % & @ = @ # v v >XCXMX X9.4.o.o.#.@.o.$.+.$.+.o.$.o.$.o.@.$.o.@.o.$.$.@.o.$.@.@.@.o.@.O.o.o.@.@.@.X.@.$.@.X.$.$.+.$.@.o.@.o.@.+.@.@.@.@.$.X.@.@.@.@.@.@.@.$.@.*.;.*.=.$.=.=.=.1.1.4.9.9.u.i.p.s.i.d.d.i.s.i.d.i.i.d.d.i.p.p.p.p.i.p.p.i.p.i.i.p.p.9.p.i.u.{ { S N A N V z e = = @ : # # # # # 8 7 7.sXsXjXhXjXbXjXhXhXZ.A.y.i.y.y.a.a.u.i.s.i.i.i.i.i.i.i.i.i.i.",
"*.@.$.$.$.@.$.$.$.;.@.%.*.;.$.*.@.+.} G D g g g r * * + # O O # # # # O O # * c.AXAXmXmXmXNXbXbXbXBXkXkXbXbXmXbXbXbXkXkXlXbXvXvXgXvXvXgXhXvXgXtXtX0X0X0X8X8X8X5X5X5X8X5X5X5X*X$X*X'.'./.D.A.j.f.f.y.4.2.=.=.;.$.$.$.$.,.$.#.#.$.o.O.o.O.O.O..... . ......... .O.........O. ... ... ..... . ... .{  .` ^ ^ ^ ~ ^ Q U Q U T U I U P I V V I V A A A A A N v e : * & & & & & & & O # a J.Z.xXCXMXnXnXnXmXnXmXmXmXjXkXmXnXmXnXmXbXbXmXbXbXhXbXgXgXbXlXyXyXlXbXyXhXgXgXvXhXhXhXnXbXkXkXmXmXkXkXhXfXfXfXtXfX8X0X8X5XXX*X'.W.W.m.f.f.u.1.;.=.=.=.=.=.=.-.=.=.,.$.1.&.-.&.1.&.-.-.$...} Q S G z 7 7 O O O O @ O O 5 0 H.dXaXgXjXsXvXpXwXqXpXiXaXgXgXsXgXhXgXvXgXgXvXhXgXvXgXlXbXlXlXvXvXlXbXvXbXlXbXlXBXvXvXlXlXlXyXyXrXrX5X5X&X_.'.^.C.C.h.y.y.4.<.<.$.o.;.o.<.o.o.<.o.o.<.$.,.;.,.,.,.,.$.$.#.$.@.$.+.o.O.#.O.o.....O...O.O.o.o.o.o.o.,.o.@.$.;.$.-.-.-.1.2.9.a.i.M.K.A.`.#X#X>XqXqXwXwXpXiXiXiXaXaXaXaXiXsXiXaXaXaXiXiXiXiXiXiX6X6X}.v.O.+.U U P U P P d * * O X @ % @ X @ @ @ & k z =XCXsX(.$.=.o.o.o.o.o.$.@.o.$.@.$.X.o.$.$.o.@.o.@.@.@.@.@.$.@.@.@.o.@.@.@.o.@.o.$.X.@.@.@.@.o.@.$.@.o.@.@.@.@.;.;.o.@.o.o.@.o.@.+.@.$.;.;.$.;.-.-.1.1.1.9.9.9.i.p.p.i.d.i.d.d.i.i.a.i.p.p.i.p.p.d.d.s.d.i.i.p.i.i.p.i.p.i.p.a.i.i.p.i.i.7.Q Y A V z I z C t O # & & & & * = * * * ^ &X:XjXjXjXhXkXkX8Xf.j.y.y.i.u.y.y.u.i.y.y.i.y.i.i.i.i.i.i.i.",
"$.$.$.#.$.#.@.*.@.*.$.*.*.&.$.@.} ( G h h g g d 8 # # # # O & # # # # # + 2 2 }.AXAXmXmXmXbX6X9XoX'.oXoXoXoX'.'.'.'.'.'._._._./.).).^.`.^.^.W.S.G.A.j.C.j.a.j.a.s.a.a.y.i.y.y.y.y.;.-.;.o.X.o.o.o.X.X.X. . .......X. ..... .} } _  . .........O.O.#.+.+.+.+.#.#.@.+.#.X.+.O...O.O.O.......} _ ( { ( ` ^ ^ ) Q ^ ^ T ~ ~ U U U F P I V I V N A N z A z x x , * * & & & & & & & & # C  X XxXMXnXnXmXmXnXnXnXkXmXmXnXmXjXmXmXvXkXmXbXnXhXhXhXbXyXyXhXhXgXhXgXhXgXgXgXgXfXfXfX0X8X6X5X5X.XoX'.Q.Q.W.m.M.n.M.a.a.i.4.3.<.=.;.=.=.=.=.=.-.1.=.=.-.$.-.=.=.1.&.&.&.>.&.&.&.&.&.&.} S F V V V h 4 4 O + O O # O $ 7 9 P.jXsXjXgXgXgX#X#XZ.W.W.`.}._.}.}.}.`.`.`._.[._._.'.'.'.+X'.+X+X'.+X*X*X*X*X*X*X$X*X*X*X'.'._.^.^.C.g.g.y.4.4.;.<.<.o.<.;.<.o.=.=.<.<.<.o.<.o.<.O.<.o.<.o.,.o.#.,.$.$.,.$.$.$.$.$.@.#.@.@.#.o.#.o.o.$.#.o.o.#.,.$.o.#.$.$.$.$.$.$.$.$.$.$.*.*.*.:...X.1.1.u.z.l.Z.K.J.W.`.[.}.XX@X#X-X-X7X7X7XqXqXqXqX:X>X}.c.n.=.^ U U U U U U I F r + & & & @ & & @ @ @ @ # j j OXxXsXW.$.,.o.o.o.$.#.@.@.$.o.$.;.@.@.@.@.o.@.@.o.@.o.@.@.@.$.+.@.@.o.@.@.@.@.@.@.@.o.@.o.@.@.@.o.@.+.@.@.o.@.o.@.@.o.$.+.o.$.$.-.-.-.7.6.7.9.9.u.u.p.i.p.p.i.d.p.p.d.i.d.i.p.s.p.p.a.p.i.p.i.p.i.i.i.i.i.p.i.p.p.i.p.9.i.p.u.i.a.p.9.p.7.T T Z N I N I A s & & & # & & & & = = + h K.A.gXjXhXhXkXhX'.a.i.i.i.u.i.a.u.a.i.i.i.i.s.i.i.y.s.y.i.i.",
"*.$.$.$.#.@.#.*.$.$.*.;.*.*.%.$.( ( S h j g d g 8 * # # O # # # @ # # = + 2 2 {.AXAXBXmXmXkX9X9X.X'.'..X'.'.'.'.'.'.'.'.'._._._.).).).^.^./.W.G.G.C.j.j.j.a.j.a.a.a.i.i.a.y.y.y.u.;.t.;.;.;.| ;.o.X.X.X.| ....| ......} | +.} } } | [ | +.| ..+.+.+.+.@.+.@.*.@.+.@.@.+.+.X.X.X.O...O...O. .} ( } } ^ ^ ! ^ ^ ) ^ Q Q T U ~ I F I D S A A C C C A z z j j 6 & & : : = = : : & = # A {. XnXnXnXnXmXnXnXmXkXnXhXmXmXnXkXmXkXnXmXhXhXmXvXhXhXgXgXgXyXbXyXgXbXgXhXgXgXgXfXgXwX0X0X6X5X5XXX).oXQ.H.Q.F.m.m.M.a.f.y.y.3.-.=.;.=.=.;.;.=.=.-.=.-.=.&.-.1.$.1.&.&.&.1.&.&.-.-.$.&.| F K N N N k 4 4 O O # O $ O # 7 9 P.jXaXjXgXgXjXXXXXC.W.P.`.'._.}._._.}._._.[.[.[._._..X'._..X'.@X'.+X'.*X*X#X$X*X*X*X*X*X_.@X).^.^.A.g.g.y.4.4.;.<.-.;.;.;.;.=.=.$.$.<.=.$.<.$.$.$.o.,.$.=.$.$.&.&.&.$.$.&.$.$.$.%.#.$.#.$.o.#.o.#.#.$.$.$.$.$.o.$.$.,.$.$.$.$.$.$.-.*.;.-.*.;.*.| ..+.-.-.a.l.l.Z.J.K.W.`.`.oX.XXXXX-X%X:X7X7XqXqXqXqX:X:X[.n.c.=.Q U J U U E U F F p # # @ & @ % @ @ & @ @ # g g |.xXnXI.$.$.o.o.o.@.@.#.$.$.o.$.o.$.o.$.$.o.o.o.@.@.+.$.@.@.@.@.@.@.X.X.@.@.@.o.@.@.@.@.@.o.@.@.o.@.@.@.@.X.o.o.;.o.o.@.@.@.$.$.$.1.-.2.7.7.9.9.i.i.i.i.d.i.a.p.p.d.i.i.d.i.s.d.p.p.p.a.i.i.p.i.i.p.p.p.p.i.i.p.i.p.i.p.i.i.p.i.u.a.i.i.7.! Y Z I N I N I s = * & + & & = & & + # h A.S.sXgXvXhXkXkXoXp.p.i.u.i.y.a.a.y.i.y.i.i.i.i.y.i.y.s.i.i.",
"$.$.#.@.$.$.$.$.*.;.$.*.$.;.*.+.F F j h h j d a 4 # # O O # O # @ # # & O 7 7 :XAXFXmXmXmXgX)._.s.s.a.y.a.s.s.s.s.i.y.s.y.y.y.u.3.9.u.u.7.y.4.4.4.y.y.y.4.4.y.<.2.-.-.;.;.X.| X.| | | | | | | | ....X.X...X.X.+.+.+.+.+.:.+.+.+.+.+.+.+.*.*.:.+.#.@.*.@.@.*.*.$.*.$.@.+.+.@.+.+.+.........( } ) ( ^ { ( ( ( ^ ^ ^ ^ ) ~ T ~ T P P S S S Z C Z C z C z s d > & & = : : : : = & & # ~ OXOXdXnXnXnXnXvXnXmXnXmXjXmXnXkXmXnXnXkXbXnXnXhXhXnXjXhXhXbXvXwXtX0X5X$X.X}.oX'.).).W.Z.m.j.a.a.u.u.u.;.;.;.;.;.;.;.;.;.;.=.;.$.=.=.=.-.-.-.-.=.=.>.-.-.-.-.$.1.-.&.&.&.&.t.&.&.&.+...Z M Z N C V h 2 4 + O O @ O O $ 9 9 I.sXsXgXjXjXgX#XXX4.1.1.<.2.2.3.2.-.-.$.;.-.;.-.=.<.<.<.4.-.-.<.4.4.4.y.3.u.u.s.s.e.9.3.3.4.<.=.=.;.;.$.=.;.o.=.=.;.*.-.-.=.&.=.-.<.$.=.=.$.=.=.=.,.,.,.$.&.&.&.;.$.&.&.$.$.&.&.$.$.$.$.$.$.$.o.,.$.$.$.$.$.$.=.,.o.;.$.$.=.$.*.-.*.;.-.*.t.*.*.*.*.+.[ | ( ! ^ { } ..+.$.@.=.1.-.1.9.9.9.d.d.d.l.l.l.0.p.$.Q T U U P U P U U U G F 7 & # & # & @ # & @ & & @ g g }.xXsX(.4.1.o.o.X.o.o.$.o.#.#.o.$.o.+.X.@.@.@.@.o.@.@.@.$.+.$.@.@.@.$.X.@.@.@.@.o.o.o.@.@.@.@.@.@.@.@.@.$.;.@.$.;.$.;.;.=.$.4.1.9.9.u.i.p.p.i.a.d.i.f.p.d.d.i.d.i.i.d.p.i.d.d.i.p.p.p.i.u.a.i.p.i.p.9.u.i.p.i.i.i.i.p.i.p.i.i.p.a.i.i.i.2.J U Z N V z I z i : = & & & * & & & + & 4 >.1.qXhXhXjXfXfXm.u.i.i.y.i.u.y.u.i.i.i.i.i.i.i.i.i.i.i.y.i.",
"@.$.@.$.$.$.$.$.@.*.$.*.*.@.*.Q k M h j j g r r > & # @ # @ # @ @ O # O + y i aXSXmXmXCXmXfX!.W.i.y.s.s.y.s.y.a.a.s.s.a.s.s.i.s.f.f.f.l.M.M.M.b.j.C.b.b.b.m.M.b.M.n.M.p.a.7.2.-.;.| | ;.| *.| ;.X.| |  .| +.| X.....@.X.| *.+.+.*...:.+.+.+.:.*.+.*.+.*.$.*.@.$.*.@.@.@.X.@.X.| X.X.....} ( } | { ( } ^ ^ ^ ( ^ ^ ^ ^ ^ ^ ^ ~ T T U I F D S F F A S N t t * * & = : : = : : : , : +.=X=XiXaXaXsXnXnXnXnXnXnXmXkXnXmXkXmXkXbXhXhXhXhXhXfXgX0X$X#X).A.Z.j.i.s.u.7.7.3.-.1.-.-.-.-.t.;.;.2.;.;.-.;.;.;.-.;.-.-.<.=.-.-.&.t.-.-.&.&.=.>.>.=.&.&.-.&.1.&.&.1.&.1.1.&.1.-.%.K J M L M N N V k * 2 O O O O O O # y n I.aXjXjXiXgXaXuX8Xg.2.4.2.2.2.2.2.2.-.-.-.&.*.&.;.;.$.$.$.@.;.;.:.@.o.o.$.@.;.;.*.=.$.=.;.;.;.=.=.o.o.<.=.=.=.=.=.-.-.;.-.-.;.-.-.-.&.-.-.1.$.-.$.$.-.=.-.-.$.&.-.$.;.-.$.$.$.$.$.,.$.=.&.=.,.=.$.$.$.$.$.$.=.$.$.,.$.=.-.-.*.-.-.t.;.*.t.;.;.*.;.$.*.:.:.........} } } ! ^ Q Y U U F U J K F J J J J S K H J F J U U U U U E Q c C 4 # @ & # & & O & # # # @ r a Y.jXsX@Xs.h.o.o.o.o.#.o.@.@.@.@.;.@.@.o.+.o.+.X.@.X.o.@.@.@.$.@.@.$.o.$.$.$.$.=.$.;.;.$.$.=.$.=.<.$.=.=.<.1.1.1.2.2.7.7.3.9.d.9.p.p.p.p.p.a.p.a.i.i.p.p.i.i.p.i.s.i.d.s.i.p.i.i.a.u.i.a.p.p.i.i.p.i.i.a.a.i.i.p.p.i.p.i.i.p.p.i.i.a.p.i.-.U J B I V A N I x , * & = = & = & & & & * F S }.hXnXjX6X6Xl.u.i.i.i.a.a.i.u.i.a.y.y.i.i.i.i.u.y.i.i.i.",
"#.$.#.$.@.#.@.@.$.*.$.$.$.@.@.Q k k j j k j r e : # @ # # # @ @ # @ O & = i y eXmXSXmXmXCXiXW.^.i.a.i.a.a.y.a.s.i.a.i.i.s.s.a.d.f.f.f.l.M.b.M.b.b.b.b.m.m.M.m.b.M.c.M.p.i.y.-.-.;.;.;.;.| | | | ..X.| ..X...X.+.:...X.+.:.+.+.+.+.+.+.+.@.+.@.*.@.*.@.@.@.@.*.@.$.@.$.+.+.X.X.+.+.| +... .} ) { } { } ( } ^ { ( { / ^ ) ^ ) ~ U Y I I S F F F D A G A e r * & & : = : : = : * * * ' =X=XuXaXaXnXnXmXmXnXkXkXnXnXnXkXnXnXnXhXvXkXhXjXgXfXfX8X*XXX/.A.A.M.a.s.u.3.3.2.2.2.-.-.;.-.;.2.;.;.;.-.-.u.=.-.-.-.;.=.=.<.-.-.-.-.-.-.6.&.>.&.<.>.1.-.&.&.&.-.&.&.-.&.&.-.-.>.$.F J M B M N N N j 2 2 O + O O O O o u d !.jXaXaXjXgXgXtXuXg.2.2.2.2.2.2.-.2.-.-.-.;.&.;.;.$.;.$.;.;.*.:.;.@.@.o.o.@.$.;.;.$.;.$.;.=.$.$.;.<.;.$.=.;.=.$.=.;.-.&.-.-.-.-.$.-.=.-.$.-.-.&.-.-.&.&.-.&.&.;.&.-.-.-.-.-.$.-.-.=.$.$.$.$.$.$.=.-.$.$.$.,.$.$.$.=.$.$.$.;.$.-.$.*.;.t.;.*.t.;.*.@.@.:.+.+.......} } } { ^ Q U U J J J F F J F J J J F F F H H U U U U U U U Q C c 4 # # & & & & & # & & & # d d I.xXvX@Xh.s.$.o.o.o.$.$.@.X.$.@.@.@.@.+.@.@.o.X.X.@.@.@.@.@.+.@.@.$.$.o.$.;.o.$.$.=.$.$.=.=.<.$.=.=.=.=.=.1.1.1.1.1.3.9.9.9.9.9.9.p.p.p.p.p.p.i.i.s.i.a.p.s.i.p.i.p.i.i.d.i.s.i.i.a.i.i.p.i.p.i.i.p.a.i.p.i.a.i.i.p.i.p.a.i.p.i.i.a.i.p.-.J U Z N I V I A x , = & = & & & & = & & + F S }.nXjXkX8X6Xl.i.i.i.i.i.u.i.a.u.i.i.a.y.9.u.i.9.i.9.i.9.",
"$.$.$.$.%.@.#.$.$.*.$.*.#...( Z j j k j k g < 6 & # & @ @ & @ # & O # = + k h MXSXmXmXmXbXrXS.G.a.a.s.a.a.a.s.y.p.p.f.a.a.a.l.M.A.K.K.W.!.W.W.!.!.!.!.!.Q.Q.Q.!.!.!.!.W.!.E.H.H.H.H.H.M.H.a.u.u.u.7.-.2.-.@.;.| ..| +.| +.| ..+.+.*.*.:.*.:.:.*.+.+.*.@.@.@.@.@.*.+.X...+...[ } ..} ..} { { { { { ( | ) ) ( } ! ^ ^ ^ ^ ^ ^ ) ^ ^ U U P P P Q F F F C 6 4 & # & & : & & & & * * > ,.%X-XqXuXiXnXCXSXSXSXnXCXjXkXjXmXjXkXvXfXrX0X$X$X).A.A.M.i.p.4.=.=.=.=.=.=.1.-.-.-.-.-.-.-.-.-.-.-.2.t.;.t.;.-.-.-.-.-.-.-.-.-.-.-.&.&.&.&.&.-.&.&.>.-.&.&.1.&.&.&.1.&.-.&.-.-.-.) M Z M Z Z N N V h * * + O # o O O O d d (.aXaXjXiXfXjXfXsX.X7.7.-.2.2.-.u.2.2.-.7.2.2.2.t.2.7.2.t.2.2.t.2.-.-.;.-.;.*.*.;.;.$.$.;.-.;.$.=.;.;.;.*.$.;.&.-.;.-.-.;.-.-.;.-.-.-.-.$.=.-.&.$.-.$.$.-.-.&.-.;.-.-.-.-.;.-.-.;.-.$.-.$.=.-.$.-.*.-.-.-.-.&.-.$.-.;.*.-.-.$.-.;.*.-.-.*.t.*.;.-.*.-.$.*.#.$.#.$.@.@.*.+.+.+.( } Q U J F F F K F F K G F K K J U U U Q J Q Q J L N * # # & & & * & O * # * # r y Z.xXnX:XW.(.h.1.4.<.;.;.$.$.;.@.$.;.;.$.@.;.$.;.;.-.-.-.1.=.1.1.1.1.1.1.4.3.2.3.9.3.7.9.7.9.9.9.9.9.9.7.u.9.i.9.u.i.s.i.d.i.d.i.p.p.p.p.a.i.p.i.i.p.i.p.i.p.i.i.i.i.p.i.i.a.i.i.a.i.i.p.p.i.i.a.p.p.i.p.p.i.p.i.p.i.i.p.i.u.p.p.i.p.i.i.o.U H V V S A V A z * , = & & & = = & = & # 9 y x.gXjXkXoXoXd.i.p.p.i.i.i.i.i.i.y.i.y.i.u.0.u.p.u.i.u.i.",
"@.#.@.$.$.$.$.$.$.;.*.;.#.) ) k h j k k j a > > @ : # & & & @ @ O & O O + A V NXmXNXmXmXBX0XC.A.a.y.s.a.a.s.f.f.d.p.a.p.f.H.m.!.).).~.).).).^.).).^.Q.).Q.Q.Q.!.~.(.!.(.~.~.[.].H.oX~.H.~.H.H.~.W.K.A.A.m.n.M.l.f.a.u.7.2.t.;.;.;.| *.| | | | | | X.| | | ....| | { | | } | } | | } } } { | { { { { { { { } ^ } (  .( ^ ^ ( ) ( ^ ^ ~ ~ Q Q Q Q U I k * * # & & & & * * & & & 3 , #.%X;X1XiXuXnXAXFXSXFXFXDXSXsXaX7XXXXX^.Z.Z.g.9.9.4.=.-.=.=.=.=.1.=.<.<.=.-.&.-.-.-.-.-.-.-.-.t.;.-.;.;.2.-.-.-.-.-.t.-.-.-.-.-.t.-.t.-.t.&.6.-.&.-.&.&.-.&.t.-.>.-.&.-.-.-.t.#.+.Z M M M M M N N N g # w + o O O O O @ k k ).sXgXjXgXfXfXfXjXwXb.b.2.2.2.y.-.2.2.7.7.2.2.2.7.2.7.7.7.7.2.t.7.2.7.2.7.2.2.2.;.$.=.;.$.$.;.=.=.&.-.;.-.-.=.$.-.-.&.&.-.-.$.-.-.;.-.-.-.&.-.=.-.-.-.-.-.-.=.-.&.-.-.*.-.$.;.*.-.$.;.$.-.-.$.-.$.-.$.;.$.*.$.;.-.*.-.-.$.$.-.-.$.t.;.;.t.;.&.&.*.-.*.-.&.$.$.$.$.;.-.-.*.;.$.@.+.+.^ ( U K F J H K J F K F F J J J Q Q J U R R h j * & * & & & # & & * # # & 7 7 d.nXjXqX.X$X}.^.`.l.7.7.7.3.7.7.2.3.7.7.7.9.9.9.u.i.i.u.i.9.9.i.i.p.p.i.i.i.a.p.i.d.i.p.i.p.i.i.s.p.i.p.p.i.i.d.i.d.i.d.i.d.i.d.p.p.i.a.p.p.p.i.p.i.i.i.p.i.a.i.p.a.i.p.i.i.i.p.i.p.p.i.i.p.i.i.i.i.p.i.i.i.i.p.i.i.a.i.i.a.p.u.p.i.a.i.o.H F C A A A I I x t 3 & = = & % % & & & # 2 > %.7X7XjXE.E.p.a.p.p.i.p.i.u.i.i.i.i.i.i.u.i.u.u.i.u.i.7.",
"#.$.@.#.@.@.@.$.$.*.;.*.$.) ) k k j j j j a > : & @ @ & # & & @ & O # O = A V NXNXmXmXmXBX0XA.A.s.s.y.f.a.f.a.s.p.a.a.a.f.H.H.E.!.~.).~.).Q.!.).).^.~.!.~.~.~.!.~.!.~.~.~.~.~.~.~.~.~.~.H.oX~.H.E.E.K.K.m.M.n.M.a.a.u.7.2.-.-.-.;.*.:.| | *.| ..| ..| X.| | ..| | { } { | } | | } | } { | { { { | { { { { ) } ) ^ ( } ^ ( ( ^ ^ ^ ^ ^ T Q ~ Q Q P U h * * # & # & & > & & & & > > &.%X=X7XuXuXnXAXFXFXFXFXAXCXfXaX>XXXXX(.Z.D.g.s.9.3.-.-.$.-.$.=.=.<.=.$.1.-.-.-.-.-.-.-.-.t.-.-.-.t.2.t.-.-.-.-.t.-.-.-.-.-.-.-.-.&.t.t.&.&.&.>.&.-.-.&.&.&.&.&.t.-.&.&.1.&.-.+.+.Z Z M Z M B N N N f w + + o @ $ O O O k j ].aXaXsXfXjXjXfXjXiXb.M.-.2.2.-.2.1.7.-.-.7.7.2.7.7.7.2.7.2.2.7.7.7.2.-.-.-.2.-.-.$.;.$.;.;.$.=.=.=.;.$.-.;.-.-.-.-.-.-.-.;.-.-.;.-.-.-.$.&.=.=.-.&.&.=.-.$.-.=.;.-.-.-.-.-.*.-.$.-.*.-.;.$.$.$.-.$.-.-.;.-.;.;.$.;.-.$.-.$.-.*.-.t.-.;.-.-.;.&.&.-.;.$.$.$.$.$.&.-.*.-.*.*.-.#.$.+.( } U F K F H F J F K F J J J J Q J Q J Q Q h h 4 & & & & & # * # * # # & 7 6 d.vXnX7X$X#X}.).).g.3.7.3.7.7.y.7.7.3.u.u.u.9.9.9.u.i.9.i.i.9.i.i.i.i.i.i.i.u.p.i.i.d.i.p.i.i.d.i.p.d.i.i.d.d.i.d.p.p.i.d.p.s.i.i.p.p.i.i.p.i.p.i.i.p.i.p.i.i.p.i.p.i.i.i.a.p.i.p.i.i.p.p.i.i.p.p.i.i.i.i.p.i.p.p.i.i.p.p.i.p.p.p.i.p.i.;.S U V S A S V A v , , * & = : : % & & & & > w %.7X7XjXH.W.p.p.p.p.i.i.u.i.i.i.i.i.y.i.i.i.7.i.9.i.u.i.",
"#.$.$.$.#.$.$.*.$.$.*.$.+.F J j k k k g l 6 & & # @ & # & @ @ @ & = = O O T T AXmXNXmXnXnX0XC.C.a.a.s.a.f.y.f.a.a.a.d.a.n.W.~.~.[.).~.).).Q.^.^.!.).).!.~.!.~.~.!.~.(.~.~.].~.~.~.oX~.~.oXH.oX~.~.~.~.~.~.~.~.~.~.!.H.E.H.H.m.m.H.M.M.a.i.i.7.;.;.;.X.| | | | | | { | | } { { | { { { } | ! | | { | | { { { ( } } ^ ^ ( ^ ^ ^ ^ ^ ) Q ~ Q ~ Q Q P P 7 * # # & & & & & & & & * > > ,.%X=X>XqXuXsXsXiXiXuX4X4XI.H.n.k.7.0.6.-.1.$.$.#.$.$.-.-.&.-.,.$.1.&.<.,.&.1.-.&.&.-.-.-.-.-.-.t.;.;.-.-.-.-.-.-.-.t.;.2.-.-.-.-.&.&.-.>.&.&.-.&.&.>.1.&.>.-.-.&.&.1.-.-.-.-.! ! N M N M Z N N N M d + + + O O O O O $ C C ].jXjXjXfXfXfXjXjXfXXXXXp.-.2.2.2.2.2.7.7.2.t.2.2.7.2.2.6.2.7.7.7.7.7.u.7.7.2.7.2.-.-.-.-.-.$.;.$.=.$.;.-.$.-.$.;.;.&.;.&.;.-.-.$.-.;.-.-.-.=.&.&.=.-.-.$.-.-.-.-.;.$.-.;.$.-.-.;.-.-.*.-.-.;.-.$.;.$.-.-.*.-.$.-.$.-.;.$.-.$.-.;.;.*.&.-.*.t.&.&.-.*.$.$.&.$.&.$.*.&.;.;.-.*.&.$.$.$.#...U U F J J J F J F J J J Q J Q J R Q J l h # # * & & & & = & # & # # 4 4 &.sXsXqX$X:X-X-X:X!.f.p.a.i.a.i.i.a.a.i.i.d.s.p.d.d.d.d.i.d.s.d.i.d.d.p.d.d.p.d.d.p.s.d.i.d.d.i.d.s.i.d.i.d.i.p.i.s.i.d.i.s.p.p.d.i.i.d.f.i.a.i.p.p.i.p.i.i.a.i.p.i.p.i.p.i.i.p.i.i.p.i.a.i.p.i.i.p.i.p.p.i.p.p.i.p.i.p.i.p.i.i.i.p.i.i.X.H S S A V A V I N e e * : = = : % & = & * # # G ].].sXk.H.u.p.a.p.i.p.i.i.s.y.i.i.i.y.u.u.i.u.i.u.i.u.",
"$.$.@.$.;.$.@.$.@.*.*.;.+.N N j x x j a a : @ : @ # @ @ @ @ @ @ @ = @ O + @.O.DXmXNXmXmXmXwXA.K.a.a.a.a.a.a.u.a.u.a.m.m.).oX~.~.~.~.~.).~.).~.).~.~.oX~.~.~.~.~.~.~.~.~.oX~.~.~.~.~.~.~.~.~.H.oXoXH.~.~.H.oX~.oX~.~.~.~.~.~.oXH.H.~.~.H.H.Q.H.H.N.H.M.M.a.u.u.y.:.| | | | | | | | | | Y | { | { | | | | | { | | { } } } { ( ^ ~ ~ ^ ~ ~ T ~ Q ~ A C , # # # * # & : & - & : & , 4 5.=X;X=XP.L.l.k.d.0.0.q.7.6.&.-.&.&.-.&.-.&.-.&.&.-.-.&.-.1.&.&.=.>.<.&.>.&.&.&.&.-.-.-.-.-.t.-.-.-.-.-.-.-.&.&.-.-.t.-.-.-.&.-.>.&.&.&.&.&.1.&.1.&.&.&.-.t.&.&.-.-.&.&.-.-.@.S S M C N N N M C M N a # + o O O O O O + S G XXgXgXaXjXfXgXfXfXgX7X8XA.9.u.2.2.t.2.7.7.2.t.2.2.t.u.t.7.u.t.7.2.7.7.7.2.7.7.2.2.9.2.t.-.2.;.;.t.;.;.-.;.-.&.;.&.-.;.-.;.$.-.&.;.-.&.=.-.-.&.-.-.&.-.-.-.;.*.;.-.-.-.-.&.;.-.-.;.;.$.-.;.$.=.;.-.;.&.;.-.-.;.$.-.-.$.-.-.;.-.;.&.;.-.*.-.$.&.&.&.&.;.&.$.$.&.$.#.&.$.*.-.*.-.$.*.$.-.$.-.} } J J F J J J J J J R J J U J Q U F d d # # & & & & & # & @ & & # > * ^ iXqXuX6X6X6X6X6X).f.f.a.a.a.a.p.a.a.p.f.i.s.s.s.i.d.s.s.s.s.d.i.f.d.i.d.f.i.d.s.p.i.d.i.d.i.d.i.d.i.s.d.i.p.i.p.p.a.p.i.a.i.p.p.p.p.a.p.i.a.i.i.p.i.p.i.i.p.i.i.i.p.i.a.i.i.p.i.p.i.p.i.i.p.i.i.p.i.p.i.i.p.u.i.a.u.p.p.i.p.i.i.i.i.i.O.K S S A S A A V I e r & & = & & % & & & & # # 0 w.w.eXq.0.7.a.a.p.i.p.u.p.q.u.p.p.u.p.u.u.u.u.i.7.i.i.",
"$.$.$.@.*.@.$.@.$.$.;.@.| k N j k k x n a > @ @ @ @ & @ @ & & @ @ @ O # O O.#.AXmXmXmXnXmXwXE.S.a.a.a.a.a.a.a.a.a.a.M.m.H.~.~.~.~.).).~.).~.).~.~.~.~.~.oX~.~.oX~.~.~.~.H.oX~.~.~.~.oX~.~.~.oX~.~.oX~.~.oXH.oXN.oX~.~.oX~.~.~.~.~.~.~.~.Q.H.H.H.H.H.M.M.a.u.u.;.;.| | | | | | | Y | | | { { | | | | | | | | { | { } ! ) ( ^ ^ ^ ^ ~ ~ U Q Q ~ U C C > # & # & : & & : # : @ * > > 5.;X=X#XP.L.l.p.d.p.0.7.q.6.-.t.&.&.&.&.>.>.&.-.>.>.&.>.&.&.-.&.>.>.&.&.1.-.&.>.-.-.&.&.-.-.-.&.-.-.&.-.t.&.1.-.-.-.-.&.-.&.-.1.&.&.&.1.&.&.>.>.&.>.1.-.>.&.-.1.t.-.&.-.&.-.$.S S N M N N M Z M C N d + + o # O O & O # F F |.sXgXgXfXjXfXjXfXfX7X7XA.7.u.-.-.u.2.t.2.2.7.2.2.u.t.u.7.2.7.7.u.7.7.7.2.7.2.7.u.7.2.2.-.t.;.;.;.*.;.;.t.&.;.*.-.$.-.-.-.-.-.;.-.-.;.=.&.-.$.;.&.;.-.;.-.-.-.-.t.*.-.;.-.&.&.;.-.-.;.-.$.=.=.-.$.$.-.*.-.;.-.*.-.-.$.;.$.-.*.-.-.&.$.;.-.&.$.&.&.&.*.*.&.&.$.$.&.&.$.%.&.-.*.;.-.$.$.-.*.} } J J J J J F J J J J J Q F Q R U R d f # # # # & & : @ # # & * # 2 > / wXiXwX:X6X:X6X6X/.f.g.a.a.a.f.a.f.p.p.p.f.i.s.p.d.d.i.a.s.i.s.s.i.p.s.d.i.d.i.p.s.d.i.s.i.p.s.d.i.s.p.i.p.i.f.a.p.i.i.p.p.p.a.i.a.i.i.a.p.p.p.a.i.a.i.p.i.i.p.p.i.i.p.p.i.p.p.i.i.p.i.a.i.i.p.p.p.p.i.i.p.i.p.a.i.i.p.i.i.i.p.p.i.9.i...S S Z S A A S A A r r & & = & & = & & & & @ # < r.r.1Xi.9.t.d.d.i.p.u.p.u.u.u.p.u.p.u.u.0.p.u.u.i.i.u.",
"$.@.@.@.@.$.@.$.@.;.$.$./ h h g k j j 0 0 ; - @ # @ @ @ @ @ @ & @ @ @ # + h.d.AXmXmXmXmXmXgX}.'.a.a.a.u.a.a.M.m.m.E.Q.Q.oX~.~.~.).Q.).).).).~.).~.~.~.~.~.~.~.H.~.~.~.~.H.oX~.~.~.oX~.~.~.~.~.~.~.~.~.~.oXH.~.oXH.oXoXH.~.N.~.~.~.).~.~.oX~.~.~.~.~.Q.~.Q.H.H.H.m.a.l.u.;.u.| | | | | | | | | | Y | | | ) | | | { | } { ^ } ^ ) T ~ ~ ~ U Q Q E g d # # # & & # & : ; : - - ; , 4 t.3X-X].7.6.$.*.&.t.t.t.&.6.&.-.1.&.&.&.1.-.&.&.&.-.&.-.-.>.&.&.&.&.-.-.&.&.-.5.&.1.&.t.-.-.-.-.-.t.-.1.&.-.-.-.-.-.-.-.-.t.-.-.>.1.&.&.t.-.>.&.>.&.&.&.&.&.t.&.-.&.1.>.-.&.( C C N N N N C M C k C r + + + o O O = O O Q ~ %XdXjXfXgXhXfXfXfXgXiXiX~.l.l.2.2.t.2.2.2.2.2.7.t.t.u.7.7.u.7.u.t.t.u.t.u.7.t.u.t.2.7.7.2.t.2.t.2.-.;.;.;.&.-.;.-.$.-.-.-.;.;.$.;.=.=.=.-.-.-.-.$.&.-.-.;.;.t.&.;.;.;.-.;.;.&.*.;.-.$.;.;.=.=.;.&.-.-.-.-.$.;.;.-.-.;.-.*.-.;.$.$.-.$.-.*.$.&.&.&.&.&.$.&.$.$.$.$.$.$.$.&.&.$.$.$.$.-.;.*.$.*.! J J J J J J J J J J Q J U R Q J a d # # # & & & & & @ & : * # # # G -X:XiX6X7X6X6X6X'.j.g.a.a.a.a.f.p.a.f.f.i.a.s.d.d.s.s.s.i.a.i.d.s.a.d.p.f.d.i.d.i.d.i.p.i.d.i.d.i.p.i.i.p.p.i.i.p.p.p.p.i.i.p.p.a.p.p.p.i.i.i.i.i.p.i.i.p.a.i.a.i.p.i.i.a.u.u.p.i.p.i.p.p.a.i.a.u.i.p.p.i.i.p.i.p.p.i.i.p.i.i.p.i.i.9...S S S S V V I I A r s = & # & & % & & & & @ @ # E E I.+.+.} i.p.p.u.p.u.p.u.0.u.p.u.u.u.u.0.u.i.u.7.i.",
"@.$.$.*.$.@.$.@.@.*.$.$.J h g h j j a > > - @ ; @ & @ @ @ @ - X @ & @ O * I.T.AXnXnXmXmXnXvX'.oXM.a.a.a.H.H.H.oX).).~.~.~.~.~.oX~.).).~.~.~.).).~.~.oX~.~.~.~.oXoX~.~.~.oXoXH.oX~.~.~.oX~.~.~.~.~.~.~.~.~.oX~.~.~.~.H.oX~.oX~.~.~.).H.~.H.~.~.~.~.~.~.~.~.~.Q.Q.!.!.!.~.H.H.m.M.j.u.;.;.;.:.| | Y | ! | | | | | } ) { } ( ^ Q Q U U U U P Q P F 8 8 O @ # # & & & : : - - ; # , < 6.=X3X].t.6.#.-.t.t.*.&.&.&.&.&.&.&.&.&.&.-.&.&.1.&.&.&.&.-.&.&.1.&.&.>.&.-.>.-.-.&.&.-.-.-.&.-.-.-.-.&.-.-.-.-.5.-.-.-.-.&.>.&.>.&.&.&.-.&.-.>.&.>.&.&.1.-.&.&.t.-.-.&.&.-.U N C N N N M B B N C k 9 + o + # # O O O O ( / -XjXfXjXgXfXfXjXkXfXfXiX'.n.n.6.2.2.2.2.t.7.2.7.2.t.u.7.2.t.7.t.u.u.t.u.u.t.u.t.7.7.7.2.7.2.;.u.t.t.-.t.;.;.;.-.;.;.-.$.;.-.-.-.-.=.=.=.-.-.$.-.-.&.-.-.-.;.-.-.;.-.t.-.-.&.;.-.&.;.;.-.$.$.;.&.;.;.$.;.$.-.-.;.-.;.-.;.-.;.-.-.;.;.-.;.-.&.$.&.&.&.&.-.$.&.&.&.$.&.&.&.&.&.-.*.-.$.;.-.$.$.-.| U J R J J R J U J J J F U J J F d r * & # & & & & & & : # : # # # j `.(.iX6X8X6X8X8X*XC.j.a.s.s.a.a.a.a.p.f.p.f.s.i.i.f.i.s.s.s.s.i.d.d.i.d.i.p.s.i.d.i.p.i.d.i.d.i.d.i.d.d.i.p.d.f.i.a.i.p.a.p.a.p.i.i.a.p.p.a.p.i.p.i.p.p.i.p.i.i.p.i.p.a.i.p.p.i.p.i.p.u.u.a.i.i.i.a.i.i.a.a.u.p.i.i.p.p.i.p.p.i.i.i.9.{ S S Z A A V A A A x x * & O % & % & & & @ : @ X < , c 9 9 D 9.q.p.0.p.p.u.p.p.p.u.p.u.u.u.u.u.u.i.i.u.",
"*.;.@.$.@.$.$.$.$.$.$.$.J f g h j j a > ; - @ - @ @ @ # @ @ @ @ & @ O & * P.T.NXbXnXmXnXmXgXoX'.a.a.a.N.H.N.H.oX).).~.).oXQ.).~.~.~.~.~.).~.).).~.~.~.~.~.~.~.~.~.~.~.oX~.H.oXoX~.~.~.~.~.~.~.~.~.oX~.~.H.oX~.~.~.~.~.oX~.~.~.oX~.~.~.~.~.~.Q.Q.H.~.Q.oX~.Q.~.~.!.!.!.H.H.H.H.l.j.u.;.-.;.:.:.| | | | | | | | | | ) } { ) } Q T Q U U Q ~ U P P 9 8 O # @ # & ; : @ : & : : @ , < 5.3X3X(.t.t.&.&.-.&.&.t.&.&.-.-.&.>.&.&.&.&.-.-.t.&.-.&.&.&.&.>.-.-.>.&.-.-.&.&.&.-.1.&.-.-.-.-.&.-.-.-.t.-.-.&.t.-.-.-.-.&.t.&.>.&.-.5.&.&.>.&.>.&.-.5.&.-.t.-.-.&.-.&.-.&.Q N Z N N N N N N C N C 9 o o + o O O # & O ( ( -XfXjXfXgXgXfXfXfXgXfXaXoXn.n.7.2.2.2.2.2.2.7.t.2.2.t.u.2.7.7.7.t.t.u.t.u.t.u.2.7.7.7.u.7.7.t.2.2.2.;.;.;.&.-.;.-.-.;.-.-.-.&.-.;.=.=.$.-.-.$.-.-.;.-.;.-.-.-.;.-.;.-.;.-.;.-.-.;.&.;.=.$.=.=.=.-.-.&.;.-.-.;.$.-.-.*.-.;.;.-.&.;.$.-.$.-.$.$.$.&.&.&.%.$.-.$.$.$.&.&.&.&.&.&.&.*.-.*.-.-.$.;.} J U J J J J J J U J J U F U F J d d # # # & & & & # & & @ # # # # k (.(.fX6X7X6X7X8XXXM.M.a.a.a.a.a.a.p.f.s.a.s.s.d.i.f.i.s.s.s.s.i.d.i.d.i.s.p.s.i.d.i.s.i.d.i.d.s.p.i.d.i.i.p.i.i.p.a.i.p.i.a.i.p.i.p.i.i.a.p.i.i.p.i.p.i.i.p.i.i.p.i.i.a.i.p.i.p.i.i.p.p.i.i.p.p.i.p.p.p.i.i.p.i.p.u.p.p.i.p.i.i.i.9.9.{ S S S S C S A A D x x & # & & % = & & & @ @ : X < < c n n G 0.q.p.p.0.p.u.p.u.u.p.u.u.0.u.p.0.u.u.u.i.",
"@.$.@.$.*.@.$.@.@.@.@.+.V g x g j j p # ; # ; @ @ & @ @ @ & : @ X @ @ & 3 %X#XNXnXnXkXmXvXgX_._.a.H.H.H.~.~.oX~.~.~.).~.~.~.~.).~.~.~.Q.~.).).).~.oXoX~.~.oX~.oX~.~.~.~.~.oXoXH.oX~.~.~.~.~.~.~.oXH.oX~.oX~.~.~.~.~.oXN.~.~.oXH.oXH.~.oX~.~.oXH.oX~.Q.H.H.oXH.~.!.~.~.~.[.~.~.~.~.Q.W.Q.H.m.m.M.a.a.y.;.;.;.| :.} | | ) { { ) U U U I J F F P F 4 4 # # # # & ; & : - : : # ; , > 5.=X=X].6.6.*.&.&.&.t.&.-.&.&.>.&.-.&.>.-.>.&.&.-.&.>.&.1.&.&.&.&.&.&.-.&.&.&.&.-.&.-.&.-.-.-.-.1.&.-.-.-.&.-.-.-.-.-.&.&.1.-.&.-.&.-.&.-.-.>.>.&.>.&.-.&.&.-.t.-.-.&.-.*.*.J N N N N N N B M N b k 7 + + + + O # O O # +.#.>XjXfXjXfXhXfXhXfXfXfXgXXXH.I.u.7.2.2.7.2.2.2.2.2.2.2.2.2.2.u.7.7.u.2.7.2.u.t.7.7.7.7.t.7.2.2.2.t.7.t.7.t.-.-.;.*.;.-.&.-.-.;.;.-.=.=.;.-.-.-.$.-.&.-.-.-.;.-.&.-.-.-.-.-.*.-.;.-.-.$.;.=.;.=.$.-.*.;.&.;.$.-.$.;.-.$.;.-.-.*.-.-.-.*.-.;.&.$.&.$.&.*.&.&.&.$.-.$.*.&.&.&.&.&.-.-.$.;.-.;.-.-.+.U ! J R J J U J J U J U U F U F a d * # # & & : & : & : : & # # # q z.z.iX7X8X7X8X8X6XW.!.a.s.y.j.d.a.p.a.a.a.s.s.i.f.s.s.s.i.s.a.a.s.d.d.d.i.p.p.d.i.d.i.s.i.d.i.d.i.d.i.i.d.i.d.i.p.p.p.p.a.p.p.p.a.p.a.p.p.p.i.i.i.p.p.i.a.i.p.p.i.i.p.i.p.i.i.i.i.p.i.p.p.p.i.i.a.i.i.i.i.p.i.i.i.p.i.i.p.i.p.p.i.9.9.{ S S S A A V A A D c c * O O % & % & X @ & 1 : 1 ; ; : # ; b t.7.a.p.p.u.p.u.p.p.u.p.q.p.u.u.u.u.u.u.0.",
"$.@.$.@.;.@.;.@.@.@.....M h h h j l 0 @ ; @ @ ; : : % % % @ - X & @ O O i qXwXmXbXbXjXmXmXgX_.'.H.H.H.~.~.oX~.~.).).).).).).~.).oXQ.oX~.).).).~.~.~.oX~.~.oXN.oX~.~.~.~.~.oX~.~.H.oX~.~.~.~.oX~.oXH.N.oX~.~.H.oX~.oXH.oX~.~.~.~.~.oX~.H.H.~.Q.oXQ.Q.Q.oX~.Q.oX~.~.!.!.~.~.~.~.!.~.Q.!.~.~.~.~.Q.Q.Q.H.H.E.H.n.m.M.i.i.t.+.@.( Q Q F F F F F F A * > @ ; - & > - : : 1 : 1 : @ > > t.3X=X].q.t.&.t.t.&.&.t.-.&.t.t.&.1.&.&.-.-.&.&.>.>.&.>.-.&.1.-.&.&.-.&.&.&.-.&.&.&.&.t.t.-.t.t.-.-.-.&.-.-.-.1.&.-.-.-.&.&.&.&.1.&.>.&.&.1.&.&.-.-.&.&.&.-.-.-.t.t.-.-.+.+.G N M M M N N N N C k M 4 o + o # # O # O # #.#.6XjXfXfXjXfXjXfXfXjXfXfX6XE.E.a.2.2.2.t.2.2.2.2.2.t.2.2.t.7.t.2.u.t.u.7.7.u.7.u.t.7.2.2.7.u.7.t.7.7.7.7.7.2.2.2.-.-.;.-.=.$.;.$.-.-.;.$.-.-.;.$.-.-.-.*.;.-.&.&.;.-.;.;.-.;.&.&.-.-.$.=.$.$.=.=.;.-.;.;.-.&.;.-.-.-.;.-.*.;.-.;.$.;.;.$.-.$.$.-.-.-.-.;.;.-.$.-.-.;.-.;.-.-.*.*.-.-.$.-.*.$.$.$.! Q J J J J J U R J J J J U J J d a # & # & # @ : @ & ; # # # # # 6 $.$.qX8XqX8X8X8X8X5X5XA.a.a.a.s.a.a.f.a.s.y.a.a.a.s.i.i.s.a.i.s.i.s.i.s.s.i.d.s.p.d.i.p.i.i.p.i.i.s.d.d.d.i.i.p.i.i.a.i.i.i.a.p.i.i.i.p.i.p.i.p.i.a.u.i.p.i.p.i.p.p.i.i.a.i.p.p.i.i.a.p.i.i.p.i.i.i.p.p.i.p.p.p.i.a.p.p.p.i.i.i.i.9.3.{ S S S S S A S A A D A 6 & @ & % % @ & & @ : X @ @ : @ $ $ n t.t.t.0.0.0.u.u.p.u.p.u.p.u.p.u.u.p.u.u.i.",
"@.$.@.;.;.@.@.@.@.$.O...k g h g l j 0 ; @ ; ; @ @ X X : @ % X & @ O O O i qXeXnXvXmXkXmXhXgX_.'.H.~.H.~.~.~.~.oX).).).~.).).).~.~.~.~.~.).).).).~.~.~.~.~.~.oX~.~.oX~.~.~.~.~.~.oX~.~.~.~.~.~.~.~.oXoXH.~.~.oXH.oXoXH.~.~.~.~.~.~.H.~.~.oX~.oXH.H.oXQ.~.~.oXH.~.~.~.!.~.~.~.~.!.~.Q.~.!.~.~.~.~.Q.Q.Q.Q.Q.H.m.m.l.i.i.-.@.+.^ Q U U J F F F F A > * @ - # : - : & : & : : : - , > 5.=X3X].6.q.t.&.t.t.&.&.&.5.-.t.-.&.-.&.>.&.-.-.&.-.-.&.&.t.&.&.1.&.>.>.-.-.>.1.&.1.&.-.-.-.-.-.-.-.t.-.&.1.-.-.-.&.-.&.1.-.>.-.&.&.&.-.&.&.&.1.>.&.-.1.&.-.&.-.-.-.-.;.+.+.K N Z C B N Z B C C k m 2 + + o + O # O # # #.#.>XiXjXjXfXgXfXfXjXfXfXfX-XW.H.a.2.2.2.2.2.2.t.7.t.2.2.2.u.2.2.2.t.u.t.7.7.2.u.t.7.t.2.u.7.2.7.u.7.7.7.7.7.7.2.2.-.-.-.$.;.$.-.;.-.$.-.-.-.-.-.-.-.-.-.;.-.;.-.-.-.-.&.-.-.-.-.;.-.=.;.=.=.=.=.$.=.;.-.-.*.-.-.$.;.;.-.;.-.&.;.-.-.-.-.-.*.&.&.$.-.*.-.$.-.$.-.*.-.&.-.*.-.-.-.-.;.$.-.;.-.-.$.+.! Q J J J J U J J J J J U F J J n a # # # & & & @ @ % # # # # # # 7 $.-.8XqX6X8X8X8X8X$X5XF.a.f.a.a.a.a.i.a.a.a.a.s.i.a.i.a.i.i.s.i.s.i.s.i.i.s.i.i.d.i.p.p.a.a.p.p.d.p.i.i.i.p.p.p.a.p.i.p.i.p.i.i.p.i.p.i.p.i.p.i.p.i.i.a.i.p.i.p.p.u.p.p.u.p.i.i.a.i.p.i.p.i.i.p.i.p.i.i.p.u.p.i.p.u.p.i.i.i.i.i.9.9.3.^ V S S A S V A A A v A 6 & O & & & & @ % - @ : @ : X : $ $ 0 t.t.H.0.0.0.p.p.u.p.u.p.u.0.u.u.0.0.u.i.u.",
"@.o.@.@.;.@.o.$.$.@.! ! h h h l l a < - - # @ ; - & 1 % % - - @ @ @ = O A aXvXnXmXbXmXkXnXfXoX'.H.~.~.~.~.~.~.~.~.~.oX~.~.~.oX~.oXoXH.oX~.~.~.~.~.oX~.~.~.~.oX~.~.~.~.~.~.~.~.~.~.~.oX~.~.~.~.~.~.~.~.~.~.~.~.oX~.~.~.~.~.~.~.~.~.~.~.~.~.~.~.~.oXQ.~.~.~.~.~.~.~.!.~.!.~.~.~.~.~.~.~.~.Q.~.oXH.Q.~.~.~.~.H.~.~.!.!.!.I.H.J.p.+...U F F F G F z * * # # - - > - : : 1 & : & % , > &.3XOX Xq.q.%.&.&.&.t.&.-.&.t.t.&.t.&.>.&.&.1.-.t.&.-.&.-.-.&.-.&.-.&.&.&.1.&.&.-.-.-.-.-.-.-.t.-.-.&.-.t.-.-.&.-.-.-.&.-.&.&.&.-.-.5.>.&.1.&.&.&.&.1.&.&.1.&.&.-.t.t.-.( ) B M M L B M C N Z N k k 4 + + + O # O O O * 1.1.eXfXjXjXgXfXgXfXgXfXgXfX8XW.!.a.t.7.t.2.7.t.2.7.7.2.2.2.2.2.7.7.t.u.u.t.2.u.t.7.7.t.7.7.2.7.2.2.2.7.7.7.7.7.7.7.t.2.-.-.-.;.-.-.;.-.;.-.;.-.-.-.-.-.-.*.;.-.-.;.-.-.-.-.-.-.-.-.;.-.=.$.;.-.;.*.-.-.;.-.*.-.-.;.$.-.;.$.*.;.-.;.$.$.;.-.*.$.$.$.-.;.-.*.-.-.$.-.*.*.;.*.-.;.;.-.-.$.-.$.-.;.$.$.) Q J J J H P H U U J R U U J F y d * # # & @ @ & : X : # # # # # w Q ! $X8X8X8X0X8X8X8X8X5XF.m.a.a.a.s.a.s.a.s.s.s.a.s.a.a.i.a.s.a.s.s.i.s.s.i.s.d.i.d.d.i.p.p.p.p.s.i.d.i.f.p.i.p.a.p.i.i.p.i.i.p.i.p.a.i.p.u.p.p.a.i.a.p.i.p.a.i.p.i.i.a.u.p.p.i.a.i.a.p.i.p.i.i.p.i.p.i.a.i.p.i.p.i.p.i.p.i.i.p.9.1.3.Q S S S S S V A A A A D e & @ & & & X & & X : X @ ; @ - ; ; > [ +.0.0.0.0.u.p.u.p.p.0.u.u.0.u.u.7.u.u.u.",
"$.$.;.@.o.@.;.@.@.X.F S h h f g l a > - ; - ; @ X X & & @ X X @ X # O O ~ vXnXnXvXhXhXmXhXfX'.oXH.~.~.~.oX~.~.oX~.~.~.~.~.~.~.~.Q.~.Q.'.~.~.oX~.~.~.~.~.~.~.~.~.~.~.~.oX~.~.~.~.~.~.~.~.~.~.~.~.~.~.~.oX~.~.oXN.~.~.~.~.~.~.~.~.~.~.~.~.~.~.~.~.~.~.~.~.~.~.~.~.~.~.!.~.~.!.~.!.~.~.~.~.oXQ.Q.oX~.~.~.~.~.~.~.~.!.!.!.].I.W.n.-.1.Q F F F F S h * * # : ; - - : : : : : 1 : : > > ]  X X4X0.0.t.t.t.t.&.-.>.&.t.t.&.-.&.&.-.&.&.&.-.&.>.>.&.>.&.&.t.&.>.1.&.&.&.t.&.&.&.-.t.-.t.&.-.-.-.-.-.-.-.-.-.1.&.&.t.&.1.&.&.&.&.-.&.&.&.&.&.&.-.&.-.-.-.-.-.-.$.;.) ! C Z Z M M B M B N B k k 2 + O o # # O & @ * 8.q.qXjXjXfXfXjXfXjXfXjXfXfX7X~.(.f.7.7.7.7.2.2.2.2.2.2.2.t.7.2.2.2.2.t.t.u.2.2.u.7.2.u.7.7.u.7.7.u.7.7.7.7.7.7.7.7.u.7.7.u.7.2.-.7.-.-.-.t.;.-.;.-.-.-.;.-.-.;.t.-.-.;.-.;.-.;.*.-.-.;.=.-.=.=.;.-.;.-.$.;.-.-.;.;.-.-.$.-.-.-.;.-.$.-.-.;.-.$.$.-.$.$.;.-.$.;.-.;.-.-.-.t.;.t.*.*.-.;.-.-.*.;.-.$.! ) J J J Y H U U J J J J J I H r r # # : : # : # @ & @ # - # # # w S F [.uX8X8X8X8XwX8X8X8XXX.Xb.a.j.s.a.a.a.a.a.a.i.a.i.i.s.y.i.s.i.s.i.i.a.s.i.i.p.i.i.a.p.i.a.i.i.d.i.p.i.p.p.p.i.a.i.a.i.i.p.i.p.i.i.p.i.a.i.i.i.p.u.i.p.i.i.p.i.i.p.i.i.p.i.p.i.p.u.i.p.i.p.p.i.i.i.p.i.a.u.p.i.p.i.9.p.9.i.i.i.1.1.Y S S S A S A S S A D A g O O & % % & @ @ : @ : - @ - @ ; $ ; G G 0.0.0.0.p.0.u.p.p.p.p.p.p.u.u.p.p.u.p.",
"@.@.@.;.@.;.;.@.$.X.S S f g h g s a > ; @ - # ; : X & X 1 & @ X @ @ O O / vXnXvXnXbXkXjXBXtX.X.XH.oX~.~.N.~.oX~.oX~.~.~.oXH.~.~.~.oX~.oX~.oXoX~.oX~.~.oXoX~.~.~.~.~.~.~.~.~.~.~.~.~.~.~.~.~.~.~.oX~.~.H.H.oXH.oX~.~.~.oX~.oX~.oX~.~.~.~.~.~.~.~.~.~.~.~.~.~.~.~.~.~.~.~.~.~.~.~.~.H.Q.~.H.oXoXH.~.!.Q.~.~.~.~.~.!.!.!.].W.I.c.-.-.Q S K G G S j # # # & : - : : : : : : : : & , : ] 4X X4Xr.w.&.&.t.t.&.&.t.-.&.&.&.1.t.&.&.&.>.&.>.-.>.-.&.&.&.>.-.&.-.&.&.>.-.&.-.t.-.t.-.-.-.t.-.-.-.-.-.&.-.-.-.-.t.-.-.&.&.-.&.&.-.&.&.&.-.>.-.&.&.>.&.-.-.-.-.-.&.&.) ! L M M M C M Z Z N C k k 2 + + # # # @ @ # * q.9.wXjXjXdXfXfXfXjXfXfXgXfX8X~.~.f.7.7.7.7.7.2.2.2.2.2.t.2.2.2.2.2.7.t.u.7.u.7.7.t.u.t.u.7.t.7.7.7.7.7.7.7.7.7.7.u.7.7.7.7.7.-.6.-.t.-.-.;.t.-.;.t.;.-.;.-.;.-.;.-.;.-.-.;.-.-.-.-.;.-.=.=.=.=.=.-.;.-.-.;.$.;.-.$.-.-.;.;.&.-.-.-.;.-.*.-.$.-.$.;.-.$.-.-.;.$.-.;.$.-.;.-.-.-.t.-.;.*.-.$.-.$.-.*.! Q U J J H P H K J R J J U U F y d # @ & @ & & @ @ & : @ # # # # 2 S H }.8XqX8XwX8X8X8X8X0X*X*Xb.y.a.j.a.a.s.s.y.s.a.s.i.s.i.i.a.i.s.i.s.s.i.s.i.p.s.d.i.i.f.i.p.p.d.p.p.i.d.p.p.i.p.i.i.i.a.p.i.i.i.i.p.i.i.p.i.i.p.p.u.i.i.i.p.i.p.p.i.i.a.i.i.i.p.p.u.i.i.i.p.i.i.a.i.a.i.p.i.i.i.p.9.p.9.u.p.p.p.1.1.Y V V S I V A S S A D A j & @ & & % @ & : @ - @ @ - @ - ; @ - G D 0.r.0.u.p.0.u.p.0.u.u.0.u.u.u.u.u.p.7.",
"@.$.o.;.@.@.@.@.o.{ M M h h h g n a : @ - # - @ : @ 1 X & X X @ X @ = O ,.nXnXnXbXvXnXkXnXtX.X'.H.~.~.~.oX~.~.~.N.oX~.oX~.oX~.oX~.Q.Q.Q.~.~.~.~.~.~.~.~.~.~.~.oX~.~.~.~.~.~.~.~.~.~.~.~.~.~.~.~.H.oX~.oXoXoXH.oX~.~.~.H.oXH.oXH.~.~.~.~.~.oX~.~.~.~.~.~.~.~.~.~.~.~.~.H.~.!.!.~.~.oXQ.Q.oXH.Q.Q.~.~.!.H.~.~.).H.!.!.!.!.(.!.Z.0.0.+.J F F F F h * # # & ; : : : : : : 1 % : : : : [ ]. X3Xk.v.&.&.5.t.-.>.&.&.t.t.&.&.&.1.-.&.-.-.&.&.-.&.-.1.&.&.&.&.-.>.&.&.&.&.&.&.-.&.-.-.t.-.-.t.-.-.t.-.-.&.1.&.-.-.>.&.-.&.1.-.>.&.-.-.>.-.&.>.-.-.t.-.-.-.-.t.-.*.J K L M C B N N M N B N h j # + + o + O # # O * 0.q.qXjXfXjXfXgXgXfXgXgXfXjXuX[.[.H.u.u.7.7.7.7.t.2.2.7.7.2.2.7.2.2.t.2.2.7.t.7.7.u.t.7.2.u.t.7.7.7.7.7.7.7.7.u.7.7.7.7.7.u.7.u.u.u.9.7.7.2.-.t.-.;.;.;.t.-.-.&.-.-.-.-.;.t.-.;.-.-.-.-.-.=.-.;.-.-.;.*.-.-.;.&.$.;.-.$.-.&.;.;.$.$.-.-.;.$.-.&.&.-.*.$.-.-.*.-.$.-.-.*.-.*.-.-.;.*.-.-.$.;.;.-.$.-.! ^ F J H U H U H U J J U H U F r r : @ ; : & # : % @ - # O # # # # V N P.qX8X8X8X8XtX8XtX0X8X8X'.j.j.a.a.s.s.a.a.a.y.a.s.y.a.s.s.i.s.s.i.s.s.i.s.i.d.i.p.p.i.p.i.p.i.s.i.d.i.i.a.a.p.p.a.p.i.i.p.p.i.p.i.i.p.i.a.p.i.p.p.p.i.p.i.a.i.i.a.p.i.p.p.p.i.p.p.p.i.p.p.p.p.i.p.i.p.i.i.i.p.i.i.p.i.p.i.9.i.=.-.Y S S S A S S A A A A A x & & & % & & & X : : X : @ - @ - @ @ n n %.0.0.0.0.p.p.u.p.p.u.p.u.0.p.u.u.u.u.",
"$.o.@.$.$.@.$.....F m M h h g g 9 8 : - - @ - @ @ - @ X X X - X @ @ O # f.nXnXnXvXbXkXbXbXtX'.'.~.~.~.~.H.oXoXoXoXH.oXoX~.oX~.~.~.oXoXH.oXQ.~.~.~.~.~.~.oX~.~.~.~.~.~.~.~.~.~.~.~.~.~.~.~.~.oXoXoXH.~.~.~.oXH.oX~.~.~.oX~.~.H.oX~.~.~.~.~.~.~.~.~.~.oX~.~.oXN.oX~.~.~.~.~.~.~.~.~.Q.Q.~.~.Q.H.Q.~.~.H.oXH.~.~.H.~.!.!.(.!.(.m.0.p.$.Q Q F S F l # # # & & ; > : : : 1 : 1 : : & - W U.U.3XU.U.t.&.&.t.&.&.t.&.&.&.6.-.-.&.&.1.&.&.&.>.&.&.-.-.>.1.&.&.1.-.&.1.t.-.&.&.t.&.&.&.&.-.&.-.-.-.-.-.t.-.-.-.-.&.&.&.-.&.-.&.&.&.>.-.&.&.&.&.&.-.-.-.-.-.-.-.-.$.S F M C N N N N N N N N g h # o o + # # # # & 4 k.k.iXfXfXjXdXiXfXgXaXfXfXfXtXoXoXW.d.p.u.i.i.u.0.7.7.7.7.7.7.7.t.u.t.t.u.7.7.7.7.7.u.u.7.7.7.7.7.7.7.7.7.7.7.7.7.7.u.7.u.0.0.0.u.i.7.u.9.0.7.7.7.t.2.t.2.-.-.-.;.t.-.-.-.;.;.-.-.-.;.;.-.=.-.-.-.-.-.;.-.&.;.;.-.;.;.=.$.-.-.-.-.-.;.-.$.-.;.&.-.*.-.-.;.-.$.;.$.$.*.-.*.;.-.*.;.&.-.-.$.-.-.-.$.-.{ ^ F H H P U U U J U U H U S H y y # - # - @ : X : - : # @ # # # # i i g.6XqXuX8X8XtXtX8X0X8XtX5XF.F.y.a.s.s.a.y.a.s.y.a.a.i.s.y.s.i.s.i.i.i.s.p.i.d.i.s.i.d.i.d.i.d.i.d.i.p.p.i.i.p.p.i.a.i.p.i.p.i.p.i.i.p.p.i.i.p.9.p.i.p.p.i.i.a.p.i.p.i.p.i.i.i.i.i.a.i.p.u.i.p.i.p.i.i.i.p.p.i.p.i.p.i.i.i.i.i.$.$.U S V S V I V S S A v A z > > & & % & X & % : X - X - - - @ - w > ) q.6.0.u.u.u.u.p.u.u.q.u.u.u.u.u.p.u.",
"@.$.@.o.@.o.o.....S h h m h h x 8 9 # ; @ - @ - @ X @ @ X - 1 @ X @ # + k.NXnXnXbXhXbXkXhXtX'.'.N.~.~.~.oXoXH.N.~.oX~.~.~.~.~.~.~.~.Q.~.H.oX~.oXQ.oX~.~.~.~.~.~.~.~.~.~.~.oX~.~.~.~.~.~.~.~.N.oXN.oX~.oXoXH.~.~.~.~.~.~.~.~.oX~.~.~.~.~.~.~.~.~.~.~.~.~.~.~.~.~.~.~.~.~.~.~.~.~.~.Q.~.Q.Q.Q.oXQ.~.Q.oXQ.oX~.~.oX!.(.(.!.!.!.n.p.p.$.Q ) F F F g # * # & @ : : : : : 1 < 1 : : : - E R.R.4XU.J.5.%.&.-.&.&.1.&.1.-.&.-.-.-.&.&.&.&.1.-.&.>.&.&.-.&.&.&.&.&.&.&.&.t.&.-.&.1.&.>.-.&.&.1.&.&.-.-.-.-.t.-.-.-.1.&.&.&.>.&.t.-.&.&.-.-.-.>.&.&.-.1.&.-.-.&.-.+.S S M M N N N N N Z N N g h # O + O # @ # & # 4 k.k.iXjXsXjXfXjXgXfXfXgXfXfXwXoXoX!.d.a.u.u.i.u.7.u.7.q.7.7.7.t.u.u.2.u.t.t.u.7.7.7.7.7.7.7.7.2.7.7.7.7.0.7.7.0.7.7.7.0.7.7.u.0.7.0.0.0.u.u.7.7.7.2.t.-.;.2.t.;.t.t.;.;.-.t.-.;.;.-.-.$.-.;.-.;.-.*.-.-.-.-.-.-.*.-.;.;.=.;.&.;.;.*.-.;.-.-.$.;.-.-.;.*.-.$.-.-.$.-.-.;.-.$.-.;.-.;.*.$.;.*.-.*.-.$.! ! K H F K P H U U J Y H S U F y 9 ; # ; @ - @ & : @ @ # # # # # + u y g.7X6X8X8XtX8X8XtX0X0X8X5XF.F.j.y.s.s.a.s.s.s.s.s.s.y.i.a.a.i.a.a.a.i.i.d.d.i.d.i.s.i.d.i.d.i.s.i.d.i.i.d.a.i.a.i.i.i.i.p.p.u.i.p.p.i.i.p.i.i.p.p.p.i.i.p.p.u.i.i.i.p.i.a.i.p.p.i.i.p.p.u.p.i.p.i.i.p.p.i.i.p.p.i.i.p.i.i.i.i.=.;.U V V S V V A S A D A A c , * & = % % & % & @ & @ X @ X @ @ - ; ; / q.6.0.p.0.p.p.p.p.0.u.p.u.p.u.p.u.0.",
"$.@.@.$.@.$...J H m h M m k x g 8 4 @ - - @ @ X - $ X - @ X @ X X O * * L.nXnXnXvXbXkXbXkXtX'.oXH.oXoXH.~.oX~.oX~.~.~.~.oXoXN.~.~.oXH.oXoXQ.Q.Q.~.oXQ.oX~.~.~.~.~.~.oX~.~.~.~.~.~.~.~.~.~.~.~.~.oXoXoXH.H.oX~.~.oX~.~.~.oXH.~.~.~.~.~.~.oX~.~.~.~.~.~.~.~.~.~.~.~.~.~.~.H.).~.~.~.Q.Q.Q.Q.Q.Q.~.~.~.~.Q.H.~.~.H.!.(.(.!.(.!.K.a.p.1.( ( F F G h * # # ; & : : - : : : : : : : : - D U.R.3X].].q.&.t.t.&.t.&.t.-.-.-.1.&.-.-.>.-.&.&.&.-.-.&.t.&.>.-.&.>.>.-.&.&.t.&.>.-.&.-.&.&.t.-.-.-.-.-.-.-.-.&.-.-.-.5.>.-.-.>.1.&.-.&.&.-.&.>.&.1.-.&.&.-.-.-.-.-.| Z Z M N N N N N C B C N f d + + O O # # # # # a c.c.iXjXjXfXgXiXfXgXiXiXfXfXiX.XXXQ.l.l.p.i.p.i.i.9.0.7.u.7.7.7.0.2.2.t.u.7.0.p.q.q.p.p.p.u.7.7.0.7.7.7.7.7.7.0.7.7.u.7.u.7.0.7.u.0.u.u.7.0.7.u.0.7.7.7.7.6.7.2.7.2.-.-.2.-.-.-.-.-.-.-.-.-.-.;.-.-.;.$.-.-.-.=.=.$.=.=.$.;.*.-.$.-.;.-.$.-.;.;.$.-.*.-.$.-.$.-.;.$.-.-.-.-.*.-.;.-.;.-.$.-.$.-.;.-.( { H F H U U U H H H P P U P H r d # ; # ; - @ : X : @ @ @ # # # + 5 5 =.:X:XwXwX8XtX8X8XtX8X8X8X5X5XG.j.C.a.y.s.a.a.y.a.i.a.i.s.y.s.i.i.i.d.i.s.s.p.d.i.p.i.s.p.d.i.p.s.p.p.p.i.p.p.p.a.i.p.p.i.p.p.a.i.i.a.p.i.p.i.p.u.i.i.p.i.p.p.i.p.i.p.i.i.p.i.i.p.p.p.i.a.i.i.p.p.p.i.i.p.p.i.i.p.p.i.i.i.i.i.@.$.H H H V V I A S S A A D A 6 8 & & & % @ : % 1 & @ - - - @ - @ # @ G +.+.t.u.0.p.0.u.p.u.p.u.u.u.u.u.q.p.",
"o.o.$.@.....U N M N M M M k k i > > @ @ @ - - - X @ @ X X X 1 @ X O 6 2 }.nXnXnXhXbXkXmXhXtX'.'.H.oXH.oXoXN.~.~.oX~.~.oXH.oXoXoX~.~.oXQ.~.oXoXQ.~.~.~.~.oXQ.~.oX~.~.~.~.~.~.~.~.~.~.~.~.~.~.~.~.oXH.oXH.oXoXN.oXH.oX~.~.~.oX~.~.~.~.~.oX~.~.~.~.~.~.~.~.~.~.~.~.~.~.~.~.~.).~.~.~.~.Q.~.oXH.Q.~.~.~.~.~.oX~.~.oX!.!.!.(.I.(.W.f.l.7.@.$.Q F F j * * # * & : : > : : 1 : 1 : : 1 - c H.H.4X4X4X0.&.-.t.&.&.&.-.&.-.-.&.-.-.t.&.&.t.&.-.>.&.-.&.&.-.&.&.-.&.&.t.1.&.&.&.t.&.-.>.&.1.&.-.-.t.-.&.-.-.-.-.-.&.-.&.-.&.&.&.&.>.-.&.>.&.-.&.-.&.-.-.&.&.-.-.$.} Z Z M N N N C N N N N N r y + O O O O O # # # d Z.m.dXiXfXdXgXgXgXfXfXfXjXfXiXXXXX).b.M.u.p.p.p.i.p.p.p.p.p.0.u.u.u.u.q.0.u.u.p.a.a.k.p.p.p.u.7.0.u.0.u.u.0.u.7.p.u.q.0.0.u.i.7.0.u.7.0.0.0.u.7.0.i.7.u.u.u.7.7.7.7.u.7.7.u.7.2.u.2.2.7.-.-.-.-.-.-.-.-.-.;.-.-.$.=.;.;.;.-.-.;.-.-.*.-.;.-.$.-.;.-.&.;.-.$.;.-.*.-.$.;.$.$.&.;.-.*.&.$.-.$.-.-.-.$.....S S S S H U U U Y H Y U V S y 9 # # ; @ - - @ : @ : # # # O # + w 2 ^ #X#XwX0X8X8XtX8X8X8XtX8X0X0X8X5X5XG.f.f.s.y.a.s.s.i.a.i.a.i.s.a.i.i.i.p.p.s.i.d.i.d.i.d.i.d.i.p.i.p.p.p.a.i.p.i.a.i.i.a.u.a.i.p.i.i.i.i.i.p.i.p.p.i.i.p.u.p.p.i.p.i.p.i.i.p.p.i.i.i.p.i.i.p.u.p.i.p.p.i.i.i.p.i.i.i.p.i.d.9.X.X.H V S Z S V S A S A A A v 8 t = & X : & % & % @ @ - @ $ @ @ - @ # k / ) *.t.t.0.u.0.u.0.u.u.0.p.u.u.u.u.",
"@.$.@.@.O.X.U N L M M M M m z d > 4 # @ X @ - @ X @ @ - X 1 @ X @ O , 4 |.nXnXhXvXnXhXmXkXtX'.'.N.~.~.~.~.).).~.oX~.~.oXN.oXoX~.~.oX~.~.~.~.N.oX~.~.oX~.oXH.~.oX~.~.~.~.Q.oX~.~.~.Q.Q.oXoXQ.oX~.oXH.~.~.oXH.oXoXH.oX~.~.oXH.oXoXH.~.~.~.~.~.~.~.oXH.~.~.~.~.~.~.~.~.~.H.oX~.H.oX~.~.~.H.~.~.~.~.~.~.~.~.~.~.~.~.~.~.H.H.oXH.Q.l.l.7.;.*.Q S F j * * # & : ; : : : : : : : 1 : @ 1 c H.H.4X|.4X0.>.t.-.&.-.&.-.-.-.-.&.-.-.&.&.&.-.&.-.&.-.&.&.&.&.-.&.-.&.-.&.-.&.t.&.6.&.&.&.&.1.&.-.-.-.-.-.1.&.-.-.-.&.&.&.&.&.&.&.&.&.-.-.&.-.-.&.-.-.&.=.1.$.-.-.-.^ Z C M N N N N N B C M N d q O + O O O O # # O n J.H.aXsXiXdXfXgXfXgXfXfXfXgXiXXXXX).M.M.u.p.i.p.i.p.p.p.q.p.p.u.u.0.0.7.0.u.0.p.p.p.k.H.t.p.u.u.0.0.7.u.u.u.q.0.7.u.0.0.7.u.0.0.0.7.0.0.0.0.0.7.0.0.0.q.u.q.q.u.q.t.u.t.0.7.7.7.7.6.7.2.-.t.-.-.;.t.;.t.;.;.;.;.-.;.;.-.;.;.-.;.;.$.-.-.;.;.-.;.;.$.-.*.-.;.-.-.;.*.-.;.$.;.$.-.-.*.-.$.-.$.-.-.-.&...| S S K J U Y H H U P U Y H F q 9 # ; @ ; @ : X @ - @ # # # # # + 2 2 ^ #X#XwXwXtX8X8X8XtX8X8XtX8XtX8X*X$XQ.f.a.a.s.y.a.i.a.s.a.i.i.y.a.s.i.s.i.d.i.d.i.d.i.i.d.i.i.d.i.i.p.p.i.p.i.p.i.p.i.i.a.p.i.a.p.i.p.i.p.i.p.a.i.p.i.p.i.p.i.i.p.p.i.i.p.i.p.i.p.p.u.p.i.i.p.i.p.i.p.i.i.p.i.p.i.p.p.i.a.p.i.O.X.K S V Z S S S A A A A A A 8 e = & X & & : % @ @ X : @ @ - - @ @ @ k ) ) ..6.6.9.9.0.i.u.u.u.p.u.u.u.u.u.",
";.o.@. .U U B M M M B L M C N g > > @ @ : @ X : - X X @ X X 1 @ X O 9 8 %XnXnXnXbXhXkXkXkXtX'.'.W.~.~.~.).~.~.~.~.~.oXH.~.oXH.oX~.~.~.~.~.oXoX~.oXoXH.oX~.oX~.H.~.~.oX~.~.~.~.~.~.Q.Q.H.Q.oXH.~.H.oX~.~.N.oXoXH.oXoX~.~.N.oXH.~.oX~.~.~.~.oX~.~.~.oX~.~.~.~.~.~.oXH.~.~.~.~.~.~.~.~.Q.oXH.~.~.~.~.~.Q.~.~.~.~.Q.~.~.oXoX~.~.~.H.H.p.t.6.} F F k 2 * # & # : : : : 1 : 1 X : % & - p r.k.4X3X4Xv.&.-.t.&.t.&.t.-.-.-.1.&.-.-.t.-.&.-.&.-.&.-.-.-.&.>.-.&.5.&.&.t.&.t.-.&.&.&.-.>.$.1.1.&.-.t.-.&.&.-.&.1.1.&.&.1.1.&.>.-.1.&.=.>.&.>.&.&.-.>.-.$.$.-.&.-.^ Z Z M M C N C N C M Z N q q # O + O + # # # # d R.J.aXaXjXjXiXgXfXgXfXgXfXiXfXXXXX[.m.m.a.a.p.a.i.u.p.u.p.u.p.u.p.p.p.u.u.0.p.p.p.p.p.p.p.u.q.u.q.u.7.u.q.p.u.0.0.u.0.u.0.0.u.u.0.u.u.7.u.0.u.u.u.0.u.u.0.u.u.u.u.u.u.u.u.u.q.u.7.7.7.u.7.7.7.2.2.7.2.2.t.7.t.t.;.-.-.-.-.-.-.-.-.-.-.$.-.-.-.-.-.-.*.-.;.-.*.$.-.-.$.-.-.$.-.$.$.-.;.-.$.=.-.&.;.-.+.+.K S S F H P H U P H H P P S 9 9 : @ ; @ : @ : : % & # @ # # & + # + H }.[.wX0X8XtXtX8X8XtXtX8X8XtX8X8X8X8X).Q.a.s.s.a.i.a.y.s.s.a.s.i.i.a.i.s.i.p.i.p.i.p.p.p.d.i.i.d.p.p.p.a.p.a.a.i.i.a.p.u.i.p.i.i.i.i.p.i.p.p.u.p.i.p.i.p.i.i.a.i.i.i.p.i.i.i.p.i.p.a.i.p.i.i.p.i.p.i.p.p.i.p.i.a.i.i.a.i.i.9.....S S H S V S S S A A A A A a r & = & & % % & % - 1 @ 1 @ @ @ @ @ @ l Q / Q @.+.9.0.u.0.p.p.u.q.u.u.p.0.p.",
"X.^ ^ H B C V B B B C N C c C g : > X & & X - % @ X X X X X X @ X @ d g >XhXnXhXbXhXkXkXkXtXQ.'.W.Q.Q.Q.oX~.oXQ.~.~.~.~.oX~.~.~.oX~.~.oX~.oX~.~.N.oX~.~.~.~.oX~.~.~.~.~.Q.~.~.~.Q.oXQ.oXQ.Q.~.~.oX~.oX~.oX~.oXH.oXH.oXoXoXH.oXoXN.~.~.~.~.H.~.~.~.oX~.~.oXoX~.~.~.Q.~.Q.~.~.~.~.~.oX~.~.~.~.H.~.Q.Q.Q.Q.Q.Q.Q.~.~.~.Q.~.~.H.~.H.W.l.7.7.$.Q Q C 4 4 # & # : : ; - : X : : & @ ; # 0 q.q. X3X3XH.-.-.-.-.&.1.-.-.-.t.-.-.t.-.&.&.-.-.-.-.$.-.$.-.-.&.t.&.t.&.&.&.&.&.&.&.&.&.&.$.&.&.&.-.-.-.1.&.>.&.-.&.&.-.&.&.-.&.1.$.#.$.>.&.&.&.&.&.1.$.1.=.1.$.-.$.^ Z N M M M M Z M C M N N 9 9 # + o O O O # # @ l K.P.fXjXfXjXgXaXjXiXfXgXiXfXiX4X*XoXH.A.a.i.i.p.i.i.a.p.u.p.p.i.p.p.i.p.u.p.u.u.u.u.u.u.u.u.u.u.0.u.u.u.0.u.u.u.u.u.0.u.u.u.0.u.0.0.u.u.0.7.0.0.u.u.0.0.u.p.0.q.0.7.q.0.u.u.7.u.7.7.0.u.9.9.9.0.9.7.u.0.7.7.7.7.7.2.7.7.3.2.2.7.1.2.2.-.2.2.-.-.-.-.-.-.-.-.;.;.$.-.;.&.;.-.;.-.;.$.;.$.=.=.$.-.*.-.;.-.Z Z V S F H Y H U U P H P F 9 9 * ; @ - @ ; @ X : % @ @ @ # @ # + + N ^.^.wXwX8XtXwXwX8XtX8XtXtX8X8XtX8X8X8X8XF.a.y.s.i.s.i.s.y.a.i.a.i.f.i.a.i.p.i.p.f.i.a.p.p.i.i.p.p.i.p.i.i.i.p.i.i.p.p.i.p.i.i.p.p.i.p.p.u.p.p.i.i.p.i.i.p.i.i.p.a.i.i.p.p.i.p.i.i.p.i.i.p.i.p.i.i.i.p.i.i.p.i.i.i.p.u.p.i.u. .| H V S V S V V S Z Z C Z C d d & O @ @ % X & X : - - 1 - - @ - @ @ d ) W Q ) ) 1.u.9.u.i.0.u.u.u.p.0.u.u.",
"X.^ { H B B N Z Z Z M M N C z j > > X @ @ X @ @ - X @ 1 1 % X X @ X g d >XnXjXnXhXkXkXbXkXtX'.'.W.Q.~.~.Q.~.~.~.oX~.~.~.~.~.oX~.~.~.oXH.~.~.~.~.~.~.~.~.~.~.~.~.~.~.~.~.~.~.~.~.oXH.Q.oXH.oXQ.oX~.~.H.oXH.oXH.oXH.oXN.H.H.oXoXH.oX~.~.~.~.~.~.~.~.H.~.~.H.N.~.~.~.~.~.Q.~.~.Q.Q.~.H.~.~.~.Q.oX~.Q.~.Q.Q.Q.Q.Q.Q.H.Q.~.Q.Q.~.~.Q.I.l.6.6.&.Q Q N 4 ; # # # & - : : 1 : % : % 1 # ; < q.q.4X4X4XH.-.1.6.-.-.&.-.-.-.-.-.-.-.&.-.-.&.&.-.&.-.-.-.;.&.&.&.&.&.&.&.&.&.&.&.t.&.&.$.1.-.&.-.-.&.-.&.-.-.&.t.&.&.&.-.>.&.>.$.>.-.&.=.&.&.&.-.&.$.&.$.&.$.-.&.-.^ C Z M C M M M B M B N M q 9 + o + O O @ @ @ # l U.K.dXaXsXiXgXfXfXfXgXfXfXjXfXXX$XoXm.Z.i.p.i.i.p.i.i.p.p.p.u.p.a.u.p.p.u.u.p.p.u.u.p.u.0.p.u.u.p.0.0.0.u.0.p.u.u.u.u.0.0.0.u.0.u.0.0.p.0.u.u.u.0.0.u.u.u.q.u.u.u.u.0.u.7.0.u.0.0.u.0.0.9.9.9.u.u.0.9.7.0.7.7.7.7.u.2.2.7.2.7.2.2.1.2.2.-.-.-.;.-.-.-.-.-.;.-.-.;.-.$.;.-.-.$.$.-.-.$.;.$.$.=.;.;.-.-.$.Z V Z S Y H P H U H U Y P G 9 9 # @ - @ ; - @ : @ & & # & # @ # + # C (.^.wXwXtX8X8XtXtX8XtX8X8X8XtX8XtX8X8X6XF.y.s.a.a.s.a.y.s.i.s.i.i.i.i.s.p.i.f.i.i.p.p.i.p.i.a.i.i.p.i.i.i.p.i.p.p.p.u.p.i.i.p.i.i.a.i.i.i.p.i.i.a.i.a.i.p.i.p.i.i.p.i.i.i.p.i.p.p.u.a.i.i.p.i.p.i.a.i.p.p.i.p.i.p.p.u.p.i.u.....S S V H V S Z A S G A G A s g & & @ @ & & @ : : 1 X @ 1 @ - @ @ @ l E Q Q ) ) 1.0.i.0.i.p.u.p.p.u.p.u.u.",
"U S S N B N B Z Z B L Z V c c j : * O @ @ X @ - @ X X X % X % X @ @ j j qXjXnXjXhXkXhXkXkXtX).'.Q.Q.Q.Q.~.H.oX'.N.oXoXoX~.oXoXN.oX~.~.~.~.oX~.~.~.~.~.~.~.oXH.~.~.~.~.~.oXQ.~.~.oX~.~.~.oXQ.~.H.oX~.oXH.oX~.~.~.~.~.~.~.~.oX~.~.oXH.~.~.~.H.~.~.~.~.~.~.oXH.oXoX~.~.~.~.H.oXQ.~.~.~.~.~.~.~.~.Q.Q.~.~.~.Q.Q.~.Q.~.~.~.~.oXH.oXH.W.H.i.p.7.[ | G 4 4 # # & # - : @ : & % % : @ - @ ; +.[ ].4X4XI.6.6.7.1.&.&.-.&.-.-.$.$.-.&.-.&.-.t.-.&.-.&.-.-.&.&.-.&.&.&.&.&.&.&.&.&.&.&.$.&.&.&.-.&.-.-.&.-.-.&.&.-.1.&.5.&.&.1.$.$.>.$.=.,.$.1.&.$.1.$.=.-.-.-.&.-.( C Z m M C M M M Z N N N 9 q + O o + O O O # O l !.I.dXiXjXjXsXgXgXfXfXfXgXiXfX$XXXoXA.K.u.i.p.i.p.i.p.p.u.u.p.p.i.p.i.u.p.p.u.u.0.u.u.q.u.u.p.p.p.u.q.u.u.0.u.u.u.p.0.u.0.u.0.u.0.0.u.0.0.u.0.0.0.u.0.0.p.q.0.q.0.u.u.7.u.u.0.7.u.u.0.0.u.7.u.i.i.i.p.p.0.0.p.0.i.0.i.u.u.9.9.9.9.9.9.9.9.9.9.u.7.7.7.7.2.-.-.-.=.=.=.-.*.;.-.;.-.-.-.$.-.-.$.-.-.t.;.-.K V B V U S H P U H U I U S 7 7 # @ - @ ; @ : @ : & @ & # # # # + + m A.D.rXwXtX8X8XwXwXtX8XtX8XtX8X8XtX8X8X8X/.s.y.f.a.a.s.a.s.a.s.a.i.i.a.i.a.i.p.a.a.i.a.i.a.i.i.p.i.p.i.a.p.i.p.9.i.p.i.p.p.i.p.p.p.i.i.p.p.i.i.p.p.i.i.p.i.p.i.i.i.i.p.d.p.i.i.p.p.i.i.p.a.p.u.p.u.p.p.i.i.i.p.i.i.i.p.i.i.9...| H S V H H V S Z A Z C A C x x * = @ & & X & - X 1 1 - 1 - X $ @ @ n ~ Q Q Q ! +.9.0.i.u.p.u.q.u.0.p.u.u.",
"N B N N Z V N Z B C Z N C C C g * : X @ X @ X @ 1 & X & X 1 % X X O k j uXnXgXhXhXhXkXkXkX0X).~.H.Q.Q.Q.~.oX~.Q.oX~.~.~.~.~.oX~.~.~.~.~.~.~.~.~.~.~.oX~.~.~.oX~.~.~.~.~.~.~.~.~.Q.Q.~.~.H.oX~.oXN.oXH.oX~.~.~.~.~.oX~.~.~.H.~.~.H.oX~.~.~.oXoXH.~.oXH.oXH.oXoXH.~.~.~.~.oXQ.Q.~.~.~.~.oXoXH.~.Q.Q.Q.~.~.~.Q.~.Q.H.Q.~.~.~.oXH.oX!.!.M.M.9.t.t.Q 5 7 # # # @ @ # - % X : & : 1 # ; @ G C R.4X4X].l.l.l.0.-.-.-.-.-.-.-.-.&.-.t.-.-.&.&.;.;.-.-.-.&.t.&.&.&.&.t.&.&.&.&.-.$.=.>.&.&.-.-.-.-.-.&.1.&.-.>.&.&.&.&.-.&.-.&.&.=.&.-.&.>.$.-.$.=.>.&.-.$.-.$.$.} Z Z M M M M C Z M N N M 9 9 o o O o O O O # $ b ].!.jXjXsXfXfXaXfXfXjXgXfXfXiX!.!.A.l.l.i.i.a.i.i.p.i.p.p.p.p.i.p.i.i.p.p.u.p.p.u.p.p.p.u.p.u.u.u.p.p.0.p.p.u.u.p.u.u.0.u.0.0.u.0.u.0.u.i.0.0.0.u.0.u.u.0.u.u.u.p.u.q.0.u.0.u.0.i.0.u.u.0.u.0.0.7.u.0.u.0.u.u.u.i.i.u.u.p.p.9.i.i.i.9.9.u.9.9.i.i.u.u.0.9.9.7.3.3.3.1.-.-.-.-.-.-.$.;.;.$.-.;.t.2.7.2.1.H N Z H V U U H P U I U H B 6 8 # @ - : @ - @ : X % & @ & @ # # + # u C.V.wXwX8XtXfXtXtX8XtXwXtXwX8XtX8XtX8XtX.Xy.a.f.s.f.y.s.i.i.i.i.a.s.s.i.p.i.p.p.p.p.p.p.p.i.p.i.a.i.p.i.i.i.p.p.p.9.p.i.i.a.i.i.i.p.i.i.i.p.p.i.i.p.p.i.a.i.i.p.i.i.i.i.i.a.p.i.i.p.p.i.u.p.i.p.p.p.p.i.p.p.i.p.p.i.i.p.u.9.} } H Z S Z S S Z S S G A Z A z z , @ @ & @ : @ % - @ - X @ - - - @ @ 0 E R Q R Q ! t.-.0.i.u.p.u.p.u.u.i.0.",
"B B V V Z B Z Z C Z Z N N C c j ; : O X @ @ X X @ X 1 X 1 X X @ @ @ x k eXnXhXnXhXhXkXkXkXtXQ.Q.Q.Q.Q.oX~.~.oXQ.~.~.~.~.~.~.oX~.oX~.oX~.oX~.N.~.~.~.H.oX~.~.~.~.~.oX~.~.~.~.~.Q.~.~.~.~.Q.Q.Q.Q.oXH.H.oXoXN.~.~.~.H.~.~.~.~.oX~.oXH.oX~.~.~.~.~.~.~.oXH.H.oXH.oXQ.Q.Q.Q.Q.~.oX~.~.~.~.H.~.~.~.Q.Q.Q.~.Q.Q.~.Q.H.Q.~.oXH.~.H.oXH.!.I.M.H.9.t.-.U 8 8 # @ @ : - @ - % : % : X - # ; @ G C R.4X4X).l.x.l.0.&.-.$.-.-.;.-.-.-.;.-.&.;.&.-.-.&.&.-.*.&.&.&.&.&.&.&.&.&.&.&.&.1.$.1.$.-.-.-.-.-.-.&.&.>.-.-.&.&.-.&.-.&.>.&.&.&.&.>.$.$.1.$.>.$.&.-.$.-.-.&.-.( S Z M M C M Z M M N N M 7 9 O O o O O O @ @ @ b ].!.sXsXfXfXgXgXfXgXfXfXfXfXwX!.!.Z.l.l.i.i.i.p.i.p.p.p.p.p.p.p.p.i.p.p.p.u.p.u.p.u.p.u.p.u.p.p.0.p.p.u.0.u.p.p.u.u.0.u.0.u.u.0.0.0.0.0.u.0.u.u.0.0.u.0.u.0.0.u.p.p.u.0.0.u.0.0.0.u.0.0.u.0.0.0.0.0.u.i.p.i.i.i.i.p.0.0.i.9.p.p.9.p.p.u.9.9.9.9.0.i.0.9.9.9.7.3.2.3.1.-.-.-.-.;.;.-.-.-.=.-.-.7.t.7.2.1.H B B V H H S H I V T U F Z 7 6 @ ; @ @ ; @ : - @ : @ # @ # # + + + i C.C.wX0XtX8XtX8XtXtX8XtX8XtXtX8XwX8X8X0X'.a.a.j.f.s.a.a.i.a.s.i.a.i.a.i.a.p.p.p.i.p.i.p.p.i.a.p.i.i.p.p.p.i.u.p.i.p.9.p.i.i.i.p.a.i.a.i.p.i.i.p.a.i.i.i.p.i.p.i.i.s.s.i.p.i.i.i.a.i.i.p.i.i.p.i.a.u.i.p.i.p.p.i.i.p.p.i.i.9. .| H B H V V Z Z Z Z Z C Z v z z , & O @ % @ & 1 - 1 - 1 1 X - @ @ # 0 Q Q R Q Q ( -.2.9.u.u.u.u.u.u.u.i.i.",
"B B Z B B B N Z V Z C Z A c C d * # # @ @ X & @ - X X % X % X @ X @ c k pXgXjXvXhXkXhXhXhX0XQ.Q.Q.Q.Q.~.~.Q.oXQ.oX~.~.~.~.oX~.~.H.oXN.oXH.oXoX~.~.~.~.~.~.~.~.~.~.~.~.~.~.~.~.oX~.~.~.~.oXH.oXoXoXoXoXoXH.oX~.~.~.~.~.oXH.~.H.~.H.oX~.~.~.~.~.~.H.~.H.oXoXN.~.~.oXH.oXQ.oXH.H.~.~.~.Q.Q.~.~.~.Q.Q.~.~.~.Q.~.~.oXQ.Q.~.Q.Q.oXH.oX!.I.H.H.p.9.q.} 9 8 # # # @ # - & & 1 & % : X - # # 9 p k. X4X XY.!.!.x.-.-.-.&.-.*.-.*.&.t.-.&.t.&.&.&.&.-.&.-.-.&.&.&.t.&.&.&.-.&.&.&.$.>.$.&.&.&.&.-.&.-.&.-.-.&.>.-.&.&.&.-.&.1.$.$.1.$.$.1.&.$.>.$.1.$.$.1.-.&.-.$.} G K M N M M M M C M C z 9 7 O o + O O O O @ $ c ].].dXsXsXsXgXaXgXiXjXjXwXwX!.a.p.p.p.a.u.i.i.i.a.i.i.u.p.p.u.i.i.a.i.u.p.p.p.p.u.p.u.p.u.p.p.u.u.u.p.p.p.u.p.p.0.p.p.p.0.u.0.u.u.u.u.0.u.u.i.7.0.u.0.0.u.u.u.u.0.u.q.u.u.0.u.u.u.0.u.0.p.p.u.u.p.u.p.i.0.i.i.0.i.u.0.p.i.p.u.u.p.9.i.i.i.i.i.u.i.u.i.0.p.u.u.u.u.9.9.u.u.7.2.2.t.-.-.=.-.-.;.7.7.7.2.2.U V V V H U V H H U H F F Z 6 6 # ; ; & - - @ & : & @ @ @ # # # + + y l.b.wXwXwXtXtX8XwX8XtXwXtXwXtX8XtXtXwX0X'.y.y.j.a.a.s.i.s.i.a.i.i.d.i.p.i.d.i.i.p.a.a.p.p.i.i.i.i.p.i.i.i.p.p.i.p.i.i.p.p.i.p.i.p.i.i.i.i.i.i.i.i.i.p.p.i.a.i.i.i.i.i.i.i.a.i.p.i.i.p.i.p.p.i.p.i.i.a.i.p.i.i.i.p.i.p.i.i.9.{ | S S Z V H V K Z A Z A G A z z 6 @ & & @ @ - @ - 1 @ - @ - @ X @ @ 4 R E Q U R ! $.*.6.u.0.0.p.0.u.0.i.9.",
"Z B B S Z B B Z Z C Z V C c C r # @ & @ @ X X & @ X 1 X X 1 % @ X # z v eXsXjXjXhXhXhXhXhX8XQ.G.Q.oXoXH.~.~.oX~.~.~.~.~.~.~.~.~.oXoXN.oXoXoXoXH.oX~.~.~.~.~.~.~.~.~.~.~.~.~.~.~.~.oXH.~.~.~.oXH.H.H.oX~.~.~.~.~.H.~.~.~.oX~.N.~.oXH.~.~.~.~.H.~.oX~.~.~.~.oXoXH.Q.Q.Q.oX~.~.~.~.H.oX~.~.~.oX~.~.~.~.~.~.H.oX~.~.~.~.~.~.~.~.~.H.!.!.!.!.l.7.u.t.g g & # # @ - # @ : & X : % : @ @ @ : # %.].]. X].}.}.K.-.-.&.&.&.1.$.>.&.&.&.&.&.-.&.&.&.&.&.&.&.&.-.&.&.*.-.&.&.&.&.&.$.-.&.&.1.$.$.1.$.-.$.-.&.&.&.&.>.$.-.-.$.-.&.$.$.>.$.$.&.&.$.>.1.$.>.&.$.&.t.&.*.J J L N k N N z N C M N 6 5 o O o $ X O O $ $ j ].].jXaXjXiXaXgXjXgXiX6XS.S.p.u.u.u.u.u.i.i.i.p.i.p.i.p.i.i.a.p.i.i.p.p.p.p.i.p.p.i.i.p.u.p.u.u.H.u.u.u.p.t.H.p.u.p.u.t.H.p.u.p.u.u.p.u.u.u.0.u.9.0.u.7.q.u.p.u.u.u.p.p.u.p.u.p.q.u.u.u.p.u.p.i.i.i.p.u.p.u.p.u.p.u.p.p.u.p.u.p.u.i.i.u.i.i.i.u.p.u.p.p.i.i.i.0.9.9.9.9.u.9.9.7.2.2.1.1.1.2.3.0.7.u.7.7.U Z B V H H H H U U U H U B 3 5 # ; # ; - - % X : & @ & # @ & * O + t g.g.wXwXtXwXtX8X8XtXwXtXtXwXtX8X0XtX8X8XG.f.a.f.s.a.s.i.a.i.p.p.a.i.d.i.i.d.i.a.i.d.i.p.a.i.p.i.p.i.p.i.i.p.i.p.i.p.i.i.p.i.p.i.i.i.i.i.i.i.i.i.i.s.i.i.i.p.i.s.i.i.s.i.i.i.i.i.p.i.p.i.p.i.p.i.i.a.i.p.i.i.p.i.p.i.p.i.p.7.| { H V Z H Z S Z Z Z Z Z G C c v r & # & % % @ - - 1 - - 1 @ - @ @ ; > D F P E J Q | ) -.t.2.7.u.u.9.u.0.u.",
"B Z B B B B Z Z V C C C A c c r @ # @ X & & @ @ @ : @ X % X X X @ @ z z uXgXsXhXtXhXhXhXhXtXQ.Q.N.H.Q.oXoXN.~.oX~.~.oX~.~.oX~.oX~.~.oXoX~.H.~.oXoXN.~.~.~.~.~.oX~.~.~.~.~.Q.~.~.~.~.oXQ.oX~.Q.Q.oXoXH.~.oXH.~.~.oX~.~.~.H.oXoX~.N.oXH.~.~.~.oX~.~.~.~.oX~.N.H.~.Q.Q.Q.H.~.~.~.~.oXQ.Q.~.~.H.~.~.~.H.~.~.~.~.~.Q.~.~.~.~.~.H.~.~.!.~.W.W.l.0.u.*.g g # # @ & @ - - % : % 1 & & : - # > > $.].]. X].|.[.J.&.1.-.$.&.$.&.$.&.&.&.t.t.&.&.-.t.-.&.&.&.&.*.&.&.&.&.&.&.&.*.&.$.&.$.-.$.&.-.$.1.$.1.&.&.&.&.&.$.1.-.=.1.$.=.>.1.$.&.&.$.$.1.$.$.&.$.$.-.$.-.&.+.J J L M z M N N M C M z 7 7 O o O o O O @ O @ b Y.].sXsXaXjXaXaXiXgXgX9XS.P.i.u.u.9.i.0.u.i.a.i.p.i.p.i.p.i.i.i.p.i.p.p.p.i.p.i.i.p.i.u.p.u.p.u.t.q.p.p.u.t.u.p.p.p.q.t.u.u.p.u.u.p.u.u.p.u.0.0.u.u.9.t.H.u.u.u.p.u.p.u.u.q.u.u.u.p.0.u.u.p.u.i.i.i.u.p.u.p.u.p.u.p.u.u.p.u.i.u.i.i.i.i.i.i.i.p.u.u.0.u.i.i.i.i.u.i.9.9.9.9.9.7.3.1.2.1.3.2.7.i.7.i.7.7.! L Z V U V U U V V U H P V 5 8 # ; ; - : & & : @ & & @ & & @ & + + y g.g.wXwX8XtXtXtXtXtXtX8X8XtXtXtXtXwX8X8XG.a.a.g.a.a.i.a.s.i.i.i.i.p.i.d.p.s.d.i.a.i.i.f.p.p.i.i.i.p.i.i.p.i.i.i.p.i.p.i.i.p.a.i.f.i.p.i.a.i.i.s.a.y.s.i.a.i.i.i.i.s.i.s.i.p.a.i.i.p.a.i.i.i.i.p.p.i.i.a.i.p.i.p.i.p.9.p.i.9.{ { S H S V H S S Z Z G Z Z A z z e & = = & & & : @ - - - - - X - ; @ > F D E J F Q { ) -.2.2.7.i.7.0.u.p.9.",
"B V Z Z B Z B Z B A N A C k k 4 @ # @ & X @ & X X - X 1 % 1 : X @ & v z >XjXjXnXhXhXhXhXhX8XG.Q.H.Q.Q.oX~.oX~.~.N.oX~.~.N.oXoX~.~.~.~.H.oXH.~.~.~.oX~.~.~.~.~.~.~.~.~.~.~.~.~.~.Q.~.~.~.H.~.~.Q.oX~.oXoX~.oXoXoXoXH.~.~.oXH.oXoXoX~.~.oX~.H.~.~.~.~.~.H.~.oXoXoXH.oXQ.Q.~.H.oX~.H.oXH.oX~.H.H.oX~.~.~.~.~.~.~.~.~.~.~.~.~.~.H.~.~.~.!.!.H.0.d.6.D S * @ # # @ # @ 1 & : & 1 X : - @ O # F P.R.[.].|.|.I.-.-.&.&.>.$.&.$.&.&.&.$.&.*.&.*.*.-.&.&.&.&.&.&.&.&.&.&.&.&.&.&.-.&.&.&.>.=.-.-.$.-.$.-.$.&.&.$.-.$.$.-.$.1.&.&.$.>.1.$.>.=.$.-.>.$.$.1.&.&.-.-.*.! ! Z M M m N k z N C k 6 7 o O o O O O @ $ O l I.I.sXaXsXjXaXsXfX-X$XC.i.i.9.9.9.u.u.u.i.u.i.u.p.i.i.i.p.i.p.p.i.p.p.u.p.i.i.p.i.i.a.p.u.u.p.u.p.u.p.u.p.u.p.u.p.p.u.u.p.u.u.u.0.t.u.0.u.p.u.i.9.9.9.u.u.q.p.u.t.u.u.u.p.p.0.u.p.u.p.u.p.u.p.0.u.i.u.u.u.u.p.u.p.i.i.p.0.i.0.0.i.i.i.p.p.i.i.u.p.u.p.i.i.i.i.9.i.9.9.i.9.i.9.u.u.7.7.7.9.7.9.i.0.u.9.u.^ Z B V V H V H H P H F U H t 9 # # * @ # : 1 X : % @ # & & # + + + y g.g.wXwXtXwX8XtXtX8XtXwX8XtX8XtX0XtX6X6XF.a.a.a.s.s.i.i.a.a.s.f.i.p.p.i.d.i.d.i.i.p.a.i.i.p.i.a.p.i.i.p.i.p.p.i.p.i.p.i.p.i.i.p.p.i.a.i.i.s.i.y.i.i.i.i.i.p.i.i.i.s.i.s.a.i.i.p.p.i.i.p.i.a.i.i.i.i.p.i.p.i.i.p.p.9.p.i.i.u.{ | V Z H V Z S S Z Z G G Z A A z s & & % & X & - 1 - : - - - X @ @ @ ; D c P Q P J Y Y | $.*.-.t.2.7.u.9.i.",
"Z S B Z S B Z Z S A N Z C a d # @ @ & O X & @ X & X & % X % % @ X # A A :XxXjXgXhXhXhXhXhX8XQ.Q.Q.Q.oXH.~.Q.oX~.oX~.Q.~.~.~.~.~.~.oX~.oX~.oX~.~.~.~.~.~.~.~.~.~.~.~.~.~.~.~.~.~.oXH.oX~.oXQ.~.oX~.~.oXH.~.oXH.H.~.~.~.~.oXH.H.N.~.~.H.~.~.oX~.~.~.~.~.~.~.H.oXH.~.Q.~.oX~.~.~.~.~.Q.~.~.~.oX~.~.~.~.~.~.~.~.~.~.~.E.~.~.~.~.oX~.~.E.!.!.I.M.M.0..._ * @ @ & @ & : X % X % X : @ - @ # # a v.v.[.[.}.|.Z.&.-.=.&.=.>.$.1.-.$.&.&.&.&.&.&.&.&.-.*.*.&.&.&.&.&.-.*.*.&.&.&.&.&.&.&.1.$.$.1.$.-.&.-.>.&.$.1.&.$.1.$.&.$.1.$.&.&.$.>.$.&.>.=.&.&.>.$.&.&.&.$.;.} [ J V N z k N M N M M 4 4 O o + O O O $ @ @ a R.J.sXjXaXaXiXrX.Xl.l.i.i.3.9.u.u.9.u.9.u.0.u.p.u.p.u.a.i.p.i.p.i.u.p.p.p.i.p.i.p.i.i.p.u.p.u.u.u.p.u.u.p.p.p.u.p.p.u.p.u.t.t.H.u.t.H.u.u.0.0.9.9.9.i.p.u.u.u.H.t.u.p.p.u.u.p.u.u.0.p.p.u.u.0.i.u.u.0.u.0.p.u.p.u.i.u.u.u.u.i.u.u.u.i.u.u.i.i.p.u.p.u.i.u.i.i.p.9.i.9.i.9.9.9.i.9.9.9.9.9.u.7.9.0.p.9.9.} Z Z V H S H V Y H U H H H i f * ; ; : : - : : @ : @ & @ & @ * + + t g.z.wXwX8XtX8XtXwXtX8XtXtXtX0XwXtX8XQ.Q.a.j.f.a.i.a.a.s.i.i.i.i.d.p.i.d.i.d.i.p.p.p.i.p.p.i.p.i.p.i.p.i.i.p.9.p.i.p.i.i.i.i.p.i.i.i.i.i.i.i.i.a.i.p.i.a.s.i.i.s.s.i.i.y.i.i.p.i.i.i.p.i.p.i.p.p.p.i.i.p.i.p.p.u.i.p.i.i.a.-.{ { K S V S V S Z Z Z Z Z G A v A j & & = & & & - - - 1 - X @ - @ @ # # j c F F F F J J J Y ! { ) | +.-.$.2.",
"B Z H B V Z Z Z Z Z N A A r a # @ # & X & X @ @ @ % X & : % : X @ : c A ,XjXjXjXtXhXhXtXkX8XF.G.Q.Q.Q.Q.oXQ.oXQ.oX~.N.oX~.~.~.~.oXH.~.~.oXoXH.oX~.~.~.~.~.~.~.~.~.~.~.~.~.~.~.~.~.oXH.~.~.~.~.Q.N.oXH.oX~.~.H.oX~.~.oXH.oXH.~.~.~.~.H.oX~.~.~.~.oXH.~.~.~.N.oXH.~.~.Q.H.~.~.~.~.Q.Q.oXH.~.H.oX~.~.H.~.H.oX~.~.~.~.~.H.oXoXH.~.~.~.!.W.!.I.M.M.q.' _ * # # : ; @ & 1 : % X & 1 & & @ # @ 9 v.v. X].oX}.J.$.-.;.&.$.>.$.&.&.&.&.%.&.*.-.&.*.-.&.&.*.-.&.&.*.*.-.&.&.&.&.&.$.>.=.>.$.1.$.-.-.-.&.&.=.&.&.>.=.$.$.1.=.1.1.$.>.$.&.$.>.&.,.=.&.$.1.&.&.&.&.-.&.| [ K N N M N k M M C z 4 6 O $ O o O O O @ $ a J.U.aXsXsXgXiXiX.XM.l.i.3.i.u.9.u.u.9.u.u.i.i.p.u.p.p.u.p.p.i.p.p.p.p.p.i.p.i.p.a.i.p.p.u.p.p.u.u.u.u.p.t.u.u.u.p.p.0.u.u.p.u.u.0.u.u.0.p.u.0.9.9.u.9.u.u.p.u.t.H.u.u.u.u.u.p.u.p.0.u.0.u.p.u.u.p.u.i.i.p.u.i.i.u.i.0.u.0.u.i.i.7.i.u.u.i.i.i.u.u.u.p.i.i.i.i.i.i.i.9.9.9.i.9.9.9.9.9.3.9.9.3.u.p.p.9.u...B B B S V H S Y P H F F F i d * # # # : : 1 & & & & @ = @ & # + + y g.g.wX0XtX0XwXtXwXtXtX0XtX8XwXtXwX8X/.).j.a.j.s.a.i.s.i.i.f.i.a.i.p.p.i.d.i.d.p.p.a.p.i.a.i.p.i.p.i.a.p.p.i.p.9.p.i.i.p.p.i.p.p.i.p.p.i.i.i.a.i.i.i.s.i.p.i.a.i.i.s.i.i.i.i.p.i.p.i.i.p.i.i.p.i.p.i.p.i.p.i.i.s.9.i.i.p.i.7.{ { V K V Z H K Z Z S Z G S A A v s & & & & & @ : - - - - - - @ - @ @ # k j F F F F J J J ! Y { } } +.;.;.1.",
"Z V B B Z Z Z Z A C C A k > 4 O @ O X & X & & % - @ 1 X X % % @ @ & D D :XgXaXgXhXhXhXhXtX8XQ.Q.Q.Q.Q.Q.~.Q.~.~.~.~.oX~.~.oX~.oXoXoX~.~.N.oXoX~.~.~.oX~.~.~.~.~.~.~.~.~.~.~.~.~.~.~.oXQ.~.~.Q.Q.H.oXoX~.~.~.oXH.~.~.oXH.oXoX~.~.~.~.~.~.~.oX~.~.H.oX~.~.~.~.~.oX~.~.~.~.~.oXH.~.~.Q.Q.oX~.~.~.~.~.oX~.~.~.~.Q.Q.~.~.N.~.H.oX~.~.~.!.!.W.E.I.J.H.0.0.6 # # @ @ - & X & X : X : @ - @ # # w q.q.].].I.I.7.-.-.-.&.&.=.1.$.&.&.&.&.&.&.&.&.&.&.&.&.-.-.*.-.-.-.&.&.$.&.&.&.$.&.$.$.&.$.-.$.;.-.;.&.1.=.=.&.$.1.1.$.&.$.$.>.$.&.$.1.=.&.-.&.=.>.$.&.-.$.&.-.*.+.+.) A Z N h N M b N k 4 2 + O $ O O O @ @ @ p J.J.sXgXjXiX`.`.f.9.u.9.9.3.u.u.u.9.u.0.u.u.i.u.i.9.u.i.u.u.i.u.u.u.p.u.a.i.i.i.i.p.i.a.u.p.u.p.t.H.u.u.H.p.u.p.u.u.p.p.u.t.H.p.u.p.u.u.u.p.u.p.i.i.i.p.u.u.p.t.u.0.p.p.q.p.u.u.0.u.u.p.u.u.0.u.0.i.u.u.0.0.i.i.i.i.u.i.u.i.u.u.i.u.i.i.u.0.i.p.0.p.u.9.i.i.i.9.9.9.i.i.9.u.i.i.u.9.u.9.9.9.9.i.u.u.a.i.+.K B B H H H H H H P H U F m M 4 ; # # ; & : @ @ @ @ & # & @ * O # r z.l.wXtXwXtXtXwXtX8XwXtXwXtXtX5X5XQ.M.M.a.f.a.s.i.p.a.i.i.i.p.p.a.i.a.i.i.a.i.i.i.i.p.p.i.p.p.i.i.p.i.i.9.p.p.u.i.p.p.i.i.a.u.p.p.i.i.i.s.i.i.i.a.i.i.p.i.i.i.i.i.i.i.a.p.p.i.i.i.a.p.i.p.i.i.p.i.p.i.i.i.i.i.i.i.s.s.i.i.2.! ! Z V K Z V V Z Z Z Z Z F C A A x * , = & @ - 1 - X - X - @ - @ @ @ # a a D P I F F K F K Z K J K J J U Y ",
"Z Z K H Z Z Z B V C z C 8 # # @ @ @ @ % : X % X @ X 1 & % : 1 @ @ # E P 7XnXhXhXhXhXhXtXhX8X~.~.Q.Q.Q.oX~.oXQ.~.oX~.~.~.~.oX~.~.~.~.~.oX~.~.H.oX~.~.~.oX~.~.~.~.oXN.~.~.~.~.oX~.~.~.Q.Q.~.~.'.Q.oX~.~.~.~.~.oXoX~.~.~.oXH.~.~.~.oXN.~.~.oXH.H.oXoX~.~.~.H.~.~.~.~.~.Q.Q.~.~.oX~.~.~.~.~.).~.~.~.~.~.H.~.~.~.Q.Q.~.~.~.~.oX~.~.~.~.~.!.!.!.E.I.P.B.J.r # @ @ ; @ - % % : % X X : @ - # # # -.t.].!.9.0.$.$.$.-.&.&.$.&.>.&.&.&.&.*.&.&.*.&.&.&.-.-.;.t.*.;.*.&.*.&.&.&.&.-.$.$.&.$.&.$.-.-.*.-.;.$.1.$.-.&.1.$.>.$.1.$.$.1.$.>.$.1.$.$.>.&.$.>.$.$.&.&.$.$.$.+.} A S N k k M M L h 4 4 O O O O X @ O @ @ 8 J.n.sXiXiX).l.g.i.3.i.3.u.3.u.y.9.9.u.9.i.0.u.u.i.i.u.p.u.u.p.u.p.u.p.i.p.i.p.a.i.i.i.p.p.p.u.u.H.t.7.t.H.u.p.0.u.u.p.u.p.t.u.p.p.u.p.u.p.p.p.p.p.p.p.t.t.u.u.u.u.u.u.u.u.u.u.u.p.0.p.u.0.u.u.u.i.i.u.u.0.u.i.u.i.0.i.u.i.u.i.i.9.u.u.u.i.u.i.i.u.0.u.i.u.i.9.9.9.9.9.u.i.i.u.u.i.9.u.7.9.9.9.0.i.i.-.2.J B B V H H H H P H H H P H G G y > ; ; - # : & @ # & # & # & * + & y g.f.wXwXtXwXtXtXtXtXwXwXtXwX*Xj.j.g.f.j.f.s.y.f.a.p.a.p.p.a.p.p.i.i.i.p.i.p.p.i.i.p.p.p.i.a.i.p.i.i.i.p.p.i.p.p.p.i.p.p.i.a.i.p.u.i.p.p.i.a.p.i.i.a.i.p.i.p.a.i.i.i.p.i.i.p.p.p.p.u.i.a.i.p.i.i.i.p.i.p.i.i.i.s.s.s.9.i.a.-.J J B Z K Z Z Z Z Z Z Z G G G A A z 0 6 & @ @ - - - - X @ - $ - - @ # O 6 4 A I F S S F S S Z K Z S S S S S ",
"B Z B B K Z K B Z N C z 8 * # O & @ @ & % X : : X : X : X X % @ @ & P E 1XgXhXyXtXhXhXkXhXtX~.N.Q.Q.Q.Q.Q.Q.oXQ.~.~.oX~.~.~.~.~.oX~.oXN.oX~.~.oX~.~.~.~.~.~.~.oX~.oX~.~.~.~.~.~.~.~.~.oX~.~.Q.~.H.oX~.~.~.~.N.oX~.~.oXN.oX~.~.~.~.oX~.~.oXN.oX~.~.~.~.~.oX~.~.~.~.~.~.Q.oXH.H.~.~.~.~.~.).H.~.!.~.~.oX~.~.Q.~.Q.~.~.~.~.~.~.H.oX~.!.!.!.!.I.I.U.J.B.r @ # & @ - @ : : X : & 1 @ : @ @ # # t.t.].P.9.7.-.-.-.-.&.$.1.&.$.&.&.&.$.-.&.&.-.-.*.&.t.*.&.;.-.t.-.&.-.$.&.&.>.$.&.&.$.-.$.-.$.$.-.$.-.&.=.&.=.-.$.&.$.>.$.&.&.$.>.=.&.$.&.-.$.=.>.$.1.$.&.&.&.=.#.+.( Z S N M M z N M k 4 4 o @ O O O O @ @ $ 8 H.J.jXiXpX`.g.g.i.3.3.9.3.9.y.9.y.u.9.u.u.i.u.9.i.u.9.u.u.u.u.p.u.p.u.u.p.p.p.u.p.i.p.u.p.p.u.q.t.H.u.7.u.p.u.p.u.p.u.p.u.a.u.u.0.p.u.p.p.p.u.0.u.p.u.H.u.p.p.u.p.p.u.p.t.t.H.u.u.u.u.u.u.u.p.u.u.0.u.u.u.i.u.i.u.u.u.i.u.i.7.u.i.u.u.0.i.u.u.0.i.u.u.u.i.9.i.9.i.i.9.9.9.i.9.u.u.9.9.u.9.9.u.u.i.9.7.2.J B M Z H H V H H Y H P H P S S y # : # : - : # : & @ & @ & @ & + + r g.z.tXwX0XtXwXwXwXwXtXwXwXtX*Xb.M.f.f.f.f.a.a.a.i.p.i.p.p.i.i.a.p.a.p.i.p.p.p.i.p.i.i.p.p.i.p.i.p.i.p.i.i.p.9.p.i.p.i.i.p.i.a.u.p.p.i.i.i.i.i.p.i.i.p.i.p.i.i.p.i.s.i.p.i.i.p.u.p.a.i.i.p.i.p.p.p.9.p.i.i.s.s.i.i.i.s.i.u.-.J J K Z V Z Z Z K Z S Z S A C A A z 6 , # & @ - 1 1 - - - - - - @ @ @ # , 4 A D F F K S S Z Z G Z S Z S Z K ",
"B Z V K Z Z Z C Z C k h * O # @ X O % & @ % - % - X X : % % 1 @ & & ~ ~ 1XvXgXvXhXhXgXgXkX8XG.'.H.~.H.oX~.~.oXQ.oX~.~.~.oX~.'.~.N.H.oXoXoX~.N.~.~.~.N.oXH.H.oX~.~.).~.~.~.~.oX~.~.~.H.oX~.'.Q.~.~.~.~.~.~.oXoXH.~.~.~.~.~.~.~.~.~.~.~.~.~.~.~.~.~.~.~.H.~.~.~.~.~.~.~.~.!.~.~.~.~.~.~.H.~.!.~.~.~.!.!.!.~.Q.Q.Q.~.Q.Q.~.!.Q.~.~.~.~.H.~.!.I.I.I.R.H.j @ # @ ; @ @ : % 1 & X X : X # # @ # +.' U.p.-.-.$.$.-.-.&.&.$.1.$.&.$.&.&.-.*.-.&.&.&.&.&.&.&.;.t.-.-.*.-.&.&.&.&.*.-.&.$.-.$.-.=.*.-.-.-.-.$.-.=.>.$.&.&.$.1.&.=.&.$.&.&.>.$.$.-.&.>.=.&.$.-.&.1.#.@.@.` S S N h M h N M k > 2 o O O O @ @ @ @ @ 9 v.v.7X}.}.l.i.i.9.9.3.9.3.3.u.9.3.u.i.u.u.u.u.i.u.u.i.u.i.i.i.i.p.u.p.u.p.p.i.i.p.i.i.p.i.i.p.i.p.p.u.p.u.p.p.i.i.u.p.u.p.p.u.p.u.H.t.p.u.p.p.u.p.u.H.t.u.u.p.u.u.u.q.u.p.0.p.0.u.u.u.u.i.u.0.u.0.u.u.u.u.u.i.i.u.u.u.u.i.u.i.i.u.0.u.i.u.i.9.u.i.9.u.9.u.i.9.9.9.9.9.i.u.i.9.u.u.9.9.y.4.y.y.y.y.<.V Y m B B V K K V F H H P U U V U H u 2 2 * # ; : # & @ @ : @ # & # O * r x.g.rXtXtXtX0XtX0XlX0XlX'.*Xj.y.y.y.y.C.s.s.a.i.s.i.a.p.i.a.p.p.i.i.d.i.a.i.i.i.i.i.s.p.i.p.i.p.p.i.p.i.p.i.p.i.p.i.i.p.i.p.i.p.i.i.p.u.i.i.p.i.p.i.p.i.i.p.i.i.p.i.p.i.p.i.p.a.i.p.i.p.i.i.p.i.s.i.i.p.9.i.i.i.i.i.i.2.-.{ K Z Z Z Z B V Z Z Z Z F S G G C A c e 9 # - & - - - X - - 1 @ - @ @ @ # # ; g F I G Z F K F Z S V S H S S Z ",
"B Z V V S Z Z V Z G j j # @ @ O @ & @ X 1 % % @ X - - X X & % @ @ @ P W :XwXrXrXrXtXfXtXtX5XQ.Q.oXoXoXN.~.Q.Q.Q.Q.Q.oXQ.~.~.Q.~.oXoXoXH.~.~.oXoX~.~.oX~.oXoX~.~.).~.).~.~.~.~.~.~.~.~.~.~.~.Q.Q.~.~.~.~.~.Q.Q.oXoX~.~.~.~.Q.).~.~.~.~.~.~.~.~.~.~.~.~.~.~.~.~.~.~.~.~.!.~.~.~.~.~.~.~.oX~.~.~.~.~.~.!.Q.Q.~.Q.Q.Q.~.~.~.~.~.~.~.~.~.~.~.W.I.W.I.P.U.h O # # - - - % : X % & & X - @ # # # R R d.1.-.-.-.1.=.-.$.-.>.$.&.&.&.&.&.&.&.&.&.$.&.&.&.&.&.*.&.;.&.&.&.$.&.&.&.$.$.$.&.$.&.-.$.&.;.-.*.-.1.$.-.$.1.$.&.>.$.&.>.&.1.$.&.&.&.>.$.&.$.1.$.>.$.$.$.@.( ^ F N N M k k N M k h 4 ; O O O O X @ @ # @ 4 6.6.[.c.n.i.u.i.3.y.9.3.i.9.y.y.u.u.3.u.0.9.i.u.0.i.u.u.0.u.i.u.i.p.u.u.p.p.p.p.i.p.p.i.p.i.a.p.i.p.a.i.i.i.u.i.i.p.u.p.u.u.p.u.p.u.7.p.p.u.p.u.0.q.p.u.u.p.a.H.t.u.u.u.u.u.u.u.u.u.u.i.u.i.u.u.p.u.u.i.0.i.u.0.i.u.0.i.9.i.u.u.i.u.i.u.0.u.i.i.u.u.i.i.u.u.i.u.i.u.i.i.9.i.u.9.u.7.u.y.y.y.y.o. .B m u B V V K V H U H F H H V U U V P V 7 3 # * # ; & @ : # # & & @ # O + i x.b.rXwXtXtXtXtX0X0X0X*XS.S.y.y.y.j.y.y.y.a.i.s.i.s.i.s.p.p.p.i.a.p.p.a.i.i.i.s.s.i.p.s.p.i.i.i.i.i.i.p.i.p.i.i.i.i.p.i.i.i.p.i.p.p.p.p.i.p.i.a.i.i.i.p.p.i.p.i.i.p.i.a.i.s.i.i.p.i.p.i.i.p.i.p.i.i.p.i.i.i.9.3.<.;.X.Y Y K V Z K V K K K V K Z Z Z S S C Z A v s s & @ & X % - 1 - @ 1 - @ - @ @ # $ O 8 C V S K S Z Z Z Z H S V S Z Z ",
"Z K V Z Z S S V C Z j h # O @ # @ @ & X X & X : & @ @ & & 1 & X & O P U :XwXrXfXtXtXtXtXtX5XQ.Q.Q.Q.Q.oX~.~.Q.oXQ.oXoXQ.~.~.).).N.oXoXH.oX~.~.~.oX~.~.~.~.oX~.~.~.~.~.Q.~.~.~.~.~.~.~.~.~.~.~.~.~.~.~.~.~.~.Q.Q.H.oX~.~.~.oX~.~.~.~.~.~.~.~.~.~.~.~.~.~.~.~.~.~.~.~.Q.Q.!.~.~.~.~.~.~.~.Q.Q.~.~.!.~.Q.Q.~.Q.Q.Q.Q.~.~.~.!.~.~.~.~.~.!.~.!.I.I.!.U.U.l # # @ # - @ : & 1 1 & X - @ & @ & # F R k.-.&.-.=.$.1.-.&.$.>.&.&.&.&.&.&.&.&.*.-.$.&.&.&.&.-.*.-.*.-.&.&.&.&.&.&.-.&.$.&.$.-.$.-.$.-.$.-.$.1.=.-.-.&.&.&.$.>.&.$.$.>.&.&.$.$.>.&.$.=.$.>.$.>.>.$.@.^ ^ F N V k M M M M k h * * O O O O O $ @ @ @ , q.6.].n.x.p.9.9.3.y.3.9.3.y.u.3.i.y.9.i.u.u.u.u.i.u.i.u.i.u.i.p.u.u.p.p.i.i.p.i.p.i.i.i.p.i.i.p.i.p.u.i.a.i.i.i.u.i.p.u.p.p.u.u.p.u.H.u.p.p.i.p.p.u.p.p.u.H.u.u.u.u.H.p.0.0.p.p.u.u.0.0.u.u.i.u.u.u.0.u.i.0.u.u.u.u.p.u.i.7.i.9.u.u.i.u.u.i.u.u.u.i.9.u.i.u.i.i.i.u.i.i.9.u.9.u.u.y.y.y.y.y.y.o.o.B m m m B V V Y H V H V S P U V V I P V 7 7 # & & ; @ : : @ @ & # & & + + i b.V.yXwXtXtX0XtXlX0X0X*XC.C.y.y.y.j.j.y.i.i.a.i.s.s.s.y.i.p.i.d.p.p.i.a.s.i.a.y.p.i.d.i.p.i.p.i.i.p.i.i.i.p.p.p.p.i.i.p.p.i.p.i.i.p.u.p.i.p.i.p.i.p.i.i.i.p.i.p.i.p.i.p.i.i.i.a.i.p.i.p.i.p.a.i.i.i.i.i.s.3.u.3.=.=...Y Y K K B V Z H V K Z Z Z S Z G A C C A c s a & @ & - : @ - 1 - - $ - @ @ @ @ O @ 8 N Z G F Z Z Z S S H Z Z S Z Z ",
"B B Z Z Z Z C Z C C l j @ @ @ # @ & X & : X & X X 1 1 % X @ X & & = v v z.L.J.`.*X.X5XXX*X*XQ.'.Q.Q.~.Q.Q.Q.Q.Q.oXH.~.~.~.~.~.~.oX~.~.oX~.~.~.~.~.~.~.~.~.N.~.oX~.~.~.).~.~.~.~.~.~.~.~.~.~.~.Q.~.~.~.~.~.~.Q.oX~.~.~.Q.Q.Q.~.~.~.~.~.~.~.~.~.~.~.~.~.~.~.~.~.~.!.Q.Q.Q.~.~.H.).H.~.oXH.Q.Q.Q.Q.Q.Q.Q.Q.Q.Q.Q.G.Q.Q.Q.Q.Q.~.~.~.~.!.!.!.W.!.W.I.K.U.G @ & @ - @ % : % & @ % : X % X # # ; l l t.-.&.>.$.-.#.&.&.1.$.$.&.&.&.=.$.$.&.$.;.-.$.&.=.;.&.;.-.;.-.*.&.-.*.&.-.$.$.&.$.$.$.-.$.-.$.-.$.$.$.,.=.&.=.&.&.-.$.&.$.1.$.&.>.1.&.<.&.1.,.$.#.#...T T A N N h h h h k k k k k g * * O O O @ @ O @ O @ 4 t.t.P.k.l.9.9.9.9.9.9.9.9.9.u.u.u.u.u.u.u.0.p.i.u.0.u.i.u.0.u.u.u.u.0.u.p.u.p.u.p.i.p.p.i.p.i.u.p.p.p.p.i.i.i.i.i.p.u.p.u.u.p.u.u.7.t.u.p.u.i.u.p.p.u.u.p.t.t.u.u.u.t.u.u.u.u.u.0.p.u.u.u.u.u.0.p.u.p.0.u.u.i.u.i.u.p.i.u.i.u.i.u.i.u.i.9.9.9.9.9.9.u.9.u.u.u.9.u.9.u.u.u.u.u.u.y.-.4.-.X.;.Y m m m m m K Y V K V H V P U H H U V Y T H V i i * # # & # & @ & : @ & @ + + = i c.b.rXtXlX0X0X0X5Xj.C.o.;.<.o.<.<.y.y.y.i.y.3.y.y.y.y.y.i.i.i.i.i.i.i.i.a.a.y.y.i.s.i.i.i.i.d.p.p.i.p.i.d.9.i.i.i.p.i.p.i.i.i.i.p.i.a.i.i.i.p.i.p.i.p.i.p.i.i.i.i.i.i.i.i.i.i.i.i.i.i.i.i.i.i.i.s.3.y.<.o.{ { U H H S Z S S Z V K V V V B Z Z Z Z Z V G G A A c j j > # # @ 1 1 X - X - - @ - - - # @ O * z j G S F F Z Z S Z Z H V S S ",
"K H V V Z C A C C A j j @ @ @ @ @ & @ - X & : @ % X X 1 & @ % & = O z x ,.9.9.C.W.G.G.'.G.G.G.G.Q.oXH.~.'.H.Q.'.Q.Q.Q.oX~.~.Q.Q.H.oX~.~.oXH.H.oXoX~.~.~.oX~.~.oX).Q./.Q.Q.).~.~.oXH.~.Q.~.~.~.~.~.~.~.~.~.~.~.oXQ.Q.~.oX~.~.~.Q.~.~.~.~.~.~.~.~.~.oX~.~.H.~.~.H.W.G.E.W.W.E.E.W.~.Q.E.Q.E.Q.G.G.H.E.E.E.F.F.A.F.m.m.m.m.m.m.b.M.H.l.M.M.v.v.l.k.9.q.h & @ & @ & & % - 1 X & % X @ : # @ ; 9 7 *.6.-.-.&.&.-.&.&.$.>.$.1.>.$.$.>.&.&.,.=.&.$.$.&.&.$.&.$.-.*.-.&.&.&.&.*.$.&.&.$.-.&.-.$.-.$.&.-.$.&.$.1.&.&.5.&.>.&.>.&.&.&.%.%.%.&.%.#._ _ U N N d d i l g h l h h h h h j k k r & & X O X X O O # @ @ 4 6.q.(.J.c.p.9.u.0.0.u.7.9.9.9.u.u.9.u.u.u.u.u.u.0.u.u.i.u.u.u.u.u.i.u.i.i.i.u.i.i.i.i.p.p.p.p.p.p.i.p.u.i.a.i.i.i.i.i.p.p.u.p.p.p.u.p.p.u.i.i.i.i.i.i.u.p.p.u.u.p.u.u.u.u.u.u.u.u.u.u.i.u.u.u.u.u.p.u.u.p.0.u.i.i.u.u.0.u.i.0.u.u.u.i.i.u.u.9.9.9.u.7.7.u.u.9.u.9.u.u.7.7.;.| | T K K B B B B B B m V B B K H V P V U H H V Y V U Y V H P z z > # & & # @ : # & & & = = + + i s.s.:XwX0X0XG.G.o.K K K U Y K K H T Y K Y H K U U U Y Y Y Y ! { { { } }  .o. .X. .o. .o.o.o.@.X.;.@.$.o.$.$.;.=.=.=.=.<.1.-.-.2.-.-.7.2.3.1.2.2.2.=.2.-.2.-.-.-.1.-.=.2.-.-.;.;.-.-.-.-.1.=.X.@.{ J Y K S V K V H Z K K K H Z Z H V Z B S V Z Z Z Z Z C D C A c x c , & # : 1 : 1 - 1 @ - - X - $ - $ # & r 9 Z G Z F G S K S S Z K S K ",
"V Z Z Z Z Z A C C C s g ; @ @ & @ @ & X 1 @ X - - : % @ X 1 % @ & O z x #.9.9.b.^.^.'.G.G.'.G.G.Q.N.Q.~.H.'.Q.Q.Q.Q.Q.Q.~.Q.~.~.~.oXoXoX~.oXoXoXH.~.~.~.H.~.~.H.Q./.Q.).~.Q.~.~.Q.oX~.oX~.~.Q.~.~.~.oX~.~.~.~.H.~.~.'.H.Q.Q.~.~.~.~.oXH.~.~.~.H.H.H.~.H.~.~.~.~.Q.Q.Q.W.W.W.W.W.Q.H.Q.H.E.F.G.G.W.E.E.A.F.F.F.C.H.m.F.m.m.m.j.M.M.M.M.M.v.M.v.l.w.q.z @ & @ @ 1 1 & & X : X : : % @ & @ : 0 n *.t.-.-.&.&.&.&.&.&.$.&.$.$.>.,.$.&.&.$.>.$.&.&.$.&.&.&.$.&.&.&.&.*.&.&.&.&.&.$.$.&.$.-.$.$.;.$.$.>.=.$.&.&.&.%.&.&.&.&.&.&.&.&.&.&.$.$.#._ _ T v V g d g f f l l l j l h h k j k r O = O = X O = O $ @ O 4 q.6.].H.H.p.0.u.u.0.u.u.9.9.u.u.9.9.u.0.u.0.u.u.i.u.0.9.i.u.0.0.u.i.i.u.u.u.p.p.i.i.p.u.p.u.p.p.i.i.i.a.i.u.i.i.u.a.i.u.u.p.u.p.u.p.u.i.i.i.i.i.i.i.i.p.u.p.u.0.u.u.0.u.i.u.p.u.0.p.p.p.0.0.u.u.u.u.0.i.u.u.u.i.u.u.u.u.i.i.u.i.u.u.u.9.9.9.9.9.9.7.u.u.u.u.u.9.u.u.u.7.3.;.| | Y Z K B B B B m B B V B Y H V H V H V V H Y V V U V U V I N N 4 # * # & @ @ & # & O & + = = t h.h.6XwXyX0X^.G.o.H K K V K K Y H H K T Y H K Y Y H Y T Y Y { { { { { {  . .|  .o. . .o.X.o.X.o.o.;.;.@.$.;.$.=.;.;.=.=.=.-.=.2.2.-.-.2.1.1.-.2.2.2.2.-.-.2.2.-.-.=.=.=.4.;.4.-.-.-.-.=.<.$.X.X.{ Y Y K V H V K Z Z S S S Z V H Z Z Z H V S Z Z S Z Z C C A A A b x 0 @ @ @ - X - X - 1 X - - - - @ @ # # 9 9 Z G K S S S S Z S K Z Z Z ",
"S Z H Z A S A D C G j l # @ # @ & @ @ @ @ X @ @ X & 1 @ X @ X & @ O k x `  . .+.y.i.j.C.G.N.F.m.H.H.H.N.N.H.H.H.H.N.H.H.E.Q.Q.Q.H.~.H.N.N.~.oXH.oX~.H.oX~.N.~.~./.Q.!.Q.Q.Q.Q.Q.Q.H.~.H.Q.Q.Q.Q.oXH.N.oXH.oX~.H.Q.Q.Q.H.H.Q.Q.H.H.H.H.N.H.H.a.M.H.H.a.a.H.u.a.u.2.;.;.;.;.@.;.;.y.;.:.;.:.X.X.X.| X.{ { { Y Y Y Y K J J K J H K K K R J F F F L t 9 * # & @ : @ : % : % % X X % X & @ # ; 4 4 +.6.&.5.-.&.&.&.$.$.&.>.$.&.#.%.&.&.,.&.$.&.$.1.=.$.&.-.$.&.$.&.*.&.&.&.&.&.&.&.&.&.&.-.-.-.-.$.&.&.-.>.&.&.&.&.&.&.*.%.%.*._ ( ) F C Z l 9 r , 6 4 8 9 9 r d d d l l j j j j j j e = = . . % O O # O $ @ < q.q.].].[.K.H.H.v.a.k.p.i.0.u.i.u.u.9.u.p.p.u.u.p.u.p.i.u.i.u.i.u.7.i.u.0.u.0.u.u.i.i.p.u.p.u.u.u.u.p.u.i.a.u.i.a.a.u.p.u.u.u.a.a.u.p.u.i.u.i.i.i.u.i.u.p.u.p.u.a.u.u.i.u.u.u.p.0.u.u.i.u.u.u.u.u.u.u.p.u.p.p.u.i.i.u.i.u.u.u.i.u.u.u.9.i.9.9.u.u.u.7.u.7.2.7.3.-.-.X.Y Y K B B M B B B B B K V V H V V H H V H H H V P V U I U V U V U P S S 9 # # # # & @ & # & = O = = + i <.1.l.s.y.;.T { H Y K K H H K K H H H H H B K V B B B m S K Z Z V S S K B V K V K K V K K Z K Z Z Z S S H Z S H H Z H H H Z H K Z K K S H H S H H K Z K K B Z Z Z B Z V B B B B B B M B B V B Z Z B K V V V Z K Z K V K K Z K V V V Z V Z V K Z Z Z S Z G A A v c z e & # - @ - X - @ 1 - - - - @ - $ @ # 4 6 k G Z G J K F G K Z G K F ",
"C Z N V N c C c c c a a - @ @ @ # @ & @ @ - : X : X % @ : & X @ = O x x / ^ ^ ! T T  .;.y.y.y.y.a.a.a.a.u.u.a.a.a.u.a.a.u.y.u.y.u.u.a.u.a.u.u.u.u.u.a.u.a.a.a.a.a.a.a.j.f.j.j.j.N.M.m.M.M.M.M.M.M.M.M.M.M.M.M.N.a.a.u.y.y.;.:.| | | | K K K K K K K K K M B K K V V V V B V V B B B B B Z K B K V Z Z B B V B B V Z V K V S S S G Z K G K C G 7 * * & & @ & X : % - % : X : : X : @ ; @ # # # Q t.6.-.t.&.-.>.>.1.&.=.>.&.,.,.&.%.#.&.#.,.$.#.,.&.$.%.&.&.$.&.-.&.&.&.&.&.&.&.&.-.$.$.$.$.&.&.&.%.%.#.+.' ] / E E D k k d 4 4 > # @ O # O + O = + * > 4 8 9 9 d f l d g g g d s & = O % = . X & @ O @ @ 4 6.6.]. X[.).].(.~.!.I.P.J.K.x.h.f.d.d.p.u.0.u.u.0.i.u.i.i.u.u.0.i.u.i.p.u.u.p.u.p.i.i.p.p.p.u.u.u.u.u.u.7.7.7.7.-.u.-.7.7.u.u.t.t.u.t.7.u.7.7.u.7.7.u.u.t.7.u.u.u.t.q.7.7.7.7.7.7.7.u.7.7.7.7.7.7.7.7.7.7.t.7.2.2.7.2.7.7.7.2.7.2.7.t.3.1.2.2.1.-.2.-.-.;.@.X.} Y Y S Z Z B Z V K H V K K B K H H V H H V H H V H I H H P H H V U V T H I F F 9 * : ; & @ & # & @ & & + = + i O.O.$.Y T H Y Y H H T H H K K K H H H H H H K H H H Y U H H J H K H H F Y H K K H H K V S H S H K K K S K Z H Z S Z Z Z Z Z Z B Z S S K Z Z Z Z V B Z Z V Z Z Z Z Z K Z Z Z Z Z Z K K V S V K V Z B V B Z K Z V V K Z Z V V K Z H Z Z V V S Z Z Z Z S Z A C A A c c r & # @ 1 X 1 1 1 1 - X X - @ @ # @ @ # # a G Z G G G G G G R K G G ",
"N Z Z N c z C c c c s s - @ @ # @ @ @ - @ - X - X 1 & X : : X @ @ @ g x / T ^ Q Y {  .;.;.y.y.y.u.u.N.u.u.u.u.u.y.y.i.y.y.u.y.i.y.y.y.i.y.y.y.s.u.u.u.u.u.u.u.a.a.a.g.j.j.j.j.j.j.M.M.M.M.M.M.l.M.M.H.M.a.M.M.a.a.a.7.-.y.;.:.:.| Y Y J K K K S B K K K Z K B B V V B B V B B B B B V V V H V V K B V V B V V V V V V H V H Z Z S S S S S A A t # * O & & & & @ : & % X : % % & X - ; @ @ ; ; Q 6.t.&.t.&.&.&.&.&.,.&.&.,.#.%.,.&.,.&.&.$.>.,.&.#.>.$.&.&.&.&.&.-.&.&.&.&.&.&.&.-.$.&.$.&.&.%.&.%.#.*.#.' ' / Q ~ G k k a 4 , ; # # # $ O # O # # # 4 4 8 9 9 s d d d j g j a d , O O = X O = O X O @ O , 6.5.].].[.].[.].].E.I.W.J.J.x.d.l.p.a.u.a.9.u.i.0.u.i.i.p.0.u.u.9.u.u.i.i.i.u.i.u.p.i.u.u.p.u.i.u.u.u.7.y.-.u.-.u.-.y.t.u.;.u.2.y.-.y.u.u.2.u.y.7.7.y.u.u.u.7.u.u.7.7.7.u.7.7.u.7.7.7.7.7.2.7.2.7.2.6.7.2.2.2.2.2.2.2.2.-.2.7.u.-.7.-.1.2.2.-.2.-.2.-.;.;.o. . .Y Y S V V B B B V V H H H B V Y B V Y H V U V P H V U V Y Y V V U P U H I P S t * * # @ & @ - & @ & O + + + t +.o.$.Y T H Y K H H H H Y K K K H K H H K K K V K B Y V H H U H H H H V B U V Y V Y V K H S H H K S H K Z H S S Z S Z S Z Z Z Z Z Z Z Z Z Z K Z Z Z Z Z Z Z Z Z Z Z Z Z Z Z Z Z K Z K V Z Z Z Z B H Z Z Z K K H B K B H V Z Z B H B Z H Z S Z Z S Z A Z G A C D c c a : & @ - 1 1 - 1 - - - $ - @ @ @ @ @ # # y L C K G G G J K G G G Z ",
"j j k k j z x g j s 8 8 # @ X - X - X @ X X @ @ @ @ X - @ X X @ O @ h x / ^ ^ Y Y Y K K K Y K K K Y Y K K K K K Y K K Y K K H K K H K V H H H V K K K K K K K K V S V Z V V H V S S S S B S B B B K B B K L K B B M M M M B B Z B Z Z Z V B B V B B Z L B M B B V N N V B V V V V V H V V V S S V H V V H V H V V V V V V B S S S G D S F g g * # O & X @ @ @ @ X - % - : X - X - @ @ # # # # c &.5.5.5.5.5.t.&.&.&.>.&.>.>.&.&.&.&.,.&.&.#.&.&.&.&.$.*.&.&.&.%.$.%.&.&.*.&.$.*.*.#.*.[ +.( ) / Q F G h 9 9 , ; & # # # # # # # # O $ # # O # O # O # # * , 4 9 r a a s s a 8 8 & X X X & X X X @ @ @ O > _ ' L.].].].].].I.].!.W.!.!.!.(.I.L.J.J.x.d.d.p.i.i.p.i.u.p.u.p.u.p.d.d.p.p.k.a.a.p.i.0.u.2.t.-.;.;.@.:.:.:.| | | | | | | | | | | | | | | ..| ..| | ..| | *.| | | | | | ..| | ....| | | | } } | | | | | | { { { { { { | { } | | { | { } ^ } ! { ! Q Y U U P U H S F H H H H H H H P V V H U V V U T V H V V U V H H V T V V U U P V V I P V H y * 4 ; : # & # # & # & + + + 5 U I  .Y T T V U Y K H H V Y K K H H H H H K Y Y Y Y K Y Y H H V H U H Y T H Y V Y V Y H H U J H U J J H S K K S K S Z S F Z Z K K Z Z Z K Z Z Z K Z Z S Z Z S K Z K S Z Z Z K B Z Z Z V H V H Z V B H V V B V V V V V B H B Z K V V Z V S S Z Z Z Z Z Z G Z C D c A s & & : X @ X X X @ $ - - - $ - @ $ @ @ O w l l C C G L G G G G G G ",
"d a a a a s a 8 8 > * & @ 1 @ X @ @ @ X - X - X - - X X - X @ @ @ @ g g ^ ^ T Q Y Y Y K K K Y Y Y Y Y Y Y Y Y K H Y H H K H Z Z V B N B B m V z K L M M M M m L N k N z M N N N V N V N V V S Z B Z Z Z K L L K Z Z Z S Z Z K Z Z K Z S Z S S Z B Z Z Z Z Z Z Z S S S I S F P P Y P P P Y U U P Y P U U U P V P I V S S S S S S S S S D z 8 8 + # & O @ @ X X : @ % & 1 X 1 @ @ @ @ @ - # @ @ 0 [ &.5.%.&.%.*.*.*.#.] +.+._ ' ' _ _ / / / / ~ ~ ~ ~ ~ / W Q W / Q / ~ / Q R E F C C j l d 8 4 0 ; ; # # @ @ # ; : # - # @ ; @ # @ @ # O @ O # @ @ @ O @ # # & * , , 0 p e 8 * * @ = X = X O X @ X @ X @ O a a %.v.B.U.!.Y.].Y.Y.].I.I.I.!.I.I.I.I.U.H.J.M.k.l.l.l.p.k.k.l.d.k.l.v.l.p.p.9.-.2.-.*.@.+.| ..} { { | { | | { { { { ! { ! | Y { { { ! { { { { ^ { ^ ! ! ) ) ! { ^ ! ! ! ! ! ! ! ! ! ) ) ! ! ^ ! ) Q ! ) ! ! ) ) ! ! ! ! { ! ! ! ) ! Q ) Q Q U U U U P T U P U J U I U S I P U V V U U I U U T V V T P U H P U S U P V T U V I V P P I I V I n 0 > ; @ & & @ @ @ - - * + + 2 7 r C F V U U U T H T H U V P H H H H H H Y U V K Y Y B H U H U U U H U H T Y V Y Y K H Y H F P J J U H H H H F H K S S S Z Z Z Z K Z K Z Z Z Z Z K K S K Z Z Z F Z Z Z Z Z K Z Z Z Z S B V S V V H V V V H B V V V H B Z K Z Z H Z Z V V Z Z S Z Z Z A Z C C C v A j : > X 1 @ % % @ % X X $ - - @ - @ @ # # # * > 0 0 7 n n 7 n 9 9 n ",
"a d s a a a a < 8 , : : @ X X @ @ 1 X - X @ X @ X @ : @ @ - X @ @ & g g ^ ~ ~ T Y Y Y Y K Y K Y Y Y K Y K K | K Y Y H U H H S V Z B V B B B z V K L M M M M M m M N M M N N B N V N N Z N N B Z B Z Z Z L K B B Z G Z G Z Z Z Z Z Z Z Z A Z Z S K B Z K K Z K G S S S S I H U S P P Y I U U U P P Y H P P S I S A S A A S S S Z G A A D z 6 8 + # @ & & : : X @ - % X @ & % X : X - @ - @ # # 0 ' 5.t.t.%.>.%.%.%.%.+.%.+.' ' / [ / ` ` / / ~ ) ~ ~ W W / / Q / / W ~ ~ E R R D b C k s l n 0 0 > # ; # # @ @ # @ ; # @ # @ # @ # @ # O @ O @ & # # O @ @ # * & 4 4 8 r e 8 : & X O X X @ % O % @ X @ @ @ a a %.J.v.I.I.Y.I.Y.Y.I.I.].I.I.W.I.I.I.P.J.H.x.l.k.l.p.l.p.a.k.a.l.l.l.l.p.p.9.1.2.=.;.;.*.| | } { | ! { { { { { { { | | ! { { { { ^ { { { ! ^ { ! ^ | | ! ! { ! { ! ) { ! ) ^ ! ! ^ ! ) ! ) ) ^ ! ! { ! ( ) ) ! ! ) ! ) ) ! { ) ! ) ! Q Q Y U U U U P T P U U I J F U P H P U P U U U P U V I T H I H I U I I H V U I V V U I U I I U V H V d > 4 ; @ : # # @ # # @ * * + + 9 9 V H Y U T U H H H H H Y V U H H H H H H K K Y V Y V H H U H V V U H H Y H U V Y H T H U U U H U U H J H J K F S Z H K Z Z Z Z F Z Z Z K S Z S S S Z V Z K Z K Z K Z K Z B V K B S Z V H Z Z V V H V Z Z V V V B H V Z Z Z V V V H V V S Z Z S Z G Z Z A A D A A g : : @ X 1 @ X X 1 X - $ - $ @ @ @ @ $ $ # 2 : 0 9 0 n 0 n 9 n n 7 ",
": > : > : : & & & X : : - X @ X X @ X - @ X - X - X X - X - X @ X # a a F ~ ~ T T T T Y Y Y Y Y Q Y Q Q | Y | K T T T Y T P P T U T P P I I P P I I P I K K K K G F F F F F F F S S S S G S F G G K K G K R R R F F R F F F J F K F J F F F F F F I F I G G F F F D S D S D S S S S I S S I F S S D S A V v A A A A A I A A A A S A z z t * & & O & & X X @ X : @ : % % X : X @ & @ @ - @ @ @ # j W / E E D D v c c c x j d g a a a r 8 9 8 8 9 0 6 8 0 8 8 6 8 8 8 8 0 4 , 4 > ; > ; # # # ; # # @ @ # ; & : # & # - & : @ & @ @ @ @ @ @ @ & O @ @ @ @ @ @ & @ @ @ & & * # O X @ X X O X & X O X @ % @ O O O 6 D c *.r.0.v.J.H.R.P.U.U.U.U.U.U.U.I.P.P.R.H.J.J.H.H.m.c.c.x.k.0.q.t.+.+...} ^ ( { { } { } } } } { | } } { {  .} | { } { { } } { { { {  .( }  .( ) | { } } { } ^ } } } ( ( { } ^  .^ ^ / ^ ^ _ ^ ( ( ( ( ( ( ( ) } ( ( [ ( ( ( ( ..( _ _ / ( / ^ ` ~ ~ ~ ~ ~ T P S I I U I F F F F F F I I P I I I F S F F I I S V I I V D I A A A C k C n > > - @ @ @ @ @ @ @ - # # # # # * 6 k x P P T T T I V H H U V H H H U T Y U V T V Y Y H H H H Y H H T U U U K U U U Y U Y H Y P H H J H J H K H F S S S K Z K Z Z S S S Z K Z S Z S S K Z Z Z Z K Z Z S Z H K Z Z S S V H V H H B V V V V V V V B K V Z Z V V V S S V V V K B S Z S Z Z G A C D D x : > @ X X @ X 1 X - - - $ $ - @ @ $ # # $ @ # # @ @ # @ # @ @ # O ",
"- X - X & % @ # : X 1 X - - X @ @ X @ X @ X X @ X @ - @ @ X X @ O O 6 6 c A A S V V V H S H F F J F J F K K K K P P P P P T P I U P P T T W T W T T ^ ^ ) ) ) R ~ ~ T Q Q R D F I S D D Z G G Z G G G G L L L L C c c c C c c c k z b k k j j j g g d g l d a r r e e t e t e e 7 t e e 8 e e 7 e t 8 e t t e t r r r r d r d s d r t e * = & & % & & @ @ - 1 @ X - X - % X : - X : - X @ - @ - : < < , > > > : ; : # - : & * & & & * : : # : : & * & & # ; # # * & # # # * # * ; ; : # : & & & : & : 1 - @ & : & & & @ @ % @ & @ @ X @ @ @ X & @ @ & @ @ & O & X @ @ X X X X @ O @ @ @ O X @ @ O X O X X % O @ @ @ , d s D W W [ *.%.&.5.t.5.q.t.6.q.q.q.0.0.q.q.q.8.6.$.#.../ ) ! Q Q Q Q ~ ^ ) ) / ^ / ^ ` ^ ) { ( } ^ _ { _ { { ^ ^ ^ ^  .^ { { { ^ ( ( { ( ! | ( ^ ( ) ( ( ( ) ( / / ) / ^ / ^ / ~ ) ~ ~ ~ Q Q ) Q Q ~ Q ~ Q ~ Q Q Q Q Q Q E P U P U P I I A I N A z x z x g g i i i g g g d g g d t u i u g g s s a d d a t i i t r r t 8 8 0 4 , ; # @ X @ @ @ @ @ @ ; @ # @ # O O # # 4 3 g N N V I I T P H S U P P S H U V U Y H T U V T H T V H Y T H U U I Y U Y H U Y P H P J U U H J J H F K S H S S S Z S K H S S S S Z S Z S S Z S F Z Z Z Z G K S V V V H S V V Z Z V V V B H B V K B V V V B H B K Z K S V B S Z H Z Z Z S G Z G G A D v A z < , X X @ X X - X X X - X - $ $ - @ @ @ @ @ @ @ @ @ @ @ @ @ @ @ @ ",
"X X X @ X : - % X : 1 - X @ - X X - X - X - X @ @ - @ X X - @ @ @ # 8 6 z A A G S S V U S F F S F F F J J R K Y U P T P P P P T I T T T T P T ~ ~ ~ ~ ~ Q / ) R ~ ~ ~ E E R F F F F F D S G G S Z G L G G L G L C C c C c c c z c z k k z z k j h g d d a r d r t t e t t e t e e e e t e t e 9 8 t 8 t t e e t r r r r a s i d d r e 8 & & @ = & = % @ @ X @ @ @ % 1 @ - X & X @ 1 @ X @ @ @ @ : 8 < < > > > ; : # & # # * * # # * & # & # # * * & * # & & & * * # * # # & * & * : * # & & & & @ : & & @ & # : & - : @ & @ & @ @ @ X @ X X @ O @ X @ @ @ & X @ @ @ X @ @ X @ @ & @ @ X @ @ X X X X O @ @ @ X O O O , d d G W W [ *.*.&.&.5.5.5.q.q.q.q.0.q.q.0.q.q.8.t.%.@.+.) ) Q Q Q ) ~ ~ ^ Q ) ) / ^ ^ ^ / ! ( ( (  .` } ^ { ( ! /  .( ^ ` ^ / ^ / ( / ( / { ^ } ( ( ) ( ( ( ( ( ) ( / ^ ( ^ / / ^ ~ ) Q ~ ~ ~ Q ~ ~ Q ~ Q ~ Q Q ~ Q ~ U ~ Q P U P U I I S I A N A z z z x g g g g g g g g d g g d g i i i d d d i d d d s s r i r r r r 8 8 6 , , ; @ @ - - @ @ @ @ @ @ ; - # # O # # # 4 > g N A I T I T F P H P H P U U U Y V U Y H I T H H Y T V Y H T U U P U K U P H H P U P U H J J J F K F J S V S H S S S S Z G S S G S S S S S S Z Z S S Z Z Z K S S S B V V B S K V Z V V H K V K V V V V V V H Z V V Z V V B V Z S Z Z Z S S Z S Z A C v A z < , @ X X 1 X X - X 1 X - - - $ @ @ @ @ @ @ @ @ @ @ @ @ @ @ @ @ @ ",
"% & 1 X @ X - X : @ X X - X @ X @ X @ X @ X - X @ X - X @ X X O O # * : t r r r t r t t t q 9 q 9 9 9 q q y q q r i t i i i i i s s s s x s s g g x j j j h k l j g j g l j d s l a s a a 9 9 n 9 9 n n q 0 n n 8 8 8 4 8 0 , , , > > > * * & & * * * * & # # # & O # O @ # # O O O # O O # O = O O @ = O O = O O = & = * + * & * * = & O & O % = X & X : & % 1 1 @ @ X : @ @ 1 @ @ @ - @ - @ - @ # @ @ ; @ @ - @ ; : ; : : * : : * : : * : : * & & # : & # & ; & # : & & : # : & & & : & & : & 1 : : : : & - : : : @ % @ : & X @ @ @ X @ & & X @ @ @ @ @ @ O & @ X @ X X @ O @ X O O @ O @ @ O @ @ X @ O @ O @ @ @ O @ O # ; # ; 0 0 8 a 9 a 9 n a d d l l h g l d d d d d d d l l h l h k h k k k z z N z N N C N N N C C N A C C Z N C N A N Z N A V V N V N L C N C C C N N C k z N N z z z z z z g g g g g g d g d g d d d a d r a r r 9 r 8 r e t 8 8 8 6 6 6 * * * & * * * * + * * # & & & & & & & & * + @ # & & @ & O & @ @ @ = @ @ @ O @ @ @ @ @ O X @ X @ - X - X - @ @ @ - @ @ @ @ @ O * 3 3 t h h u A A G S G V V V V V I V I I V V T V I V T I T V K U P U P U U U U U I U F U I J F J J F J J S S S G G C C Z C N V N Z Z Z S Z S S G S S S S Z G V C A S S Z S V B S Z V V V V V V V V B H V V B V S V B K V S V V Z K Z S Z G A G A A A A A z < < @ @ @ X @ X - $ $ X $ $ $ - @ - $ $ @ - @ - @ - X @ $ - @ X @ ",
"1 1 X @ @ X : : @ X X - X @ X @ @ X - @ X - @ X @ X @ X X @ @ @ O @ # O # # # # # # # # # # + + # + + # + + # # # + # # # # # w # * * # * * ; ; # ; # # # # # # # # # # # & # * - # ; # # @ # # # # # @ @ # @ # @ @ @ $ # O @ O @ @ @ @ O @ O O @ O & @ @ @ @ @ @ @ @ # @ @ # O @ @ # @ @ @ # @ = O & @ = # O O O O O O X O O = @ = = O & = % = % = % % & X : % X X : X @ X : - @ - @ @ @ @ 1 X X @ % @ & & & & % & : : , : : , : % % : % : % , : = : : : : & & & * & & = : : = : : : : = = : : : % : : : : : : : ; @ & & % @ & X & & X @ @ O X @ @ & @ @ & @ = @ X @ % X @ O @ @ @ @ $ O @ @ O @ O @ O @ @ # $ @ O @ @ @ # # $ @ # # @ @ # - # @ # @ # # @ # # # $ @ # # # # # # # ; # ; # # ; 4 # ; > 4 > > > > w 4 w 4 w w w 4 w 4 4 ; 4 w w 4 w w w w 4 4 5 4 w 4 w ; 4 w ; > w ; w # ; ; ; * * ; # # # # # # # # # # $ # # # # @ # @ @ O # @ # @ @ @ O @ @ @ @ O O @ @ & X @ @ @ @ @ @ $ @ @ @ @ $ - - @ - - @ X @ X @ @ @ @ X @ @ @ @ @ $ @ @ $ @ @ X @ @ @ X - - X X @ - X @ X - - - - - - $ $ O @ ; ; 4 0 0 8 a 8 a a d 9 a a r r r y y r y r y y i d g h h h j h j k k j k k j k k k k N k k k k k h h l d r 9 9 8 8 8 9 8 r r r i i h k k N N A A A A G A G A G S S Z S A S Z Z A Z Z C Z A V Z Z C C B B S C V S Z G Z A S G G Z G Z A A S A z z j > : O @ X @ @ @ $ X - X - $ 1 $ $ - @ - @ @ - - $ @ X @ 1 @ X X X ",
"@ @ @ : - X @ X X : & @ : X - X X @ X @ @ X 1 @ X - 1 @ - X X @ @ @ O @ O @ O O @ O # O + O $ # # $ $ # $ # # # # $ O # # O @ O $ # # O @ O # $ @ @ @ @ O @ @ O @ O O @ X @ O @ @ @ O @ @ O O O O @ @ O O # $ # @ O # $ $ O @ @ @ @ @ @ @ @ X & @ @ @ @ @ @ @ @ - @ - @ - @ @ @ @ @ @ @ @ @ @ @ X & O = & O % = = X X = = O O % X % X = % O O % = O O % % & X - : @ - @ : X @ X & X 1 @ 1 % % & : % % % 1 % % & 1 : 1 1 % % % % % % , % % , % : : = : = * * & & & & * & : : : * : = = : : : : : : : : % : : & : & : & X & % : @ O % O @ X % & & & % O @ @ @ @ @ & & @ O @ X @ @ $ @ O @ @ @ O O @ @ @ @ $ @ O @ @ # $ @ $ @ @ @ @ @ - - - @ - @ - - # # @ # @ @ # @ @ @ @ @ - @ ; ; # ; # # ; - # ; # # # # # ; ; @ ; ; - ; - # - # ; $ # # @ @ @ @ - # ; ; $ $ ; @ - # # ; # ; # @ # @ # @ # # # # @ @ @ @ @ @ @ @ @ @ # @ @ @ $ O @ O @ @ @ @ @ O @ @ @ @ X O O @ X @ X X @ X @ X @ @ @ - - @ @ @ @ @ @ $ $ $ X - X @ X @ X @ $ - $ @ $ @ X - - $ - X @ @ - $ - X X @ @ @ - X X - X $ X X $ X X @ @ $ @ X @ O @ @ ; - ; # & # # # # * # & & & = & * & & * * * * * > * > : > > > > > > > , : > > , 4 ; 0 > > ; # * * * # & # @ # @ # # * * # 4 6 4 8 8 8 t r r d g h z N A S G G Z G A C Z C C C z N C C C C N C C N C C N C C C N N N C N z N k j g r 6 6 , % @ X @ X @ X X - - X 1 $ - $ - - - $ $ @ @ X @ X X & X @ @ @ @ X ",
"1 @ X - @ - & X - 1 @ @ - @ X @ @ X @ X X X - X @ - @ X X @ X O X O O O O @ # O O @ O O O O @ $ # O # $ # $ # $ # O # $ # $ # O # $ $ # O @ @ @ $ @ @ @ @ O O $ O @ O O O O @ O @ O $ @ O O O $ O O @ @ $ $ @ @ # @ @ @ @ @ @ @ @ @ @ @ @ @ X O X @ @ & @ - @ - - - @ @ @ @ @ @ @ @ @ @ X & @ @ = O @ = X O & O = O O = X O X = O % = % = % % = & % = & X % @ % % : @ X X - & @ X X - : : % 1 X X % X % & & % 1 % % & : % : : : , , % , % % : : : : = , & & & & & & & & : = : : : : : : : : : = : % 1 : & : : : : : & @ & & & & & % O X & O @ @ X O @ @ O & @ @ O & @ X X O @ O @ O O @ @ @ @ @ @ $ @ $ @ O O @ @ $ $ O @ @ # @ @ - @ @ - @ @ - @ # # @ # @ @ # @ @ @ @ @ @ @ - @ ; ; @ ; # ; @ @ ; @ ; # ; ; # # - ; $ ; @ # - ; # $ ; @ # # # # @ # @ @ # $ ; @ # ; # ; # # @ # @ @ # @ @ @ @ @ @ @ # @ @ @ @ @ @ # ; @ @ @ @ @ @ @ @ @ @ @ @ @ @ @ @ @ O @ @ @ @ @ X X @ X - @ X @ @ @ $ $ - $ - $ - @ - - X X X - X X X @ - @ - - @ X - $ @ @ @ $ @ @ - @ - X @ X @ X @ X X X 1 X - 1 - X - - - $ - $ @ X $ @ X @ - @ @ & & # & # & & # # & * O * = & * * * > > * ; > : , : > > > > > > > > 4 4 4 4 > > ; > : * & & # @ # # # @ & # & * * * > 4 6 8 8 r r a f j l b c C A G S G S Z C G Z G C C C A C A C C C C C G C Z C C C C C C C N C N z g k r 6 6 * & @ $ $ @ X @ X @ - X - $ - 1 $ - @ @ - @ - X - X @ X @ X X 1 @ @ ",
"@ : X @ @ 1 @ @ @ @ @ 1 @ X @ 1 1 @ 1 X - @ X @ X X X @ @ X @ @ O @ @ @ @ O @ @ @ @ O O O @ @ # @ O O # @ @ O @ $ O O @ O @ O @ $ @ @ @ @ @ @ $ @ # $ @ O @ @ @ @ O O @ @ @ O @ @ O @ @ @ @ @ @ @ $ @ @ @ @ @ @ @ - @ @ @ @ @ @ @ - @ @ @ @ @ @ @ @ @ @ @ @ - @ - $ @ - @ - @ @ @ # @ @ @ @ @ @ @ X & X = @ X & @ X @ % = % O X % = X = % O & X X & X X & @ X & @ X @ & & @ X X : @ @ X X X : % % & 1 % % 1 % & : % : % : : % % % % % % , , % % : = : % : = : : & & & : : = : = : = = : % : : % : : : : 1 & & & & : X & & % & % @ @ & X @ & @ @ @ & & O & @ & = @ X @ % @ @ @ @ @ @ @ @ @ @ @ @ @ @ @ @ @ @ @ $ O @ @ $ @ # @ - @ @ - @ @ - - ; - - - @ - ; ; @ ; $ ; ; $ - - - - @ @ ; # ; # ; - # ; @ ; - @ - ; @ @ ; @ ; ; @ @ @ @ @ @ @ @ - - @ @ @ - @ ; $ @ - @ - - - ; @ ; - # @ - ; - - @ @ @ @ @ - @ @ @ @ - $ @ @ @ @ @ @ @ @ @ @ @ - @ X @ X X X X X X X X $ X X X X X @ X X X @ @ @ @ @ @ $ X X O X O X X X X - X X X $ @ X @ X - X @ X - @ X @ @ $ @ X - - - X - X - X - X X - X X X X X X @ X X @ @ @ X - @ & @ @ & @ & @ @ & @ & @ & & # # & # & # : # - # # # - & # & * : @ # # @ @ - @ ; @ # # @ @ # # @ # @ & @ # @ @ @ @ # @ # @ # @ # & # # > > > 4 e 8 r l d j g g g g f h g g g g g g h x h j j k g g g g d d d 9 9 6 0 8 6 * > & O O X X @ X X X - X - X X - $ 1 $ - - $ - $ $ - X @ @ X X @ X @ X @ X X ",
"& X O % & X @ @ @ @ @ @ X & X @ X @ @ : @ O @ @ @ X @ @ X @ @ X O O $ $ @ @ @ $ @ # $ # O @ O @ O @ $ @ O @ @ O O # @ @ @ @ O @ ; $ ; # @ - @ @ @ @ @ @ $ @ @ @ O @ O = @ O @ @ @ @ O @ O O @ O @ @ @ - $ @ @ - @ @ @ - @ @ @ - @ @ @ @ @ @ @ @ @ @ @ @ @ - - @ @ - @ @ - @ @ - @ @ O @ = @ & @ X & O @ X & @ & % @ & % O % % & % = & X O @ X & X & O @ @ & & O @ X & O % @ @ & : @ @ & : % 1 @ & X % & @ % & % % & & 1 & : & : % % : = % : = : : = : % : = : % : & % : & & : : = : : = : : : * : : & & = : % 3 & & & % & = = = O & = @ & O & = = O & & = & & & & X & X @ @ & @ @ @ # @ @ @ @ @ @ @ # @ @ @ O @ @ O @ @ # @ @ @ - $ ; ; @ @ $ - # - # - # - @ - ; - @ - @ ; @ ; ; # - @ - @ - @ - @ - # @ - @ : @ # - @ @ - # @ @ @ @ # # - @ @ @ @ @ $ - @ @ @ - - - $ - - ; ; @ ; @ - - ; - - - # @ - - - @ @ @ $ - $ @ - - @ - @ @ @ X - $ X - X X X X X @ X O @ X @ X X X X $ X X $ @ X $ @ @ X @ $ $ $ @ O @ $ @ @ @ X O @ $ @ @ @ X @ @ - @ $ X @ $ @ $ - @ $ - $ X - - X @ $ X @ X - X @ @ X X O X X X @ $ - @ $ @ @ @ @ @ & & X : @ : @ : X & & @ & & @ - @ X - # - @ - # @ & @ & @ & @ @ & # & # @ @ : & @ & @ & @ & @ & & @ & @ @ & @ # O @ @ @ @ @ O $ # @ # # @ # ; ; * ; w # # # # * * * > * * > 3 w < ; ; * * * & # * ; # # O O # O @ = O O O O X $ @ X X - X - X - 1 $ - 1 $ $ 1 - 1 1 $ @ X @ X @ X & X X = X = ",
"X & @ X @ & X @ @ @ @ @ @ @ X & @ @ @ @ X @ @ O X @ X @ @ @ O # O O # # @ O @ @ @ O O O O O @ O $ @ # @ O @ $ @ @ $ @ O @ $ @ @ $ $ $ ; @ $ @ @ - $ @ @ # $ O @ @ X = O @ O O @ @ O @ @ @ @ O @ @ @ @ @ - @ @ @ - - @ @ @ - @ @ # @ - @ & @ # @ @ # @ @ @ @ @ @ @ @ - @ - @ @ - # @ & @ @ @ @ @ & X % @ & O # O @ @ O & % & X = = X = = = % X @ @ & % & & & X & @ & @ & % @ @ # X @ : & X & @ % 1 X : X : : % & % & & : % : & & : : : : % % % : % % : : : : % % & & & : & & : & : % : : = : * : : , & & : % % % & @ = % & % % = & O O @ O & O & @ @ & O = * % = O & & O X @ @ @ @ @ @ @ @ @ @ @ # @ @ @ @ $ @ @ @ @ @ $ $ - - @ @ $ @ - - @ ; ; - @ - @ - @ ; @ - # - # - # - @ @ - # - # - # - @ ; @ - - @ : @ - - @ ; ; @ - @ @ @ @ @ @ ; - @ @ - - ; @ ; - @ - @ - ; ; ; - @ - @ - # - - - - - - @ @ @ @ - @ @ - @ @ @ @ $ @ @ @ @ - X $ - X X X - X X X X O @ $ $ - X X @ X $ - O X $ @ @ @ $ $ @ X @ X $ X X @ $ X X O X @ $ @ @ X $ @ @ X @ - @ @ - @ X @ @ @ @ X @ @ $ @ @ - @ @ @ X @ X X @ X X X @ X $ @ X @ - @ & X - & @ @ : @ : X : : & @ X & X X & @ @ - @ - @ ; ; - & # : # : # & : @ & & @ ; @ # @ & # & # & # & & @ @ @ @ @ O & # @ @ # # @ @ # # @ @ # @ # # ; * ; ; w # 2 # w 2 * * ; > > * > > > > > > * * # * * # O # O @ O @ O @ O & X X @ X @ X @ X - X @ - $ 1 - 1 - - 1 $ $ - - X - X - X @ X % % X % X ",
"& & @ & @ @ @ @ @ @ # O @ @ @ & O @ # # @ @ O O @ O @ @ X O O $ @ @ $ # # # @ # # O o # # $ O # # @ @ O @ $ # @ @ $ $ @ O @ O @ $ ; $ # @ $ @ O @ $ O @ O @ $ @ O & O X O @ X @ @ @ @ @ @ @ @ @ @ @ @ @ @ # @ @ @ @ ; # - # - # @ @ @ & O & = @ @ @ @ # @ @ @ @ @ @ @ # @ @ # @ @ @ @ & @ # O & # # # O O # & * @ # @ & & & @ # @ = @ = = & & & & O & & O & = & @ @ = O O = & & : @ @ @ & @ : @ & & 1 & X : % & & % & % & % & % % = % % % % : % % : , % % : : : & % & & & & & & : = : : = : = : : = = : = , % = & = = = = = = = = = = O = = = + O O O = % = = = & O & X @ @ @ @ @ # @ # @ # @ # @ @ @ # @ @ $ @ O # O @ @ @ @ @ @ @ # - - @ - @ @ - # - # - @ - - # @ - @ - @ ; @ ; - @ ; @ - - - # - @ @ - @ - @ - - @ - - - - @ # @ @ @ $ # @ @ @ # - $ ; @ - - - - - - $ - @ - - @ - - $ @ - $ - ; @ - # @ @ @ $ @ @ @ @ - $ $ - @ $ - X X @ @ X @ $ O X O @ O @ @ $ $ - @ X $ $ X O $ @ O O @ @ O @ @ @ @ @ @ @ @ @ @ @ O & - # @ # @ @ @ @ $ @ O @ @ O $ @ @ @ @ @ @ @ O @ $ @ @ # @ @ O @ @ X X X X X @ X @ @ @ @ @ X @ X @ @ @ & - - X @ @ @ @ & & @ : @ - - @ @ @ - - @ @ # @ @ @ @ & @ @ # @ @ & @ @ & @ # @ @ @ @ @ @ @ @ # @ & @ # @ @ @ @ @ @ @ # @ # @ @ # @ @ $ @ O @ @ @ @ @ @ $ O # @ @ @ O # # $ @ @ @ # @ $ O O O O O X O X O O O = O X X X O X X X @ @ X @ 1 1 1 $ $ - - $ $ 1 - $ 1 @ X @ X @ X O % X % X X ",
"@ O O & @ O O O O O $ O O O O X O . o o o $ o o o         o $ o o $ o $ o $ $ $ + o # o + # @ O O @ # $ @ @ O @ O @ @ @ @ $ @ @ $ @ - @ ; $ # O $ # O @ @ @ O @ O O & O O @ O O @ @ @ # @ @ & @ @ @ O @ @ $ @ @ # @ O # @ @ @ @ @ = @ O = O & O @ & @ @ # @ @ @ @ @ @ @ # $ @ O @ @ = O = = O O O = O & O = + & = = & O O = = = O = = = = = O = # = = = & = & = & & & & & & * & & & & & & & % & @ % & % - & & X % : % & % & % & : : : : = , % : : : % = : % : = & : : % & > & & : : = : : : = : : = : = % = 3 % & & * * * = , : * > * * = * * = * * = = = = = % = & = = @ @ @ @ # O @ @ # O @ @ @ # O @ # O # @ @ $ @ @ @ ; $ @ $ - @ @ # @ @ - - # - @ - @ ; @ @ - @ ; - # - @ - - @ - @ : @ @ @ - @ - - - X - X @ - @ @ @ @ $ @ # @ @ @ - $ @ - - @ @ $ - @ @ $ - ; $ - - ; - # @ - # @ - - - - # ; $ $ $ - $ @ - $ @ - $ @ @ @ @ $ @ @ @ @ @ $ @ @ O $ O O O O O $ @ O $ O O @ # # # # * : * 4 0 8 8 9 9 9 9 9 9 7 9 7 0 8 8 0 a r a l d l d j l g g l g j l l d l l a d a 9 8 0 4 ; @ # @ @ @ @ @ @ O X @ $ $ X @ @ - @ @ @ X & @ X X & - @ & X & @ X @ 1 @ $ @ - - @ @ ; $ @ @ @ @ @ @ @ @ @ @ @ @ # @ @ @ @ & @ @ & @ & @ @ @ @ & @ @ O & @ @ @ @ @ @ # O @ # $ @ # $ @ @ @ @ @ @ - @ @ - @ X X - X @ X @ @ @ @ O @ O @ @ X O X X X O X O X X . . O O X X $ @ X X X - X - $ - - 1 $ 1 1 - 1 $ - X @ - X @ X @ % X % O = X ",
"O % = % O & O O $ O O O O O O . . O O o O o O O O . O . . O   O o $ o $ O O $ o O O O O O # O O @ @ O @ @ O O # @ @ $ $ @ @ @ $ $ $ $ # @ $ O @ X & O O @ @ @ # & X O = O = O @ @ & # # # # @ # # @ = & # & # = # # = = O & & O = O & = O = = = O @ = & @ # = @ # & O = & O & # O = & = O O & O = = = + = * = = * = = = * + * = & = = = = + = = = O & + = * & * = * + * * = * * * & = * & & & = & & % % @ & % & % : % & % : @ : % : % : & & & & & & & % % : : : % : : % : : : = : = = : : = : = % 3 % 3 = = % = = = = = 3 * * , * * * 3 = = = * = = = = = = = = = @ = & = % O & = O # @ # @ # O @ @ & # @ # @ O @ O @ $ # @ # @ $ ; # @ # @ @ $ @ # - - @ - - ; - # @ - @ - @ - - @ - @ - @ @ : - - - @ - @ X - @ @ - - @ @ - @ @ @ @ @ @ # - @ - @ - @ ; @ - # ; - - - ; ; - - & @ - @ - - @ @ - # # # # O @ @ @ @ @ @ @ @ @ @ X @ @ @ X @ X O @ $ O O O @ O O # O O @ O O O @ O & + & # * * * > 6 6 8 r t r e t r 8 e 8 8 8 8 e r r s g s g g g g g g g g g s g g g a a d r a 8 , 4 & & = # & O # X @ X X X O X O @ @ @ @ @ @ X @ @ & @ - @ @ X @ @ @ & X @ & @ @ @ - @ - - @ - @ # @ # @ @ @ @ @ @ @ @ @ @ @ @ @ @ # @ & @ @ & @ @ & @ & @ @ # @ @ # @ # @ @ O @ # @ O @ @ @ @ @ @ @ - $ $ - - X - $ - X - - @ - @ $ @ @ O @ X O @ O O X X X . O . = . X X X X X O @ X @ X @ - 1 1 - @ X % % - 1 - $ % % = % = % % % % = % % ",
"6 t e t d r z A A P ~ ~ / .._ #.#.#.#.O.o.#.#.#.#.#.#.#.>.>.>.>.-.1.>.-.#._ _ F d d 4 # + O + + # O O # # # # # @ @ @ @ O @ O # - @ ; - @ @ O $ O O = O O O O O O = O = & O O O & O O = + * = + O & O & O = O = O @ = = = O O = = = = + = = = = & = = = = = = = = = = = = = = & & = = = = = = + & & + * * + * = * + * & * = * * * = 3 * * * * * * * + * * * + * * * * * * * * * * * * = * = & & & & & # & & & & & @ & & & % % % % % = % & & & : % : & : : : % % : : = : = = : : : : : : * * = : = = % = = % = , , i x x x v z v A N z v x V x V x v V x i i e 3 * * = = & = & O = = O @ @ O @ # @ O O # O O O @ # O @ @ $ # $ # ; $ $ # $ # # ; @ # @ # @ # @ ; @ - - - - ; - ; - - - - - - - - - @ - @ X - @ @ 1 @ X @ X @ @ @ @ @ O @ @ @ @ @ @ @ @ @ - @ @ - - - ; $ - - $ @ @ # # ; @ @ @ # $ $ $ # O # @ @ # # ; # * , , 4 8 8 t d d x C A F ~ ~ ) / / ..#.#.#.>.1.q.w.w.k.z.z.x.z.z.V.V.x.c.Z.D.L.L.P.U.T.Y.T.T.(.T.(.(.T.(.{.}.@XOXOX%X%XOX=X#X%X;X3X%X%X=X=X3XOXOXOXOXOXOX].Y.z.#.%.P W ~ / ~ ~ v p , @ O @ O X @ X X X @ @ X X X X X @ @ X 1 @ X @ X @ @ @ @ @ $ @ $ @ $ @ - $ @ @ @ O @ @ @ @ @ O @ O @ @ @ O @ # O @ X X @ X O O & & @ @ @ @ @ @ @ O @ # @ @ @ O @ O @ $ @ @ - @ - @ @ @ - X X @ @ $ @ $ @ - @ - @ $ O X X X X X O O X X X = . = O . . X % X @ X X @ X @ @ X @ & % % $ X 1 X % % % % % . = . % = % O ",
"%X%X%X%X<X;X1XeXeXeXpXeXaXpXzXaXaXaXaXpXeXaXeXlXeXaXaXaXaXaXzXzXcXlXzXzXzXpXaXeX<X;X|.P.P.z.&.#.Q M N g 9 9 4 # # # O @ $ @ @ @ $ @ @ @ - @ @ # O = = X O = + = = O @ O = + = + + + = + + + + 2 * 7 t r d x x k z N N I I P T T _ ,.#.>.8.8.8.8.8.e.8.e.8.9.9.e.e.8.8.e.9.8.8.4.4.8.8.8.8.4.8.9.e.4.8.9.8.3.e.9.3.8.3.e.3.e.q.8.8.8.4.4.>.,.>.#.....` T U I A N z i y 3 3 + + + + * + * * = * = + * * * & & & & @ & @ & & % & % % : : : & & & & : : % : = % : : = : : % % : * = = : * = * = * = = t e v ] ] e.R.T.OX2X2X<XeX1X1X<X%X2X%X%X%X%X+X+X+X+X{.`.T.T.V.e.e.<.` T P z z i , t * & * O = # O O = + + O O O O # O # + o o # o + + O O $ O O @ # O @ @ @ @ @ @ ; @ - ; @ - - # - - @ - @ @ @ @ - - - @ X - - @ @ @ - X @ @ @ # @ $ @ @ @ @ @ # @ @ @ $ ; ; $ ; # @ O $ # @ O @ * * 4 8 8 y N I K ) #.#.8.k.r.B.P.P.Y.{.{.OX#X#X-X1X<XeXwXeXqXuXuXpXpXiXuXiXrXqXqXrXeXuXrXrXaXaXaXaXeXaXeXaXaXaXpXaXaXpXpXeXrXaXaXaXaXrXrXaXaXaXrXiXaXaXeXaXaXiXaXpXpXpXpXaXpXiXrXeXpXuXpXpXeXeXqXeX<X<X}.Z.D.V.V.z.r.5.5.s @ @ @ @ X @ X @ 1 @ X @ @ X @ X @ X - X @ X @ @ $ # @ @ @ @ @ - @ - @ - O @ O @ @ @ @ O O # O # O # O # + O O = O + O = O # @ O @ @ # @ @ @ # @ @ @ @ @ O O X @ X @ X O $ - X @ X - X - X @ X @ X @ @ @ @ X X O X @ X X X O % X O O X . = . = . . = X = @ X O @ @ @ & # @ & % = X @ @ X 3 % = , , , r i z I I ] ",
"OX%X%X%X2X<X2X1X1XpXpXaXpXzXpXaXaXaXeXrXaXeXzXeXeXaXpXaXaXaXaXaXzXcXzXaXzXpXpXeX<X<X XL.U.z.#.&.Q C N f r 9 6 ; # $ @ @ @ @ @ O - @ @ @ $ @ @ $ = O O = O O O = # O # = + O + + * = + + + + # * 3 6 t t i x g k z z N I I I ~ P  .#.O.,.4.8.8.e.e.4.4.e.8.e.e.q.e.e.e.e.e.8.8.8.8.4.4.5.8.8.4.e.8.e.8.8.8.e.3.e.e.3.8.8.q.4.7.7.8.8.4.8.1.>.-.#...O./ ~ ~ I N Z k y y 5 2 2 * + * + 2 + * * * * * # # + & & & # : # @ : @ & % & % % : = & & & & % % & : : % : = = : : : % = & & : = = * = * = * = e e v ] O.r.T.T.OX2X2X2X<XeX1X2X<X%X%XOX%X%X+X+X+X{.+X`.T.T.V.e.e.,.T ` P z z i , , * * = * O # O O + + O + O O o + O + o + + o + o o O $ O O O @ O O # @ # @ ; @ # ; - @ - ; - - @ - @ X 1 @ - @ @ @ X @ X @ X @ @ @ X @ X - @ @ @ @ O @ # @ @ @ @ @ # $ $ ; $ $ # $ @ # $ $ O # * * 0 8 9 d z F P ) #.@.6.k.k.H.P.P.(.{.{.|.#X=X;X1XeXqXeXqXqXuXwXpXpXpXrXeXpXqXpXeXrXeXeXpXeXaXaXaXaXaXaXaXeXaXaXeXaXaXrXrXpXeXiXpXiXpXrXrXaXrXpXaXeXaXaXaXpXpXaXrXpXrXaXeXpXqXuXwXpXqXpXwXuXeXeXeX<X>X{.D.D.v.B.V.r.5.5.s @ # O X @ X - @ @ X @ X @ @ X @ X @ X @ X @ @ O @ $ @ @ @ - @ $ $ - @ @ X O @ O O @ O @ O @ O O O O O O O + O & O O O O O @ # O # @ O @ # @ @ @ @ & @ @ @ @ @ X X @ @ X @ @ @ @ @ X @ X 1 @ @ X - X - X X @ @ X X X X X X X O . X X X O . . = . O . % . X @ % @ @ @ @ @ @ @ % % @ O X @ = % = , , e r s z I I _ ",
"zXzXzXvXxXvXxXnXxXnXnXjXmXnXnXnXnXjXmXnXhXnXvXnXmXmXnXkXnXkXnXnXzXvXnXhXnXnXnXnXvXnXnXnXmXSXNXnXnXnXnXsXiXuXuXOXOX*., < O @ @ $ @ - @ @ @ @ O & X O = + + + + = + * = + + + * 2 t S S O.d.h.Z.(.^. X#X@X#X=X=X%X%X;X&X-X%X&X9X<X>X9X>X<X<X>X9X<X<X<X9X<X<X>X9X<X<X<X9X>X>X:X9X<X>X9X9X>X<X<XeX<X7XqX>XqX7XqXqX8X<X9XeX9X7X7XqX7X0XqX8X7XqX7X8XqXqX<XqXqXqXqXqX9X9X$X$X_.S.T.x.4.4.T V N t 3 2 = + + + = # * O * & * # # # X & & = : & & & & @ & : = : = : : : : : : = : & & & + + = & * , i / ` V.3X3XcXZXZXZXDXZXZXZXZXZXMXZXZXMXMXMXMXMXzXMXzXnXMXvXvXxXMXnXMXMXzXxXBXBXzXzXzXzX<X<X%X@X+X{.`.`.(.T.T.T.^.T.^.W.!.I.K.K.m.x.b.z.d.e.9.-.1.O.^ ~ I z v d 9 9 > # # # @ # O # @ @ @ # @ # O @ @ @ O @ O @ O @ @ O O @ O @ @ @ @ @ @ @ $ @ O @ @ O @ $ @ # & 0 0 x I I ` +.] &.q.e.V.Y.Y.%X<X1XpXzXvXzXvXnXzXvXzXxXjXzXsXvXaXaXvXzXsXvXaXzXgXzXaXgXsXgXzXgXgXgXsXaXaXrXvXrXaXaXvXvXzXaXvXgXvXaXgXzXgXaXrXvXaXrXaXgXaXaXaXgXrXaXaXaXaXrXaXeXrXyXrXrXrXrXrXrXrXeXrXeXeXeXeXrXqXeXeXeXqX1XeXqX1X;X+X XP.D.J.J.V.v.] : * O X X @ X X X X X @ X @ O X X X @ X - @ - @ @ @ @ - @ - - @ @ - @ @ = # @ # # # O @ O # # O * 6 6 y h h N N N v x k i 8 8 6 # * # & O @ O O # O O @ O O & O O O O X O @ @ @ @ $ @ @ @ @ O @ $ @ O O @ O @ X O O X X = X X % X = = . % O = . = . % % X = % X @ X > e e i I I _ ,.5.r.B.D.T.+X`.%X2X<XpXcXcXzX",
"vXvXvXvXvXnXvXvXvXnXhXnXvXvXjXmXjXbXhXhXvXvXbXvXbXnXbXnXnXhXnXhXmXvXmXvXnXmXnXkXnXmXmXbXvXmXmXmXNXnXmXmXnXmXnXaXsX].l l @ @ O @ $ @ $ - O @ @ O O = = + 3 r t u N N T O.o.h.`.`.1XaXpXaXpXpXpXuXeXqXeXeXqXqXeXqXeX9XqXqX9X9X9X9X9X6X0X6X0XqX6X6X9X<X9X6X9X7X9X6X9X9X6X0XqX7X0X9X0X9X9XqX<X9X9X9XqX7XqX6XqX7XqXqXqXqXqXqX8XuX8XuX8XqXwX7XqXqXqX0X0XqX0XqXqX0XwXwXrXwXrXrXrXrXwXrXlX9X%X%X_.D.D.3...P Y M d i 8 6 > * * * & & & & * : & & & & & @ & : : : : = = * : = , = + * * 3 x x #.U.T.1XMXMXDXDXMXMXZXZXZXZXMXZXMXZXZXNXNXMXMXMXMXMXMXMXBXMXMXvXBXMXBXvXBXzXBXMXBXzXMXBXBXMXvXMXvXMXMXmXMXmXnXMXBXNXvXNXNXMXmXmXNXmXmXmXmXmXmXmXnXBXmXmXMXnXnXMXvXvXaX9X<X#XY.c.x.6.) Q L d d 9 7 9 0 0 4 4 4 , 4 6 , > > > > > > ; ; # - @ @ @ O @ @ @ @ $ @ @ l +.' J.2X:XcXxXxXnXnXxXMXnXxXMXMXMXxXnXnXvXzXvXvXlXgXgXvXyXgXgXgXlXvXaXzXrXaXzXzXyXrXvXyXvXgXgXgXgXgXgXvXgXvXyXlXgXvXvXyXyXvXyXyXgXvXgXgXvXvXgXvXyXlXgXvXgXyXvXvXgXaXvXgXlXrXrXlXrXlXrXrXrXrXrXrXeXrXrXrXeX0XrXrXeX9XeX9XeXqXeX9XeX<XeX9X%X%X`.L.P.J.v.J.W ; # O X X X $ @ X @ X @ @ X X @ @ @ - @ X @ @ @ # @ @ @ @ @ @ @ - O # O + + & * 4 ; 9 C N [ k.k.(.%X%X1XqXeXiXzXzXzXeXrX1X<X<X+XT.T.z.5.6.' ~ U N i d t 6 3 * * # # # O # O O @ @ O O O O O @ O O O @ @ @ @ O @ X O O X . . O . . . O O . O . % % = = & t v z ,.B.V.{.<X2XcXcXzXZXxXMXMXcXMXzXlXzXzXzXzXzXzXzXnX",
"vXvXvXzXvXgXvXvXvXnXnXhXvXbXmXhXvXvXnXvXvXvXvXmXjXmXjXmXnXmXbXvXvXbXvXbXmXnXmXmXbXnXbXvXbXnXmXmXnXmXnXmXmXnXnXaXsX].l l @ @ @ @ @ - $ @ @ @ = O + = * * 3 t t g z N T O.o.h.`.}.1XpXpXaXiXaXiXpXqXuXeXqXqXeXqXqX9X<XqX6X9X0X9X9XqX>XqX6X6X9X7XqX6XqX9XqXqX7X8X7X6XqX9XqXqXqX6XqX9XqXqX7X7XqXqXqXqXqXqX7X7XqXqXqX7XqX8XqX8X8X8X8XqX8XqXqX8X0XqXqXqXqXqXwX0X0XwXwXrXwXrXrXrXrXrX0XeX9X&X&X+XD.D.8.O.U I N d d 8 > 6 * * * # : - 1 * * & : & & # # & : : = : : = : : * * = = * * 3 x x #.T.U.eXxXZXZXZXZXMXZXZXDXZXZXDXZXZXZXMXZXNXMXMXMXBXBXBXzXMXMXBXBXMXBXMXBXBXBXzXzXMXzXBXMXMXvXvXvXvXnXMXnXNXnXMXmXnXMXmXBXmXmXCXkXVXmXmXmXmXmXmXNXMXnXMXMXnXMXMXvXzXpX<X>X#XY.x.x.6./ ) C d d 7 7 9 4 4 4 4 4 4 4 4 > , > > > > : : # ; # X @ $ @ @ @ O O @ @ @ s #.#.J.:X2XzXcXcXxXMXxXxXMXMXnXnXnXMXnXzXvXlXzXgXvXvXgXvXvXgXyXvXgXlXgXaXvXyXzXlXgXvXyXyXgXgXgXgXgXgXgXgXyXvXyXlXrXyXyXrXvXvXgXvXyXgXvXgXvXyXrXvXgXgXgXvXyXvXyXvXaXvXrXvXrXrXrXrXrXwXrXeXeXrX0XeXlXlXeXeXrXrXeXeX0XeXrXeXeXeXeXeX9XeX9X9X%X%X{.U.P.R.v.v.W # # X X O @ X X X X X @ X O $ @ @ X @ - @ @ @ @ @ @ @ @ - @ # # # O O # & * # * 4 > 9 c c _ k.k.Y.%X%X9XqXeXrXzXaXzXeXeXeX;X<X@XT.T.z.4.4._ P U N g i 7 6 2 & * * & O = # # O @ @ O @ O O O @ @ @ @ O @ @ @ @ O X O . . . % . X O = O X . = . = % = = % , v v ] V.V.OX2X2XcXzXcXZXMXMXcXMXMXcXcXzXzXzXzXzXBXzXzX",
"vXvXvXmXvXvXvXhXvXhXhXvXvXvXvXvXvXvXhXhXhXbXhXbXbXbXvXhXhXbXnXkXvXbXmXvXmXkXjXmXmXmXbXmXmXbXbXnXmXmXnXgX:X-XK.+.+.c w ; @ @ @ @ $ - - @ X X O 8 8 ` V.V.}.%X&X<XeXeXcXcXlXcXpXeXaXeXrXrXrXeXqXqXqXqXeXqXqXqXqXqXqXqXqXqXqXqXwX9X8XqX6X7XqXqX8XqXqX6XqX6X8X7XqXqXqX6XqX6X8X7XqX8X7XqXqX8XqX8XqX8X8XqX7XqX8XqX7XqXqXqX8XqXuX8XuXuX8XqX7XqXqX7XqX8XqX8X0X0X0XiXpXwXwXtXrXwXrXrXrXrXrXeXeX0XeXrXrXrXpXqXqX<X#X#X{.L.L.B.q.q.' D D a , , * = & * & & * = = : = : : : = * 3 , g O.O.T.rXeXZXAXDXZXZXZXDXMXMXDXMXZXNXMXMXMXMXMXAXNXNXMXMXMXMXMXMXMXzXBXzXBXzXzXBXvXMXzXBXMXBXBXMXMXBXMXBXMXMXmXmXnXnXmXnXBXnXBXBXmXmXmXkXmXkXmXmXmXmXmXmXnXnXMXvXnXvXmXvXnXnXmXnXnXnXmXCXAXAXCXnXnXdX-X,X}.I.L.Z.c.x.k.k.k.k.k.k.k.k.k.k.0.k.0.5.&.j : # @ $ @ @ X X - / W 1XAXZXMXNXnXMXMXnXMXnXnXnXnXMXvXzXzXvXzXvXvXvXvXvXgXgXvXgXgXlXgXrXvXgXgXvXyXgXgXgXgXgXaXvXgXgXvXgXgXgXgXgXvXgXgXgXgXgXvXgXgXgXgXgXvXgXgXvXgXvXvXgXvXvXgXgXvXgXvXgXvXgXgXvXaXvXgXlXvXzXvXvXlXlXlXrXlXrXrXrXrXrXeXrXeXrXeXrXqXqXqXeXeX<X9X>X=X-X@X`.{.V./ / < @ @ X O X X O X O O X X @ @ @ # @ @ # @ @ @ @ O O O # @ # # * * * 4 r r A >.1.J.XXOXqXiXiXpXaXpXpXiXiXaXaXaXaXrXeXlXyXrXaXlXeXaXzXvXvXxXnXvXaXsXiXeXqXeX;X;X+XD.D.z.4.1.~ 8 8 : @ O @ @ @ @ O @ O @ @ O O O O X O X O @ . = O = . O O % = = , r r W V.V.%XcXcXMXcXMXMXxXMXMXzXMXxXxXzXMXMXcXzXMXzXMXlXzXzXzXzXxX",
"vXvXhXvXvXvXhXvXvXhXvXvXvXvXvXhXlXbXbXgXbXgXbXbXhXbXvXvXbXbXhXnXjXmXnXhXmXnXnXmXnXkXjXmXjXhXjXjXwXoX.Xg.;.;.| ) R k ; > - @ @ $ - $ - @ $ @ O j x T.cXpXaXeXaXrXrXpXrXrXrXaXaXaXpXeXrXrXpXeXpXrXpXqXqXqXrXpXqXqXqXwXqXwXqXqXwX7XwX8X7XqXqX7XqX7XqX8X8X8X7XqXqX8XqX8X7XwX7X7XuX8XwX7XqX8XuX8XwX7XuX8XwX8XuXuX8XuXuXwX7XuX8XuXuX8X7XwX7XwX7XwX7XqXqX8XqXwXwXwXwXiXrXtXrXwXiXtXrXrXwXwX0XwXrXrXrXwXaXiXaXaXaXaXdXdXsXdXsXsXdX1X1X3Xv.V.A & * * # * & & & & = & & > , P B.J.cXAXAXDXMXNXNXMXMXDXNXZXNXNXAXMXNXMXNXNXMXNXNXNXNXZXAXNXMXMXMXBXMXmXnXvXMXvXzXMXBXMXBXvXMXvXBXnXMXBXNXNXMXmXnXmXmXnXmXMXnXNXmXmXmXmXkXkXnXmXmXmXkXVXkXmXmXnXnXmXnXnXvXnXvXnXvXnXnXnXmXnXnXnXnXnXnXjXxXCXsXjXiXdX-X].`.(.I.!.I.I.!.I.I.I.!.H.I.I.r.0.l @ # @ @ @ O @ $ >  X XDXCXmXmXmXmXbXvXBXvXBXvXvXmXvXvXvXvXvXvXgXvXvXvXgXvXhXgXvXyXlXvXyXgXgXgXgXgXgXgXgXgXgXgXgXgXgXgXgXgXaXaXgXgXgXvXgXgXgXgXgXaXvXaXvXgXgXgXjXgXgXgXgXhXgXvXgXvXjXgXhXjXgXjXjXgXgXrXyXrXrXrX9X9XqX6X$X$X*X*X%X@X@X@X@X@X@XOX@X@X@X|.|.}.}.}.(.L.J.c.k.k.' 9 9 @ @ O O X X O O X @ O X O O # & * 2 4 6 2 6 8 8 t t 7 t r A A  .8.8.V.#X#XiXnXgXzXaXvXvXiXrXaXrXrXrXrXrXaXgXiXgXyXyXyXgXyXyXrXyXlXyXyXlXyXgXyXgXyXvXvXgXvXaXzXgXnXnXsXsXjXpXB.B.j ; O @ @ @ O @ @ @ @ @ @ @ O @ @ O O X O % % % = = e , x ] ` V.%X%XcXMXcXZXMXMXMXxXzXMXzXnXMXzXzXvXMXBXzXxXnXxXvXxXgXnXvXvXvXnXvX",
"vXvXvXhXvXvXvXvXvXhXbXhXvXhXbXlXbXlXvXhXhXbXbXhXmXbXbXkXhXmXmXjXmXhXnXmXnXkXmXnXmXmXmXmXmXkXfXjXwX}..Xg.t.;.| ) ) l ; ; @ @ $ - - $ - $ X O @ j j U.pXzXsXeXpXrXpXpXeXpXrXpXaXaXiXrXpXpXwXrXqXqXpXwXeXqXqXqXwXqXqXqXqXqXqX8X7XwXqX7X8X7X7XqX7XqXqX7X7XqX8XqX8XqX8XqX0X7XwX7X8XuX7XqX8XqX8XuXwX7X8XuXuX8XuX8XuX8X8XqXuX8X8XwX8XwXwX7XwXqX7X7XwX8XqXwXqXwXwXrXiXwXwXfXwXfXwXrXrXwXwXrXrXrXrXrXrXrXiXiXiXiXiXpXaXdXdXsXdXdXdX1X1X3XV.V.v * & = & & & = & & & & & 6 , P D.Z.eXDXDXZXDXMXDXMXMXMXAXNXAXMXNXNXNXAXNXZXAXNXZXNXNXNXMXNXMXBXMXMXMXvXvXnXzXBXBXnXBXzXBXMXnXbXBXMXvXMXNXvXBXnXmXmXmXnXmXnXmXnXmXmXCXkXmXmXkXkXmXkXmXmXSXkXmXnXvXnXnXnXnXnXMXvXvXnXjXnXnXnXnXmXnXnXnXnXnXnXnXjXaXaX-X].[.(.!.!.!.I.!.I.I.I.I.I.U.I.0.w.s - # @ O @ @ $ $ > ]. XAXNXSXNXnXmXbXBXvXMXMXvXmXBXvXvXzXvXvXvXvXvXzXgXvXvXgXvXgXgXyXyXvXlXgXgXgXgXgXvXgXgXgXgXgXgXgXgXgXgXvXgXgXgXgXgXaXgXgXaXgXgXyXgXgXgXvXgXgXvXvXgXvXgXgXgXgXgXgXgXjXhXjXjXgXgXgXyXyXtXrXwXqX9X6X6X$X$X%X@X*X@X+X@X+X@X+X@X@XOX@X|.@X|.}.}.(.P.P.n.h.k.+.9 9 @ X O X X X X X O O X O X @ # * * * > 6 6 6 8 6 t e t e t z A _ 8.8.V.#X#XpXxXnXsXgXaXgXrXgXrXrXtXyXrXyXyXyXgXyXtXrXvXyXtXyXlXyXrXyXtXyXvXrXvXyXgXgXgXvXgXgXgXsXzXvXsXvXsXpXB.B.j ; $ # O @ # $ @ @ O @ O @ @ @ @ X O O . % % = = = , e x ` ] V.%X3XMXMXMXMXMXMXMXMXMXMXMXMXMXxXBXMXzXxXMXvXvXnXnXvXnXvXnXnXnXvXnX",
"vXvXvXnXhXnXvXhXbXhXhXhXbXvXbXhXhXbXhXhXhXvXhXhXhXvXbXbXvXhXnXmXhXnXnXnXkXjXjXhXfXfXiX7X8X$XH.~.f.2.3.1.t.7.7.t.6.[ l l ; $ - - - - $ @ $ X   9 e w.aXcXaXaXaXaXtXiXiXaXaXaXaXgXfXiXpXwXpXrXwXrXwXwXiXqXrXwXrXqXqXwXqXwXiXwXqX7XwX7XwXuXqX8XqXqXqX7X8X8XqX0XqX8XqX8XqX7XuX8X8XuX8X7XqX8XwX7XwX8XuXfX8XuXwXuXuX8XwXwXqXwXuXuX8XwXwX7XwX8XwXwXqXqXwX7XwXwXwXiXiXiXwXtXfXtXtXwXwXrXrXrXrX0XrXwXwXrXrXrXrXrXaXiXaXaXaXpXaXaXdXdXsXdX,X,X&., * * * & + & & = * = * _ ] zXDXAXNXMXvXMXMXMXMXNXMXMXNXMXNXNXNXMXZXNXMXNXMXNXNXNXAXNXAXNXMXMXMXBXMXmXvXMXBXlXBXnXvXzXzXMXmXnXMXnXMXMXBXNXmXNXmXnXNXmXnXNXmXnXmXnXmXmXmXmXnXmXkXmXkXmXmXmXmXvXmXnXBXmXvXvXvXmXnXnXCXnXnXnXnXnXmXjXnXnXnXnXnXnXnXnXaX-X-X`.W.I.W.I.I.E.I.I.E.H.U.R.' _ , @ @ @ @ @ @ $ o l sXjXCXSXNXmXBXBXbXbXbXbXBXvXbXvXbXbXvXvXvXlXlXvXgXgXgXgXgXgXgXlXvXyXvXrXyXgXgXaXgXtXrXgXgXaXgXgXrXgXrXgXaXrXrXrXaXrXgXrXaXgXrXyXaXyXgXgXgXgXgXgXgXgXgXgXgXnXhXgXgXgXuXiX8X-X6XXX).P.S.b.f.l.s.9.u.-.-.-.<.4.<.<.,.<.$.<.,.1.>.1.1.1.-.-.<.-.>.&.&.$.&.&.~ 0 6 @ O @ X O O X O X O & # 8 c c U  . .,.q.8.h.C.V.S.T.^.^.`.<X&XeXzXaXvXsXvXaXvXaXgXgXgXgXgXgXiXgXgXgXyXgXyXyXyXyXhXyXgXyXyXyXgXvXyXtXgXgXhXvXgXhXyXgXgXgXgXgXhXvXgXvXvXsXvXaXpXpXr.> O $ # $ # O # @ # @ # @ @ @ @ O = @ , , p v v ,.B.R.2XZXcXZXZXZXMXDXMXMXMXMXMXMXMXMXMXMXvXMXnXBXxXnXvXnXnXnXzXnXvXhXvXvXnXvXvX",
"wXrXrXgXvXjXhXbXvXhXvXvXhXhXgXbXhXlXhXbXvXhXvXhXbXbXvXvXbXmXjXbXnXkXgXhXwX6X6X$X_.`.K.x.x.i.u.t.-.6.7.3.7.7.0.0.0.t.b b ; @ - $ $ - - X     . > , 8.zXaXsXaXzXaXsXgXgXaXaXsXiXgXaXrXiXwXwXwXqXqXqXqXqX6X7X6X>X7X>X6X6X:X:X7X7X7X7X7X7X7XqXuX7X7X8X-X-X-XXX#XXX$X#X$X$X$X-XXX-X-X-X-X$X-X$X-X$X=X4XXXXXXXoXoXoXoX}.}.oX}.oXXXXX4XXX$X$XXX#X$X$X$X-X-X:X6X7X0XqXwXiXrXrXiXrXrXtXtXtXtXrXrXtXwXwXrXtXtXwXaXiXaXaXaXaXaXaXaXaXpXaXpX,X2X#.6 6 * # * = & @ # = * v eXeXMXnXMXvXvXMXvXNXNXNXMXMXNXDXMXNXMXAXMXNXMXNXNXAXNXNXMXMXnXnXnXvXaXzXlXaXaXlXrXcXeXlXeXlXzXlXlXvXrXzXvXlXxXnXvXnXnXmXnXmXnXmXnXmXmXmXmXmXmXkXmXmXkXmXCXmXkXVXkXmXnXmXmXnXnXnXnXnXnXnXnXnXkXnXnXCXmXnXCXnXnXnXnXnXMXCXnXCXgXaX#X!.!.I.W.I.I.I.H.I.I.I.k.c c * @ @ @ @ O O O O ( ZXZXmXmXmXBXBXBXBXbXbXbXlXbXlXbXgXlXbXlXbXyXvXvXvXgXvXgXgXgXgXgXrXgXyXaXlXyXgXlXrXaXrXrXrXyXrXrXaXrXrXiXyXfXrXaXyXiXrXaXrXrXiXgXgXgXaXgXgXjXgXgXgXjXvXiXwXqX6X@X#X^.n.n.a.-.-.;.$.o.+.@.$.@.@.+.@.@.@.@.o.#.o.@.#.$.#.$.@.@.@.#.#.@.#.$.#.$.$.$.$.$.$.%.E 6 6 # O @ X O O X O O * P E B.;X;XuXpXiXvXvXsXzXzXvXzXaXgXaXzXaXzXzXgXzXgXgXaXgXgXgXgXgXgXyXvXyXyXyXyXyXyXyXyXyXyXyXgXgXhXhXgXhXyXhXgXhXtXhXyXgXyXgXhXgXgXgXbXhXgXgXvXgXvXgXgXcXsXsX;Xb @ @ @ @ O $ # @ @ @ # @ # @ * e e I ,.,.S.eXeXMXMXDXZXZXZXZXZXMXMXMXMXMXMXMXMXBXBXMXMXMXNXnXNXMXBXMXvXMXvXvXnXnXnXnXmXvXnXnXnX",
"wXrXrXgXhXhXgXhXhXvXhXbXhXvXhXvXgXvXvXhXhXhXvXhXvXBXvXbXbXbXvXBXvXkXgXgXiX6X6X#X).[.K.x.H.u.t.t.7.7.7.7.7.0.7.0.q.t.b b ; $ - $ $ - - @ . . O , > 4.aXzXsXaXsXaXgXsXfXgXaXsXiXaXiXrXrXeXwXwX0XqXqXqX6XqX>X6X6X>X6X6X6X:X6X7X7X7X7X7XqX8X7XqXuX7X7X-X4XXX4X4X4X4X$X*X*X*X-X$X-X4X-X$X$X-XXX-X6X4XXX#XXX.XoXoX}.oXoX}.oXoXXX.X#X#XXX$XXX$X$X$X$X$X-X$X6X6X6XqXwXwXwXtXtXwXtXtXrXwXwXtXtXtXrXtXwXyXtXiXtXtXgXiXrXaXaXaXsXaXaXpXaXaX>X>X&.0 2 * * * & & @ O + * C 1X1XMXBXMXvXvXnXMXMXMXMXMXMXNXNXNXNXNXNXNXMXNXMXNXNXNXNXNXNXnXmXnXvXzXaXaXaXeXrXeXrXrXrXrXeXzXeXzXaXvXzXnXvXnXmXjXmXnXmXnXmXnXmXmXnXmXnXmXmXmXmXkXkXmXmXmXmXkXmXkXmXnXmXnXnXnXnXvXnXmXnXnXmXnXnXmXkXnXmXnXnXnXvXnXnXnXNXnXmXjXsXXX!.!.W.E.E.!.I.E.I.I.P.k.C c & # @ @ @ $ O # $ } AXAXnXNXmXmXBXbXBXbXbXbXbXlXlXvXbXyXbXlXbXyXlXyXlXvXgXgXvXgXgXlXvXyXlXgXlXrXyXyXgXrXyXrXiXgXyXfXrXyXrXrXaXaXyXaXtXaXyXtXrXrXrXaXtXgXfXgXgXvXgXgXvXgXvXiXwXwX:X#X#X^.n.b.a.-.-.;.;.@.+.:.@.$.@.@.@.@.$.$.@.;.$.$.$.$.$.$.#.+.$.$.%.$.@.#.$.$.$.$.$.&.*.$.Q , 4 @ O O X X . . % . > P P B.,X-XeXaXaXgXzXvXzXvXaXgXgXgXaXvXvXaXaXzXaXaXaXgXgXgXaXvXgXvXrXgXyXyXyXyXyXyXyXyXyXyXhXyXhXfXfXhXhXfXgXhXyXhXyXhXhXyXhXlXhXhXlXlXgXgXvXgXlXvXvXvXzXcXcX;Xk @ O @ @ @ @ $ # # # @ # # @ : r r I ,.,.T.eX2XcXDXZXDXZXZXZXMXMXMXMXMXMXNXNXMXMXMXMXMXNXMXmXnXnXvXMXvXmXvXvXnXvXnXvXnXmXmXvXnX",
"A./.^.oX:X6XwXhXhXvXhXgXgXhXhXhXvXhXhXhXhXvXhXvXvXvXvXvXgXgXtX0X0X6XXXoXE.f.f.p.9.9.7.7.t.7.7.7.7.7.7.7.u.7.0.q.q.q.D R 4 - - - - - $ $ . . . * > 1.sXzXgXzXgXgXgXvXfXpXrX0X&X&X@X}.}._.)./.!.!.W.W.J.S.Z.Z.Z.b.b.n.n.n.M.m.J.P.W.(.(.[.[.oX[.!.!.m.a.a.a.u.a.u.i.i.i.a.a.p.a.a.a.a.a.a.a.a.u.u.9.9.7.2.7.1.1.1.1.1.1.4.1.2.2.3.9.7.2.7.9.9.7.9.p.p.f.n.b.P.(.).oX#X#X&X0X6XwX0XwXwXwXwXwXrXrXrXwXiXiXiXpXqXrXeXqXuXqXqXqX9X6X>X|.|._ > 3 * # = # O # O 3 3 ^.NXNXMXzXBXbXBXlXBXBXBXBXBXMXMXNXNXMXNXMXNXNXMXnXnXvXeXqXeX;X|.XX`.^.L.P.D.Z.D.V.B.V.Z.D.Z.D.S.S.P.P.!.^.^.^.[.[.oX.X#X@X.X@X#X$X&X$X6X0X9X8XwXwXtXfXtXtXtXfXfXfXfXrXrXwXwXrXrXwXpXrXrXrXpXiXiXaXgXdXsXsXfXgXaXsXaXjXgXjXnXjXiXgX-X].).!.I.W.H.I.I.R.K.I.[ 8 4 # # # @ @ @ $ # # J.AXNXNXBXBXBXBXBXbXBXBXlXlXbXbXvXlXvXyXbXgXlXvXyXyXgXlXyXrXvXyXrXrXyXyXrXyXrXrXrXrXrXrXrXrXrXrXaXaXaXfXgXrXtXiXrXaXrXaXrXiXgXyXyXgXaXgXjXgXjXjXgXuX-X:X`.b.b.7.;.;.X.O.+.@.@.$.*.*.*.;.-.;.$.;.*.;.*.*.;.*.*.$.$.$.*.$.*.#.$.#.$.$.$.$.$.$.%.$.$.%.$.&.$.P 6 0 # @ @ @ O = = = & A %X@XsXsXzXaXyXaXrXaXyXaXaXrXaXaXaXrXgXrXgXgXgXgXyXgXyXaXgXgXgXgXgXgXgXgXyXgXyXvXyXgXlXgXyXyXhXfXhXhXkXhXhXhXfXhXyXyXtXtXtX0X0X0X8X0X5X6X6X5X6X6X:X9X>XeX1X1X;XW O O O O O # # $ # w ; p c c ' B.B.2XcXMXMXZXZXDXZXZXMXZXZXZXZXMXZXDXMXMXZXNXNXNXMXNXMXNXMXMXMXMXzXnXMXvXvXnXvXnXzXgXhXgXfXaXrX",
"u.3.y.u.l.j.P.$X$X0XgXgXvXbXhXhXhXhXgXnXhXhXhXhXrX0XwX5X.X.XQ.b.b.f.u.u.y.2.7.9.7.7.7.7.7.7.u.t.7.7.7.0.7.0.7.7.0.q./ / 0 ; - - - @ % . .   . & > >.zXaXvXsXgXsX6X7X.X^.^.l.e.9.3.3.1.1.2.-.-.-.-.=.$.-.=.,.=.<.-.;.-.-.-.$.t.;.1.1.1.2.2.2.-.-.-.;.t.-.;.;.;.;.=.=.-.-.-.2.-.-.;.-.-.2.-.-.;.t.t.-.-.1.2.-.-.-.1.=.1.$.-.$.=.=.=.-.;.;.-.$.;.-.;.$.;.$.;.-.;.-.1.7.7.d.Z.Z.E.).Q.).)._._.[.[.`.).[.).`.^.(.^.I.I.I.D.L.Z.C.B.B.9.8.k * + * O + # O O O I P vXMXMXBXBXzXMXzXMXBXMXMXNXMXNXNXNXNXMXzXaXqX%X&X}.T.P.V.w.h.3.&.-.@.#.@.O.X. .......O.....................X.+.+.:.+.@.#.$.$.;.=.<.<.-.3.u.i.d.l.f.b.m.n.m.C.Z.m.A.n.Z.b.b.C.c.b.b.Z.c.b.Z.C.A.D.Z.J.K.K.K.P.J.A.P.P.J.P.P.P.J.c.n.x.I.W.).!.I.E.E.I.I.v.H.G # # # # @ # @ O # 9 9 qXnXMXBXBXBXbXbXBXBXvXbXvXbXbXvXlXbXbXlXlXgXvXyXvXyXgXyXvXyXyXgXyXyXyXrXyXrXyXrXtXrXrXrXrXrXfXrXtXtXaXaXrXiXrXyXgXgXrXaXyXgXgXaXgXgXgXwX8X7X$X).).Z.7.7.X.| X.| @.@.@.$.@.$.@.*.@.;.&.*.-.&.&.*.-.*.-.$.-.;.*.*.-.@.;.;.$.*.$.$.$.$.$.$.$.$.$.$.$.$.*.%.*.P 4 6 @ O @ O @ = . * * 8.cXxXaXaXgXaXaXaXgXgXaXyXgXgXrXgXrXrXgXgXgXgXtXgXrXgXgXgXgXaXgXgXgXgXgXgXhXgXgXgXgXgXgXhXyXgXyXfXtX8X0X5X*XXX.X'././.^.G.G.S.A.b.j.C.g.f.f.a.a.h.f.x.x.v.B.B.r.j O @ O O @ @ 4 > j [ ( r.OXOXpXZXZXcXpXcXeX2X2XeX2XeX<X<X2X2X2X%X&X%X;X-X%X%X&X%X%X*X@X@X|.}.}.+X_._.`.`.`.`.(.^.^.I.W.P.Z.A.Z.",
"3.y.3.u.j.f.G.$X$X0XfXfXhXhXjXhXhXhXhXhXjXnXgXjXlX0XwX&X'..XG.b.C.f.u.9.2.7.7.7.7.7.3.7.u.7.7.u.7.7.u.7.0.7.0.7.7.0.) ) 0 $ $ @ @ - X .     . * * >.aXaXgXnXgXvXqXqX.X^.^.b.i.9.9.1.4.<.-.-.-.-.-.=.-.<.=.-.-.=.-.-.;.-.-.-.;.;.&.1.-.2.2.2.7.-.2.;.-.-.-.t.;.;.=.=.-.-.-.-.-.-.y.-.-.-.-.-.u.t.-.1.-.-.-.-.1.-.-.<.-.1.=.-.=.=.=.-.;.-.=.;.&.;.$.$.;.-.=.;.-.;.1.3.3.f.n.b.W.`.~._.).`.[.[.[.[.`.[.[.].(.(.T.W.I.P.D.D.Z.Z.C.Z.8.q.g # * * # & O # O O I I vXMXMXMXBXzXBXBXBXzXMXBXNXNXNXDXNXBXnXvXzXeX&X%X_.P.T.x.d.d.1.$.-.$.o.+.+.O..................... .......X...X.+.:.*.@.@.$.$.=.$.=.1.1.3.u.i.f.l.j.n.m.Z.A.Z.m.Z.Z.m.C.b.C.b.V.b.b.b.C.Z.Z.Z.D.D.A.J.A.J.A.J.K.P.A.P.K.P.P.E.J.n.n.M.W.I.[.!.!.I.I.E.I.H.v.G # # # # ; @ $ # $ q 9 uXNXnXvXbXbXbXBXbXbXbXbXbXvXbXvXlXyXlXvXyXvXyXvXyXvXlXyXrXrXvXrXrXlXrXgXrXyXrXyXrXwXyXwXyXrXrXrXiXgXrXtXaXyXgXyXrXtXrXgXgXrXgXgXaXaXgXpX6X7X#X].`.n.7.7...X.| @.;.@.$.$.$.$.$.;.$.;.*.;.-.*.;.*.;.;.;.*.*.;.-.;.*.;.*.*.$.;.*.$.$.%.$.$.$.%.$.%.$.$.&.$.$.P 4 4 = & = @ O = = 3 * 8.zXsXsXgXsXgXaXgXrXtXaXgXrXaXgXaXyXaXgXgXyXgXgXgXgXgXgXgXgXvXyXgXgXgXgXgXgXgXgXgXgXgXgXgXgXyXgXfXtX0X0X5XXX5X'.)./.W.G.G.G.A.D.C.j.j.j.s.f.f.s.s.g.g.x.V.Z.B.r.j O # O O O # > 0 j [ ( r. X XpXxXZXcXcXcXeXeXeXeXeX<X<X<X<X2X%X<X&X;X&X;X&X&X%X%X&X%X+X@X+X}.@X{.`._.`.`.`.(.(.(.^.W.P.S.A.D.b.",
"u.7.u.7.7.7.7.i.i.m.).[.6XwXwXwXiXwXwX8X8X6XoXXX).Z.A.g.y.y.4.2.4.2.-.u.y.2.7.7.u.7.u.q.u.t.u.q.t.H.u.u.7.0.u.q.7.q.[ *.0 - - $ - $ - $ X   . * * ,.zXaXgXxXgXpXP.A.y.4.2.-.4.;.<.4.-.;.2.4.2.-.1.1.1.-.-.-.2.-.-.-.-.-.;.t.2.-.1.-.1.1.u.;.t.;.2.t.;.2.u.;.t.u.1.-.-.-.u.;.;.;.2.t.u.-.;.u.t.t.6.6.-.-.-.2.-.-.2.2.-.-.=.2.=.1.1.-.;.;.-.-.-.;.;.;.<.=.-.=.;.;.;.-.;.-.-.-.-.-.-.2.y.-.-.y.-.-.1.-.1.-.=.=.,.$.$.o.O.X.O...O.#.P T t * # O * O O O + 2 g.x.vXvXMXMXBXvXbXBXnXMXMXBXMXvXlX9X@X+X`.S.D.h.8.3.$.+.+.+.+.+.+.@.+.+.+.:.:.+.+.+.*.| ..+.| *.+.:.+.| :.+.| | +.| | :.| | +.| } ....| } ( { ( { ( ! ( ^ { ^ ^ ^ ( { ! ) ! } ( ! } ( } ( ^ ^ ( ( { ^ ( { ^ ^ T T Y U U U U U U H F H Y u.p.!.K.A.M.p.k.d.+.+.q # O # @ @ # # O # ^ ) NXMXmXvXBXBXmXvXBXbXlXBXBXlXlXlXlX0XyXrXlXrXrXrXrXrXyXlXyXyXyXrXlXgXrXyXyXrXrXrXrXrXrXtXiXiXrXrXiXrXrXiXgXtXrXgXtXtXfXaXrXwX0X0X$X_._.K.f.l.7.@.@. .+.+.@.;.;.;.*.;.;.$.;.&.*.-.$.&.&.*.;.$.-.&.*.-.-.*.-.-.$.*.-.*.*.*.-.*.-.*.$.$.$.*.-.$.$.$.$.$.&.$.%.R 4 4 @ O = & @ O O > , v.sXzXaXaXaXvXrXrXgXyXgXiXgXgXtXgXyXfXgXgXfXyXgXgXrXgXgXgXgXgXgXgXgXgXgXgXgXgXfXwX0XwX9X&X$X.X/./.G.b.C.s.y.3.4.<.<.;.o.o.o.o.o.;.o.o.o.o.;.o.o.;.o.,.,.,.O.#.~ 0 @ O O @ @ * ~ W R.=X3X,X=X=X].U.P.B.g.z.w.9.q.8.8.e.4.4.4.4.,.#.$.$.o.#.o.@.@.O.X.O....._ ^  .` ` ^  .^ { {  .|  .{  .{ | } } ",
"9.7.u.7.u.7.u.7.u.2.u.u.j.K.A.W.P.P.A.n.n.x.a.p.u.3.4.2.2.2.2.2.2.2.2.2.7.7.7.7.q.7.7.7.u.u.u.t.t.t.q.t.q.7.7.u.0.0.t.*.0 - $ - - $ @ $   . . * * >.gXsXvXgXvX0Xg.f.;.4.4.=.2.4.2.-.2.4.-.2.2.-.2.1.2.1.-.2.-.2.2.-.-.2.2.2.-.2.-.1.1.-.;.t.t.2.t.2.2.2.t.t.t.t.-.1.t.7.t.t.t.2.2.;.t.2.t.2.;.2.2.-.-.7.-.7.-.2.-.-.2.-.=.4.1.=.-.-.y.-.4.;.;.4.-.;.<.-.-.-.y.-.-.-.-.-.-.-.-.-.-.-.-.;.-.;.-.-.;.;.$.;.$.@.@.#.@.+.+.X.X.X.O._ A v * + O + O + + + + h &X&XmXMXbXvXbXMXMXBXMXlX<X&X_.D.C.V.4.4.o. .O... ...O.O.X.O.+.+.+.+.+.@.*.+.*.+.+.+.+.+.+.+.+.:.| *.:.*.| *.*.*.:.*.| *.+.+.+...+...+.| +.| | +.| } } } } { } } } } } } } } } } } } ( +.| ..} .. ... ..... . .^ T U U J U H H F S K H U | | t.-.;.{ K R G y n # O @ @ # # # O # # L.L.AXNXnXBXbXbXBXvXmXBXbXlXwX@X'.G.S.G.S.S.S.G.^.G.^.).9X6XyXyXyXyXrXrXtXrXrXrXrXyXwXtXrXrXrXrXiXrXrXtXiXiXrXqXwX6X#X$X_.^.!.A.l.g.i.-.-.o.X.| +.@.@.$.#.$.-.*.*.*.;.*.;.&.*.-.*.*.;.*.;.*.&.$.;.*.-.*.;.$.;.*.-.;.*.;.&.;.*.;.*.*.;.&.*.*.$.$.*.$.$.$.*.$.$.J 4 4 @ & O O = & O 3 > V.sXvXsXgXvXrXyXyXyXaXgXgXtXtXgXfXgXgXyXfXgXgXgXgXgXgXgXgXrXgXrX0X9X:X*X*X'.)./.G.D.D.j.s.s.4.4.2.;.;.o.o.;.<.o.;.<.<.o.<.o.<.<.<.;.o.<.=.<.<.=.<.o.o.;.#.,.,.P & # O # O O 6 / / J.k.v.7.$.$.^ T T U J P U U U W W T T ` `  .` .. ... . ... ._  . .{ _ { .. .( {  .( ..X.O.O.o.@.@.;.$.$.=.$.;.",
"9.9.9.7.u.7.u.7.7.2.u.u.l.A.K.W.E.E.K.Z.m.x.a.a.u.y.y.2.2.2.1.3.4.2.y.2.6.7.7.7.7.7.u.u.7.t.u.u.u.t.u.7.u.q.q.q.q.0.*.*.0 ; ; ; - - @ X .     & > 1.sXgXgXnXgX9Xg.g.;.=.2.-.4.4.2.4.4.2.2.2.-.2.2.1.1.1.2.-.-.2.2.-.2.-.;.t.2.;.-.-.-.6.;.2.;.u.u.t.t.2.t.u.u.;.t.2.-.2.;.2.2.;.2.;.2.-.;.2.u.t.t.-.-.7.-.-.-.7.2.=.-.-.-.;.<.-.1.-.-.-.2.=.=.=.;.4.-.-.-.-.-.-.-.u.-.-.-.-.-.-.-.-.;.-.-.=.;.;.-.$.$.;.$.$.@.@.@.@.+.@.+.O.O. .A A > = + O + O + + = m &X&XmXvXnXbXbXMXBXBXBXlX<X5X_.D.S.s.<.4.O.O.O._ ......O...X.+.+.+.+.+.+.+.:.*.+.| *.:.+.+.*...*.| *.*.| *.:.*.| *.:.*.:.+.+.+.+...+.+.......} } } } } } } ( } ( } | } [ } } } } [ } +.} ....( }  ..... . .( _ ^ U U I J J H H J S F H J | | 2.;.-.| G K G y y # # # # @ @ & @ O + L.L.NXnXMXBXbXvXBXBXBXBXlXlX0X+X'.G.G.S.S.S.S.G.^.G.^._.6X5XlXyXrXyXrXrXiXrXrXrXwXtXwXwXrXwXpXrXiXiXrXrXiXiXrX0XwX6X#X%X}.!.!.A.x.g.i.-.-.o.| X.X.@.@.$.$.@.*.*.$.-.*.-.*.$.;.;.-.*.*.*.&.;.&.-.*.$.-.-.*.$.&.-.*.;.*.$.-.*.-.*.-.$.$.-.*.$.$.-.$.$.;.$.*.*.*.F , , # = @ & O = O , > B.vXxXaXgXrXlXaXaXgXgXtXgXfXgXfXgXtXtXgXfXgXgXgXgXgXgXgXgXgXyXrX9X0X&X@X#X'.^.^.S.C.D.g.s.s.4.4.<.o.;.;.o.;.o.<.<.o.<.o.o.<.o.<.<.o.<.o.=.o.<.;.=.=.,.o.,.O.,.I * O O O O O > _ / J.v.k.8.$.$.} Y T J U T P Q ~ ` ` T `  . . . .....} .. . . ... ... .}  . .}  . . . .....X.X.+.+.$.$.;.;.$.;.$.",
"9.9.u.7.7.7.0.7.9.9.9.9.7.3.7.7.9.3.3.7.7.9.7.7.7.2.3.2.2.3.2.1.-.2.2.2.7.7.7.9.7.q.u.t.q.u.u.q.q.u.q.7.7.u.u.q.7.0.t.t.n $ ; $ $ @ @ O . .   & * >.sXzXgXgXvX6Xf.g.4.4.<.2.-.-.2.2.-.2.2.2.2.2.1.2.1.2.2.2.2.-.2.-.-.u.2.2.t.t.2.7.-.t.t.u.t.t.;.t.2.t.t.u.t.t.2.t.2.2.t.u.t.t.t.u.t.2.2.t.2.t.-.2.2.-.-.7.-.-.-.2.-.2.2.;.y.-.=.2.-.2.=.1.=.2.2.-.-.-.-.-.-.-.;.;.-.-.-.-.<.=.-.-.-.-.=.=.-.;.;.$.$.;.@.$.$.@.@.#.+.+.+...O.~ r i + = O + O + + + + 4.rXyXmXvXvXMXbXvX0X@X'.C.3.e.O.O. . . . . . .O. ...O.X...+...+.X.+.+.X.+.*.+.+.+.:.*.*.*.+...:.+.*.:.:.*.| :.*.+.| *.| *.+.+.+.+...+.+.....+.+.| ..} ..| ....} ....[ } +.+.+.[ } +.| +.( ( +......... ... ..... .) ^ U U U F J F K K K J Y Y ) ! ! K L M l w w # @ @ @ @ # @ # # 7 qXeXnXNXnXmXvXBXBXvXmXbX9X9XS.4.y.<.o.<.o.o.o.<.<.<.<.<.D.D.&X9X5X9X0X0XqX6X0X9X6X9X9X6X0X9X9XqX6X$X%X@X`._.E.n.b.z.u.u.1.=.;.@.@.@.o.o.;.@.@.$.@.;.*.*.$.*.$.;.-.*.;.*.*.&.*.*.*.-.$.*.;.*.*.*.;.*.*.$.-.*.*.$.*.$.-.*.*.;.*.*.&.$.;.*.*.&.$.*.%.$.*.&.&.*.-.P 4 4 @ @ = O & @ O * , c.nXvXgXgXvXyXgXyXyXtXgXyXgXtXgXfXgXgXtXgXgXgXtXrX0X&X&X.X^.^.S.l.c.d.i.u.3.<.4.<.<.;.;.;.o.;.;.<.<.;.<.=.=.<.o.;.<.<.<.<.=.<.$.,.=.$.<.=.=.o.,.=.o.,.,.,.O.] I & # @ O O O # , , b ( ( #.+.+.X.......X...X.@.@.O.,.,.,.>.>.>.4.-.-.-.-.1.1.-.-.-.-.&.1.-.-.-.&.-.-.&.-.-.-.-.-.-.-.-.-.<.-.-.-.",
"7.7.u.0.7.7.0.7.9.7.0.7.u.9.9.9.9.9.9.9.u.9.0.7.7.u.9.3.3.7.1.9.1.9.7.1.7.7.8.7.u.7.7.u.q.u.q.u.u.7.7.q.u.0.q.7.q.0.t.6.n $ - $ @ @ @ X . . . > * >.vXvXvXgXgXqXg.j.<.2.<.<.2.2.2.-.2.-.2.2.-.t.2.1.-.7.-.7.2.t.2.2.2.2.t.2.u.2.2.2.2.t.2.t.u.t.t.u.u.t.u.t.u.t.2.t.2.2.t.2.t.u.t.u.;.t.u.t.2.;.2.2.t.-.u.;.t.-.1.-.1.4.=.-.2.-.<.1.1.1.2.<.1.-.-.4.-.-.-.-.=.1.-.-.-.-.=.<.$.1.1.-.<.-.=.=.=.;.$.$.$.*.$.$.@.@.#.@.#.@.#. ._ A 3 * + O O O + + + 7 7 G.vXgXBXbXvX%XC.S.s.;.;. . .T  .O. .O.O.O.O.O. .O.O.o.X.O.O.X.+.+.+.X.+.+.| +.+.+.| *.:.| *.| :.*.:.*.;.| *.*.;.:.| *.*.| *.:.:.*.+.+...+.+.+.| ..+.} [ ............[ ..+.+.[ ..+...+...+.+.} +...........O.......( ..) P R J F J J J K J ! J ! ! ! K L k y w ; $ @ @ O @ @ @ O # D NXMXmXvXMXMXbXbXvXBXbXrXG.^.4.o.o.$.o.O.o.o.o.o.@.@.o.X.<.=.s.f.f.h.g.z.g.f.f.g.z.h.g.z.g.l.l.z.f.d.i.9.3.4.$.@.$.@.@.@.@.@.*.;.*.$.$.@.$.$.$.$.$.$.$.*.$.;.*.*.-.*.-.$.&.*.-.&.$.;.*.;.*.$.&.*.;.*.-.*.$.*.$.$.&.*.*.;.$.&.*.;.&.*.*.;.*.&.*.*.-.*.-.*.$.*.%.E 6 4 # O = @ O O # * 6 v.jXnXaXgXgXsXgXgXyXgXtXgXgXgXgXgXyXyXwX&X5X'.D.A.b.f.f.3.4.4.;.;.o.;.;.;.=.=.=.<.o.=.=.<.;.<.;.;.<.<.;.<.o.$.<.o.<.;.<.o.<.<.=.=.=.=.$.<.o.=.;.$.o.o.,.#.o.#.v : O O O O O O @ O l &.6.0.4.1.1.2.1.-.-.2.t.2.1.1.1.1.5.1.1.1.1.-.6.-.2.-.7.-.-.1.-.-.6.-.1.-.1.-.1.-.1.-.1.-.1.-.-.6.2.2.;.-.-.",
"7.9.7.7.0.u.u.7.7.9.u.7.7.9.9.9.u.3.9.9.9.9.9.u.9.7.7.7.3.7.3.8.9.1.3.7.6.7.7.7.q.7.7.q.u.7.u.t.q.7.t.7.7.7.7.0.0.q.6.t.n - $ - @ O @ $ . . . * * >.vXsXgXgXgX0Xj.j.<.<.y.;.<.<.2.-.2.2.2.2.2.2.-.2.t.2.-.7.2.2.2.2.2.2.2.2.t.;.2.2.2.2.t.u.t.t.u.t.t.t.u.t.t.u.2.t.2.t.t.t.t.u.;.t.u.t.u.t.t.u.2.2.2.-.-.t.-.2.-.1.-.1.2.-.-.-.-.1.=.=.=.1.=.1.-.-.-.-.-.-.<.=.-.-.-.-.1.<.1.$.$.=.-.=.-.=.=.;.;.$.$.$.@.$.*.@.+.@.+.#.@._  .A 2 2 O + + O O O + 7 5 G.gXgXBXlXvX$XA.C.s.o.<. . . . . .O. . .O.O. .O.O.O...O.....O...+.+.+.X.+.*.+.+.+.*.:.*.:.:.*.:.*.*.| :.*.| +.| *.*.:.:.*.| *.*.| ..+.+.......+...} +......._ .._ ..+.+.( +.+.+.+.+.[ +.[ +.+.+........._ ..........( ^ U U J J J K F F J J ! { ! ) F k M n w w ; # O @ # & @ # O S nXCXnXBXvXbXbXBXvXBXvXlX^.G.4.;.;.o.o.o.o.o.<.@.$.@.o...=.<.i.f.h.f.g.g.l.z.g.h.h.g.g.g.z.x.x.x.f.s.w.9.1.1.<.$.$.@.@.@.@.*.$.*.$.$.$.;.$.$.$.$.$.*.$.*.-.*.-.$.*.*.$.*.$.$.*.*.*.$.-.*.-.*.;.*.&.*.&.;.*.$.;.*.*.&.;.$.*.$.$.*.*.$.-.*.-.$.$.;.*.*.&.-.*.-.$.F 4 6 @ & = O % @ O 3 3 V.nXxXgXgXgXgXfXgXgXgXgXgXfXtXgXhXyXgXwX*X*X'.F.S.b.s.f.3.4.<.;.;.<.o.o.=.$.<.;.;.<.=.=.;.=.o.=.o.;.;.,.<.<.<.$.o.<.=.,.$.<.$.<.,.;.$.<.$.<.=.$.=.,.,.o.#.,.,.v # O # @ O O $ @ @ g t.&.0.1.1.1.<.2.2.-.-.-.-.7.5.>.1.1.1.1.>.1.6.-.6.-.6.-.6.7.-.6.-.-.6.-.1.-.1.-.1.-.1.-.-.1.2.-.-.-.t.2.-.t.",
"u.7.0.0.7.7.0.0.u.0.9.0.i.u.9.u.9.9.9.9.9.7.9.7.9.9.7.9.7.7.9.1.1.8.8.7.7.8.8.7.7.7.u.7.t.u.q.u.q.7.H.t.q.7.7.0.7.q.q.6.l $ $ ; @ @ @ O . . . * * $.sXaXvXvXvXwXj.C.<.<.;.2.y.<.-.y.-.2.2.t.2.2.7.7.-.2.7.-.7.2.2.2.2.-.t.2.t.2.2.2.2.t.2.2.t.u.t.t.u.u.;.t.u.t.t.t.2.u.u.t.t.t.7.2.2.t.;.t.t.t.-.-.2.t.2.2.;.-.1.1.-.1.-.4.-.2.2.=.-.1.=.1.1.1.-.4.-.-.-.-.-.-.=.<.4.=.>.=.=.,.,.<.1.,.=.=.-.;.;.$.$.;.$.@.$.@.@.+.#.@.O.S S 6 + + O o + O + O + V V $XvXvX0XC.D.4.X.X. . . . .O. .O.O. .O.O.O.O.O. . ...O...O.O...+.X...O.+.+.*.+.*.+.+.+.:.*.:.*.:.| :.:.*.| *.:.+.;.:.*.+.:.*.| :.*.+.+.+...+...} +...} ....' ....+.+.| +.[ +.[ [ +.[ +.+.+.[ +.( +..............._ ...._ ^ ) U K F J J K F U J ! ! ! R k k w # ; # # # @ @ @ # O O >.MXNXvXvXMXbXbXBXvXhXvX$Xy.y.;.$.;.$.$.$.o.$.$.#.$.#.$.o.o.$.X.o.$.o.#.$.#.$.#.@.#.@.#.$.#.$.@.@.@.o.$.O.+.o.#.$.$.$.#.$.$.$.$.;.$.$.%.$.$.$.$.$.$.*.$.-.$.*.*.*.$.$.*.;.$.;.*.-.*.*.*.;.$.&.*.*.;.*.$.$.*.$.*.-.$.*.*.&.-.*.*.-.-.$.*.$.$.*.$.*.*.;.$.$.*.#.$.E 4 , @ & O & O O O , * B.sXjXgXgXjXgXgXgXgXgXgXgXhXgXwX5XG.G.C.f.y.4.<.<.;.<.o.<.;.o.;.<.o.<.<.<.<.;.,.;.$.=.=.<.o.=.=.<.<.;.;.$.o.<.<.<.=.=.=.<.<.=.$.;.$.<.$.$.=.=.<.=.,.o.,.,.#.#.x & # O O O O O $ $ k B.B.Z.7.9.7.-.2.-.-.-.6.-.6.1.1.1.1.1.1.1.-.-.6.-.6.-.6.6.-.7.-.6.-.-.1.t.-.1.-.-.1.1.-.1.-.-.-.t.-.-.t.2.-.",
"9.7.7.u.7.u.7.u.0.u.7.i.0.7.0.7.9.9.9.9.9.9.9.0.9.7.9.7.6.7.1.9.1.9.7.8.7.7.7.7.7.q.7.7.u.q.7.7.7.7.7.t.7.7.0.7.7.7.6.q.l $ @ - @ @ X % . O . * * #.aXrXvXyXvXyXG.S.y.;.y.<.<.2.2.-.2.-.2.2.2.2.6.-.7.2.-.7.2.2.2.t.2.t.-.u.2.2.2.t.7.t.2.2.2.t.t.u.;.t.t.u.t.;.2.2.;.t.;.2.u.;.2.t.t.2.t.2.u.;.2.t.2.2.2.-.t.t.-.1.1.=.2.-.-.-.1.1.1.<.1.1.-.<.-.-.4.2.-.2.=.1.1.<.2.=.<.<.1.-.<.-.$.<.1.=.-.=.$.$.$.*.@.$.%.@.@.#.+.+.I 7 7 + O O O O o O + + * 4.3.wXtXwXC.o.o. .X. . . . . . . . .O.O. . .O...O.o.O.O.X.o.O.X.O.+.+.+.+.+.+.| +.+.:.+.*.:.:.*.| +.+.*.+.@.*.:.*.| *.| :.*.:.:.+.:.+...+.+.+...+...+..._ +...' ....' ..+.[ +.| +.+...............+..._ ..............+... .} ( Q F J F F F J R Q Q ! ) J f l ; # @ # @ @ # @ @ # + + Z.MXMXMXvXvXvXmXvXmXwXqXC.$.<.$.$.$.$.$.=.$.$.$.;.&.$.$.$.$.$.$.;.=.$.$.$.$.$.$.$.#.$.$.,.$.$.$.$.$.$.$.$.$.$.$.$.$.$.$.$.$.$.$.#.$.$.$.$.$.$.$.$.$.-.$.-.*.&.$.;.-.*.-.*.-.*.$.-.*.&.$.*.$.&.*.-.*.$.$.*.-.*.-.*.;.$.&.*.*.;.$.*.*.*.;.*.-.;.*.-.*.$.$.-.*.%.#.Q 4 > # O @ = = O @ 2 > B.jXgXsXgXgXgXhXgXhXgXfX:X^./.b.y.4.4.;.<.<.<.o.;.<.o.<.o.<.o.<.o.<.;.,.;.o.<.;.<.=.=.=.,.<.=.=.,.;.$.<.$.<.$.=.,.=.o.<.$.$.o.<.o.<.$.=.<.$.$.$.=.o.,.#.O.O.' i @ O O $ X @ O O X c ].].:X X].P.a.a.-.u.-.6.1.-.6.1.6.-.6.1.6.6.7.-.7.-.6.1.-.6.1.-.6.6.1.1.6.1.6.6.6.-.7.t.1.6.t.2.2.2.2.-.-.-.",
"0.u.7.7.0.7.0.7.7.0.u.0.u.7.7.0.0.i.i.7.7.0.9.0.9.9.9.7.6.9.7.7.8.3.7.6.7.7.7.7.7.7.7.7.q.9.7.q.9.7.7.q.7.7.0.t.0.0.q.t.l ; - - @ X - O X X . # * +.aXrXvXgXvXtXG.S.y.;.2.y.;.4.2.-.2.-.y.-.7.2.2.t.2.2.2.2.2.2.t.2.2.2.2.2.2.2.t.t.t.2.2.2.2.2.t.7.2.2.2.2.-.-.2.2.2.2.-.y.-.-.6.-.-.1.1.1.>.1.-.1.1.1.1.1.1.1.-.1.1.1.<.1.<.1.=.1.1.1.1.1.<.-.1.<.1.1.1.=.1.$.1.<.<.1.1.,.<.=.<.>.,.=.1.=.=.$.$.$.$.$.@.$.$.*.+.*...+.F 7 6 + + O O O O O O O + 4.3.rXwXwXj.o.o. .|  .X.{ X. . . . .O. .O.O. .o. ...O.O.O...O.O.X...+.+.+.X.+.*.+.+.+.+.:.*.+.:.+.+.:.+.+.+.+.:.+.:.| +.+.@.+.@.....+.+.+.X.| ..+...+.} +.....' +..._ _ +.+.+.| +.} +...+.......+...+.................+.+.} ( ( Q J U F F J F U J Q ) ) F g l # O $ # # # - @ @ # O # Z.nXnXnXBXmXvXbXvXBX0X0XC.$.=.$.=.o.=.$.$.=.$.;.$.$.&.$.$.$.$.$.;.$.$.$.$.$.$.$.$.$.$.$.$.&.$.*.$.;.$.$.$.&.$.$.$.$.$.$.$.$.$.$.$.$.$.%.$.$.&.$.$.$.&.#.&.*.-.*.-.*.*.-.*.-.*.$.-.*.;.$.-.*.;.*.*.;.*.*.*.*.*.&.$.;.*.*.*.-.&.$.*.$.-.*.-.*.*.&.$.$.*.-.$.*.$.*.Q 0 , @ O & O O O O * 3 B.xXsXgXjXgXgXjXgXnXyXyX5X^.).M.s.4.4.;.<.;.o.<.;.o.<.o.<.o.$.;.,.;.<.<.$.<.o.<.$.<.$.$.<.$.,.=.=.$.=.$.=.$.$.<.=.$.=.$.=.$.=.$.=.$.$.<.<.o.=.,.<.#.,.O.O.] ' i @ O @ O $ O O O X b U.].,X X}.J.p.p.-.t.-.7.-.2.t.t.-.7.-.6.6.7.-.-.6.1.-.7.1.7.-.6.1.6.1.-.7.-.t.t.u.t.2.t.2.2.t.t.t.u.2.t.-.t.",
"7.7.0.0.7.u.7.0.u.i.7.0.0.0.i.i.7.7.0.0.0.i.7.7.9.q.7.9.9.6.8.8.6.7.7.8.7.8.8.7.q.7.q.7.7.9.7.7.7.7.7.7.7.7.7.0.q.7.q.q.l ; $ - @ X X X . O . # # ( qXrXgXvXgXbX.X.Xy.-.<.-.<.2.-.y.-.2.2.2.-.2.2.2.2.2.2.t.2.2.2.2.2.2.2.t.2.7.2.7.2.2.2.t.2.7.2.t.2.t.2.-.y.4.2.2.-.-.-.-.2.y.-.1.1.1.1.1.1.1.1.1.1.1.1.<.>.>.<.1.=.=.1.&.1.>.1.<.$.1.,.-.1.1.1.$.>.=.<.1.-.1.1.$.1.,.=.1.=.1.1.=.1.$.=.=.>.<.$.@.@.;.@.$.$.@.$.+.G S 4 # + O O O O + O + + + y I.P.fX*X*Xo.X.X.| X. .{ X. . .O.O. . .O. .O... .X.O.X...X.+...O...+.+...X.+.+.+.+.+.*.| *.+.+.+.+.+.+.+.+.+.:.+.+.*.*.+.....+.+.+.+.X.+.+.+.+.+...+.......+._ .._ _ +...' [ +.+.[ +.+.+.} ( +...+._ ..+.....' +._ ..+._ ..+.....( Q Q U J F F U Q Q Q Q F l f # # # @ @ @ $ @ @ # * * |.nXnXvXmXvXvXvXvXvX+X_.4.$.$.$.$.$.$.$.$.$.$.,.$.$.$.$.$.=.$.-.-.*.;.$.&.$.$.-.$.%.#.$.$.$.$.-.-.$.$.;.$.$.&.$.$.#.$.$.$.$.;.*.#.$.$.$.$.$.$.$.&.$.$.&.*.&.*.-.$.-.&.&.-.*.-.*.*.$.$.*.$.%.$.-.$.*.-.&.-.-.*.$.&.*.-.&.;.*.*.$.$.;.*.;.$.-.*.$.$.;.*.*.*.;.$.*.Q 4 , # # = = & O & 3 , D.nXjXjXgXgXgXwXwX.XD.A.s.4.4.=.<.o.;.o.o.;.<.o.o.<.o.<.o.o.<.o.o.<.o.<.<.$.,.=.=.<.<.=.=.<.=.=.o.<.$.=.$.<.$.$.o.<.$.<.$.<.$.<.$.<.$.o.$.=.=.$.$.,.O.,.,._ ` t & @ O X X O @ $ X j ].].dXuXuX7X[.[.9.-.-.-.t.2.2.2.-.7.2.1.2.-.6.7.-.6.7.-.6.-.-.6.2.t.1.6.6.7.u.t.;.2.;.u.t.2.;.u.2.t.2.t.2.2.",
"7.u.7.u.u.0.7.u.0.0.7.u.7.i.0.7.u.0.i.7.7.0.u.0.6.9.q.7.7.q.7.7.7.7.7.7.8.7.7.7.7.7.8.7.7.8.7.q.9.9.q.7.7.q.7.7.7.q.q.0.l ; ; $ X - @ X X X O 6 6 q.vXaXgXvXhXhX0X0Xf.4.<.;.2.<.2.-.-.u.2.2.-.7.2.t.-.2.t.2.2.2.2.2.-.2.2.t.-.7.2.2.2.2.t.2.2.2.2.t.2.2.2.2.2.2.-.-.y.-.-.y.2.-.2.1.1.1.>.1.1.1.1.1.1.<.1.1.1.1.1.1.1.>.1.-.1.1.1.1.1.<.1.<.1.=.1.1.1.<.1.<.1.<.1.1.<.-.1.=.=.1.=.1.$.1.=.-.=.=.$.$.$.#.@.#.+.+.+.F 4 4 O + + O O O O O O O O + F @X@XaXS.G.o.X.| X.| X.X. . ... .O...O.O.O...O.o.O.....X.O.O.X...+.+.X.+.+.+.+.+.:.+.+.+.+.+.+.+.+.+.+.:.+.+.+.+.+...+.+.+.+.+.+.X.+.+.+...+.....+...+.+.+.......O...+...+...+.+.+.[ +.+...+..._ ..+.....................' ....+...( ( ~ U U U E Q ~ ) Q Q l l # @ # @ # ; $ ; O O r t qXnXnXmXzXBXbXvXvX9Xg.g.o.$.=.=.$.=.=.$.=.$.$.$.$.$.=.$.$.$.$.-.$.;.$.-.$.*.-.;.$.$.$.$.$.$.-.*.$.$.*.$.$.&.#.$.$.&.$.;.$.;.$.$.$.&.&.$.$.&.#.$.#.&.&.$.$.&.&.$.$.&.&.&.$.$.$.*.;.*.*.-.*.;.;.*.$.&.$.$.$.*.$.$.*.*.$.$.$.*.*.*.$.$.$.*.*.;.$.*.&.*.$.$.$.*.$.%.E 4 4 # & O & = & @ 6 3 L.sXnXsXiXwX.Xb.M.3.<.<.<.=.;.$.<.;.=.=.<.<.;.;.<.$.<.o.o.<.,.o.<.$.o.;.$.<.=.;.<.$.<.$.$.<.=.$.<.$.<.$.<.o.$.=.<.$.=.$.<.o.<.$.<.$.$.<.=.=.=.$.o.,.O.,.O.~ ~ , @ @ O @ O X O   O s Y.Y.sXpXpXpX7X>Xn.9.i.6.6.2.2.t.7.-.1.6.1.1.-.6.7.-.1.6.1.1.7.6.1.7.6.7.7.1.u.t.u.t.7.t.u.u.t.2.u.t.2.2.2.2.",
"7.0.u.0.7.u.0.u.u.7.0.i.7.0.u.7.i.7.7.0.i.7.7.0.9.9.7.9.7.7.8.7.7.6.8.7.7.7.8.7.7.7.7.9.7.7.7.7.9.q.7.7.7.7.0.q.q.7.0.q.l $ ; $ @ X @ X O . O 4 6 7.zXvXvXhXvXnX0X6Xj.-.<.y.<.2.-.u.-.-.-.7.7.-.u.-.u.-.t.2.-.t.2.t.t.2.2.2.2.2.2.t.t.2.2.2.-.2.2.2.2.2.t.2.2.;.-.2.-.2.-.-.-.2.2.-.<.1.1.1.<.1.>.1.>.1.1.<.1.<.1.1.<.1.1.1.1.1.1.=.1.1.1.1.1.1.=.1.-.1.&.1.&.1.=.-.1.<.=.,.1.$.1.=.1.<.1.=.1.$.$.$.@.@.#.@.@.+.+.F 7 4 + + O # + O O O O O O + F @X@XfXG.S.X. . .X.X.X. .X.X. . .`  .O.O. .O... .O.O.X...O...O.O.X.O.+.+.X.+.+.+.*.+.+.+.+.*.:.+.+.+.+.+.....+.+.| @.+.X.+.X.X.+.+.+.X...+...+.+...+...+...+..._ ' .._ _ +.+.+.+.} +.| ( ..+...+......._ +.+.....+.' ........+.....} ( Q U U F Q Q Q Q ) R h l @ # @ @ @ ; $ # @ # 9 8 eXnXnXbXvXnXvXBXmX9Xh.h.#.$.$.$.$.$.$.$.$.$.$.;.$.=.$.=.-.;.$.$.$.-.$.;.$.-.;.*.$.&.$.&.$.$.$.-.$.-.;.-.$.$.$.&.&.$.$.*.$.*.-.$.&.$.$.$.&.$.$.&.&.$.$.&.&.&.*.&.&.$.*.$.&.-.*.;.*.$.-.*.$.*.*.-.*.*.$.*.*.;.;.*.*.-.$.;.*.-.&.$.$.*.*.$.$.*.;.*.-.*.$.*.$.*.$.$.E 6 6 @ = * O O O = > 6 U.nXjXgXiXrX}.l.l.9.<.1.;.o.;.=.o.;.;.o.;.o.o.<.;.=.o.<.<.o.;.<.o.<.<.,.o.<.o.<.$.<.$.<.<.$.$.<.$.<.$.=.$.<.<.o.$.<.=.$.$.<.o.=.$.=.=.$.<.$.=.o.o.$.,.,.O.` ~ , @ @ O X X O X X $ j Y.Y.sXpXpXuX7X7Xx.9.u.7.7.2.1.7.-.7.2.1.1.2.7.7.-.7.1.2.6.2.7.1.7.-.1.-.7.6.t.u.t.;.7.2.2.t.u.2.;.u.2.2.2.2.",
"u.u.q.u.u.0.0.0.0.0.0.7.7.u.0.0.0.0.0.7.i.9.0.7.q.7.9.6.7.7.7.7.6.7.7.6.7.6.7.7.8.7.9.6.8.7.9.9.6.9.7.7.7.q.7.7.q.7.q.q.l - $ - @ @ X $ o X O j k  XnXmXvXvXhXhXhXlXG.y.y.;.2.<.u.;.-.-.2.7.2.2.-.2.2.2.2.2.t.2.2.t.-.2.2.-.7.2.2.-.-.u.2.2.2.2.-.u.-.2.2.2.2.2.-.-.y.-.;.2.4.-.2.2.<.2.=.1.<.1.1.<.<.1.<.4.1.1.,.1.<.1.1.1.1.4.1.4.1.1.1.1.1.<.>.1.1.=.1.>.<.1.1.<.&.1.=.1.-.1.$.1.-.-.$.1.$.$.$.$.@.@.+.+.+.) ( 9 # O O + O O O O O O O + + 2 1.:X>XpXf.f.o...X.X. .X...| ....O...O. ...O.....o. .o.O...+.X.X.O.O.+.+.+.+.+.+.+.+.+.+.+.| *.+.+.+.+.+.X.+.+.+.+.+.+.+.+.X.+.+.+.+.@...+...+.....+...+...+.+...+._ _ +...' +.' ' +.+...+.....+.O.....+.......+...#.....+.+.......+._ .._ ) ^ ) Q Q Q Q Q Q k l # # @ # - @ $ # @ O z z xXnXnXmXMXbXBXlXlXT.<.<.$.$.*.;.=.=.$.$.*.;.$.;.;.*.;.;.*.;.-.*.;.-.;.*.*.-.*.-.&.$.$.&.$.$.$.$.$.-.$.$.&.$.$.$.$.$.-.;.-.*.-.*.;.&.$.$.$.$.$.$.$.&.$.$.$.&.&.-.*.-.$.$.$.&.-.*.*.;.&.*.$.*.*.-.&.*.*.;.-.*.;.$.&.*.*.*.*.$.*.$.*.;.*.-.*.*.*.;.$.*.-.*.*.$.*.$.P 4 4 @ & O & & = & 3 6 (.sXsX&XZ.Z.3.<.=.<.;.=.;.;.<.;.;.;.<.<.o.;.o.;.o.<.<.o.<.o.<.o.<.o.o.<.<.$.<.$.$.<.=.$.$.<.<.$.=.$.$.<.$.<.$.<.$.=.$.<.$.=.$.$.=.$.=.$.<.$.=.,.,.o.,.,.#.P P & @ O @ @ $ O @ $ X s U.I.sXpXpXpXiXuXW.c.n.d.9.9.7.6.6.3.6.1.1.1.-.7.2.2.1.1.1.1.7.1.2.2.7.7.7.7.u.t.u.u.t.u.t.u.u.t.t.u.2.2.-.u.",
"0.7.q.u.7.0.7.u.7.u.0.u.0.i.7.i.7.u.u.0.7.0.7.0.7.9.9.9.7.7.8.7.9.6.9.9.8.7.7.7.9.1.6.9.7.7.8.q.9.6.q.7.9.9.0.7.9.q.q.8.l $ - $ X X X @ O X @ C N %XmXvXvXbXbXbXhXlX5Xy.y.y.y.-.-.u.u.2.2.-.t.2.2.2.2.t.2.t.2.2.2.2.2.2.2.2.2.-.-.u.-.-.2.-.-.2.2.-.u.-.-.2.-.2.u.-.y.-.2.2.4.-.2.=.=.1.4.1.4.1.1.<.<.1.1.1.>.1.1.1.1.1.4.<.>.<.1.<.>.1.1.,.1.<.1.1.1.>.1.1.1.1.1.1.<.1.$.1.1.<.<.<.<.<.1.$.1.-.$.@.@.+.+.+.' ~ Q ; # O O $ O O O O O O O o 5 5 B.qXwX9X4.2...X.X.X.X.X.O.....X.O...O.O.O...O.X.O.O...X.O...O.O.X.....X.X.O.....+.+.+...+.+.:.+.X.+.+.+.+.+.+.+.+.+.+.+.+.+.+.+.+.+.+.+...+.+.+.+.....O...........+...+......._ ...._ O...' _ ..' ...._ _ +._ ...._ ' .._ ..+._ _ +..........._ ( ( ) Q Q Q h k # $ # $ # @ # @ # O U ~ nXvXmXvXvXvXbX9XqXs.o.o.$.;.-.$.$.$.&.;.;.-.&.*.&.&.&.*.-.$.$.*.$.*.$.-.;.$.;.$.$.$.&.$.;.*.$.&.*.*.&.&.$.$.$.*.$.$.$.*.$.-.$.%.$.#.%.$.&.$.$.$.$.$.$.%.*.&.*.$.-.*.&.-.*.&.*.;.$.$.$.*.*.-.*.$.$.$.-.*.$.*.*.$.;.*.-.*.;.$.*.*.$.*.$.*.-.$.*.$.*.-.$.@.-.*.$.#.F 4 , # # = O & & = e e {.].{.i.=.=.$.<.=.o.<.,.o.,.o.o.=.,.o.o.<.$.<.=.$.o.o.;.$.=.$.o.o.<.$.$.$.<.<.$.<.$.$.<.=.=.$.$.$.<.=.$.=.$.=.$.<.$.$.o.<.$.$.<.o.<.<.$.$.$.o.$.$.$.,.o.,.P P , @ @ @ X $ X O     a R.R.dXpXpXaXiXaX[.K.H.m.x.M.f.u.u.3.2.1.1.1.2.-.-.2.-.2.<.2.-.1.2.2.2.-.2.2.t.u.t.u.;.u.u.t.2.u.u.2.u.2.7.u.",
"0.0.u.p.7.i.0.i.i.7.u.0.0.7.0.i.i.7.7.0.0.7.7.9.0.9.6.9.7.q.6.7.6.7.7.6.6.3.6.9.9.9.7.7.7.7.7.7.6.7.7.7.7.7.7.0.6.q.q.q.l - $ - X @ X @ X X @ c c #XmXmXbXbXhXvXhXhX5Xy.y.;.;.y.u.-.2.-.2.2.2.2.t.2.2.2.2.2.2.-.2.2.2.2.2.-.-.2.y.-.u.-.2.2.2.-.-.u.-.-.4.-.4.;.2.2.-.2.2.2.-.4.2.2.2.2.-.1.1.<.1.4.1.1.<.1.1.4.>.1.<.<.1.>.<.4.1.>.1.<.1.1.<.1.<.1.1.1.1.1.1.<.>.=.1.-.1.1.,.<.<.<.,.<.-.&.$.$.$.+.+.+.+.} ' ~ / # # O O O O O O O O O O O 7 7 c.wXqX9X4.4.X.O.o. .X.X.......O.O.O.X.O.O.X.O.O...O.O...O.X.O.+.X.O...O.+...O...+.+.+.+.+.+.+.+.+.+.+.+.+.+.+.+.+.+.+.+.+.+.+.+.+.:.+.+.....| +.O.............+.........+.+._ +._ +...' _ ..+._ .._ _ ..+._ +._ _ O.' O..._ _ +.....+....._ ( } ( } ) Q Q Q j j # # $ # @ # @ @ O O U ~ xXnXnXmXvXvXnX9X9Xs.o.o.$.;.-.$.*.-.$.$.t.*.;.-.-.*.;.t.$.$.&.&.$.&.*.*.*.-.*.;.&.;.*.*.*.-.-.*.*.-.$.$.$.$.$.$.$.*.-.$.*.-.$.$.$.%.*.;.&.*.*.-.-.*.$.&.*.$.$.;.*.;.$.*.*.&.*.*.$.*.-.$.-.*.;.*.*.;.*.;.-.*.$.&.$.&.*.-.$.*.-.$.$.$.*.$.*.$.$.*.$.*.*.$.$.*.@.%.F 4 4 @ & & O & O * e t ].{.`.s.=.=.$.$.$.;.$.o.o.<.<.$.;.o.;.,.$.$.=.$.=.<.$.,.<.$.=.<.$.=.$.=.$.<.$.=.o.=.$.<.$.<.$.<.$.=.o.<.$.<.o.=.$.$.=.$.;.o.=.$.=.$.o.$.<.o.<.o.,.o.O.,.#.P P * # @ @ - @ - X X X a U.L.sXpXpXaXiXiX[.H.H.m.M.x.d.i.i.7.2.2.2.1.-.2.2.-.2.1.2.4.2.2.2.2.7.2.7.-.u.u.t.u.u.u.;.u.u.u.2.7.2.2.2.u.",
"7.u.7.0.0.u.7.7.0.0.u.7.u.0.7.7.0.0.i.7.7.0.i.0.7.6.9.6.7.7.7.8.7.6.7.6.3.7.6.7.q.7.7.q.7.7.7.q.7.7.7.q.7.q.9.6.6.9.q.q.l @ @ $ X @ X X X O @ c C %XnXbXvXbXbXbXbXbXtXF.F.y.2.;.-.2.2.u.-.t.2.7.-.2.2.t.2.2.2.t.2.2.t.2.2.2.2.2.-.-.u.-.2.-.2.y.-.-.-.u.2.2.2.2.-.2.-.2.-.2.2.2.-.-.2.<.4.1.1.2.1.<.>.1.>.1.1.<.1.1.<.1.1.1.1.>.1.<.4.>.1.<.1.1.<.<.1.1.<.>.>.1.-.1.<.1.1.<.<.=.<.>.<.<.-.1.1.$.@...+...' ( _ / / ; o O O O O O O O O O O O N N }.aXsX@X$.;.o.X.o.X.X.X.X.O.X.X...X...O.O...X.O.o...O.o...O.X...O...O.X...X.O.X.X.X.X...X.X.+.+...X.X.+.+.+.+.+.+.X.+.+.+.+.+.+.+.+.+.+.:.+.....+.+.........O.....+.+._ .._ O._ #._ _ ..#._ +...#._ +.O._ +._ +._ ...._ +.+..._ ' ..............} [ ( ) / Q k b # $ # @ @ @ # $ @ # #.,.MXnXnXvXBXzXlX@X+X<.o.,.$.$.$.;.-.$.$.-.;.-.*.*.;.-.-.*.&.*.*.;.$.$.*.-.;.*.-.*.*.*.;.-.;.*.$.;.*.$.$.*.$.$.$.$.$.$.*.-.$.*.*.;.$.&.-.*.*.$.$.*.$.-.*.%.&.$.$.*.-.*.;.*.;.$.*.-.&.*.*.;.$.$.*.-.*.$.-.*.$.*.-.*.*.$.;.*.@.$.*.$.*.$.$.*.$.;.*.$.;.*.$.*.*.$.%.@.D > > # O & & O & O s t d.,.$.$.=.=.=.=.<.o.<.o.<.o.;.,.=.,.o.o.;.,.o.=.$.o.$.$.o.$.$.$.$.$.=.$.$.o.<.$.<.$.=.$.=.$.=.$.<.$.<.$.=.$.<.$.<.<.=.$.=.,.o.$.$.o.<.$.$.$.$.$.#.,.o.,.#.P I & @ - @ $ X $ $ $   8 B.v.dXpXpXpXpXiXoXP.K.P.E.E.W.K.P.A.Z.m.b.M.M.f.f.f.f.a.a.a.f.a.a.a.a.a.a.f.a.a.a.a.u.H.H.H.l.M.M.M.m.H.H.H.",
"u.0.0.7.u.0.7.u.0.7.u.0.7.i.7.i.7.u.7.i.0.7.0.7.7.7.7.7.8.7.7.7.7.7.7.8.6.3.6.3.6.9.6.9.9.6.7.7.7.7.u.t.t.u.q.7.7.q.q.q.n - - $ X X @ @ X X @ C C =XnXhXmXvXmXhXhXbXhX5X5Xy.-.-.y.-.-.u.2.2.-.-.u.-.2.2.t.2.t.2.2.2.2.7.2.-.-.2.2.2.2.4.-.2.2.2.2.2.2.2.<.2.2.2.2.2.2.-.2.-.2.2.y.-.-.-.-.2.2.=.1.>.1.1.1.1.<.1.1.1.<.1.>.4.1.1.1.<.1.>.>.1.1.<.4.1.1.<.1.>.4.1.1.<.<.>.1.-.1.<.<.<.<.<.&.-.=.$...+.| ( ( ( _ / ` > O X O X X O O O O O O # +.#.#XsXiXA.$.$.$.$.o.$.@.o.$.@.#.o.#.O.X.X.+.X.+.X.O...O.O...O.O...O...X...X.O.O...O.X.O.....O.X.O.X.O.+.X.X.+.+...X.+...+.+.+.+...+.+.+.X.+.+.X.| ....O.....O.......+.....+..._ .._ .._ .._ .._ .._ .._ +._ .._ ...._ .._ O..._ ' ........_ +...+.....} ^ ) Q C C 4 # $ O @ $ @ # @ O w.w.nXnXnXmXvXvXaXD.D.;.-.$.-.-.&.*.;.-.&.-.;.-.;.*.*.-.;.;.-.*.-.*.*.-.&.;.$.$.-.*.;.-.*.;.-.;.*.$.&.*.%.%.$.$.$.-.-.*.$.*.$.*.$.-.*.$.-.*.$.&.$.*.;.*.;.$.;.*.$.*.;.$.*.-.$.;.*.$.*.-.&.$.*.;.*.*.;.$.&.*.*.-.*.*.$.&.&.*.*.*.*.;.*.*.$.*.$.*.$.*.$.$.*.;.$.*.;.*.G 2 4 # O & O = & O , 6 ^ ,.#.=.=.$.=.o.,.=.$.=.$.$.=.$.;.o.,.=.$.$.o.,.o.=.;.,.o.;.;.,.$.o.,.;.$.=.=.$.<.<.$.=.=.$.=.<.$.=.$.<.$.<.$.<.<.$.$.=.$.$.o.=.$.,.,.;.o.o.,.$.,.o.,.o.,.I S & @ @ @ $ X $ O   O > r.d.uXpXpXpXrXeX$XW.W.S.W.G.H.~.~.~.oXQ.Q.Q.oX~.Q.oX~.~.~.~.!.Q.~.!.~.!.~.~.~.~.oX~.oXH.H.oX~.~.~.~.~.~.~.~.",
"u.0.u.7.0.u.0.0.i.7.0.u.7.0.0.u.u.0.0.i.7.0.0.i.8.9.7.7.7.8.8.7.7.8.7.7.3.7.7.7.7.7.8.7.6.9.7.7.0.q.7.0.u.q.7.7.6.9.q.6.l $ @ X @ X X X X O O C C #XvXhXhXbXhXhXhXhXhX*X5Xy.-.y.-.y.u.-.-.y.7.2.2.2.2.2.2.2.t.2.2.2.t.-.2.2.7.-.2.-.2.2.2.-.2.-.-.2.-.2.2.2.2.-.2.2.2.-.2.2.4.2.-.y.-.y.y.-.-.2.1.<.<.1.<.<.>.1.>.4.1.1.1.<.1.<.4.1.1.1.4.<.1.1.>.1.1.1.1.<.1.<.1.1.1.1.=.1.<.<.<.,.<.<.-.&.-.$.+.+.+.( ( [ ` / ~ , O O . O O O O O O O O # #.#.#XiXaXD.;.$.$.X.@.o.@.@.@.@.$.o.o.O.#.O.O.#.O.X.O.O.X...X.+.O.X.O.X.O.O...O.O.O...O.X.O.O.X.O.....O.+...+.+.O.+.+.+.+.+.O.X.+.O.+...+.+.| +.+.+.X.........X...+.+.+...+..._ +.+..._ .._ .._ +._ .._ _ _ +._ .._ ' .._ +.' ..O..._ #.+.........( ....[ ( / ~ C Z w # # @ @ # @ O # O w.w.nXnXnXvXvXmXrXD.D.@.$.$.$.$.-.;.*.&.&.*.&.*.;.-.t.;.*.-.;.;.*.*.;.*.*.*.-.*.*.;.$.*.*.$.*.*.;.*.*.$.&.$.$.$.$.*.$.$.$.$.$.;.*.*.$.;.*.$.*.*.*.$.*.-.$.*.*.$.*.-.&.$.$.;.*.*.-.;.;.*.*.$.$.*.-.*.$.$.-.*.*.&.;.$.;.*.$.$.*.;.$.*.$.$.*.;.;.*.*.$.$.*.$.$.@.*.$.$.G * > & & O O # O # > 3 ^ o.,.$.$.<.$.<.$.=.<.o.<.$.=.o.,.o.=.o.;.,.;.,.=.,.o.o.,.,.o.$.,.;.o.$.$.<.o.<.$.$.=.$.$.=.=.$.<.$.=.$.=.o.$.$.$.=.$.$.=.,.=.,.o.;.$.$.,.;.<.o.$.$.o.,.#.I I # - $ - - @ @ X $   , r.r.uXpXpXaXrXaX*X!.!.E.W.W.oX~.~.Q.~.~.~.oXH.~.Q.H.~.~.~.~.!.Q.~.~.~.~.~.).~.~.H.~.~.oXoXH.~.~.~.~.~.~.~.~.",
"7.0.7.0.0.0.7.u.u.0.7.0.u.7.u.0.0.7.i.7.7.0.7.7.7.7.7.7.7.7.6.7.7.7.8.7.3.6.3.7.9.6.7.7.7.7.6.7.7.q.7.7.u.q.0.q.0.7.q.q.l @ - $ @ X X X X X O c c =XmXmXbXvXhXmXbXhXhXtXyXG.4.4.-.y.-.u.-.-.2.-.2.2.t.2.2.2.-.u.-.7.-.7.2.2.-.2.2.-.2.-.2.2.2.2.2.2.2.-.;.2.4.2.-.4.-.y.-.-.-.-.-.-.-.-.-.-.2.2.1.1.1.1.1.>.1.<.<.1.>.4.1.1.>.1.<.1.<.4.1.1.1.1.1.1.1.>.1.1.<.1.1.1.1.1.1.1.<.=.=.<.<.<.-.-.&.$.+...+.[ _ _ / / ~ , O . = . O O O O O @ O 8 h.k.6X>X1X9.$.$.@.$.$.;.$.$.o.$.$.$.@.@.O.+.X.O.X.X.X.O.O.O.O.X...O.X.O.O.X.X.X.X.o.X.O...O.O...O.O.O.O...X.X...O.......X.O...X.O.X...+.+...+.+.+.| X.O.........O.....+.......' +._ ' .._ .._ ...._ .._ .._ _ .._ .._ +..._ ..' +._ +....._ _ ..+.( ..} ../ ( ) S F 0 # O O # @ O # # O 0.q.MXnXnXnXvXnXrX3.9.$.$.$.*.&.&.&.$.-.&.$.*.-.t.*.*.-.-.*.&.*.;.&.*.$.$.&.*.*.-.*.*.;.-.*.$.&.;.*.-.*.$.$.$.@.;.$.$.$.*.;.$.&.*.$.&.*.$.%.-.$.*.-.;.*.$.&.*.-.&.$.*.;.*.*.-.*.-.*.*.$.;.$.$.*.*.;.*.;.*.*.$.$.*.-.&.-.*.*.$.*.$.$.@.$.$.$.;.*.*.@.*.$.$.*.;.*.%.*.A 4 2 & = O & = = O * * T ,.$.<.<.$.<.$.=.=.=.=.=.$.$.$.,.;.=.$.o.$.$.$.$.$.,.;.=.o.=.$.$.o.<.$.=.$.$.=.=.=.=.$.$.=.$.=.o.<.$.<.$.=.<.$.<.$.$.$.$.;.o.o.,.,.=.=.$.<.$.$.o.,.,.O.#.I I * @ @ @ @ $ - $ X O ; &.&.2XaXpXaXrXrX6X_._.G.W.W.Q.Q.Q.Q.~.~.oXQ.oXoXoXQ.Q.oX~.~.~.~.~.~.).~.).).~.~.~.~.H.H.oXoX~.oXH.oX~.~.~.~.",
"u.0.u.0.u.u.7.0.7.0.i.i.0.0.0.7.7.0.0.7.0.7.0.i.9.8.7.7.8.7.7.7.7.6.7.7.6.3.6.6.3.3.7.9.9.7.9.7.7.7.7.7.7.7.7.7.q.q.q.q.n @ @ X X X O O O X O c c @XnXnXmXbXbXbXhXhXhXhXhX5Xy.y.-.;.y.;.4.2.2.2.2.2.-.2.2.2.2.-.7.-.7.7.2.2.2.-.2.2.2.2.;.2.2.-.2.-.2.y.4.2.-.2.2.2.2.-.y.y.-.y.y.-.2.y.-.2.-.2.1.4.1.1.4.1.1.4.1.1.1.<.<.1.4.<.1.1.1.>.1.<.>.1.>.1.<.4.1.>.4.1.>.4.<.<.<.<.2.=.1.1.=.1.-.-.-.$.+.[ | ( / [ _ / / , X O % O . . @ O O O O A I.I.eX}.}.1.$.;.-.;.;.-.;.-.<.=.=.,.$.$.@.o.@.#.O.+.O.X.+.X.+.X.@.+.@.+.X.@.+.+.+.X.X.X.+.....X.X.X.X.X.X.+.+...X.X.X.X...X.+.....X.@...X.X.X.....X.......X........._ _ _ .... . ..... ._ ......_ .._ +._ ...._ .._ .. ._ .... ._ .._ .._ .... ._ .._ +... .^ ~ I I 9 O @ @ O $ @ @ @ O +.' MXnXnXnXzXxX$X$.$.$.$.-.;.;.;.*.-.$.$.$.-.$.;.*.-.*.;.&.-.*.*.&.$.$.$.$.;.$.$.$.-.*.$.-.;.*.$.$.$.$.;.*.;.*.$.*.;.*.-.*.;.*.-.*.$.;.;.*.*.;.-.*.$.-.*.*.-.*.*.*.*.-.*.-.*.-.*.*.&.$.*.*.$.&.-.*.-.*.$.-.*.$.;.*.*.*.;.$.*.;.*.$.*.*.$.*.*.*.;.$.;.*.*.$.$.*.$.$.A > > O = % & O = & * & ~ #.#.<.o.$.$.$.o.,.$.=.o.=.=.,.$.$.$.$.=.$.=.$.$.$.$.$.$.=.$.o.$.<.$.$.$.$.<.$.$.$.$.<.-.$.-.=.=.$.=.$.=.=.$.=.$.=.=.=.$.$.,.=.;.o.o.$.$.o.$.$.#.,.o.,.,.D A & @ @ $ - @ @ - @ X @ *.] ;XpXaXpXiXrXfX8X8XW.W.W.Q.Q.Q.Q.oXQ.Q.Q.'.Q.~.Q.oXH.~.~.~.~.~.~.~.~.~.).~.~.~.~.oXoXoXH.oXH.oX~.~.~.~.oX",
"7.0.u.7.0.0.7.u.i.0.7.7.u.0.7.0.0.7.0.u.7.7.0.7.6.9.7.7.t.7.7.7.7.7.7.7.7.7.7.3.1.7.7.7.9.3.9.3.7.7.7.7.7.7.0.7.q.q.q.q.a X - $ @ X X X = = % z z OXnXnXmXbXhXkXhXkXhXhXyX5Xy.y.;.y.2.<.2.2.-.2.-.2.u.-.2.2.2.t.-.7.2.-.-.2.2.2.2.-.-.y.4.2.4.-.2.2.2.-.-.y.y.-.u.-.-.-.-.y.-.y.-.-.-.-.2.-.-.4.2.2.1.<.1.1.1.1.1.<.1.1.4.=.4.=.1.>.1.4.>.1.<.4.<.4.1.1.1.<.1.1.<.<.4.<.<.<.2.2.-.2.2.-.1.-.-.-...+.[ ( [ ( / / / 6 X @ X X O = $ O O O O C I.I.qX}.oX1.$.$.-.-.-.;.-.-.$.$.=.$.$.$.$.o.@.@.+.O.o.+.O.#.+.+.o.+.+.X.+.+.@.+.+.o.+.X.X.X...+.X.O.X.+.+.X.X.O.O.....+.X.X...X.X.X.X...X.X...X...O.............O. . . ..._ .. ..... ..... ..... . ..._ .._ .._ .. ._  ..... ..... . .O... ._ .. .+.....} ( ( ) I I 9 # @ @ @ O @ @ @ # +.+.xXMXMXvXnXnX%X$.;.$.$.$.;.&.-.$.*.;.&.$.*.;.$.$.&.$.&.;.-.*.-.;.-.*.;.;.$.$.*.$.;.;.*.-.&.*.;.$.*.$.$.;.&.;.&.*.$.&.*.;.&.-.*.;.;.*.;.$.;.*.-.*.*.-.$.*.*.*.-.$.*.$.-.*.$.$.*.$.;.$.&.-.*.&.;.*.$.;.$.$.;.$.*.$.$.$.*.-.$.*.*.;.;.;.*.$.*.$.*.*.;.*.$.*.*.*.$.*.S > > & X = O & O X * * ~ $.$.$.o.,.=.$.$.$.$.$.<.=.$.$.$.<.$.$.-.$.$.$.=.$.,.;.o.,.;.=.,.;.o.<.$.$.o.<.<.$.=.$.-.$.-.$.$.=.$.=.$.-.$.-.-.=.$.$.,.o.$.$.,.$.$.o.$.=.$.o.$.,.o.,.#.D S O - - @ @ $ @ @ $ @ @ +.] :XaXpXaXrXiXiXqXtXm.F.Q.Q.Q.Q.Q.Q.Q.'.'.Q.'.Q.Q.~.oXH.oX~.~.~.).~.~.~.~.~.oX~.~.~.oX~.~.H.~.H.oX~.~.~.H.",
"u.u.0.0.7.u.0.0.7.0.u.0.7.7.0.9.7.0.7.7.i.0.7.0.9.7.7.7.7.7.7.u.9.6.7.7.6.7.6.3.7.7.7.3.7.7.7.3.7.7.7.7.7.7.7.q.7.q.q.q.a - - X X X O X . . % x z {.mXNXvXhXvXbXhXbXhXhXhXhXS.F.y.;.<.y.2.<.y.-.2.2.-.t.t.2.2.-.7.-.-.7.2.2.<.-.2.2.2.-.2.2.-.2.-.2.4.-.-.-.-.-.-.-.y.u.y.-.u.;.y.;.y.-.4.2.-.2.=.=.2.1.1.1.<.1.<.<.<.<.<.4.=.4.<.4.>.<.<.1.>.1.1.1.<.>.1.4.<.1.1.<.<.1.<.4.<.-.2.-.-.-.-.-.-.-.+.+.| ( / / ' / ~ 8 @ O @ O O O X O O * # ' |. X7XJ.J.=.<.<.-.-.-.-.-.-.1.<.1.<.$.$.o.$.o.+.X.o.+.O.X.X.o.X.X.X.X.X.X.X.X.X.o.+.+.O.X.X.X.X.X.X...X.X.X.X...X.X.........X.X.......X...:...} ..| ......X.X.......O...O. . .O.......O.O. ... ...O.......} +.} ..} _ .. . ._ _ _ .._ .._ .. ....._ } ' ..} } ^ U U y $ # O $ # $ @ @ O k C aXnXnXnXsXvX(.X.@.$.;.$.-.*.$.$.$.-.$.&.$.$.$.&.$.-.-.;.;.*.;.*.*.$.$.*.$.$.;.$.$.*.;.*.;.*.*.-.;.$.$.*.*.*.-.*.*.$.-.*.*.*.;.*.*.;.$.$.$.;.*.;.-.*.*.;.&.$.*.;.$.;.*.*.*.;.*.&.*.-.*.*.*.$.$.*.*.*.&.$.*.-.-.*.$.;.*.*.*.$.$.*.*.*.$.*.$.$.$.$.*.$.*.$.*.$.%.$.G > 2 & O % @ = O @ * * ~ $.,.$.;.,.o.=.,.o.<.=.$.$.=.$.$.$.$.$.$.$.-.=.$.$.,.o.;.,.o.,.o.$.;.,.$.<.<.$.$.=.-.$.$.-.$.&.=.$.<.=.<.$.-.$.$.-.$.$.;.;.,.=.;.$.=.=.,.o.=.,.o.,.,.o.#.I I * @ @ @ - - @ - $ $ $ / / =XpXpXaXfXwXgXhXkX'.Q.Q.Q.Q.Q.Q.'.Q.Q.Q.Q.Q.Q.oX~.~.oXH.~.~.Q.~.~.~.~.~.~.~.~.~.~.~.~.~.oXoX~.~.~.~.~.oX",
"0.0.u.0.u.0.7.u.7.i.0.i.0.7.0.9.i.0.9.0.7.9.7.0.6.6.7.7.7.2.7.t.7.7.7.7.7.7.7.7.3.7.7.3.3.9.3.7.9.6.7.6.7.7.7.7.7.q.q.5.n - $ @ X @ X = X X X g g (.nXnXnXbXbXkXhXhXkXhXhXhX5X5Xy.;.2.;.-.2.-.2.-.u.2.2.2.t.2.2.2.2.2.2.2.2.2.2.2.-.-.2.2.4.2.2.2.2.2.2.u.-.-.y.2.-.-.-.-.2.;.y.-.y.-.-.-.-.2.-.2.1.1.1.4.1.1.<.1.1.4.<.<.2.4.-.1.4.1.1.1.1.4.1.1.<.1.1.>.<.1.>.4.<.4.>.;.4.4.;.-.2.2.2.2.-.-.-.+.| +.( +.( ( / ) 9 O O @ O = X O @ @ 4 , 5.=X=X$Xa.d.-.1.2.2.2.7.2.7.2.9.1.1.4.1.=.;.@.$.$.$.o.@.@.X.o.@.o.@.@.o.@.@.@.o.X.+.X.@.:.;.@.@.$.$.$.;.$.-.=.-.-.=.=.-.-.-.-.;.-.-.;.=.-.-.-.4.-.-.-.-.2.2.=.1.1.<.1.<.1.1.-.1.=.1.1.-.-.-.=.$.=.$.$.#.;.$.$.@.+.+.X....... ....... . ... ...........( .._ .. .( ~ Q l # # @ @ # # O O @ 6 6 ;XMXMXzXvXsXc.o.$.$.$.-.;.$.;.;.;.-.*.$.&.$.$.$.&.-.;.*.-.*.$.&.*.;.$.;.$.@.$.$.*.$.$.*.$.&.;.*.$.$.$.$.&.$.*.*.*.;.;.*.-.*.$.$.$.@.$.$.$.$.$.*.*.$.$.*.$.$.-.*.&.*.$.&.;.*.;.&.$.*.*.-.-.*.-.$.$.-.*.*.*.*.$.;.&.*.&.*.$.@.*.$.$.*.*.;.;.*.$.$.$.$.*.;.-.$.@.*.G > 4 O & % O = = X * & Q ,.<.$.;.o.$.=.;.o.$.$.=.,.o.<.=.$.$.;.;.$.$.$.$.=.;.o.$.$.$.$.,.=.$.$.$.=.$.=.=.=.$.-.-.;.$.;.$.<.=.$.-.$.$.-.=.$.$.$.o.,.o.$.o.,.o.,.;.,.o.$.,.$.,.o.#.I I & ; $ @ - $ @ $ @ @ $ F E  XpXpXaXiXfXfXfXkX*XQ.Q.Q.Q.N.oXH.'.Q.'.Q.Q.Q.Q.~.~.'.~.~.~.~.~.~.~.~.~.~.~.~.~.~.~.~.~.~.oX~.~.oX~.H.oX",
"u.7.7.0.0.u.7.0.0.u.7.7.0.i.u.7.0.7.0.7.0.0.7.7.7.7.7.7.7.7.7.7.7.7.7.7.7.7.6.2.6.3.7.9.7.7.7.7.6.9.7.6.7.0.7.q.7.q.5.q.n @ @ X @ X X . X X X x g T.MXnXvXbXbXkXhXbXbXhXhXyX5X5Xu.-.;.y.2.<.y.-.2.-.t.2.2.2.2.2.2.2.-.2.-.2.<.2.2.2.4.2.2.;.2.2.-.2.2.-.2.2.-.u.-.y.y.-.u.;.u.-.y.-.2.y.-.2.<.2.=.2.1.1.1.>.1.<.<.1.1.1.<.<.-.4.<.>.>.1.1.>.<.1.1.>.4.1.1.1.1.4.1.1.<.<.4.<.2.2.-.2.-.2.-.-.-.*...+.+.} ( [ _ / / p O O X O O O @ O O 4 4 6.#X=X-Xp.p.-.1.-.2.2.2.2.3.7.1.1.1.1.-.<.$.;.$.o.$.o.#.@.$.+.@.@.@.@.o.$.@.@.o.+.X.+.@.@.o.@.@.;.;.=.;.-.-.-.-.-.1.=.-.-.=.-.-.;.y.-.-.-.-.-.;.-.-.=.=.=.1.2.2.-.1.1.1.1.1.1.<.1.=.1.;.-.-.;.$.$.$.$.$.@.$.$.@.+.+.X........... . ..... .}  ... .} _ .._ ..(  ._ Q Q l @ # $ @ O @ @ # O 7 6 ;XxXnXnXzXzXC.@.$.$.$.$.$.-.*.-.$.$.;.$.$.&.&.#.&.*.&.&.;.-.*.*.-.*.$.*.;.*.$.$.-.;.*.-.$.$.$.$.$.$.;.*.*.$.$.;.-.*.$.-.;.-.*.$.$.$.$.-.*.$.-.*.-.;.*.-.;.*.*.*.&.;.$.*.$.-.*.*.$.*.;.*.;.*.*.;.*.*.*.-.&.$.*.*.-.*.;.*.;.*.$.$.*.$.$.*.*.$.*.*.$.*.*.;.$.*.*.$.Z > > & % = O O O X & * ~ =.,.$.,.$.$.o.=.,.=.$.o.o.$.$.$.$.$.*.-.$.=.$.$.o.=.,.o.<.$.$.=.o.$.=.$.=.<.$.$.=.-.$.$.-.-.$.=.$.$.=.$.;.-.$.$.=.=.=.o.=.=.,.o.;.;.,.o.$.=.$.o.$.#.,.#.I I * ; $ @ @ - @ - X @ $ R R |.aXdXiXwXfXfXkXkX*XQ.H.Q.oXH.~.'.Q.Q.~.oXoXQ.~.~.~.Q.~.~.~.~.~.~.~.~.).~.~.~.~.~.~.oXH.~.~.~.~.H.oXoX~.",
"0.u.0.7.0.u.7.u.p.7.7.0.7.7.0.7.7.0.7.0.7.0.0.7.7.7.7.7.7.7.7.7.u.2.7.7.7.2.7.2.7.3.7.7.7.7.7.7.9.7.7.7.7.9.6.0.7.7.5.q.p $ $ - X X O @ X X O a s D.MXnXvXbXbXbXhXbXbXhXhXhXyXyXG.;.;.y.y.-.-.y.-.2.2.2.-.u.-.2.2.2.-.2.2.2.-.2.2.2.2.2.-.2.<.2.2.-.2.-.-.u.-.-.y.-.-.u.u.;.y.;.-.u.-.-.y.2.-.y.y.-.-.-.y.-.-.y.-.y.-.-.4.-.2.<.1.1.2.=.4.-.2.2.<.1.>.1.1.1.<.1.1.<.1.<.<.1.<.-.2.-.-.2.-.-.-.;.*.*.| *.[ *.[ [ *.G $ $ O O @ @ O # # n n v.>X-X[.2.u.t.7.7.7.7.u.7.0.7.u.q.u.7.7.t.t.u.t.t.t.u.*.t.t.t.u.t.t.7.7.6.t.2.3.1.7.3.7.3.3.9.3.9.9.9.9.9.9.9.9.9.9.9.i.u.9.9.9.9.i.i.9.i.9.9.i.9.i.9.i.9.i.i.9.i.i.9.9.i.9.9.9.i.9.9.u.0.p.9.0.9.9.9.7.0.7.q.9.6.7.6.u.t.t.t.t.t.*.t.;.*.;.*.;.*.| ;....... . .../ / N > * @ O # O O # $ + # c.nXMXxXsXzXh.$.;.$.-.$.-.;.$.$.$.-.-.$.&.$.;.*.;.-.-.*.*.-.$.$.*.$.$.$.;.$.$.$.*.-.$.&.*.;.;.$.$.*.;.$.*.$.*.;.$.&.;.*.*.;.*.;.$.-.$.$.-.$.*.-.*.;.*.-.$.*.-.*.;.$.$.&.&.*.*.*.*.-.&.*.$.&.*.*.-.*.;.*.*.-.*.$.$.*.-.*.$.*.$.*.;.$.$.$.@.$.$.@.$.@.*.*.$.$.$.%.S * , O @ O @ O O @ & @ I 4.6.&.$.$.$.$.o.=.$.o.$.;.$.$.;.$.-.$.$.$.$.$.=.=.$.$.,.=.o.$.$.$.;.$.$.$.$.-.$.-.;.-.$.;.*.-.$.$.=.$.$.$.=.=.$.=.<.$.$.o.<.$.;.o.,.=.$.$.<.$.$.,.,.o.#.P P + @ @ @ - @ - @ $ $ $ C c  XpXaXaXiXwXiXgXgX0X~.~.Q.Q.Q.Q.Q.Q.'.Q.Q.Q.~.oXQ.~.~.oX~.~.~.~.~.~.~.~.oXH.~.~.~.~.~.~.~.~.~.~.~.oX~.~.",
"0.7.u.7.7.u.7.q.q.7.0.7.7.p.q.u.0.u.0.7.7.7.7.7.7.7.7.7.7.7.7.7.7.7.7.7.7.7.3.7.2.7.2.7.7.1.3.7.7.7.1.7.9.7.0.7.q.q.q.t.p - $ $ O X X X X O X 8 t z.nXnXmXkXkXhXhXhXhXhXhXhXyXyX5X2.y.-.-.;.y.-.u.-.2.2.t.2.2.2.2.t.u.-.2.2.2.-.-.2.4.-.2.2.2.2.-.y.-.y.u.;.-.y.-.y.y.-.-.u.-.u.y.-.u.-.-.-.-.-.-.-.y.;.y.-.-.-.-.-.y.-.-.y.-.2.<.<.<.4.=.4.-.-.1.<.<.1.<.1.1.1.1.1.1.1.1.-.-.2.-.2.2.-.2.7.7.9.0.0.u.7.q.7.q.r.r.*.0 n @ @ O = O O O k k H.7X7XE.7.7.u.7.0.u.p.u.u.u.u.p.u.u.u.u.p.q.u.u.a.u.u.H.u.u.u.u.a.u.p.u.p.u.u.9.9.9.9.9.u.9.9.i.9.9.9.9.9.i.9.9.i.9.9.i.u.9.i.9.9.i.y.9.u.i.u.u.i.i.u.u.9.i.u.i.i.i.i.i.u.i.i.u.i.i.u.u.u.9.i.u.u.u.i.u.u.i.i.u.p.u.9.u.u.u.u.u.u.u.u.u.7.u.7.u.7.7.t.&.-.#.#.@.#.#.+.D 6 , @ @ O O O O O # + / MXMXMXpXiX9.$.*.$.$.;.$.*.-.;.$.;.*.;.*.$.$.-.*.*.$.-.*.$.$.$.;.$.*.&.-.*.*.;.*.$.$.*.*.&.*.$.*.;.$.$.;.-.-.*.*.*.*.-.-.*.;.*.$.*.*.*.*.$.;.*.*.$.*.-.*.;.*.*.$.*.*.*.$.$.-.;.*.$.;.*.$.$.*.-.*.$.$.&.*.*.;.*.&.*.*.;.$.$.&.*.$.*.#.$.@.%.$.*.*.$.;.*.*.*.*.$.D 4 > # @ @ @ @ @ O # # N 7.q.1.$.$.o.=.$.$.<.$.,.=.=.;.;.*.$.;.$.$.$.$.$.o.;.,.o.;.=.;.=.;.$.$.;.-.$.;.$.$.-.*.-.-.-.$.=.=.&.;.=.$.$.$.$.$.$.$.$.$.$.$.,.$.=.o.,.$.$.o.#.o.o.,.o.P P = $ ; @ - @ $ $ @ @ $ j b ].aXaXpXiXiXrXrXfXtX'..XQ.Q.F.Q.Q.~.~.~.oXQ.~.~.~.~.~.Q.~.oX~.~.~.~.~.~.H.oX~.~.~.~.oX~.oXH.~.~.oXH.~.~.",
"0.7.0.7.7.7.0.7.u.7.0.7.0.0.u.q.0.7.0.7.0.q.7.q.7.7.7.7.7.7.7.7.7.7.7.7.2.7.u.2.7.7.7.2.7.3.7.3.3.7.7.7.7.7.9.6.7.q.t.t.p $ - X $ X O X X X . 8 e z.xXMXbXbXkXbXbXhXhXhXhXhXyXhX5Xy.2.-.-.y.y.-.-.2.2.2.2.2.2.2.2.-.u.t.2.2.-.2.2.2.2.2.;.2.2.2.-.-.y.;.-.u.u.;.u.-.-.y.u.;.-.y.-.-.-.-.y.-.2.-.-.y.-.y.-.u.-.y.2.-.-.-.2.-.-.4.1.<.4.-.4.=.2.-.1.1.1.1.<.<.4.1.1.-.1.1.1.1.-.1.-.4.-.2.6.7.7.9.p.0.p.p.7.q.0.r.r.t.n 0 O O O @ @ O $ k l R.7X>XW.6.t.u.u.u.u.u.p.u.u.u.t.u.u.u.p.u.p.u.u.p.u.p.q.u.0.p.u.p.u.u.i.i.0.u.9.i.9.9.9.9.9.9.9.9.i.9.9.9.i.9.i.9.i.9.9.9.9.i.i.9.u.9.i.u.i.i.i.u.u.i.u.i.i.u.9.i.i.u.i.u.u.i.9.u.u.9.i.u.9.u.u.9.0.u.i.u.i.u.i.i.u.p.p.u.a.p.a.u.p.q.p.u.u.u.7.t.7.t.-.=.$.$.#.+.+.*.F , 6 O O O @ O O # + O / nXMXMXaXaX9.$.$.;.;.*.$.-.-.$.;.$.-.*.-.*.$.*.;.$.;.*.;.$.$.$.$.$.;.*.*.;.-.*.*.*.-.$.*.;.*.-.*.&.$.&.$.*.*.;.-.;.$.*.*.*.-.$.*.*.;.$.*.$.-.*.$.*.;.*.-.*.;.&.&.$.-.*.;.*.*.;.;.-.*.&.*.*.;.$.*.$.-.*.;.$.&.-.*.$.-.*.;.*.*.*.*.$.@.$.$.$.$.@.*.$.$.*.$.*.#.$.A 4 4 & @ @ $ @ @ O # # z 9.9.1.$.$.$.$.o.$.$.$.$.$.$.;.-.;.$.;.=.$.$.=.<.$.o.,.$.$.$.$.;.$.$.;.$.$.-.*.;.$.$.-.*.-.-.;.;.*.;.$.;.$.$.$.,.$.$.o.,.o.,.;.$.$.$.=.;.<.o.,.,.$.,.$.#.P I & # @ @ @ @ @ - $ @ $ j k I.sXpXpXrXrXfXgXyXtXoX'.Q.Q.Q.Q.~.'.Q.~.N.H.oX~.~.oX~.oX~.~.H.~.~.oXH.~.oXoX~.~.H.oXH.oX~.oXoXoX~.~.~.~.",
"7.0.u.7.0.u.7.7.0.7.q.7.7.0.u.u.7.0.7.q.7.7.7.7.7.7.7.7.7.7.7.7.7.7.7.7.7.3.2.7.7.2.3.7.2.7.7.2.6.8.7.4.7.6.9.9.q.7.t.t.n - $ - @ X X X O X . 6 , e.nXzXbXkXbXkXhXhXhXhXhXhXhXgXyXb.m.;.y.;.-.2.2.2.-.t.t.2.2.t.2.t.2.2.2.-.u.-.-.2.2.-.4.2.2.-.y.y.-.y.y.-.-.u.;.-.u.-.-.-.u.;.u.;.y.-.-.-.-.y.-.;.y.-.-.-.-.-.-.-.y.-.-.2.-.-.1.<.-.4.2.-.-.-.1.1.-.1.1.1.<.2.2.3.1.3.9.u.u.p.a.f.j.j.n.m.m.H.].H.H.H.H.H.H.U.R.H.E R & & O O @ O $ R R ].6X6XM.7.7.7.p.u.p.u.q.0.u.p.t.H.u.u.u.p.u.p.p.u.p.p.p.u.p.p.p.u.p.0.i.i.9.0.9.i.9.i.9.u.i.9.9.i.9.9.9.i.9.9.i.9.9.9.9.i.9.9.9.9.i.i.u.i.9.u.u.i.9.u.i.u.9.i.u.u.u.9.u.i.u.9.i.u.i.i.u.i.i.u.i.u.u.i.u.i.i.i.u.u.u.0.u.u.u.u.u.u.u.p.u.p.u.u.a.u.u.p.9.9.9.7.9.6.5.q.` r r @ @ @ O O O + O O y eX2XZXpXaX1.$.$.$.-.-.$.$.;.*.-.$.*.$.*.;.;.*.-.*.*.-.*.;.*.;.$.$.$.-.$.-.*.$.;.$.*.;.-.*.-.*.*.;.*.&.*.;.-.*.;.*.&.*.;.$.*.-.-.&.$.$.;.*.$.*.$.&.&.*.$.*.$.$.*.*.$.;.*.$.-.*.$.*.;.$.-.&.$.*.;.*.$.$.$.$.*.*.;.-.*.$.*.$.$.$.$.$.@.*.@.$.#.@.$.*.$.$.*.;.%.#.S > > @ @ @ @ O @ @ O # h 6.8.8.<.<.$.@.=.$.=.o.$.;.$.$.;.*.;.@.$.$.$.$.$.$.o.;.$.;.$.;.=.$.;.$.-.$.$.;.$.$.$.-.$.;.$.$.-.;.$.-.$.$.;.$.=.$.$.=.=.;.,.o.o.<.$.o.o.$.$.#.o.,.o.$.o.P P + O - - @ @ @ - $ O O l l I.pXaXaXiXrXrXyXtXtX5X5XH.Q.Q.Q.Q.Q.Q.Q.oXoX~.oX~.~.~.Q.~.~.oX~.oXN.oXoXoXH.~.~.oX~.~.~.~.oXH.H.~.~.~.~.",
"u.0.0.7.u.7.u.0.0.7.q.7.7.0.7.0.7.7.0.7.7.7.0.7.7.7.7.7.7.7.7.7.7.7.7.7.y.7.2.7.2.7.3.7.3.7.2.7.3.6.7.3.7.7.7.q.q.q.%.5.0 $ @ X X X @ @ O X X * * #.zXrXnXBXkXbXbXbXhXhXhXhXgXhXhX*X$X-.y.-.2.-.-.u.2.2.2.2.2.2.2.2.-.7.2.2.-.-.2.-.y.2.2.1.2.1.-.-.u.;.u.-.u.-.u.-.-.u.;.2.-.u.-.2.2.-.-.-.-.-.-.-.-.-.-.-.-.-.-.-.-.2.-.2.-.2.-.-.y.;.2.y.-.-.7.7.u.i.i.a.a.a.f.M.b.M.A.A.A.K.K.W.!.!.!.!.!.!.H.oXH.H.].H.H.I.I.U.5.%.< O O X O O # [ [ 4X4X6Xa.7.7.i.p.p.p.p.p.p.p.u.p.u.t.q.u.t.u.u.u.u.u.u.p.p.p.u.7.p.p.7.i.0.9.9.u.0.9.9.9.9.i.9.9.9.i.i.9.9.i.9.9.i.9.i.i.9.i.9.9.9.i.u.u.i.9.u.i.i.u.i.u.i.u.u.u.i.i.u.9.i.u.i.9.u.i.u.i.u.i.u.u.i.9.u.i.0.u.u.9.u.u.u.p.u.p.u.p.u.u.u.p.p.p.0.p.q.p.u.u.u.i.0.0.0.0.q.&.j j # O O O @ O O O # * v.v.ZXpXpX-.*.-.$.$.$.;.;.$.$.;.-.$.;.-.$.*.;.&.*.-.*.*.$.$.$.$.;.*.-.*.;.*.;.;.*.*.&.*.$.-.*.;.&.*.;.*.;.&.-.*.$.*.-.*.$.$.-.*.$.*.;.$.*.$.-.-.*.*.*.*.-.;.*.*.-.$.*.$.$.*.-.*.&.$.$.*.-.$.*.-.*.$.*.$.$.;.*.*.$.&.*.#.$.$.$.$.#.#.$.#.$.$.$.@.%.$.*.$.-.$.@.S 4 > @ @ @ @ @ @ @ O # a 1.1.q.3.6.1.1.<.1.=.-.<.-.$.-.;.$.-.$.$.$.$.$.$.o.$.$.$.=.=.$.;.$.;.$.;.$.$.*.*.$.$.$.;.*.;.;.$.;.;.*.;.;.$.$.o.$.$.$.o.$.$.o.$.$.$.$.$.$.$.$.$.$.,.o.,.T W * @ $ @ @ - - $ $ $ @ n 9 P.iXpXpXrXrXrXrXtXfX0X8XQ.Q.Q.Q.~.Q.Q.'.~.~.N.oXQ.Q.~.oX~.~.~.~.~.oXN.oXoXH.oXH.~.~.~.~.oXH.oXoXoX~.~.~.",
"0.7.7.0.u.7.7.7.7.0.7.7.0.7.0.7.0.7.7.7.0.u.t.7.7.7.7.7.7.7.7.7.7.7.7.7.7.2.7.2.u.2.7.2.7.7.7.3.3.7.6.3.7.7.7.q.q.q.5.t.n @ @ X X $ X X X X O & * ,.zXeXmXbXbXkXhXhXhXhXhXhXhXgXhX*XXXy.;.2.-.y.7.-.2.2.t.2.-.u.2.2.7.-.2.2.2.2.-.y.-.2.<.2.1.2.-.y.-.y.y.-.-.u.;.u.u.-.u.-.u.-.y.2.-.-.-.y.y.-.-.-.y.;.-.-.-.-.y.-.-.-.-.-.1.1.2.2.<.2.2.2.y.y.7.u.u.i.i.d.f.a.f.M.l.n.m.n.K.P.K.W.W.!.!.!.!.].[.oXoX[.H.].].!.I.R.t.%.> O @ O . O # _ [ 4X4X4Xk.u.u.i.p.p.p.u.p.u.u.p.p.p.H.u.u.H.u.q.H.t.t.H.u.p.u.p.p.u.p.p.i.i.i.9.u.9.9.9.i.9.9.9.9.i.9.9.i.9.9.9.9.9.9.9.i.9.9.3.9.i.u.9.i.u.i.i.9.u.u.9.i.9.i.9.i.u.9.i.i.u.i.u.u.i.u.i.0.u.9.i.i.u.u.i.u.i.u.i.i.i.i.i.u.u.u.0.u.p.p.0.u.u.u.u.u.0.u.u.u.p.i.0.9.0.0.0.&.g j O # O O # # O O + * z.v.SXiXpX-.;.;.*.;.$.*.-.$.-.*.;.$.*.*.-.-.*.$.$.*.;.;.$.$.$.@.*.$.;.-.*.-.*.*.-.*.$.$.;.*.$.*.;.*.&.&.;.*.*.-.$.;.;.-.;.*.*.*.-.$.*.;.*.&.*.*.$.;.$.$.*.$.-.-.*.*.;.;.*.-.*.*.$.&.$.*.$.$.*.$.-.-.*.&.$.*.$.$.$.-.*.;.*.*.$.$.$.$.$.#.$.$.#.*.$.$.*.*.*.$.*.G 4 4 # # @ O @ O @ # O a 1.1.9.1.3.1.-.1.$.1.&.=.=.$.;.-.$.-.$.$.=.,.$.,.$.$.$.$.$.$.$.$.;.;.$.$.@.$.@.-.$.*.$.*.;.$.$.$.$.*.;.$.$.$.$.$.$.o.$.$.=.$.<.$.,.,.=.=.$.$.,.o.$.$.#.#.T T + @ - @ - $ @ - @ @ @ n a L.pXpXeXrXrXiXfXtXfX8X8XQ.~.Q.Q.Q.Q.~.~.~.oXoX~.oXQ.oXN.oXH.oX~.oXH.oX~.~.oX~.oX~.~.~.~.H.oXH.oXH.~.~.~.",
"0.7.0.u.7.u.0.0.7.0.7.0.7.0.7.7.q.7.0.u.7.7.7.t.7.7.7.7.7.2.7.7.7.7.7.7.7.7.7.2.7.2.7.2.7.2.7.3.6.3.6.6.6.3.6.7.6.6.t.t.0 $ $ - @ @ @ X X @ O # = ` eXeXvXbXkXbXkXbXbXhXgXvXgXhXhXfXhXM.;.2.2.-.-.-.u.-.2.2.t.-.-.2.-.7.u.-.-.u.2.-.-.4.2.2.2.1.y.-.-.-.-.-.u.-.y.-.u.2.-.y.-.2.-.u.9.9.9.a.u.u.i.p.a.p.a.a.d.f.f.f.f.f.j.f.j.M.j.b.M.M.b.m.b.m.m.A.A.G.S.E.E.E.W.!.!.Q.).).^.~.!.!.!.!.~.~.!.!.[.H.[.oX4X~.H. X!.I.5.5.< O # O O O > 6.t.>X[.).p.d.a.a.p.a.k.p.p.p.u.p.0.u.H.u.u.H.H.t.t.H.7.u.p.u.p.u.p.u.0.p.i.i.9.0.u.u.9.p.9.9.i.u.i.9.i.9.9.3.i.y.9.i.9.i.3.i.9.i.i.9.u.i.9.u.i.u.u.i.i.u.i.u.i.u.i.u.i.u.u.u.i.9.i.i.u.9.u.0.u.i.i.9.u.u.i.u.i.0.u.u.i.u.u.u.u.p.u.u.u.p.u.p.p.q.u.p.0.p.i.i.p.i.i.0.0.0.5.c C # O O O O # O O O O z c uXdXdX&.;.;.-.$.-.-.*.*.-.*.-.-.*.$.$.$.$.*.;.*.;.*.;.*.-.-.*.*.*.&.*.$.$.-.$.;.$.&.*.*.;.;.*.;.*.&.*.$.;.*.*.*.*.*.;.*.;.;.*.-.$.*.$.*.;.$.*.*.-.*.-.*.*.*.$.$.*.$.*.$.*.-.$.$.$.;.%.$.$.*.$.$.%.*.$.$.$.$.$.$.$.@.#.$.#.@.@.$.#.$.$.#.#.$.@.@.%.@.#.%.#.D > , @ @ @ @ O O @ @ @ r >.1.0.9.9.9.9.9.3.9.9.9.7.7.7.1.7.1.4.4.2.1.1.4.1.4.1.4.1.1.<.-.=.<.-.-.-.-.-.-.-.-.-.t.-.t.t.-.-.-.-.-.-.-.-.1.1.1.1.1.<.4.1.1.<.<.4.4.<.1.1.4.4.1.>.4._ _ * # @ @ $ @ @ $ @ @ $ 8 9 B.pXpXaXrXrXiXtXtXfXtXtX'.N.Q.Q.Q.Q.~.~.~.oX~.~.~.oXoX~.~.oX~.~.~.~.oX~.oXH.~.~.~.~.oXH.N.oX~.~.oX~.~.~.",
"7.u.7.7.0.7.7.7.7.7.7.0.7.7.7.0.7.7.7.t.7.7.7.u.7.7.7.7.t.u.2.u.7.7.7.7.2.7.3.u.2.7.2.u.2.7.2.7.3.6.7.3.7.9.9.6.9.q.5.5.0 @ @ @ X - X - @ X X @ & T <X<XmXhXbXkXhXhXhXhXhXhXhXhXhXhXhXoX;.y.2.2.2.2.-.u.2.2.u.-.7.-.u.-.-.-.y.-.-.y.-.2.2.-.1.2.-.y.u.u.u.u.u.u.a.f.a.l.M.M.M.m.n.m.m.K.m.E.E.W.P.W.E.W.Q.Q.W.W.Q.W.W.Q.Q.Q.Q.Q./././././.).).Q.).).Q.^./.^.).^.!.Q.).Q.Q.Q.~.~.~.Q.~.!.~.~.~.!.oXH.].H.].oX].!.].I.5.%.: O X O . O 9 v.v.7XI.I.p.M.M.a.a.a.a.a.a.p.u.p.u.p.t.7.u.t.u.u.7.u.p.u.7.p.u.p.u.p.u.p.u.p.u.u.i.9.i.u.i.p.u.i.9.u.9.9.i.i.i.e.i.u.i.u.i.i.u.i.u.i.i.u.u.i.9.u.i.u.9.i.u.i.u.i.u.i.u.i.9.i.u.i.9.u.i.u.u.u.i.u.u.i.u.0.u.i.u.u.9.i.u.9.u.0.u.u.q.p.u.u.u.u.u.u.u.u.u.u.i.i.i.0.0.0.0.0.q.P F > # # @ O O O # @ O * ; r.uX>X*.*.$.$.*.;.;.&.;.;.-.$.$.$.$.*.@.$.$.$.;.*.-.*.$.;.*.$.$.;.;.*.&.*.;.*.*.-.&.;.$.$.$.$.$.-.$.$.*.*.$.-.-.*.&.$.$.*.$.$.$.$.$.-.$.*.$.-.-.*.;.*.&.$.$.;.*.-.-.*.$.$.$.$.#.$.$.$.$.$.$.$.$.@.@.@.+.+.*.+.+.+...O...( ..} (  .} ( } } } } ( } ( +.( } C > > @ @ @ O @ O @ O @ t >.,.0.0.0.9.i.i.9.9.i.9.i.i.i.p.i.i.i.i.u.i.9.u.i.9.u.i.y.9.u.u.9.7.9.9.u.7.7.9.9.u.u.7.u.u.7.u.u.i.9.u.0.u.i.9.9.i.9.u.9.9.9.9.9.9.9.9.9.9.i.e.i.9.9.w.#.,.& @ @ @ - $ - $ @ @ O 4 4 c.pXpXaXrXiXtXtXgXtXtXhX'.Q.F.Q.Q.Q.Q.Q.~.~.oX~.~.~.~.~.~.~.~.~.~.~.H.oX~.oX~.~.~.~.~.oXoX~.~.~.~.~.~.~.",
"7.0.0.7.0.7.7.7.0.7.7.7.0.0.7.6.q.7.7.7.7.7.t.u.7.2.2.2.u.u.7.7.7.7.7.7.7.u.7.7.7.2.u.2.7.2.3.7.1.9.6.3.4.9.7.8.6.q.%.t.0 - @ X @ - X X @ X O @ & T <X<XbXkXhXkXhXbXbXhXhXhXgXhXhXjXjXoX2.2.2.2.-.u.t.;.2.2.2.t.-.2.2.1.2.-.2.-.2.-.2.2.1.2.1.1.2.2.7.7.7.u.u.p.f.d.l.l.M.M.M.n.M.m.K.A.K.P.K.W.E.W.I.W.W.W.W.W.W.W.W.!.^.!.!.!./.Q.).^.)./.).Q.).Q.Q.^.).!.!.)./.!.).Q.Q.).Q.Q.~.Q.Q.^.~.).~.~.oX[.[.[.[.~.[.].`.T.>.>.* X O . O . n v.k.>XI.K.a.M.n.d.a.a.a.p.u.t.p.u.H.u.t.H.u.u.t.q.u.H.t.u.p.u.p.p.u.u.p.u.i.i.i.u.u.i.u.p.i.u.u.p.0.u.0.u.9.i.9.u.i.u.i.9.i.9.u.i.u.9.i.u.i.9.u.i.u.u.i.u.u.i.u.i.u.i.i.u.i.u.i.9.i.u.u.9.i.u.u.i.9.u.i.9.9.u.p.u.i.u.u.i.p.0.0.u.u.u.u.0.0.u.u.i.0.u.p.u.0.i.i.i.i.0.0.0.q.F P > # O # O O # O O @ * # p.uXuX*.-.$.-.;.$.*.-.*.-.;.-.*.;.$.$.%.$.$.$.$.$.$.;.*.-.;.&.*.*.;.$.$.&.;.*.-.*.*.*.*.;.$.$.*.$.$.$.&.*.$.&.*.*.*.*.;.*.$.$.*.$.$.-.*.*.-.$.*.$.$.$.&.*.-.*.;.&.*.$.$.$.$.$.$.$.#.$.$.#.#.#.$.$.%.$.+.+.@.+.+.O....... . . ._ _ (  ._  . .} (  .} [ / _ c 4 > # @ @ @ @ @ O @ @ 9 ,.>.0.0.0.9.i.i.9.9.d.9.i.9.d.u.p.i.9.i.9.9.i.0.9.9.9.9.9.9.0.9.9.9.9.7.9.7.9.0.7.7.0.7.7.0.7.9.9.7.0.7.0.7.9.9.u.9.u.9.9.9.u.9.9.e.9.9.9.9.e.w.9.9.9.e.%.,.* @ @ @ @ @ @ - $ @ $ 0 0 v.pXpXpXrXrXrXaXtXgXtXfXoXG.Q.Q.Q.Q.Q.~.~.~.~.~.oXoX~.oX~.~.~.~.~.~.~.~.~.~.~.~.~.~.~.oX~.~.~.~.~.oX~.~.",
"7.u.7.u.7.0.u.0.0.7.0.7.7.7.0.7.7.7.7.7.7.7.u.u.7.2.u.2.7.t.7.7.u.7.7.7.t.u.u.t.2.7.2.7.2.u.7.2.9.1.9.1.9.1.9.8.q.9.5.t.0 - @ - X - - - @ @ @ @ & I &X&XBXhXbXkXhXhXhXhXhXhXhXhXhXhXhXwXf.g.-.2.u.t.u.u.2.2.2.7.-.2.1.1.2.2.u.u.u.u.a.p.f.l.x.b.b.n.m.A.A.K.K.K.W.W.W.!.!.!.!.~.~.~.~.[.!.).[.!.(.).~.).(.(.!.[.^.).^.).^./.).).).).).^.).!.).Q.).Q.).^./.^./.^.^.).Q.Q.Q.Q.).).~.~.).Q.~.~.).~.H.].H.oX].[.~.].(.U./ / & O X O o O c I.I.>XH.H.l.n.m.d.d.a.a.k.H.H.u.p.t.u.7.u.t.H.H.u.u.u.u.u.u.p.u.p.u.p.u.p.i.i.u.9.i.u.9.u.u.0.u.0.u.0.7.0.9.i.i.9.9.i.u.i.u.u.i.u.i.i.u.i.i.u.i.9.i.9.9.i.i.u.i.u.i.u.u.i.9.i.u.u.9.i.u.u.9.i.i.u.u.i.i.u.i.u.u.9.9.i.i.i.u.u.p.u.u.u.u.u.i.u.u.i.u.u.u.u.u.i.i.0.0.0.w.0.0./ ) 6 O O # O O @ O @ O O O C ].].*.;.$.$.$.-.$.;.-.;.&.*.;.*.$.$.$.$.$.$.$.$.$.*.*.$.*.&.*.-.*.$.*.*.*.-.*.;.;.&.$.$.$.$.;.$.$.*.&.$.*.;.;.&.*.-.$.$.$.;.;.$.$.*.$.;.*.%.;.*.*.$.-.*.*.$.$.$.$.*.%.$.#.@.#.$.+.+.X.O..... .^ } ! ^ ^ ^ T Q U P U P U S F S S F S S G F F J I F F z k 9 : * @ # @ @ @ @ @ O O 8 &.&.0.i.0.p.0.p.p.i.i.p.i.i.i.i.p.p.i.p.p.i.p.i.i.p.p.i.p.i.i.s.i.d.i.i.i.i.i.u.0.p.i.p.i.p.i.i.i.p.i.i.p.i.0.i.i.0.p.p.i.p.p.i.9.i.w.9.s.w.9.s.i.e.e.e.,.,.* @ @ $ @ $ - $ @ X $ ; 4 v.pXuXaXaXrXrXrXrXgXfXyX*XQ.Q.G.E.Q.Q.Q.~.~.~.~.N.oX~.~.H.oX~.~.~.oX~.~.~.~.~.~.~.~.oXH.~.~.~.~.~.~.~.~.",
"0.7.0.7.u.7.7.7.7.7.0.q.7.6.7.6.7.7.t.q.7.u.u.t.u.2.2.u.7.t.7.7.7.7.7.7.2.u.t.u.2.7.2.7.7.7.2.7.1.8.7.9.6.9.6.9.6.q.*.%.< @ @ - @ 1 - 1 - @ X O O I #X$XvXhXhXmXbXkXbXhXhXbXgXbXhXhXjXkX)._.2.2.-.u.t.u.u.u.9.u.f.a.l.b.b.n.F.A.K.W.P.W.W.!.!.(.W.!.~.(.(.).).(.!.!.).!.!.].).(.).(.).(.(.!.!.!.(.).(.).).(.).~.(.).^.~.^.).!.^./.^.!.).^.)./.Q.).Q.Q./.^./.^././.Q.Q.).).Q.).!.~.).Q.Q.!.).~.).~.~.~.!.[.oX~.!.(.B.v A & O O . O . F ]. X=Xv.M.H.n.H.a.a.a.d.a.7.7.u.u.u.u.u.u.q.u.H.u.H.u.p.u.p.u.u.p.p.p.u.u.i.i.u.i.u.0.i.9.i.9.i.i.i.u.u.i.9.9.i.9.u.i.u.u.i.u.i.9.u.i.u.9.u.u.i.u.i.u.u.i.i.i.i.u.u.u.i.u.u.i.u.i.u.p.u.p.u.i.u.u.i.u.u.i.u.i.i.u.u.i.u.u.u.u.u.u.u.u.u.u.u.i.p.u.i.0.u.p.u.p.u.0.0.0.0.0.0.#.#.n # O O O @ O O O O O # 0 t.6.;.*.*.;.*.;.&.;.-.*.&.&.$.$.%.$.$.$.$.$.$.$.*.&.;.*.$.$.-.*.&.$.-.*.&.*.$.;.$.$.$.$.*.;.$.;.$.;.*.;.*.*.$.*.*.$.$.*.;.*.$.$.$.-.$.$.;.$.;.*.*.&.*.;.-.*.#.#.+.*.+...( ^ ^ ~ Y J J F F S F S G S S S S Z Z G C V V V V V Z C Z Z Z A G S S S S M d d 6 # & # @ @ # @ @ O X O 6 +.+.0.i.0.p.i.i.9.p.p.p.i.i.p.p.i.i.p.i.i.p.9.i.p.i.i.p.i.i.p.i.i.p.i.p.9.i.i.p.p.p.u.u.0.u.0.i.i.0.i.i.i.9.p.p.i.0.i.p.p.p.u.i.d.w.9.s.e.i.d.9.p.d.9.e.#.,.* $ - - @ $ @ @ $ # $ # # w.1XeXiXrXaXrXrXrXiXgXtX5XQ.Q.G.Q.Q.Q.Q.~.~.~.oX~.~.~.~.~.~.~.~.oXH.~.~.~.~.~.~.~.~.oXoX~.~.oXH.~.~.~.~.",
"9.u.7.u.7.0.0.u.0.7.7.7.0.0.7.7.7.7.u.7.7.t.7.q.7.2.u.t.u.u.7.7.7.7.7.7.2.2.2.u.7.y.7.2.3.7.7.3.3.3.1.3.8.7.9.8.9.q.&.%.> - @ X @ - X - X - @ @ O I %X#XmXkXkXbXhXhXhXhXhXyXhXhXhXjXhXgX'.).2.2.2.2.7.2.7.7.u.i.a.a.l.x.x.m.A.A.K.P.W.P.W.W.(.I.!.(.(.(.!.).!.).(.).(.!.!.!.(.).(.).(.).).[.(.).).(.).(.(.).!.~.^.^.).^.Q.^.).^.^.).).^.^.Q.Q.).Q.).Q.^.Q.^./.^.).Q.).Q.!.).Q.Q.Q.~.~.).~.!.).~.~.[.~.].H.oX[.].`.B.N v & O O . . O F  X].4XM.c.H.M.H.l.d.a.f.p.H.u.t.t.H.u.t.H.u.u.t.u.t.p.u.p.u.p.p.u.0.u.u.p.i.i.i.u.i.u.u.i.u.p.i.u.0.0.u.0.9.i.9.9.i.u.9.i.i.9.u.i.u.9.i.u.i.9.u.i.u.9.i.u.u.i.u.i.i.i.u.i.i.u.i.u.9.u.9.i.i.u.0.u.u.u.0.u.9.i.u.u.i.u.0.u.p.7.p.u.p.u.0.p.u.u.0.u.u.i.u.u.0.u.u.0.i.0.0.0.w.#.#.n O O @ O O O # @ # O # 4 6.6.*.$.$.-.-.$.*.-.&.&.-.&.$.$.$.$.$.$.$.$.*.;.;.$.$.$.;.*.*.*.*.$.*.;.$.*.$.*.&.$.;.*.$.$.$.*.&.*.*.&.&.&.$.$.-.*.$.-.*.;.@.$.*.*.*.&.*.-.*.*.;.$.*.$.*.$.$.#.$.+.+...` ^ ^ ~ U U U H F F S G S S G S S A S S S V S C V S Z Z Z A Z S S S S G S C d d 4 * & @ @ @ @ @ @ O O O > #.*.d.0.p.i.p.i.p.p.i.i.p.p.9.i.p.i.i.p.i.i.p.p.i.p.i.p.i.p.i.i.p.i.p.i.p.i.p.u.p.0.0.p.p.p.u.0.i.i.i.i.i.p.p.9.i.i.p.i.9.p.p.i.e.i.d.0.i.p.9.d.9.e.i.e.,.>.* O ; $ $ - @ @ @ @ $ # # 0.eXeXpXeXrXrXiXrXaXtXfX5XQ.Q.Q.Q.E.Q.Q.~.~.oXN.~.~.oX~.~.~.~.oX~.~.~.~.~.oXH.oX~.oXH.H.~.~.~.oX~.~.~.~.",
"7.7.0.7.0.7.9.6.7.7.q.7.7.7.0.7.u.7.7.7.t.7.7.7.7.7.7.7.u.7.7.7.7.7.7.7.2.7.2.7.u.2.7.7.3.7.1.3.6.1.9.3.9.9.9.7.q.8.' ' ; - @ @ @ 1 - @ @ X @ @ O I +X%XmXhXhXhXbXhXbXhXhXgXhXhXhXhXjXgX8X0Xj.a.u.u.l.f.n.m.K.P.P.W.W.W.!.^.~.(.(.[.!.).).(.^.).(.).Q.).Q.Q.).!.~.~.~.~.).~.).!.).Q.).).~.).).!.).!.).).).Q.).!.~.Q.).Q.).Q.).)./.~.Q.).~.).Q.Q.Q.).^.^.^./.!./.^.).Q.^.Q.).^.).).~.~.).~.~.).!.~.[.~.[.).[.(.(.W.k.r r @ X . X O O W 4X4X[.M.v.H.p.l.p.p.u.a.a.7.p.p.u.p.u.p.u.p.u.H.u.q.u.p.u.u.p.u.p.p.u.i.u.i.i.u.u.i.u.i.u.u.i.u.i.u.i.i.u.9.i.u.i.9.i.u.i.u.i.9.u.i.u.i.i.u.i.i.u.i.i.u.i.u.i.u.u.i.9.p.u.9.u.i.9.u.i.9.u.i.u.9.u.i.i.u.i.u.u.u.9.u.i.i.u.i.u.i.i.0.u.i.u.u.u.p.u.7.p.p.7.u.u.0.u.i.0.0.0.q.>.1.l O # O O # O O O O O $ 4 [ ( &.%.*.-.*.$.-.*.&.&.*.&.*.-.$.$.$.%.;.*.$.-.*.$.*.;.*.$.;.&.;.&.-.*.-.$.$.$.*.-.*.$.*.;.$.$.*.*.*.;.*.$.*.;.$.*.$.*.$.$.*.$.;.*.*.$.$.$.*.$.%.*.#.@.+...~ U U J F S D A A V C N C N V Z C C Z Z S Z A G S S I V S V S S S S G F S S S S S S F G z z t & * & # @ @ O @ @ O O * / / p.0.0.p.i.9.p.i.i.i.p.9.p.p.i.i.p.p.i.i.p.i.i.p.i.p.i.a.i.a.i.p.i.i.u.p.i.p.u.p.i.u.p.i.i.i.0.u.p.u.i.i.u.u.p.i.9.9.p.i.9.0.i.9.9.9.s.9.s.9.i.e.i.e.,.>.* # @ @ @ @ $ @ $ O $ + $ 0.uXuXpXrXaXrXaXrXrXgXrXtX/./.Q.G.Q.Q.Q.~.~.~.~.~.~.~.~.~.~.~.~.~.~.~.~.~.~.~.~.~.oX~.~.~.oXoXoXH.oX~.~.",
"0.7.0.9.7.7.7.0.0.0.7.7.7.7.7.7.t.7.7.7.u.7.7.7.7.7.7.7.7.7.t.u.7.7.7.7.u.2.7.7.2.7.3.7.7.7.7.9.7.9.1.9.q.7.9.8.6.q.R F ; - @ - @ 1 - 1 & & @ O @ N @X+XbXkXhXhXhXlXhXhXhXbXgXhXhXhXhXhXgXfX).f.f.l.m.m.W.!.!.!.(.(.].).(.).!.[.).(.).!.^.Q.(.^.^.~.).Q.).~.Q.).~.~.~.~.!.).~.).!.).Q.Q.~.Q.~.~.~.~.).~.Q.).Q.).).Q.Q.).Q.Q.Q.Q.~.Q.).Q.Q.~.~.).Q.).!.)./.^./.^./.^.^.).^.).).!.!.^.(.!.~.).).~.~.~.[.~.).).].(.Y.6.> * O . . O $ $ ( 4X4X].l.x.H.a.a.a.a.7.H.a.p.u.u.p.u.q.u.p.u.7.t.u.u.u.u.p.p.u.p.u.u.a.u.a.i.p.u.i.u.u.u.i.p.u.i.i.u.u.u.i.u.i.i.u.u.u.i.9.i.u.u.i.u.9.9.u.i.9.u.i.u.9.i.u.9.i.i.9.u.u.u.9.u.i.i.u.i.u.u.i.u.i.u.p.u.9.9.u.0.u.u.p.i.u.9.i.u.i.u.7.u.u.0.i.u.0.0.u.u.u.u.p.u.p.p.u.u.0.p.0.0.6.6.j # o O O O O # O O O O > / ) &.$.&.&.-.$.$.*.&.$.*.;.$.$.%.$.$.$.$.$.*.*.&.$.$.-.$.$.*.&.*.*.*.*.@.$.$.%.$.$.$.$.$.$.;.*.;.*.*.@.$.*.-.*.*.;.$.;.$.*.@.$.$.$.$.$.$.*.*.+.} { ) R G A Z V C C N N N N N N N A N A B A S S A S S S S S S F A S I S S G S S S H H I U I I U P I v A r & & @ # @ @ @ @ @ @ $ * V V q.w.0.0.p.d.i.p.p.p.i.i.p.i.p.p.i.i.p.i.i.p.i.a.p.i.i.i.p.i.p.i.i.i.p.p.u.u.p.u.p.p.i.i.i.i.i.p.u.0.p.i.p.p.u.p.p.p.9.p.i.u.p.p.i.i.i.3.e.9.e.s.3.s.>.$.* O @ @ @ $ @ @ O O $ + + 6.7X1XaXrXeXrXrXrXgXrXrXwX'.'.G.Q.G.Q.Q.E.~.~.~.~.~.~.~.~.~.~.~.~.~.oXH.oX~.~.~.oXH.~.~.oXH.N.~.oXH.~.~.",
"7.0.7.7.7.0.7.0.7.6.7.0.0.7.7.7.7.u.t.7.u.7.7.7.7.7.7.7.7.7.7.7.7.7.u.2.2.7.2.u.7.2.7.2.3.7.3.6.6.9.9.8.7.7.7.q.7.q.F F ; @ @ - @ - - 1 X @ & O = A +X@XmXkXhXbXhXbXhXhXhXbXbXhXhXjXhXhXhXgX~.f.f.f.n.n.P.!.!.).(.).).(.(.!.).(.(.).).!.(.Q.).!.^.).Q.~.).Q.~.Q.Q.Q.~.~.~.~.~.~.~.~.).!.~.Q.Q.).~.).~.).~.).).Q.~.Q.~.Q.Q.).).Q.~.).~.~.Q.).~.~.).Q.^./.^./.^./.).^.!.).!.^.).^.^.).!.~.~.).~.~.~.~.).).).].].W.(.4.* * O X X $ O O ( 4X4X].x.l.k.a.a.u.a.a.H.t.H.u.u.H.u.p.u.p.p.u.t.7.u.t.p.u.u.p.p.u.p.u.u.i.a.i.i.u.u.a.u.i.u.u.u.i.u.u.i.u.i.u.u.i.i.u.i.u.9.i.i.9.u.i.i.u.u.9.9.u.u.9.9.u.i.u.u.i.i.u.i.u.u.u.u.i.i.9.i.9.9.i.9.u.u.9.i.u.i.i.u.i.u.0.9.u.i.9.u.i.u.0.u.u.u.u.u.0.u.p.u.u.p.u.0.u.i.i.0.0.d.q.6.j O O O O O @ O @ @ O O ; / / &.&.*.$.*.&.&.&.&.*.&.&.*.$.$.$.$.$.$.$.&.%.*.*.-.*.&.&.*.$.-.;.$.&.$.$.$.$.$.%.$.-.*.&.*.-.%.*.$.$.*.$.$.$.$.$.%.*.*.*.*.$.$.%.*.*.$.@.+.+.[ ) ! J S S S V V N C N N N N N V C A A V S V S G S S S S H S F S S S S S A V S S H F P U H F U P P A A r & * @ @ @ @ O @ $ O @ # C Z 8.0.p.9.d.9.p.p.i.i.p.i.p.a.i.i.p.p.i.i.p.p.p.u.p.i.p.p.i.i.i.i.i.i.i.u.p.p.u.i.i.9.i.u.p.i.i.0.u.i.u.i.i.u.p.p.9.p.u.9.i.p.9.i.p.i.i.e.y.9.s.9.e.e.,.>.* O @ $ @ @ @ O @ @ $ + $ q.1X1XaXeXeXrXrXrXiXaXgXwX'.'.Q.Q.G.Q.Q.~.~.oX~.~.~.~.~.~.~.~.~.oX~.~.oXN.oXoX~.~.~.~.oX~.~.~.~.~.H.oX~.",
"7.7.7.0.6.0.7.7.7.0.7.0.7.7.7.u.7.7.u.7.7.7.7.7.7.7.7.u.7.7.7.7.7.7.7.7.7.7.7.2.2.7.3.7.7.7.7.3.9.3.1.9.7.9.7.-.$.( n n # - - @ @ 1 @ - X & & O O z +X+XbXhXhXhXhXhXhXhXhXhXgXhXhXhXjXjXgXhX-XM.j.M.n.n.W.^.!.).].(.].(.(.[.(.).).(.).).^.(.^.).!.Q.).Q.Q.).Q.).).).~.~.~.).~.~.~.).Q.).Q.).~.~.~.~.~.~.~.!.Q.Q.).).Q.).).Q.Q.).Q.Q./.~.~.Q.~.).Q.Q.).^.Q.^./.^.!.!.).^.).^.!.).!.^.!.(.~.~.~.~.~.[.].).).).(.P.P._ * * O X X O $ @ R ].].K.d.f.H.a.a.q.H.a.p.p.u.u.q.t.p.u.p.u.u.p.H.u.u.H.u.p.p.u.u.p.u.p.a.i.u.p.u.i.i.u.i.u.u.i.u.p.u.p.7.i.u.9.i.u.9.i.u.i.u.u.i.u.i.u.9.i.u.i.i.u.i.i.u.i.u.9.i.u.i.9.u.i.9.p.9.u.u.i.u.u.i.u.i.u.i.i.u.i.u.9.i.u.u.u.i.u.i.u.i.u.u.i.i.u.u.u.u.p.u.u.0.p.u.0.p.u.u.0.p.0.0.6.7.k # # O O O # O O O O O # F R &.*.&.&.-.$.-.*.&.&.$.$.$.$.$.$.$.$.%.&.$.$.-.*.@.%.*.$.$.*.*.*.$.$.%.$.$.$.@.$.$.*.$.$.*.*.$.@.$.*.;.*.*.$.*.;.*.$.$.@.$.+.} ( ! Q R Z h h d q d q r t 9 9 7 7 6 7 t 8 t 6 7 7 7 9 q 7 9 q 7 9 q 7 q 7 7 9 7 7 6 7 6 7 7 7 9 7 9 q t 9 t t q 9 8 t * O & # # @ @ @ # @ @ O O d a &.0.p.w.9.p.i.i.p.i.i.p.i.i.i.p.i.p.i.p.p.u.p.u.p.i.a.i.p.i.p.i.a.i.9.p.u.i.i.u.i.i.i.i.0.i.u.0.p.i.i.i.i.i.9.i.9.9.p.9.9.i.9.9.9.9.9.9.9.9.3.i.3.s.,.,.+ @ @ # O O @ @ $ $ $ # # t.1X1XdXaXrXrXaXrXrXrXrXtX.X.XG.G.Q.Q.Q.~.N.~.~.~.~.oX~.oX~.~.~.~.~.H.oXoXH.H.oX~.~.~.~.~.~.~.~.~.~.~.~.",
"u.0.9.6.9.7.7.q.u.u.u.9.9.9.7.7.7.7.7.7.7.7.7.7.7.7.7.7.7.7.7.7.7.7.7.7.t.u.7.2.7.7.7.7.9.3.9.7.9.7.9.1.....U Z Z k 0 4 - @ @ - @ - - - $ X - @ @ z `.`.vXbXhXhXbXhXbXhXhXlXhXhXhXhXhXhXyXhX0XA.A.j.Z.m.G.^.^.).`.(.).(.].~.~.(.).(.!.!.).~.(.).).Q.Q.~.).Q.Q.~.Q.).).Q.~.Q.).~.~.~.~.~.~.~.~.~.~.~.~.~.~.~.~.~.~.~.~.~.~.~.Q.~.!.).Q.Q.).Q.Q.).Q.Q.(.!.^.).!.^.Q.^.).!.^.Q.^.).^.).^.).!.~.!.).~.).).).).].).H.A.A # O @ O X @ O . a x.v.J.0.p.a.a.d.a.l.a.d.d.k.i.i.u.p.u.p.7.p.u.p.p.u.H.t.u.u.p.u.p.u.u.a.u.i.i.u.u.i.u.u.i.i.i.i.u.i.u.i.u.u.i.u.i.9.9.u.u.i.u.i.i.u.i.i.u.i.i.u.i.u.i.u.u.i.u.p.9.u.9.u.u.u.i.u.u.i.u.i.u.i.i.u.i.i.9.u.i.9.u.9.u.i.9.u.i.9.u.i.u.9.i.9.u.u.i.9.u.0.u.u.u.p.0.u.p.0.0.0.p.d.7.q.A # O O O @ @ O O @ @ O @ a d +.&.%.&.*.&.*.*.;.*.-.-.$.$.$.$.$.&.&.$.$.&.$.%.%.%.#.%.$.*.$.#.$.#.$.$.#.@.$.#.%.*.;.*.$.$.*.*.*.| } [ | ! ) R G K M M L f y y q 7 5 5 2 5 5 5 5 5 5 2 5 2 2 2 3 2 2 5 5 2 3 2 5 2 2 5 w 2 5 w 2 2 2 2 2 2 2 5 2 2 2 2 2 2 2 2 2 5 2 2 5 5 2 2 4 * # # @ @ & & O @ @ O O O O > > J 0.0.p.p.i.p.i.p.i.p.i.i.p.i.p.i.i.p.p.i.i.p.i.a.p.i.p.i.i.p.p.u.i.p.u.p.u.p.u.p.0.u.u.0.p.i.i.0.i.i.i.i.i.i.i.9.9.i.9.9.i.9.9.9.9.i.3.9.e.9.9.e.e.#.#.& $ @ @ O @ O @ O $ o + # 6.1XqXpXrXeXrXrXrXaXrXrXwX*X*XW.E.Q.Q.W.N.~.~.~.~.~.~.~.H.oX~.oX~.~.oXoX~.oXoXH.~.~.~.~.~.~.~.~.~.~.~.~.",
"7.7.9.9.9.7.9.u.u.y.i.u.9.7.0.7.7.7.7.7.7.7.7.7.2.7.7.2.7.7.7.u.u.u.7.7.2.u.u.2.u.7.7.u.3.u.3.3.$.Y Y M m m h h m k 4 0 - @ - @ - $ 1 - - - @ @ @ z T.^.vXhXvXhXhXhXhXhXhXhXhXhXhXhXhXhXbXhXyX).).j.b.m.P.).).^.).(.(.).(.).).).!.[.[.^.^.^.^.!.^.!.(.^.^.).^.).^.!.!.).).!.).Q.~.~.~.~.~.~.~.~.~.[.~.~.~.~.~.~.!.!.~.~.Q.~.Q.~.).Q.Q.).).Q.Q.).^.).^.).(.Q.^.).^.).^.!.).^.).Q.Q.).~.~.).~.).~.~.).~.].).).!.H.Z.g # @ X & - X @ @ * *.] H.p.k.k.d.a.a.a.a.d.f.a.p.i.i.u.p.u.p.u.p.u.u.a.u.u.u.p.u.p.u.p.q.u.p.i.p.u.i.u.i.0.u.u.u.u.u.u.i.u.0.i.u.i.u.u.p.i.u.u.i.9.u.u.9.9.u.u.9.i.u.9.i.i.9.9.i.u.i.u.i.9.p.i.u.9.i.i.9.u.9.9.u.u.9.u.i.i.u.u.p.u.p.u.i.i.u.i.u.u.i.i.u.p.u.i.u.u.i.u.i.i.i.u.u.u.0.u.p.u.0.0.q.q.S * * O @ O O @ & @ O @ O @ # 0 c c Q [ [ +.*.*.+.*.+.@.+.@.@.@.#.+.+.@.+.+...X.( } } } ^ ( ) ) ) ) Q Q Q J R K K G Z L L m d f y q n 7 7 5 7 5 0 5 0 5 5 5 4 5 4 5 5 5 5 5 3 5 5 5 5 5 2 5 2 5 5 5 2 5 5 2 5 5 3 2 5 2 2 5 5 5 2 5 2 2 5 2 5 5 2 2 5 5 2 2 5 5 2 4 5 2 2 4 4 # 2 # O O @ O @ & @ # @ @ O @ # # c 6.1.9.i.9.i.i.p.p.i.i.p.i.p.i.p.p.i.i.p.p.i.i.i.i.p.i.p.p.i.p.i.p.u.i.u.i.i.p.u.u.p.i.i.i.i.u.u.i.i.i.9.i.p.i.9.9.9.9.i.9.9.i.9.9.9.9.i.i.3.3.i.q.....+ O $ @ @ O @ O X $ # o o %.1X2XaXrXaXrXeXrXrXrXaXtX$X$XG.Q.E.Q.Q.oX~.~.oXoX~.~.~.oX~.~.H.~.oXH.H.H.H.oX~.~.~.~.~.~.~.~.~.~.~.~.~.",
"9.7.9.6.9.9.9.0.y.u.y.y.9.7.u.7.7.7.7.7.4.3.4.y.u.7.7.7.7.7.7.7.u.;.y.y.u.u.7.u.9.9.u.u.y.9.3.3.$.Y Y B m M k M k k 4 0 ; - @ @ - 1 - $ @ - @ @ @ x ^.T.nXnXhXvXhXhXhXhXhXhXhXhXhXlXbXhXhXhXtX).).j.m.b.E.^.).).[.(.).(.!.(.(.!.(.[.!.~.).^.).!.^.).).!.~.!.^.^.^.^.).Q.!.).Q.~.~.~.~.~.].~.~.~.~.~.~.[.~.~.~.~.~.~.~.~.Q.).).Q.).Q.Q.).Q.Q.).^.(.Q.^.^.).^.(.Q.Q.^.^.).).^.^.~.!.Q.).Q.Q.~.~.).).~.).).(.(.].H.Z.g # @ @ & @ @ O O * %.*.H.d.d.a.a.d.a.f.a.a.f.a.p.u.p.p.p.u.u.u.p.p.u.u.a.u.p.u.p.u.p.u.u.u.H.p.u.i.u.i.u.u.i.i.u.i.u.u.u.i.u.9.u.i.i.u.9.i.9.u.9.u.9.i.9.u.i.u.9.9.u.i.u.u.i.u.i.u.u.u.9.u.u.i.9.9.i.u.p.9.i.p.u.i.u.i.u.u.i.9.i.i.u.i.u.u.9.u.i.i.u.u.u.i.9.u.i.i.u.u.i.i.i.u.u.0.u.0.p.0.u.0.9.q.F * * O O O O @ O O @ @ O # # 8 C C Q ( [ | *.+.*.+.*.+.+.@.@.#.@.#.O.o.o.+.....( } ..{ ( ^ ) ) ) Q Q ! J Q J J G F Z L L h f l y q n 7 7 q 5 5 5 5 5 5 0 5 5 5 5 5 4 4 5 5 5 5 5 5 5 5 5 2 5 3 5 5 2 2 2 5 5 5 5 5 2 2 5 2 5 2 5 5 2 5 w 5 5 5 2 2 2 5 2 2 5 2 5 6 2 4 5 2 2 # * & O O @ & @ @ # @ @ @ @ O # # z 1.6.p.u.i.u.p.d.p.p.p.i.p.9.p.i.i.i.p.i.i.i.p.i.u.p.p.p.i.i.a.i.i.i.i.i.i.i.p.p.p.p.u.u.i.u.p.u.i.i.i.i.9.i.i.i.9.i.9.9.9.i.9.i.i.9.9.e.9.9.i.9.9.....= O @ @ @ @ X O @ O # o o &.2X1XpXaXeXrXaXrXrXrXrXrX&X$XW.Q.G.Q.Q.H.oXoXH.N.oXoX~.H.oXoXoX~.~.H.oXoXoX~.~.~.oXoX~.~.~.~.E.~.~.E.~.",
"7.9.9.9.9.7.9.9.y.y.y.y.7.9.7.9.7.7.7.7.y.4.y.y.7.7.7.7.7.7.7.7.;.y.y.y.t.2.-.-.$.;.o. .X.Y V H N m f m h m h h k k 4 4 @ @ @ - - - - 1 @ @ @ - & g D.S.vXhXhXhXhXbXlXhXhXlXhXhXhXyXhXhXgXbXvX*X*Xj.b.b.E.).^.).!.).(.).[.(.).[.).!.(.(.^.!.).^.!.).^.^.^.).).!.).!.^.).Q.Q.Q.).~.~.~.~.~.~.~.~.~.~.~.~.~.~.~.~.~.~.~.~.Q.~.Q.).Q.).Q.Q.).Q.!.).).(.^.).^.!.).^.^.).~.(.^.!.).~.).Q.Q.).~.).~.~.~.).).).).(.!.k.z.8 @ # & X X & @ @ O F G 0.l.k.f.a.a.l.a.p.f.a.a.p.p.u.u.p.p.p.p.u.a.p.a.u.p.u.p.u.p.u.p.u.u.t.u.p.u.9.u.0.i.u.u.i.u.i.u.0.u.i.u.i.u.9.u.p.u.u.i.u.i.i.u.i.i.u.i.i.u.i.u.i.9.u.i.u.9.i.i.i.u.i.u.i.u.u.i.u.u.u.u.9.u.i.9.u.i.9.u.u.u.9.9.i.u.i.9.i.u.9.i.9.u.i.9.u.i.9.u.0.u.9.p.0.0.u.0.u.0.p.9.w.0.P 4 2 # O @ O @ @ O @ @ @ X @ X @ # ; 5 4 q y q f f f h h h h h j h f f u f f f y y y q 7 q 9 q 9 9 9 q 7 7 9 7 7 5 5 5 9 5 5 5 5 5 5 4 5 5 5 5 5 5 0 5 5 5 5 5 5 5 5 5 5 2 5 5 5 5 5 5 5 5 5 5 5 5 5 5 5 5 7 7 7 7 7 7 7 5 q 5 q 5 q 5 q 7 7 7 5 5 5 5 5 5 2 5 2 5 2 5 2 5 4 2 # O O & @ O & @ @ @ @ O @ O @ @ d %.$.6.2.7.9.u.u.u.u.9.p.i.p.i.p.p.i.i.p.a.p.i.p.p.p.p.i.p.i.i.i.i.i.i.i.i.u.0.u.u.u.p.p.u.i.i.i.i.9.i.i.i.0.9.9.9.9.9.i.3.i.9.9.3.i.9.9.i.9.e.9.e./ ` O O @ O @ @ O @ X O $ o O +.>X2XaXeXrXrXrXrXaXrXeXrX&X*XG.Q.Q.W.Q.oXH.H.oXH.oXH.oXH.oXH.oXN.oXoXoX~.~.~.~.~.~.N.oX~.~.~.~.~.~.~.~.",
"u.u.i.u.7.7.3.2.;.y.;.;.y.;.;.| | | { Y { Y Y Y Y K K K Z Z Z B K B B B B B B m m m m u u m m u m f m m m m k m M k 4 0 ; @ - $ - 1 - - - - @ @ # a V.x.gXnXhXhXlXbXhXhXhXyXhXhXhXgXhXhXnXjXhX6X6XA.Z.m.W.^.!.!.!.(.!.(.(.).).!.~.(.).^.Q.^.).!.^.).^.).!.^.!.).).^.^.!.).Q.Q.).~.~.~.~.~.~.~.~.[.!.~.~.~.~.~.~.Q.).Q.Q.).Q.Q.).).Q.).).).Q.Q.).!.^.^.).!.^.).^.^.!.!.).!.).!.Q.Q.).!.Q.~.~.!.).~.~.~.~.(.).!.t.1.* O O & @ @ @ @ @ @ r d &.v.l.a.f.l.a.a.f.a.a.a.p.p.u.i.i.i.i.u.p.p.u.a.u.u.p.p.u.p.u.u.p.p.u.p.0.u.i.i.u.9.i.i.9.u.p.u.9.u.u.u.9.i.u.i.9.u.i.u.i.9.u.i.u.9.i.u.i.9.u.i.u.9.i.u.u.u.i.u.u.i.u.i.u.9.i.i.9.u.i.9.u.i.u.p.9.i.u.u.9.i.u.u.i.9.u.9.u.u.i.i.u.u.i.i.u.9.u.u.p.u.p.u.p.0.u.u.u.0.p.9.p.0.) 6 4 @ O O O @ O @ X O % O $ $ $ @ w w ; w 5 w 5 q 7 q 7 7 7 7 q 7 7 7 5 5 5 5 7 5 5 5 5 4 5 4 5 5 2 5 4 4 5 4 5 5 5 5 5 4 5 5 4 5 4 5 5 0 5 5 5 5 5 0 7 5 0 5 7 7 5 7 7 7 7 7 q 7 7 q q q q q q q y q q y y y y y q y y y y y y u u q q r y y q y t 9 9 q t t 9 7 5 6 4 4 6 2 * * O = & @ & O & @ @ @ @ @ @ # r @.#.1.2.-.2.u.-.9.9.9.u.i.9.i.i.p.u.p.u.i.i.p.u.p.u.i.p.p.i.p.u.i.i.i.i.p.i.i.p.p.u.i.i.p.i.y.i.i.i.i.9.9.9.9.9.i.i.9.9.i.9.9.9.9.9.9.9.3.9.9.9.w.T T = @ @ @ O X @ @ O O X     _ ,X;XaXgXrXaXrXrXrXaXrXrX@X$XG.G.Q.Q.Q.H.N.oX~.~.~.~.~.oXN.oXoXN.oXH.H.~.~.~.~.~.~.~.~.~.~.~.~.~.~.~.~.",
"9.u.i.y.7.9.7.2.y.y.y.y.;.;.;.;.} | { ! Y Y K Y U K K K Z Z B B B B B B B m B m m h u h u u u u m m f h h M m k k b 4 4 @ ; - - - - - 1 - @ ; @ & r x.V.gXhXvXhXhXhXhXhXlXlXhXlXhXhXgXgXhXhXhX6X6XA.C.A.W.!.^.).).!.).(.(.!.(.(.].(.!.~.^.).).^.!.).Q.^.).).^.!.^.!.).).Q.).).Q.~.~.~.[.~.~.[.~.~.~.~.~.~.~.~.~.~.Q.).).Q.).).Q.Q.Q.!.Q.!.Q.).Q.^.).(.^.!.).!.).).).^.^.).^.).).Q.).).Q.~.~.).Q.~.~.[.~.(.(.!.t.1.# # # X @ 1 1 @ @ # d a &.k.l.k.p.a.a.f.p.p.l.a.p.u.p.u.9.p.i.p.u.u.a.u.a.u.u.u.p.u.p.p.u.u.p.u.p.u.u.9.i.u.u.u.i.9.i.i.u.0.u.p.i.u.i.u.i.i.u.i.u.u.i.9.i.u.u.u.9.i.u.9.i.u.i.i.9.p.u.i.9.9.i.u.u.i.u.u.u.i.u.u.i.u.9.u.u.u.i.i.i.u.i.i.u.u.i.p.u.i.u.u.i.9.u.u.i.u.p.u.9.i.u.p.u.0.u.u.0.0.0.0.0.0./ 4 0 O O O & X @ O @ @ X @ @ ; $ @ $ w w w 5 5 5 5 7 5 9 7 7 7 7 7 5 5 5 7 5 5 5 5 5 5 5 5 5 5 5 5 5 5 5 5 5 5 5 5 5 5 w 5 5 5 5 5 4 5 5 5 5 7 5 5 5 5 5 7 5 7 5 5 5 5 7 7 7 7 7 q 7 7 q q t q q y y y y y t r u q u y y q y y y u q q q y y t y q q t 9 t t 7 9 5 7 6 6 6 6 * * O & O # @ @ & O @ # @ @ X # & r @.#.1.2.y.-.u.y.9.9.9.i.9.u.i.i.u.p.u.p.i.i.i.i.u.p.i.i.p.p.i.0.i.0.0.i.u.p.i.u.u.p.u.i.i.i.i.i.i.i.i.9.i.i.9.i.9.9.i.9.9.9.9.i.i.i.9.i.e.9.9.3.w.P P + @ O @ @ @ O X X X O     _ ;X:XaXrXaXaXlXaXrXrXvXtX$X$XE.Q.G.Q.Q.oX~.~.~.oXH.~.~.~.oXoXH.oX~.oXoX~.~.H.oX~.~.~.~.~.~.~.~.~.~.~.~.",
"| ^ ! Y K K K K K K K K B m B B m m m m m m m m u u m m m u m m m m m m m u m m m u m u m m m m m h m m m m M k k M 0 0 $ ; - - - - - : - - @ @ # r h.h.iXbXhXbXbXbXbXhXbXhXhXyXhXgXgXhXhXjXhXqX0XQ.G.G.!.!.^.!.(.(.!.!.).).!.!.~.!.).^.).^.!.).).^.^.Q.^.).^.).Q.).).^.).~.Q.~.~.~.~.~.~.~.~.~.~.~.~.!.~.!.~.~.).Q.Q.~.~.Q.Q.Q.Q.).).Q.).Q.).^.^.!.^.).^.).(.^.!.^.^.).).^.!.Q.).Q.Q.).).~.).Q.~.[.).[.).~.J.S A O # @ @ : @ @ @ @ # * 4 Q 0.a.a.a.a.a.f.a.a.a.a.p.i.i.i.0.9.i.p.p.p.u.u.a.u.u.p.u.u.u.u.q.p.u.p.u.i.u.u.i.u.i.i.u.u.u.u.0.u.i.9.u.u.9.9.u.9.u.i.9.i.9.u.i.u.i.i.u.9.i.u.i.9.u.9.u.9.i.i.9.u.i.p.9.i.i.p.9.i.9.i.i.u.i.i.i.u.u.u.i.u.9.u.9.i.9.u.u.9.i.9.i.u.i.i.i.u.u.u.u.i.9.0.u.u.0.u.0.u.0.0.p.p.+.9 9 O O O O & O X @ X X X X $ @ $ # # w w w w 5 5 5 5 5 5 7 5 5 5 7 5 5 5 5 4 5 5 5 5 5 5 5 4 5 5 5 5 5 5 5 5 5 5 5 5 5 5 5 5 5 5 5 4 5 0 5 7 7 7 q 9 9 y q y y y d f i i f u h f h h h h h m u h h h h m m h h k h k N M N N M h h m u u u u y i u i u u y y y y y 9 7 9 6 * * # = = @ O & @ & @ & @ @ O O & d @.*.2.2.-.y.-.2.2.7.7.9.9.9.9.u.p.9.i.i.i.u.i.u.p.i.i.i.u.p.p.p.i.i.i.i.0.u.p.u.p.0.p.u.i.i.i.i.i.i.i.i.9.i.i.3.i.9.9.i.3.i.i.9.3.i.9.9.i.9.9.9.s.I I O O $ O X @ @ O X X X     W ;X%XsXaXaXrXaXyXaXyXrX5XD.A.^.W.Q.Q.Q.H.~.~.~.oXoXoXoXoXH.H.oX~.~.oXH.~.~.oX~.~.~.oX~.~.~.~.~.~.~.~.~.",
"m B m B B B B M B m m m B m m m M B m m m m m B B m m m B B m m m m m m m m m m m m m m m m m m M M N M N N N N M G 0 7 ; ; - - - 1 - @ @ @ ; @ O 8 >.>.#X0X8XtXtXyXyXhXhXhXhXhXyXhXhXgXkXkXgX0X0X).W.!.Q.!.Q.~.!.).(.).!.^.(.).(.~.(.Q.Q.Q.).Q.Q.Q.).).Q.Q.).Q.).Q.Q.~.~.~.!.).~.~.~.~.~.[.~.~.~.~.~.[.~.[.~.~.Q.~.~.).~.).Q.).).Q.!.Q.).Q.Q.Q.Q.~.~.Q.Q.Q.Q.!.Q.Q.!.Q.Q.Q.!.^.!.^.!.!.!.!.Q.Q.Q.!.~.~.~.~.b.7 7 # @ @ & @ - # & @ @ # # d %.*.l.k.k.d.d.p.l.p.k.p.u.i.u.u.i.i.u.u.u.a.a.u.H.t.t.H.p.u.p.p.u.p.u.p.u.9.i.u.i.u.u.0.u.i.i.u.i.u.i.u.i.u.i.i.u.i.u.i.u.u.i.u.9.i.u.i.i.u.i.u.u.i.u.i.u.i.u.u.i.u.u.u.9.u.u.u.u.i.u.9.i.u.9.u.i.9.u.9.i.u.i.u.p.u.9.p.u.u.i.u.9.i.9.u.i.9.p.9.i.i.p.u.0.p.u.p.u.u.9.p.0.#.r d $ @ X @ X & & X @ @ @ @ @ # $ # ; w w 0 w 5 0 5 5 5 5 5 5 5 5 5 5 5 5 5 5 7 7 7 7 7 7 7 7 7 q 7 9 9 q q n q n y q n y y y y u d d d f l h h h h M M M M L L N N N N N N V B C B Z V S S V V A Z A Z V S S S S S S G S S S S S S H K V C N M N h h m u u h h g g g y y 5 * * & O & @ & @ @ O & O @ # O # # g %.$.2.1.-.-.2.1.2.1.3.2.7.7.9.9.9.u.u.u.u.a.i.i.9.i.i.i.p.u.u.p.u.p.u.i.p.u.p.u.p.u.p.u.u.i.u.i.3.i.i.9.i.u.i.9.u.u.i.u.i.9.9.9.i.i.i.9.y.9.9.e.w.z z + @ @ @ @ O & X @ @ O     A OXOXsXaXgXgXiXiXqX6X9Xj.s.i.^./.G.Q.Q.oXoXH.~.H.oXN.H.oX~.~.~.~.~.~.oX~.~.~.~.~.~.~.~.~.~.~.~.~.~.~.~.",
"B B m m B m m B m m m B m B m B B m m B m B B m m m B B m m m m m m B m m m m m m m m m m M M M M M B M B M N M C N 8 0 $ ; ; - 1 1 @ @ @ - & # @ 6 >.>.XX8X8XtXhXhXhXtXhXhXhXhXhXhXhXhXhXhXhX8XwX).Q.Q.!.Q.~.^.^.!.!.).^.).~.(.).(.~.~.).!.Q.).Q.Q.).!.Q.Q.).Q.Q.Q.).!.~.).~.).!.).~.~.~.~.~.~.~.~.[.~.~.~.~.~.).!.~.).!.).~.~.).Q.).).Q.!.).!.!.).~.Q.!.Q.).Q.Q.!.Q.Q.!.Q.!.(.!.!.(.!.Q.Q.!.Q.Q.~.!.~.!.~.M.7 7 # O @ @ : @ & & # & O # d &.$.k.p.p.k.a.a.d.p.d.i.i.i.i.u.i.u.u.u.u.a.i.p.p.i.u.u.u.p.u.p.u.p.u.p.0.u.u.i.u.0.u.i.u.0.u.0.i.u.u.i.i.u.i.9.u.i.i.9.u.i.9.u.i.u.9.u.i.u.9.i.u.i.i.i.u.i.i.9.u.i.9.u.9.u.u.i.u.u.9.i.u.9.u.i.9.u.i.u.u.u.u.u.p.u.u.i.u.u.u.9.i.u.9.i.u.i.u.u.i.u.0.u.0.u.p.0.u.p.0.0.p.*.q a O @ @ X @ & & @ X - X @ @ O $ @ ; w w 0 w 0 5 5 5 5 5 5 5 6 5 5 5 5 5 5 5 7 7 9 7 7 7 7 q 9 q 7 9 9 9 q 9 y q q y 9 y y y d y y y f y f d f h h j M N M N N N N N N N N N N Z V C Z Z Z Z S Z Z V S A S S A S S G S S G S S F S S S C V N m m m m h h f h g g d g s r 8 * * @ O = @ @ O & @ @ @ @ @ O # # l $.%.2.1.7.-.2.-.2.2.2.2.7.u.7.u.9.u.i.9.u.p.u.p.u.p.u.i.u.p.u.p.u.u.p.u.p.u.p.u.p.u.p.u.u.i.i.u.i.u.u.i.u.9.i.u.i.i.u.i.i.3.9.9.i.i.i.9.i.9.9.9.h.z z O O @ O @ @ O X @ @ X     A OXOXsXaXsXaXaXaXqX6X6Xj.a.a.Q./.G.Q.Q.N.oXN.~.~.~.~.~.~.~.oX~.~.~.~.~.~.oXH.oX~.oXH.oX~.~.~.~.~.Q.~.~.",
"m m m B m m B m m B B m B m B m m m B m m m m B m B m m B B m B m m B m m B m m B B M m M M M M B M B M M M N C N C 0 9 # - - - @ @ @ - : @ @ @ # 6 T ~ u.a.f.n.G.G.G.'.'.5X8X5XtXtXtXyXhXhXkX8X8X).Q.Q.~.Q.Q.Q.).).^.^.).!.(.(.!.(.(.~.Q.Q.).Q.Q.).).Q.).Q.!.).Q.).).~.).~.).!.~.~.~.~.~.~.].~.~.~.!.~.).Q.~.Q.Q.).~.~.~.~.~.~.Q.Q.Q.Q.).Q.Q.!.Q.Q.!.Q.Q.Q.!.!.Q.).Q.!.Q.Q.Q.(.!.(.!.(.!./.).!.Q.~.~.).W.!.M.9 q # @ # & @ & @ @ & # # # * S G 0.k.k.d.a.a.a.d.d.i.i.i.u.u.u.9.a.a.u.u.i.u.u.i.u.u.p.u.p.u.p.u.p.u.u.u.9.i.i.u.i.u.u.u.u.i.u.u.u.9.9.u.u.i.i.u.u.i.i.u.u.i.u.i.i.i.u.9.u.u.i.9.9.u.9.u.u.i.i.u.u.p.i.u.9.i.i.9.u.u.i.i.9.u.i.i.9.i.9.p.i.9.9.u.i.u.9.p.u.i.u.9.u.u.i.u.i.0.u.i.u.p.u.u.u.u.p.u.p.0.p.t.j j # O @ @ X X % X @ X @ X O $ @ @ ; 4 0 5 5 7 9 5 9 q q t y y y y y y i u u u h h h m k N N N V B Z Z C Z Z S Z S Z S A Z Z Z Z S A Z Z Z Z S S S Z S G G S S S A S S S G Z S G S S Z S S G S G A G S S S S S G S S S S S S G S S S G V S P V I I S S G S S S A A N g z 8 * * = & & @ @ & & O @ & @ O # * * M -.-.1.1.-.y.2.2.2.2.2.2.2.2.2.u.7.9.i.u.9.u.p.u.p.u.p.i.p.u.u.u.0.p.u.p.u.p.u.p.u.p.u.0.i.u.9.i.u.i.9.u.u.i.u.9.9.u.9.u.i.9.i.9.i.u.9.i.i.3.e.e.e.d i O O @ @ @ X @ X @ O X   $ s U.U.dXgXgXwXW.!.u.@.X.K m.m.G./././.Q.~.~.~.~.oX~.~.~.~.~.H.oXN.oX~.~.oXN.oX~.~.~.oXN.~.~.~.~.~.~.~.~.",
"m B B B B B m B B B B B B m B m B m B m B B B m B B B m B B B B B B B m B m B B m B B B B M M B B M M B M Z M G C C a n - - $ - : X X - X : @ # & 7 ^ ^ ;.:.;.:.y.| | y.y.y.a.a.m.Q./.5XtXfXfX7X8X~.Q.Q.Q.!.Q.!.^.Q.^.~.!.^.(.~.).(.(.~.Q.).).!.).Q.Q.).Q.).).Q.~.Q.Q.Q.!.).~.~.~.).).~.~.~.~.~.).~.~.~.~.~.~.~.Q.~.~.~.).!.).~.!.).).Q.Q.Q.!.Q.Q.!.~.!.Q.Q.Q.~.Q.Q.Q.).).!.Q.^.(.!.!.(.!.Q.Q.Q.Q.~.~.!.K.E.n.k m # # # @ & @ & & # @ = @ # 9 r +.0.k.d.w.d.p.p.d.i.u.i.u.i.u.i.9.u.i.i.i.u.u.i.q.p.0.u.0.u.u.u.u.u.u.p.i.u.u.i.9.u.u.i.i.u.i.9.i.u.9.i.i.u.9.9.9.u.u.i.i.i.u.9.u.i.u.i.i.u.i.u.u.i.i.u.9.u.u.i.9.u.i.u.i.u.u.i.i.u.u.u.i.u.i.u.u.i.u.u.u.i.i.u.u.9.u.i.i.9.u.i.i.u.u.0.i.u.0.u.0.u.p.0.0.u.p.u.0.p.0.6.C k @ $ @ O @ @ X @ X @ X @ X X $ @ 4 4 9 y d l m h M B V C C C V Z S S S S S F S S F S S S S G G S S S Z G S S S S S G S S S A A G S S G G Z S Z G S G S S S S S S A S S S S A Z F S S S S G S S S S S G S S S S S S S S S S D S S S S S S S V V P V S S S S A A A A x x 6 * * & O O @ @ @ @ & @ X @ @ @ > > F t.t.1.2.2.2.2.-.-.4.2.2.2.7.2.7.7.7.u.u.u.u.p.9.9.u.i.i.p.u.p.u.p.u.i.i.p.u.p.0.i.u.i.u.9.u.9.u.9.i.u.i.i.9.u.i.u.9.i.u.i.9.9.i.i.y.u.u.9.9.9.9.e.t t = # @ @ # @ @ @ O @ O . O * >.>.=XqX7Xm.Z H u m m y.H.H.oXQ./././.~.~.~.~.~.~.~.~.~.~.~.~.oXoXH.~.oXH.oX~.H.oXoXH.~.~.Q.oX~.Q.Q.~.",
"B m B m B m B m m m B m B m B m m B m m B m m B B m B B B m B m B B m B m B B m B M M B M B B M M B M M B M Z L N C n n - - - - 1 - @ @ : @ : @ # 8 ^ ~ ;.:.:.;.;.| | y.| y.a.a.b.Q./.5XtXfXfX8X7X).~.~.~.Q.Q.~.(.(.).^.!.).(.!.!.!.).~.).Q.Q.).Q.).Q.Q.Q.).!.Q.~.).Q.).).~.~.~.).).~.~.~.~.~.].~.).~.).~.~.~.~.).~.).~.~.).~.~.).Q.Q./.).!.Q.Q.Q.Q.Q.Q.~.^.Q.Q.Q.!.Q.!.Q.Q.!.!.!.~.(.!.!.Q./.Q.~.~.~.~.E.E.n.M m # O # & # & @ & @ & # @ # 9 9 *.p.0.d.d.d.d.p.s.i.i.u.i.u.i.u.u.u.u.i.u.i.i.u.u.u.u.u.u.u.u.u.0.u.u.0.u.u.0.u.i.i.i.u.9.i.i.u.u.i.i.u.i.9.u.u.i.u.i.9.u.9.i.u.i.u.i.u.9.i.u.i.i.9.u.i.i.u.i.9.u.p.u.9.u.i.9.u.9.i.9.p.u.i.u.9.i.u.9.i.i.9.u.i.p.u.9.u.u.i.i.u.9.i.u.u.9.p.i.i.u.p.u.u.p.u.u.u.i.i.p.6.k C # @ @ X % @ & X - X - X @ X X @ > > n y y h l L L L N C Z Z B A Z V S S S G F F S S S S S S S S S S S F S S S S S S A S S S S S Z S K Z K G Z S S S S S S G S S S G S S Z S S S S K S H F S S F S S S S S F S S S G S S S S S S S S V P V U V S V S S S S A S G A x x t * * O & = # & @ & O # @ O @ # > 4 F t.-.-.2.2.-.2.2.2.2.2.2.2.2.2.7.y.7.u.u.9.i.u.u.9.i.u.i.u.p.u.p.u.p.u.i.u.p.u.u.i.i.i.i.u.i.i.u.i.u.9.i.u.i.i.u.i.i.u.i.9.i.9.9.9.i.i.9.u.i.e.q.w.t r = @ @ @ # @ @ X @ X O O . : ,.,.OXqX7Xn.S V m m B y.Q.oXH././././.~.~.~.~.~.~.~.~.~.~.~.~.H.oXoX~.H.oX~.~.oXH.oXoXQ.oXQ.H.~.~.Q.~.",
"B B m B B B B B B B m B B B B B B B B B B B B m B m m B m m B B B B m B B M B M B B B M B B M Z Z L L M Z M Z L C C n n @ - - @ @ - X : @ : # # # t ( ( $.;.;.| ;.;.| :.:.| y.;.| | ;.u.oXoXwX$X$X~.Q.Q.!.).!.Q.).).!.^.(.).!.).).(.).Q.Q.).Q.Q.Q.).Q.Q.).Q.Q.).).!.!.).Q.~.Q.).~.~.~.~.~.~.~.~.).!.~.~.).!.~.~.~.Q.~.~.~.~.~.~.).!.).Q.).Q.^.Q.).!.Q.Q.Q.Q.!.^.^.Q.Q.!.Q.).Q.!.!.!.!.!.!.Q.Q.W.Q.Q.~.!.H.H.H.} } # # # # @ # & # & & # @ # # * C #.#.$.1.<.1.9.u.i.i.u.9.u.u.u.i.u.u.i.u.u.u.i.u.u.p.u.u.p.p.0.u.i.i.0.u.9.9.u.9.u.i.9.u.i.9.u.i.u.i.u.9.u.u.9.9.u.i.u.9.u.9.i.9.u.i.u.u.i.u.u.u.i.i.u.p.9.i.u.i.u.i.9.u.i.u.i.u.i.u.9.9.u.u.i.u.i.9.p.u.u.i.u.i.u.i.i.u.i.i.u.u.i.9.u.u.p.u.i.p.u.u.p.u.u.0.0.i.0.0.q.G G ; O O X @ @ @ X - @ - X X @ O X ; ; a j h k k N N Z Z Z G S F S S F S F S S S S S S S S S F S Z S S S S S S S S S S S S D S S S S S S V S V G S S S S S S S S S S F S S S S S S S S S S K S S S F S S S S I S S S S F S S S S S S S V S S V S S S S S S S A A A D z x , = & = & O & @ @ & @ @ @ @ @ O 4 4 E -.2.t.2.-.t.7.7.2.2.2.-.7.7.7.u.7.7.9.u.9.9.i.9.i.i.i.i.p.0.i.i.i.i.i.i.p.p.i.i.i.i.i.9.9.9.i.i.i.i.9.u.i.u.u.3.9.9.i.9.9.i.9.9.i.u.i.u.9.i.9.e.4.8 6 O @ @ @ O @ @ & @ @ X O O @ g g 6.l.l.! B B K Y Y u.M.M.H.~.Q.~.~.oXN.~.~.~.~.N.oXoXoXH.~.~.~.H.oX~.oX~.~.oX~.~.~.oXQ.Q.oXH.~.~.~.",
"m B B B B B B B B B B B B B B B B B B B B B B B B B B B B B B m m B B m B B B L B M B M M M Z M M Z Z L M Z L Z L C 9 n @ @ @ - @ 1 - - & @ # # & g +.[ ;.@.;.:.| ;.;.:.:.:.| | ;.;.:.;.H.E.XXoX[.~.Q.~.Q.Q.Q.).!.^.^.).~.^.Q.).Q.Q.!.).).Q.).Q.).!.).!.Q.).).Q.).Q.).Q.).Q.).Q.~.~.~.~.).~.~.~.!.).~.).).!.~.).~.).~.).~.~.).Q.Q.Q.!.Q.!.Q.~.Q.!.Q.^.Q.!.).Q.Q.Q.~.Q.Q.Q.!.!.!.!.Q.Q.Q.Q.W.!.Q.Q.~.!.!.H.W.W.l.f.7 # # @ # & @ # @ # @ @ # # O 9 c C Z S S U } | $.1.1.7.u.7.u.9.u.9.9.u.9.9.u.u.u.u.u.u.0.u.u.i.u.u.u.u.u.u.u.u.9.9.u.9.u.u.9.9.9.u.9.u.u.u.u.i.u.u.i.i.u.i.u.i.9.i.9.9.i.i.9.u.9.u.u.u.u.u.i.u.i.u.i.i.u.9.u.i.u.u.i.p.u.i.u.i.u.u.u.i.9.9.i.u.9.9.u.i.u.9.i.i.u.u.i.9.i.9.u.0.u.7.p.u.q.p.u.p.u.i.0.Q Q > O O @ # @ & X X X X @ @ X X $ @ @ 8 k j k N N N C Z Z Z Z B Z S H S K S F S S S S G S S S S F K S H S S S F S S S F S S S S V I S S V P V S S S S S S K F F S S S S G S S F S S S G S S S S S S S S S S S S S K S K S S S S F S F P V P V S S S H S C V A A V A g j , * = = & & & # & O & O & @ @ # 6 8 ~ t.t.-.7.2.7.7.7.3.7.7.u.6.7.7.7.u.9.9.9.9.u.9.i.9.9.9.9.u.0.0.i.i.0.i.u.u.0.u.0.i.0.p.9.9.i.9.9.9.u.u.i.u.i.i.i.9.i.3.i.i.i.u.i.u.i.9.9.9.9.i.e.,.* * * @ @ % & & X @ X = X X X O * > Z ^ Y J Y Y Y Y ^ K | | u.M.H.E.~.~.oX~.~.~.~.~.oXN.~.oX~.~.~.oX~.N.~.~.oXH.oX~.~.H.oXoXH.oX~.~.~.",
"B B B B m B B B B B B B B B B B B B B B B B B B m B B m B m B m B B M M B B B B B B B M B B M Z B B B B Z M Z Z B L n n - - @ $ @ - - @ @ & # * # l ..+.*.;.;.;.;.| :.| ;.X.;.| ;.;.;.;.H.W.*XoX[.~.Q.Q.!.Q.Q.!.(.Q.Q.^.Q.).Q.Q.).Q.~.Q.!.Q.).).Q.Q.).).Q.).!.Q.Q.Q.).Q.Q.Q.).Q.~.~.~.].~.~.~.~.~.~.~.~.~.).~.~.).!.Q.Q.Q.Q.Q.!.).!.Q.!.Q.!.!.Q.Q.Q.Q.Q.Q.Q.Q.!.~.Q.!.!.Q.Q.!.Q.!.Q.!.W.Q.Q.Q.W.Q.Q.Q.~.W.H.Q.f.f.9 # + # # @ # & & @ # # # O # r c N A S S Y { | ;.2.-.3.7.u.u.u.7.u.u.u.u.u.u.u.u.u.u.u.u.u.u.u.u.9.i.9.u.u.9.9.u.u.9.u.9.9.u.u.9.u.u.9.u.u.u.u.i.i.u.u.i.9.i.i.9.9.i.i.u.u.i.i.9.u.9.i.i.u.u.9.i.u.u.9.u.i.p.u.i.i.u.9.u.u.9.9.u.9.i.i.u.u.i.u.i.9.p.u.0.u.u.i.u.i.u.i.u.u.i.u.p.0.u.p.u.p.0.i.u.p.0.Q Q ; $ @ O @ @ @ X - X @ X - X X X @ @ e g g z k N M Z Z Z Z Z V S S S K S S S S F K G S S S Z F Z S S S S H S H S S H S S S S S S V S P V S P I S S S S S S F Z K S S F S G S S S F Z S F S K K S S S S S S S S S H S S S S F S S S S I V V P S S S S S S P V C S D j j , & * O O * O & # @ @ & X @ & # 8 6 Q t.2.t.2.7.7.7.7.9.6.7.7.7.7.7.9.9.u.9.9.9.9.9.9.9.i.9.9.i.9.i.i.i.i.i.0.p.p.0.p.i.i.i.u.9.i.9.i.i.u.u.9.9.i.9.9.9.9.9.i.9.u.i.u.9.i.u.9.9.9.s.9.$.3 * O @ & X @ @ X @ & @ X O X X * 4 A Y T J Y Y Y ^ Y Y | | u.M.M.E.~.~.oX~.~.~.~.~.~.~.~.H.oX~.~.H.oXoX~.oXH.H.oX~.~.H.oX~.~.~.~.~.~.",
"B B B B B B B B B B B B B B B B B B B B m B B B B B B B B B B B M B B B B L B B M B B B B B Z M B L L B M Z B L L G 7 9 # @ @ - @ 1 1 @ & @ @ : > z @.@.;.;.*.;.;.;.;.;.| ;.;.;.;.| ;.;.W.H.).~.(.Q.Q.^.Q.Q.Q.!.).(.^.).(.^.).).Q.).Q.).Q.).Q.Q.Q.).Q.Q.).Q.Q.).).Q.Q.).).Q.!.).~.~.~.~.).~.~.).).).~.~.).~.~.).~.~.).!.).).Q.).Q.!.).Q.Q.Q.Q.!.).!.~.Q.!.Q.Q.).!.Q.Q.).!.Q.^.Q.Q.!.Q.!.!.W.!.Q.W.~.!.E.Q.Q.Q.E.P.U # # # O # @ + O # @ # O # O 9 k k N m M m N M K J J { @.@.-.2.7.9.9.9.9.u.u.u.p.0.u.0.u.0.u.0.u.u.7.u.9.9.u.u.9.u.u.u.9.u.u.9.u.i.u.u.u.u.u.9.i.u.9.i.u.i.9.9.i.9.9.u.9.i.u.u.i.p.u.9.u.i.9.i.u.9.i.u.i.9.u.i.u.9.i.i.u.i.i.u.i.u.i.u.9.i.u.i.u.u.u.u.u.u.0.u.i.u.0.u.9.i.u.u.u.u.u.u.u.0.u.i.0.0.0./ / 0 @ O O @ @ @ X X X - X X X @ $ X $ 8 g j h N h N M N N N N N B B B Z F S K S H S S S F S F S S S S K S S S S S S S S S S S S S I S P V S S V S V I S G K S S S S S S S S S F Z F S S Z F S Z F K S I V I S S S S S S S K S S S K S S S S V V P V P V S V V A A A d s > & & & & & & @ & @ @ @ @ # O # 8 8 / t.t.2.2.7.7.7.7.9.u.9.u.9.9.9.u.9.9.9.9.i.9.i.i.9.i.i.u.0.i.i.i.i.0.i.i.0.u.u.i.0.u.0.9.9.9.9.9.9.i.i.u.i.u.i.9.i.i.9.9.i.9.u.i.9.u.9.9.9.9.s.e./ * * # & O & X = & @ X & X % O & * * h J Y ! ! ^ ^ Y ^ | Y K K Y | ;.H.M.H.~.~.~.~.~.~.~.~.oX~.oXN.~.~.~.~.H.oXoXN.oX~.oXoXH.~.oXH.~.~.",
"B B B B B B B B B B B B B B B B B B B m B B B B B m B B m B m B B M B M Z M M B M B M Z M B B Z M Z M Z B N M G G b 4 4 @ - - @ @ @ 1 @ : @ # 4 w R ;.t.;.;.:.;.X.;.X.;.:.;.:.| ;.;.:.u.Q.~.!.!.!.~.Q.Q.).!.~.).!.).!.).^.).Q.Q.Q.).Q.~.~.~.~.~.Q.).Q.~.).Q.Q.).).Q.Q.).).Q.~.Q.~.~.~.~.~.).~.~.~.).~.).~.~.~.~.~.~.~.~.~.~.~.~.!.Q.Q.Q.).!.~.Q.!.!.Q.Q.Q.!.Q.!.Q.Q.).!.Q.^./.W.W.Q.!.Q.W.Q.Q.W.W.Q.Q.Q.Q.!.!.!.W.d.y y O @ # # # # # @ @ O O O 9 k k C M M M M M m M m V Z K H ^ ^ ..o.@.=.2.-.7.7.7.u.u.u.u.u.u.9.u.u.u.u.9.u.u.9.9.u.9.9.u.9.u.9.u.u.u.u.u.u.i.i.i.u.0.u.0.i.9.s.9.9.i.i.9.i.9.u.i.u.9.i.u.u.u.i.9.u.i.u.9.i.9.u.9.u.u.u.i.9.u.i.u.i.u.u.i.u.u.i.9.u.i.u.u.i.u.u.i.u.i.u.i.i.i.u.u.i.9.i.i.9.p.9.p.0.( [ 0 @ @ @ @ @ @ @ X - X & X X & X . X - l g z z M M N N N M M m N B N N Z Z Z H S S S S F S S S S F S S S S S S S S S S S S F S S S S V S P V S S P P V H S S S S S S S S S S F G S G F S H S H Z S S V S S S S S S S S S S S F Z K S G S S S S P V H S V S V S S v r r > * & = @ # & @ & @ & @ @ @ @ # 8 8 ( t.t.2.7.1.7.7.8.7.7.7.7.7.u.7.7.u.7.u.7.7.7.7.u.7.7.9.9.9.u.9.u.9.u.9.9.9.9.9.9.9.u.u.9.i.9.9.9.u.9.u.u.u.i.i.i.9.9.9.u.i.u.i.u.9.9.9.u.9.9.9.e.P * * + @ % @ @ & O % X @ & X @ @ 6 4 C ) Y ) ! ! ! ) ! ! Y ! ! K | ) | | ;.H.M.H.oX~.~.~.~.~.~.~.~.~.~.Q.Q.Q.~.~.oX~.~.~.~.~.~.~.~.~.H.",
"B B B m B B B B B B B m B B m B B B m K B m m B B B B B B B B B B M B B Z M B M Z M M M L B L M M M C L C B C Z L b w w $ @ @ @ 1 1 - : X @ @ 6 0 R *.*.*.*.;.;.;.X.;.X.;.:.;.;.;.| ;.u.!.~.).!.~.Q.Q.!.Q.Q.Q.Q.^.^.^.^.!.).Q.).~.Q.).Q.~.~.~.!.~.Q.).Q.Q.).Q.~.Q.Q.).Q.Q.Q.).).~.!.).~.~.~.~.~.).~.~.!.~.].~.~.~.~.~.~.~.~.!.~.).Q.Q.!.Q.Q.Q.~.Q.).Q.!.).Q.Q.Q.!.Q.!.Q.Q.Q.Q.Q.Q.W.Q.Q.Q.!.Q.Q.Q.Q.Q.W.!.!.W.^.W.s.y r = # @ # # # O # # # # O 9 M k N M M M M M M m M N S V P { ^ | o.+.-.-.2.7.u.7.u.t.u.u.u.u.u.9.9.9.9.u.u.9.u.u.9.u.u.u.u.u.9.u.u.9.i.u.u.i.u.u.u.u.u.9.9.9.i.9.9.i.u.u.i.i.i.u.i.u.u.i.9.i.u.i.i.u.i.u.u.u.p.i.u.9.i.i.u.i.u.9.i.i.9.9.i.i.u.u.i.i.9.9.i.i.9.u.i.9.u.u.9.u.i.9.9.i.9.9.i.u.i.0.0.[ } 4 @ $ @ O @ @ @ X X % X X : X X X . > s g k M k M N N N N N N N m N B Z B G S S S F S S S S S S S K H S S H Z H S K S S S G D S I V S S P V V P V V S S H S S K S S S S S S S S S S S S S S S S S S V S S S S S S S S S K S S K S S S F S V S S S S V V V I S A A s s > & + & & @ & & & @ O @ @ @ @ @ 0 8 _ 7.-.1.7.6.7.7.7.6.9.7.7.7.7.7.7.7.7.7.7.7.u.7.9.9.9.7.u.7.9.9.u.7.9.9.u.9.0.u.u.0.9.9.9.u.9.9.9.u.i.u.i.u.u.9.9.u.0.9.u.9.i.u.i.u.u.u.0.u.9.q.9.U + * O @ @ & X X @ @ & O X O % O 6 4 C Y ) Y ) ! ! ! ! Y | Y | ) K K | | u.a.M.H.~.~.oXH.~.~.~.H.~.~.~.oXQ.Q.Q.Q.Q.~.Q.~.~.~.~.~.~.~.~.",
"B m B B B B B B B B B B B B B B B B K m B B B B m B B m m B m B M B N N M M N N Z L Z B L B Z M Z L Z B B L C L Z d ; ; $ ; ; ; @ - - @ @ & # 8 9 ) ;.;.;.;.*.;.| ;.X.;.;.X.X.;.:.;.y.m.).).~.!.~.!.!.!.!.!.Q.(.).!.~.(.!.).^.).).).).~.~.~.!.).).!.).^.^.).~.~.).~.).Q.).Q.~.Q.~.~.).~.).~.~.).).~.).~.~.!.~.~.~.~.~.~.~.~.!.~.).!.).!.^.Q.^.Q.!.).^.~.!.!.!.!.!.Q.Q.Q.Q.Q.Q.W.Q.!.!.W.!.Q.Q.W.W.Q.Q.Q.Q.!.!.E.W.S.....* + O * # @ & # # @ # + 9 k k k M M M M M M M M m N h N N N Z K K J ! ! ) | | | ;.;.u.u.7.9.u.u.u.u.u.9.u.u.u.i.u.u.u.u.u.i.u.u.u.u.u.u.9.u.9.u.i.9.9.i.9.9.9.u.9.u.9.u.9.u.i.9.i.9.i.i.9.9.9.i.9.i.9.i.i.i.9.i.i.i.9.i.9.9.i.u.i.9.i.9.i.9.9.i.u.i.9.u.i.9.9.i.u.i.i.u.i.9.u.i.i.3.i.9.9.0.0.0.+.+.0 @ @ @ # @ @ X @ X X & % X X X X X - a a k M z M M N N m N m N B N N N V N V C V S S S S S S S S S S S K S S S S S S S S S S S S I S S V S V V S V S S S S S S S F S S S Z S G S S S S S K H S H S P S S S S H S H K S F S S S K S S S S S S S S S V P I A A A v r r , * & # & @ @ @ # & @ @ O & = # 6 8 _ t.t.6.7.-.7.7.7.2.7.2.t.2.t.2.-.t.t.;.-.-.*.-.*.$.-.-.$.-.;.-.-.-.-.-.7.2.7.2.7.7.7.2.2.1.7.7.3.7.7.7.9.7.u.9.9.9.9.9.9.9.u.u.u.u.u.7.7.7.7.1.7.A * + & & @ & O X & & X & X O O @ a a Q | ! ! ! ) Y ! Y ) Y ) ) ) ) ) ) K | | ;.u.u.u.M.H.N.H.~.H.~.~.oXoXQ.oXH.Q.oXQ.oX~.~.Q.~.~.~.~.~.",
"m K B B B B B B B B B B B B B B B B m K B B B m m m m u u u u u f d i d f d f l h h M L M B L L L Z L L Z Z G M M 4 # # # ; $ @ @ 1 1 @ @ @ ; d l +.*.;.*.;.;.@.;.;.X.;.X.;.;.:.y.M.M.Q.!.!.!.!.!.(.!.!.(.!.(.!.!.!.!.).(.~.(.!.(.!.~.~.~.~.~.).).^.!.).^.~.^.~.~.~.Q.).Q.~.~.~.~.~.~.).~.).~.!.~.~.~.~.~.).!.~.].~.~.].~.~.!.!.!.!.(.!.(.!.!.^.^.!.^.!.!.(.!.(.!./.!.Q.).!.!.Q.W.Q.Q.W.Q.Q.Q.Q.Q.~.W.Q.Q.Q.Q.E.W.P.l.z.h # + # @ # & O O # O & 9 z z N M M N M M N M M N M N N N N M N M N M M B G G K K K Y ) { +.-.;.7.9.u.u.u.u.u.u.u.u.u.9.u.u.u.u.u.u.i.u.u.9.u.0.9.i.9.9.u.9.9.7.3.9.9.9.9.9.9.9.i.9.9.9.i.9.i.9.9.9.i.9.9.9.9.9.3.i.9.9.i.u.u.i.u.u.i.9.9.i.9.i.i.u.u.i.u.u.i.u.i.u.9.i.i.u.i.u.i.i.9.i.i.0.9.0.' *.9 @ @ @ @ @ & & X 1 1 X @ @ & X . X @ 8 n k k k M M m m V N N N m N N N N N N N C V S S Z S S K S S S S F S S K S S S S S S S S S S F S S S I S S I S F H S S K S Z S S S H S K H S S S S S S S Z S S S S H F S S S S S S K F Z S F S S H S S H V H S V V V A V z r r * & & & @ & # @ @ @ @ & = O & O 8 8 ..6.6.-.-.6.t.-.t.t.t.2.t.t.&.;.@.+.| +...| X.+.| } ..| | | ..| @.@.-.-.-.;.-.-.-.;.-.-.-.1.$.>.-.-.-.-.-.2.-.-.2.t.1.-.7.t.-.6.-.-.-.-.-.-.-.>.$.x + + & @ & % & & @ & @ X & & X ; k k Q ! ) | Y Y | Y | | ) | K ) | K | ) ) ) ) | | | | ;.;.u.u.a.H.H.N.H.Q.~.~.oXH.oXH.oX~.~.~.~.~.~.!.",
"B K B B B B B B B B m B B B B B K m B B B B m m m h m h u u u u f d f f i i y f h h k M C L L C L L C Z G C Z k k 4 # # # - @ @ @ - - X @ @ : j l +.*.$.;.$.;.;.;.X.;.:.;.;.;.;.-.n.n.!.!.!.!.~.!.!.!.!.!.].!.~.^.!.!.).(.(.(.).).).(.~.).~.).!.~.!.^.).!.).).).~.~.~.~.~.~.~.~.~.~.~.~.).!.).).~.~.~.~.~.].!.].~.(.(.!.~.!.!.~.(.!.).)._./.'.G.!.^.^.!.(.!.!.!.!.Q.Q.^.!.^.!.!.Q.!.Q.W.Q.Q.W.Q.Q.Q.Q.W.Q.Q.W.W.W.P.z.l.h # # # # @ # @ @ @ O O 9 z k M N M M M M N k N N N M z M N N M N N Z M Z Z Z Z K K Y | { :.;.-.u.u.u.u.u.u.u.u.i.u.u.u.u.u.u.u.u.u.u.u.9.u.u.9.9.9.i.9.u.9.9.9.9.u.9.9.9.u.9.9.9.9.i.i.9.9.9.i.9.i.9.9.9.9.9.i.9.9.9.u.i.9.u.i.i.i.9.9.9.9.i.9.i.u.u.i.i.u.u.i.u.i.9.u.u.u.i.u.9.i.i.i.9.9.9.w.*.+.8 # # @ @ @ X X & X X X & 1 X X . X @ a 9 k m k M m N m N m M N M N N m N N N N N V Z Z S Z Z S S S S S S S S F S S I V V V P V S S S S S S S S S S S F K Z F K S S S S H S S K S S S K K S S S S S K F S S S S S S K S S S H F H S S S H S S S S S V I V S A A z r r , & & & # @ @ @ O & @ O = @ O # 8 8 _ 6.-.t.7.t.7.2.7.t.7.t.-.t.;.-.*.+...+.+.+.X.| ....| | +.+.| +.@.@.;.;.-.-.-.-.-.-.-.-.-.-.-.-.-.-.-.-.-.-.-.-.-.2.-.7.-.2.-.t.2.2.-.t.-.-.-.&.-.z O # # & @ & @ & X X & X @ X O ; k k Q ! ) | | | Y ! | K ) Y Y ) ) ) K ) | | K | | | | ;.| ;.u.a.N.H.H.H.Q.Q.~.~.~.~.~.~.~.~.~.~.~.~.).",
"B m B B B B B B B B B B B B m B B B B u u u q 5 5 5 4 2 2 2 3 3 4 * * * * 3 * * 4 4 6 9 9 d h j M G C L G C C n d ; # @ @ - @ - @ 1 - @ @ @ : k b +.*.;.$.$.$.@.;.;.o.o.;.;.4.2.n.!.!.!.!.!.!.!.I.!.!.!.!.!.!.!.!.(.!.).~.!.!.).!.!.!.Q.~.!.!.).~.).^.!.^.).!.~.).~.).~.~.~.~.~.~.~.).~.~.).).!.~.~.~.~.~.~.~.!.(.).(.).(.).(.(.(.(.!.(././.G.'.^.Q.^.(.(.!.(.(.^.Q.).!.W.^.!.!.!.W.!.W.!.Q.Q.W.W.Q.Q.!.!.W.Q.W.W.W.n.Z.F * * * # & @ @ O # & O r k z N M N M M M M M M M k N M N M M N M M M M M M B M B M M B M Z K K K { { :.;.2.-.y.9.9.9.u.u.u.u.u.u.i.u.u.u.u.9.u.i.9.9.9.9.9.9.9.9.7.9.u.9.9.9.u.u.9.9.9.9.u.9.9.9.9.9.i.9.i.9.i.9.i.i.9.9.u.i.9.u.9.9.i.i.9.9.u.u.9.i.u.9.i.9.i.9.u.i.u.i.9.9.i.u.i.i.i.s.0.d.q.Q ) 0 O O @ & @ @ % % X % X X % 1 X X X X 0 0 k z N z N m N N N N z N N N N N N N z z V N N C V S Z G S S S S S S S S S S S P S S S S S S S D S S I V I S S S F S S S S S S S S S S F K S S S S S S H S S S S K S H K S S S F Z S S S S H S S Z S H H S S S V S C A z e e > & & & @ & @ @ & @ @ & X = @ O 6 6 +.t.6.2.2.t.-.t.-.-.-.t.2.t.;.t.-.*.@.@.$.+.+.+.+.+.+.| +.| +...@.*.@.*.;.*.-.;.;.-.*.;.-.$.$.$.-.$.$.$.-.-.;.-.-.-.-.*.-.;.-.;.;.;.-.-.;.-.&.+.#.g @ # # @ & & X & & & @ @ @ @ @ : C b / | ) Y Y Y | Y Y Y | | Y ) ) | K | K ) ) | K | K | | | | | | | ;.u.a.u.M.H.H.H.W.H.~.oXH.oX~.~.).",
"B B m K B B B B B B B B B N B M u u u 5 5 w w w # # # + O & + * # # * O # # # & @ # @ # # * 4 2 4 8 8 8 9 9 9 4 : # @ # X @ - @ X - 1 @ @ @ ; l b +.$.$.$.-.$.-.y.;.;.y.<.i.M.m.!.!.!.!.!.!.!.!.!.!.!.!.!.!.!.].!.(.!.!.!.(.!.!.!.(.(.~.~.~.~.~.~.).).^.(.~.!.~.).~.~.~.~.~.!.~.~.~.~.).~.~.~.~.].~.~.~.~.].~.~.(.~.(.!.!.!.!.!.W.W.W.W.!.W.G.G.!.W.W.W.!.W.!.!.^.!.!.!.^.W.^.W.^.W.!.!.W.^.^.W.!.!.E.!.!.!.!.W.W.P.k.l.Z 6 8 2 : # @ # @ @ O @ 9 C c L M L N M M N N M k N k N M N M M B Z M B m L M M M B B M m m M m B M B B K J K { ..| @.-.-.2.9.9.u.9.u.9.9.9.9.9.3.9.9.9.9.3.u.9.9.9.u.7.3.9.9.9.3.u.9.9.9.9.i.9.9.i.9.9.9.9.i.9.9.9.9.i.i.y.i.u.i.9.i.3.u.9.9.u.i.9.u.i.u.i.9.u.i.u.i.i.u.9.u.i.u.i.7.9.-.X.O.Q l j ; # # @ & @ & X @ X X : X 1 X X X . $ 0 8 k z N m z z N N k N N N N N N z z z z z m z M z N N C V Z V A S A S S S S P S S S S V H S S S S S S S I S S S S S S S S K S S S Z S S F Z S S K S H S S S S S F S S K S S S S S S S S S S S S S H H S V H S V V V C C z r 9 * & & @ & & @ & O & O & = O @ # 6 6 _ 6.6.-.t.-.-.-.t.t.2.-.t.t.-.t.t.-.2.t.-.-.-.-.-.-.-.-.-.&.-.;.;.;.-.-.;.;.-.;.-.;.-.*.-.-.$.$.$.;.*.;.*.;.*.$.$.$.;.;.$.*.-.-.*.*.;.-.&.&.#._ _ d * * # & X & & X & X X @ @ @ @ > C G ) ) ) ! Y ! | ! ! ) ) | ) Y | ) | ) | ) | ) | K | | K K ) K | ) ) ! ) { ) | | | 2.u.u.a.a.H.~.Q.).",
"B B B m m B B B B B B B B N Z M u u q 5 5 5 w w # # # O * O * * & # + * O & # & # # # # # * > > 0 8 8 7 9 9 8 > > @ # @ : @ @ - @ - 1 @ @ # ; b k ..@.@.;.$.;.=.;.;.y.<.y.y.m.b.W.!.!.!.!.!.!.!.!.!.!.!.!.!.!.!.(.!.(.!.(.!.(.!.(.!.!.!.~.!.).~.~.^.(.Q.^.~.).Q.!.).~.~.~.!.!.~.~.~.).~.).~.~.).~.~.~.~.~.~.~.].~.(.).!.!.!.!.!.W.(.W.^.W.W.G.G.!.W.W.W.W.!.!.!.!.^.!.^.W.(.W.^.W.W.W.!.^.W.!.!.W.!.!.!.!.!.W.W.W.W.l.k.Z 8 7 > # ; @ @ # O # O 9 z M C L C M M M M M M k N N M N M N M M M M L B L B M M M M B M m m m M M M B H J J ^ | | @.-.;.2.3.9.u.u.y.y.9.i.u.9.9.u.9.9.9.9.9.9.9.9.7.7.u.9.9.9.9.9.9.3.i.9.9.9.9.u.9.p.i.9.9.9.9.i.i.9.9.i.u.i.u.i.9.i.9.0.u.0.i.u.i.u.i.u.u.i.u.i.9.u.i.i.u.i.i.u.u.7.-...O.Q h j > @ # @ @ @ @ @ % 1 X & X X X X X . X 8 6 k k z z N m k N N N z z N z z z m z N V z z N N z z C N V A V C S D S S S V S I V I V S S S S S S S S V S F S S S K S S S K S S K F S S S S F S S S S H S S S S S S S S S S K S S H S H S H V S S S S S S V I V I N V z e r * & * # & @ & @ # @ & O % & = O 8 8 } 6.6.t.-.-.6.t.t.-.-.t.-.2.t.2.2.t.;.-.-.-.-.-.-.-.-.-.;.;.;.&.;.;.*.;.*.;.*.;.-.-.;.-.;.*.-.;.$.-.;.-.;.$.$.;.-.;.*.$.$.*.;.$.;.;.*.&.&.&.&._ _ d & : # @ & & @ @ @ @ & @ % @ @ > C C Q ) Y | | ! Y ) Y | Y ) Y | K Y ) | K ) K ) | ) | ) ) | ) ) ) K ) ) ) ) | +.| ;.t.u.u.M.M.H.H.E.).",
"m B B B B B V V B B N B h q q 5 w w + # # # # # # # @ # & @ @ @ - @ - - & # @ = O & O # # @ # # & # * # & * # # & O # @ @ @ & X 1 @ 1 @ @ X : d d G S K R Q T { X.X.<.y.y.V.S.S.!.!.!.!.!.!.!.!.(.W.!.!.!.].~.~.!.!.!.!.!.].!.!.!.!.!.!.!.].!.!.!.~.~.~.!.~.!.!.~.!.!.!.!.Q.!.!.!.^.~.(.!.(.!.!.).).).Q.!.W.Z.A.M.k.f.p.7.7.2.=.<.o.o.o.o.X.o.o.o.o.o.o.;.:.4.4.9.i.i.g.b.c.Z.A.P.W.W.W.W.(.).!.Q.~.).W.E.W.P.A.A.p.Y U h y d 8 > , # # # @ O @ 4 k h N M M L M M L M L M L k M M N N N N N N N M M M B M M B M M m m M m m m m m m m m V m V V V T Y Y T X.X.X.;.;.<.2.2.y.y.7.7.u.u.u.u.u.u.u.i.9.y.u.u.7.u.7.i.u.u.u.u.u.u.u.u.u.i.u.u.a.p.u.i.9.i.i.i.9.i.0.i.i.0.p.i.i.a.u.u.u.u.u.7.u.u.2.<.2.;.| | Y K K B M k h 8 7 # O O @ O @ @ X % X X X 1 % : X X X X 0 0 j z k z z k z z z k z z k z h z h x h h g h g g h h x x k z z z N v A D D S S S S S G S F Z F S G G G S S Z S S S S S S S S S S F S S K Z S H S S S S S F S Z S S S S S K S F S K S S H S S H S S H V H S S V P V A C z r e : & @ @ @ # @ @ & @ & # % = @ O 4 4 ~ 6.6.t.t.t.2.-.2.t.t.-.t.1.6.t.-.6.t.t.t.6.-.t.t.t.t.t.t.t.t.2.;.t.*.t.;.-.;.t.t.;.;.*.;.-.;.$.$.*.-.;.-.*.-.*.-.%.$.$.%.-.$.&.&.$.&.&.&.&.&.~ E 9 ; > # & @ X & O & & % & X # @ > A A ) ) { { ) { ) ! | | ! | ) ) ) ) { ) ) ) ! ! ) ! ! ) ) ) ) ) ) ) K ! R Y R ! R Y Y Y ) ) ! | +.+.t.",
"u m u m h h h i i 9 2 2 2 # # # # # # # # O & & O # & @ = & # & & # # @ & & & = & & & = @ & @ & # & & O & # & @ @ @ @ & & X @ 1 - 1 % & % - : s d k m k M N M N N V S { T 4.D.S.W.I.(.W.!.I.(.W.W.W.!.!.!.!.(.~.!.!.].!.!.!.(.!.(.(.!.!.!.!.].!.(.!.!.!.!.!.!.W.!.!.W.!.!.!.!.!.!.W.W.!.W.W.W.K.K.K.n.d.d.;.{ { ! J J J H J H K V K Y V K B K V H H K V H H H V H F H H H U U Y Y {  ...+.#.@.$.@.+.} { Y Y U K J Z M N N N z z l s 6 & & # O O # r y k z N M L L M C M k N C M N z N N m N N N B B B M M M L M N N M m m m h m h h m h u m u u m m u u m h m m m N B B B Z K K K J Y ! { J { { { { { { { | | | | | +.X.X.+.| @.:.*.| :.*.| | | ....| +.+.| } | | | | | | [ | | +.| | ) ) K F K M B m m m m u f u i i d 6 4 # # O @ @ @ @ X X : % @ X @ X % X X X ; : , 6 6 6 6 6 6 6 4 4 4 4 2 * 3 * > * 2 > 4 4 6 6 6 6 6 3 7 7 6 7 t t t a y x z z S F F S G F S F S S K F S Z F S G S S F S S S F G H S F S S S S H S H S S K F S K F S S S S S S S S S S S S S S S V P S S S S P V V C z r r : @ # @ & & @ @ @ @ O @ = O & # 4 > E 5.6.-.-.t.-.t.-.-.t.t.-.t.-.t.7.6.7.6.6.6.6.7.6.2.7.2.7.7.2.t.-.-.;.;.t.-.;.*.;.t.t.-.-.-.-.*.;.;.*.&.*.-.$.*.+.+.+.+.+.| +.+.[ +.| [ } [ Q g g 8 > ; # @ & & @ % X @ & & @ @ @ 6 F D ~ ) ! ) { ) ! ) | ) | ) ) | ) ) { ) ) | | ) ! ) ) K | ) K K R ) R Q U R Y R Y R R F J K F K J K K ",
"u m u m h h h y f q 4 w 2 # w # # + O * # @ # @ & # & = & & & @ @ : : # & = & & & = & & & @ & @ # & @ & O & @ O = @ @ @ @ @ 1 @ 1 : X X 1 @ : d a k M k k N M N V B V T T 3.S.S.W.(.I.^.W.(.W.(.!.^.W.^.I.(.~.~.!.].!.!.!.].(.(.(.~.!.!.].!.!.!.!.Q.!.!.!.!.!.!.!.!.!.!.!.!.!.!.!.!.W.W.!.W.W.W.K.E.n.a.d.-.{ { ! J Y J H K H H V K B U K V K K V K H H V K H H H H S P U H Y U Y ^  ...o.+.$.o.@.X...{ Y Y J H S Z N M N z z z j l 0 & # O O @ # r y k L M L M k M C M C k M L z N z N N N N N L B L L B M M M N m m M m h m h h m f m i m u m m u u u m m m m M m B B B K H H K J J ! J { { ! { { { { { { | } | | | X.X.| @.| | +.| | | | | | | | ..| [ | +.} | | | | | | | | | } { ) ! F K Z M B m m m m f m u i g r 6 6 # O O @ O @ @ % X X X @ % @ X X X X X , : 0 6 6 6 6 6 6 4 6 4 4 4 > 3 * * * 3 * 4 4 4 , 6 > 6 3 6 t 8 7 9 8 e r y d g z z G S S S F F S Z F S F F G F K S G S S S S S S S S S S S S S S F S S K S S S S F Z S S S S S S S S S S S S S S S S S S S H S V V S A C N p r : # @ @ @ O & @ = O & @ = O O O 4 > ~ >.6.-.t.-.-.t.t.-.t.-.2.t.6.1.1.8.6.6.6.6.6.6.6.2.6.7.6.t.6.t.-.t.;.-.*.-.*.-.;.*.;.t.-.-.-.-.-.;.&.*.;.$.*.$.+.+.+..._ [ +.} [ +.[ +.} ( ~ j g 8 ; > * : @ @ & @ @ @ X % @ @ @ 0 F F ~ ) ) ) | ) ! | ! | ) ) | ) ) ) ) | ) ) ) ) ! Q ) ) ) ) ) ) R K ) U U Q R K R K K K R K J J J K F ",
"w w w w 2 # 2 * # # + # # # # # # # # & @ & & @ @ & @ & % & @ & @ : @ @ X & % % & & O & @ & & @ & @ & @ & & X & X @ & # X & @ @ @ X & % @ @ # a a k k z h k h h k h z m m I T T q.D.D.L.I.I.W.I.W.I.I.I.P.J.J.J.H.R.P.!.I.I.(.(.(.].].].I.!.I.I.P.P.A.A.Z.n.n.n.x.l.l.p.i.u.7.-.4.$.$.$.#.| ..( ^ Q J K K Z Z K Z Z K S S S H S Y V V B V K B V K V H V H V H V V S S V C V B B B N B B B N N N N N N B V N N B N V Z V Z A S A D D c , 6 O O O O * * r k k c C C L b L M C C M M N N N N z N N M B B M L M B M m M z M k M k m m h h h m i m m u u m m m h m h m u m m u m m m m m m m m h m m f m u m m m f m h m h h h f h f f m L f f f f f f f d q u f q y y y y q f q l q f d u u l u f u f u u q q q f q i g i s 4 > # @ @ $ @ @ X @ % & % % 1 X : X % X X X X # @ # O @ O O # O O @ O @ = + O # # * # @ # # # # * & * & & # & # & * : > > 6 > 9 y a g k k M C C G F F F F F F F F G F F S S F G S S F S F S S S S G S S F Z F S S S S S S S S S S S S I S S S S S S S S S I S V A A z r a * # @ & @ & O @ @ & @ @ & & = O > > F 5.5.t.&.t.t.t.-.t.&.-.*.' ..( ^ Q Q Q F F F F G K G Z Z Z Z L h l h M L k M L M B L L Z C N N M M h L l d d 9 7 7 4 6 6 7 7 7 q 9 9 9 9 r 9 , 6 4 > : : : : & & % & % & & @ @ & 8 D D Q ) ) ) ) ) | ) ) ) ) | ) ) ) ) ) ) Y ) ) ! ) ) ) ) K ) K R ) R R Q Q R J Y R R Y K F F J G K K F ",
"@ # @ ; # # ; # # # # # # - - # # @ # ; # @ ; : & # : @ @ & @ @ @ - # - @ & & @ & @ & & & # : # @ & & @ & @ @ & @ @ @ @ : X @ X 1 & : X X - : a s x z h x m x x z z h m h m x x z V V I T U T U T U V S A S S V G S F J U T ^ ^ ^ ^ _  .) ) ) Q U H F S V S Z V V N N N C B N N N N V N B N N B V B Z Z V Z K S H S S H K K S S K V U U H V V V V K H V H V H H V I S V V S V V V A V A V V A N C V S V V N V Z V V C A A A D S D D v p 8 # O @ O O # * 7 9 d j j k k k c k k k z N z z N N v N N N N N M M L M M k k z m z m h h h x m u x h i m i u m x m m h f m h h m h h h h f h h h h h h h h f h f f f h h f f f f f f f f l y f f l q f q l l y q l y y l y y u f y f y q y f y q f y f l y y y u q l q i d d t ; w @ @ @ @ @ @ X @ 1 X @ X @ X 1 @ 1 @ X 1 X X @ @ O = O # @ O @ @ @ @ # @ @ @ @ @ - @ @ - @ ; # @ : @ @ - # - - # - # # @ ; # # # * # # # 4 4 6 7 9 n g g h z z N C C A A A G A A A F S S S G S S S D S F F A S F S I F G I S S S S S S S V I V V S S P V S S V A c r r & & @ O @ @ & @ @ O # @ & @ # # O # n F D Q R R F k L d 7 7 4 * # # # + # + # + + # + + + + + + + + + + w + + o w + + + w + + + + + w + + + + # + o + + # # # # # # + # w * 4 > * * > > : : : : & & & X : & & & @ & @ e D v W W ) Q R ) ) ) ) ) ) ) ) ) ) / ) ) ) Y ) Q Q W Q ) E R W R R R R ~ E F U P P P U R F R F P F F F ",
"@ @ # @ # # # @ @ ; @ ; ; # # @ # # # @ @ ; @ @ @ & @ & & @ & - ; : - @ & 1 @ & @ & & @ @ : @ & & - # & @ @ & O @ & & @ @ @ - : - X % & - X & a r x x x x h h i h h m x m x m m N I V T U U T U T P S S S V C C K G F J U T / ^ ( ( ^ ` ) } ) Q T I S H S S B S V B B N B M N B N N N N N N V N B B V Z K Z Z S S S S S K S K S V B B V V H V H K V V H S V V H V V S V C V V A V C V B S C A V C V V B Z V Z N V V Z A A S A G D D v n e # O O = * O * 7 8 d j h j k k k M z N z z z N z N N N A A N N M B M M N M m z z h z z h h i h x u m h i m x u h h h h m f m h m u h h m f h h m h h f h h h f f f f f f f f f f l y l l l l y f y u q u y l l y y l y y y y l y y q y f y f y f l y l u f d u u u f f g d d t 2 ; O # @ O O @ @ X @ X % 1 X X X % X % 1 X 1 X X @ @ @ O @ @ @ O @ @ @ @ @ @ @ - # @ - - # - : @ # @ ; - # - @ @ - @ - # # @ # # * * * # > 2 4 6 7 7 a d d h z z z c A A A A A G S G S F G S F S G I S S G S F S D S S S S S S S S S S V I V V V I S V S S S A V A C r a * O & & @ & O & @ & @ @ @ @ @ O # # a F F R E R F L M y 0 0 4 w # + w + + + + # + + # + w + w w + w + + + + + + # + w + + + + + + + + + + w $ + # + + o # # O # + # + w # * * 2 : > : > : > & & & & & & @ & % & @ & & e D D ~ Q W E ) R R ) ) ) ) ) ) ) ) ) ) ) ) ) R ~ ~ E / W E W R R ) ) R E P E E U U P I R J R J P P P F ",
"@ ; ; # @ - @ @ @ @ # @ @ @ - - - @ - @ @ @ - @ - @ - @ @ X @ - @ X @ @ X - 1 @ X @ @ @ X @ X - @ - X & & @ @ @ X @ X @ X : X @ X & X % % 1 @ 8 e x x z x x x V h h x m x m x h h z m m h M z k z M m k h M M m M h k m k h h h h h h h k k N N N N V N N B B V V V B V B S Z Z V N Z V B Z V Z B Z K B Z S S Z S H S H H F F H V U P V H U H V P V U H H H H H P H S H S S I V S S C S S A S S S S G S S G A A A S A S C C G C z b d > > O O O O # @ O # # # ; # # # # > 4 * 4 2 6 6 6 6 6 8 7 t r r l l h L L z z z z x z x k z h x x m x x m m m x m h x h h h h j h h h h h h h j h h h h h f f g h f g h f g g f f y y l l l f l y l y y l l y y f l y y y d y y y l y d d f l y y y y y d q l d u d y d d d d d 9 # # $ O $ @ X @ X - X 1 X 1 X 1 @ 1 @ @ X @ 1 @ @ @ X X @ @ X X - - X @ @ - @ @ - @ @ - @ @ @ X - X @ 1 @ 1 - X @ - 1 @ @ # @ ; # @ - # # # # # # & * & & & & * * * * > 6 2 3 6 7 7 7 9 9 r g y h z z N Z Z Z A G S S D S S S D I I F S S I V I I I V I S S D S A A z 8 9 & & # & @ @ O @ @ @ @ # @ @ @ X O O o O o # + O O $ + o # # # # @ O # # # # O # # # # # $ + # $ + w + + + + ; # + + # + # O # + # $ $ + + ; # # $ # # O @ # ; $ @ # ; # # ; ; # ; # # & & & & : : : & : & & & @ & & @ , a a s s a d a d l f l l l l l k l k L b L L l k b k b b b b l b b l l j j j j j g g g d d d s r t t 7 ",
"@ @ @ - @ X - @ X @ @ @ @ @ X @ @ @ - X - @ @ @ 1 % % X : : % X & % 1 1 @ % @ % : % & X : X & % & X & 1 X X & % : X : % : X & 1 X % : X & @ 1 > 3 i x z x m x m x m x x x m m z m z z z N M k N m z M N M N k N N N k N M M N N N N N N N z Z V V C Z Z B S Z V V S S Z S Z Z Z Z Z Z Z Z Z Z Z S Z Z S Z S S S S S S F H F H H P H U H U H H U U H U H P H P P H P F F I S S S S V S S A S S G Z C Z C N N N z z z h k g r 9 8 4 > # O O O X O O O @ O O O O O # $ # # O O O # O O O O O + O O O & + # # + ; w 3 3 3 3 t t t r i i i i i i i i i x i x x h x h h h h h h h h j h l h h l h g g h g h g g g g d d g f l d l y l y l f y y l y l q l l y n l y l d d d y f l d d y d d y f d d y y f d d d d y u d y r 4 # # # O @ @ O X X X X X X X X @ % X X % X : & X % X & X % X % @ X @ : X X @ - X X : X @ X - : X @ - @ @ : X @ @ - X @ @ @ @ @ @ & @ & @ - : # # # & = O & # # & & # = & O + O & + O + # + O = O = * & * * > > 6 t 8 e t t s g g h z z N N v N I N V V A V A A A N A d , > # @ @ @ @ @ # @ @ # @ @ @ @ @ O O O O o O o o $ # + O # # O o O # O # O o O # $ O # # # # $ # # $ $ ; $ ; + $ # # O # $ # @ # # # # # # + + # # # # $ # # # # # # @ # # & # @ # @ @ # & & & X @ X & @ @ @ X @ X X @ X X & @ & @ # @ @ @ O # $ + + ; $ # $ # # $ # ; ; @ # # - - $ ; ; ; ; ; 0 & & # @ # # = * & & # # + O & & ",
"X & @ : 1 @ @ @ @ % & @ X X @ & X & X X - @ X - X & % 1 X : X X & 1 & % 1 & X & % @ % : X @ & X : X & : % X & X : 1 & X % % @ @ : % @ 1 - % @ > > s x c j x x z x h z x h m z z m z z z m N z m N m N z N z M k M N N N z m N z z N N z C N V V Z V Z C A C V Z V V S B S V S V Z Z B Z Z Z Z Z S B S A S S S S S S F S I U S U I P U P U P U P U U T P U P Y H I S P I S F S S S V S S A Z G A C Z Z C N N z z z N z g g r r 7 > 4 # O # O O O O O = @ O = O O # O O # O O O O # O O O O O O O # + $ + # # # 4 4 4 6 8 t t t r t i t i g i g g g g g g g k k k h g h j h j j g j g x g h x g g g x g x i i g g d g g d g i d g s d g s a d d d d d d d d d a d d a d d d a d y s d y d d d d d d d d f d d d f d r d 4 # # # $ O X @ X % X X X X X X @ @ X X X X : @ 1 1 @ % X X % : X : X X % - X X : X X & @ @ % - : @ X X & X : X @ X : @ @ @ @ @ # & & @ & @ & & & & = & = @ & O & @ @ # @ O # O @ # # O # O # O O # # & * * > 6 6 8 8 8 9 9 d d d k N z C A N c A N C A A A A A G C Z g > > & & @ @ @ @ @ @ @ @ @ @ @ @ @ $ X O o O O O O O O O @ $ O @ O @ O & # O & & O O O # O & O & O & + @ O & + # O # O # O & O O @ # @ # @ # @ # # @ # # @ # @ # & # @ & & & & @ @ # & @ @ % @ @ % % @ & X : - @ X X @ X @ @ @ & @ @ & @ O - O @ @ @ @ @ $ @ @ # # # # @ # # @ # & & & & & : & * # # # & # # & & * & & # # = # & = ",
"@ @ - X @ @ : X @ @ X & & @ - X - @ : @ X - & @ : X X % % : % : % X : X X & % 1 % 1 X : % 1 % 1 % X % X & 1 % 1 X % 1 % & 1 1 % X - & @ X @ 1 @ : 0 l j b b c x z x z x x z z x z z z m z N N z z z m N N z N N M N m z N N V C N C Z N A A A N C C V C V V V V S Z S S A A S Z A Z S A A V Z C G A S Z Z Z C N C N N N m V N z m z h m z h u h i u h u i i g g g i u i i i i r r r t t t 8 7 7 6 6 6 6 6 3 4 > * * * * * # # # O # O O O . X X O = O X O O @ X X @ O O O # # O O O # @ # # @ # @ # # o # O @ O # O O O O & & & = * * * * * * * 4 6 6 6 8 9 8 r a a g j j g g j g g g g g j g g g g g d g g g i s g d g g d g g d d d s g g s a d s s s a l d s d a a g s d s d s y d d d d d d d f l l d d d d d 9 8 * # O @ O O & X O @ X X X X X X 1 X X - - 1 X % % X % X % % X X % X % : : X - - @ @ - @ 1 @ 1 @ X @ - - @ - @ @ 1 @ : X : X @ @ @ @ @ @ @ @ & & # @ # @ = & # & & & @ @ & @ @ - @ O # @ O @ @ O @ @ X @ @ O @ O @ # @ # @ @ @ @ @ # * : > * > 4 4 6 6 > 6 6 8 8 8 0 6 * O # # @ O @ O O @ @ @ O @ @ O @ O $ X O X . X . O O O O @ # O # O O O O O O O O @ O & # O O O O O O O O O O & O # @ O O @ & O # @ @ @ @ @ @ @ @ @ @ @ @ @ @ @ @ @ @ @ # @ # @ & @ @ O & & @ % @ & X @ X - @ X @ @ @ X @ X X @ @ X @ O @ @ $ @ @ $ O @ @ @ @ @ @ @ @ # @ @ @ @ @ & @ @ @ @ & X @ @ X - ; @ @ @ @ # & @ # & & & & : ",
"@ 1 % X 1 % % X % % @ X & % % & : X @ % & @ % 1 X % 1 % % X % % X 1 % X % % % % X % % % % 1 % % % 1 % % % % % % 1 % % % % X % % X 1 X 1 X - X @ X @ < , p l s j j x x z z z z z z z z z z z z z V z N z N N N N N N N A N V N C C Z Z V A A V A A N C C N A N A A N N C N A N N z C z N z h g g g d d r 8 8 6 7 6 4 > > * * * * 2 = = = * = = = = = + = = + = = = + O + + = O = O = & O O # = O & O O O O O O @ # & O O O @ O O @ O O O O O X O X = X O O % O X X @ # @ @ @ @ O # @ @ @ @ @ @ # @ $ @ @ O @ O @ # # & O O = @ = & = = & = = # # # & # & * & # : * > , > , , 4 < 8 8 8 e e 6 8 e t e e e e e e e 8 r e e e e e 8 e 8 8 p r 8 a 8 p a p n p e p 9 e a p a r a r r r a r s n a n n y d n y n y 9 y 6 # # $ O @ # # @ @ O % X X X X X X @ X 1 X X X X % 1 X X % % X 1 X X X 1 % % X 1 - X @ X @ X : @ @ @ % - X : - @ : @ - @ X @ % @ X @ @ & @ @ @ @ & & @ & & % & X & @ & @ : % & % 1 X - 1 @ - X @ 1 X X X @ X & & @ O X X @ @ X @ @ X @ @ # @ - & # O @ @ O X O X O . O @ O @ @ O O @ @ X @ @ O @ O X @ @ @ O @ . X X   . O . O X O O X O @ O @ = @ & O @ O O O O % X = O X O X @ % O & = O @ = # @ O @ O & @ @ @ @ @ @ @ @ @ @ @ @ @ @ @ @ @ @ & X & X @ X & @ X & @ X @ X @ X & @ @ @ & X X @ X @ @ @ @ @ X & X % X @ X X $ @ @ @ @ X @ @ @ @ @ @ @ @ @ & % X X & & X X & - @ @ : @ @ - @ & & : # : & & , : > ",
"% % % 1 X % 1 & % @ 1 & X X : X % @ % % % 1 & X 1 : X % 1 % X % % % % 1 1 X % % 1 % 1 X X % X 1 % 1 X % X 1 1 X X % 1 X 1 % X % : X & X 1 X - @ & & , < a j l j x x x z z z x x z z x z N z v z x z N N z N v N z N N N N N V C N V C A C V Z A A A N A A N A N A C A N N A N N N z N z k h k g d d y 9 t 8 6 6 2 * 6 2 2 2 = * = 3 = = * = + + + + = + + = = = = O = + O O O O # O O = = O O O O O O O O . O O O O = O O O O # O O X O O O O O X O X % X X & X O @ O @ @ @ @ @ @ @ # @ @ @ O @ - # $ # @ @ @ # O + & = & = O = = = = = = * & # # # # # * & & * > & > > > > , , < 8 < 8 6 e 8 e e e 6 e 6 e 6 e e 8 r e e e e e e a 8 9 r p 8 n r r 9 a r a r a a a n a r e a p a a r a y d n l n n d y d y 9 n 8 # w # O O @ $ O @ X = X X X X X % X X X @ - X @ 1 % % 1 X X % X % 1 X % % % % % X % 1 1 1 X @ 1 @ @ @ X & @ X X X & X - X - @ X @ X @ X X & @ X & @ & O & O & & @ & @ & @ 1 X X : - 1 @ @ - X X @ X X X X % X @ O X @ X @ X - @ X - @ @ @ @ # @ @ O O @ @ O @ . o O . O @ O @ @ X X @ @ @ @ X X O O @ @ $ @ X O O . X X . X X X $ O @ @ @ @ O O O X O O & & O O O X X % O % O @ O X = & & O @ @ @ # @ & O = @ @ @ @ @ @ @ & @ @ @ & X = @ @ O & @ @ X & @ X & X @ & X @ & & X @ 1 1 @ X : @ X @ @ $ $ X X % X @ X @ X @ X @ @ @ X X @ @ @ @ @ @ & @ X & X @ & & @ % & & % @ @ - @ : @ & : @ & & : & : : > , > ",
"@ @ X & % & X % - 1 - 1 : & % 1 % X & & & X X & & % & X % & % X % & % % X @ X X X X X X @ X X 1 % X @ X X X X X @ X X @ X X X @ X X X X - X X @ @ @ @ @ : > > < e 8 r s s g x g x x z x x z z z x z x x v z z z z N z z z z N z N C N N z k z h z h h g g g d d r r a r r r t 8 9 6 4 4 > > * * : * * # * & & & * & + * = + = * = = = * = + = + + + = + = + = = = + & = = O O O O O & O O & O O O # O O O O @ O & O O @ @ O O & O % O @ O O O = O @ O @ @ O @ @ @ @ @ @ @ @ $ - # @ # # # @ @ @ - @ @ $ @ @ O & @ @ = O & O # O = O = O O & = = = & & # & # @ & & & O & # & @ @ & @ @ @ @ @ @ @ & & @ & & & & = @ @ & @ @ @ @ @ @ @ @ - @ @ - - - X 1 1 : : : : X : : : ; : - > , : ; < ; > ; ; w ; ; ; ; # # # o O o @ @ @ @ # @ O O O X X X X X X X & X X X X % 1 & X X X X @ @ @ X - X X @ X X X O % % @ X @ X & X @ X & & @ - @ @ X & @ % @ @ % X @ O O % @ % @ X % @ @ O & @ X X & X & X : X : X : @ - @ X - X X 1 - X X X X @ X @ X @ X @ X - X @ @ - X 1 @ @ @ @ @ @ X @ @ . @ X X O @ O @ @ O X X X @ X X X O O O X X X X O O X X . O X = . = . @ @ O & @ @ @ & O & & @ & @ @ @ @ @ # @ O @ @ @ O @ O & @ @ @ @ @ @ @ @ @ @ - @ @ @ @ X @ % @ @ X O % & X @ X & & X & X & @ X & X & X @ - X X X X X - - - - - @ X @ @ X @ @ @ @ $ - ; - - @ @ - - - - @ & - @ : @ & @ # & @ - - @ : @ - - @ @ ; - : # & : : : : - , : , ",
"% @ @ @ @ @ & @ @ @ @ @ @ X @ @ @ & @ X @ & @ @ @ @ X & & X = X @ X O % @ @ @ @ @ @ @ O @ @ @ @ O X @ @ @ @ @ & @ @ X O @ @ X @ @ @ @ @ X - X @ X @ @ @ & @ @ @ O & & * & > 6 6 t t e r t t t r t i s r r r a r r r r r r r y t t t 9 8 6 6 6 6 6 > * 2 * * * * * * # * + * & # # # # # * * > # * & * * & * * & * # & * * & * = 2 = = * * = = + = & = = = + + = = = + = O = = = O & O = O O & O O O = O O = O O O O @ O O @ O X O @ O = = X & O O @ @ @ @ @ O @ @ O O @ @ # # @ $ # $ # # O # @ @ # # - @ @ & @ & @ & O & O O & O & * O = = = # O & O = & @ O & & & O & & @ @ @ @ @ O @ X @ @ 1 X @ X & X X X X X X X @ X X . X X X @ X 1 X - X X 1 1 X X X X 1 1 1 1 $ 1 X - X X X - X $ $ $ $ $ $ o o $ o o $ o O O O $ # $ $ @ @ X X O X O X X X X O @ @ - - @ @ @ @ @ @ @ X @ X X X O X X @ = X % X X X @ X O X @ X @ @ X X % @ & X & X O & & O & @ & % & @ & O & O % @ % X O & & O % O & X & X & X @ X @ & @ @ @ @ X X - @ @ X X @ @ 1 @ X @ X - X X - & @ @ X - X X @ @ X @ X X O O @ X @ O = X & O @ O X O X X X X X O O X X . X X . X X X . X = X @ O # = & # @ & # O @ O O O # @ O O & @ @ O O @ @ @ @ @ @ @ @ @ @ # @ @ @ @ # @ @ & @ @ @ @ @ & = O X X O X @ O % @ @ @ @ @ @ @ @ & @ @ @ @ @ @ @ X @ ; $ $ - - @ @ O @ @ @ @ @ @ $ $ @ @ - ; @ @ @ ; ; @ & # & # & & # & @ ; - # ; : : ; : : ; @ & @ @ # : # - : - @ ",
"@ & @ @ @ & @ @ @ - - @ @ @ @ X & X X @ X & @ @ @ @ @ @ @ @ @ = @ = X = X O @ X @ @ X @ O @ @ X @ @ X @ @ O @ X @ @ X @ @ O X @ - X @ X @ @ X @ @ @ @ @ @ O @ # @ O & * * , , 6 t t t t r r t r r r r r r r r r r r t r y r r r 9 7 t 8 6 5 6 3 3 3 * * > * * * * * * * * + * # # & # # # > ; * * * & * * * * * & * # * & & + = = = = = = + = = = = = = + = = = O + O = = = = O = O O O = O = O O O O O O O O @ O @ O @ @ O = O O = @ O O = X O & @ @ @ @ @ @ @ @ @ @ @ @ ; @ @ # $ # $ $ # # @ # @ O # @ @ @ # @ & = @ O O # O = O O O & O = & = & & = & = # & & & & * # @ @ @ @ @ @ X X @ X - 1 @ @ X X @ @ X X O X X X X X X X X X X X X @ X X X X X 1 X X X X X 1 $ X 1 1 X X X - $ - $ - $ $ $   o         o o $ @ # $ @ @ @ @ O X O X . X O X @ X @ @ @ @ X @ @ X @ @ % % X X X & @ @ X % @ X O X X X X X X O O X & X % & @ & @ @ @ @ X X X @ O % & % X @ & X @ % @ @ X & % & X @ @ @ @ @ X - : @ X @ X & @ X @ X @ X X @ X @ @ X X @ @ X X @ X @ X @ : X X - @ X @ X O X O X X O O X @ @ @ X @ X O X X O O X X X X O X X O O X X . X O O X O X X = O = @ # O O & O & @ O & O O O O @ O O O & @ @ # # @ @ # @ @ @ @ @ # O @ @ @ @ @ @ O @ @ @ & O & O O @ X @ @ @ @ @ @ @ O & & @ O & & @ @ O @ O @ @ @ @ - $ - @ @ @ @ O @ @ @ @ - $ $ @ @ ; @ $ @ - - # # # & # # & # @ : & @ # ; - ; - # ; ; @ # : # : : & : : : @ : : ",
"@ @ X & @ @ @ @ @ @ @ @ @ O @ @ O @ O @ O @ @ @ X @ X O X O X O O X O O O @ @ O O @ @ O @ @ O @ O @ O @ O @ O @ @ @ O @ @ @ @ O @ @ @ @ @ X @ X X @ @ X @ @ @ X X = O X O O O O = % % X @ O & @ = & = & * & & * & * # = O & O * @ # # O O # & O & = * & * & * * & * & # & * & * & * : # ; # : ; & * & * & & : = * & & & & + & & = + = = = = = & = & & = & = O & = & = = & O X = = @ & O # O X O O % X O & O = @ @ @ @ O @ X = O X = O = O X @ = O & @ @ @ @ O @ @ @ O @ @ @ # # # # # + w # # # # # O # O O & O O O # O = # O @ # # O = O = O = O = O & O & O O O O & O @ @ O O @ X O @ @ X @ X @ X @ X @ @ X @ X @ @ @ X @ @ X @ @ @ @ @ 1 X X 1 1 X 1 X 1 1 1 1 1 1 1 $ 1 X 1 - - 1 - - $ - $ $ @ X $ O $ X O $ $ $ @ $ # @ @ $ O $ O . X O . @ @ @ @ @ - @ # @ # @ @ . @ O O O O . X . O . % . . . . . . . X X X @ X = @ O % @ X X & X & & @ X & & X @ O X & @ X & O & X = X @ @ @ % @ % X & & @ X @ & & X @ - X @ - @ - - X @ % @ & @ - X - - X @ - @ 1 @ @ & @ @ 1 X @ % @ X @ X @ @ X O X @ @ X O % X & X X X O O X X O X X X X O @ . X X X = & O @ & O & # + * O * O # # O & * O # O & O O O # O O O O O O @ O # O # # O # @ O @ # @ @ # & & O & O & O O O # O @ # O & @ & @ @ @ @ # # # # @ @ @ O @ @ @ # $ @ @ @ @ # # @ O - @ # @ ; # # @ @ # # @ # # # & # # = & * * # # : ; ; # # # ; # ; @ - - @ # @ & @ @ - X : @ ",
"% @ @ O & O @ & @ & & * & * & = # * & * & * & * * * * & O # & + = O O O O = O O O O O O O O X O O O @ @ O & O O O @ O & O O O O O @ @ O X @ X @ @ @ @ X @ % X % O X O X O X O X O X X X O . . . X X O X O $ O X O X O X X O X O @ X O & % O & & & @ # & & : # * : & : > > > > > > > > * > , & : , & & & : * , * * : * & * & & & = & = & & = = = = & & = = = & = = = = = = = & O O = = . X = X = O % O X O # O @ O @ @ O # O O @ O = O O @ O = O = , = 3 t , t i t x z v F P I ~ { ) ( / ^ ~ F I A z z h r y 7 2 2 * O # O # # O O O + = O O + = O = = O = & = @ = # @ @ @ @ O O @ X X X @ X @ $ @ X @ @ X @ X @ X 1 X @ @ X @ @ @ @ @ X @ @ & X X 1 % X 1 % % X % 1 % 1 % % & % % X : X & @ @ X @ @ @ X @ X @ X @ @ @ O $ @ @ $ @ $ O X   X $ O O O O O # & ; * > 6 6 9 t r e t r t r r r s e i r t e 6 , , * = & = O O = & = & = = = = & = % = = & % = = & % = = & @ @ & @ & @ % @ & @ & @ 1 @ 1 @ - @ X : X - & : 1 @ - - - - - @ - X - @ - X X - @ @ X : X : @ 1 @ X 1 @ X @ X @ X X @ X O = X @ X @ @ X @ @ X O X X O X @ X X O O % X = % = . = O O = * + * # 2 2 2 7 7 t a y i g g h k k z N z z z z h h i i r t r r r r 9 9 9 9 t 8 9 9 9 9 9 9 t t 9 7 8 8 7 8 7 6 t 3 6 6 3 6 3 3 6 3 3 6 2 6 6 6 3 6 6 3 6 5 6 6 8 6 8 8 7 8 8 8 7 6 8 4 w > * * + # # + # = & + + = = # & & # ; # : # # # - @ - # - @ : : X @ : @ 1 X ",
"X O @ # O @ @ & & & & & * & & * * & # * * * * * & * & # * * = O O O O O O O O # O O O O O O O O @ O O O O O @ @ O O O O @ @ O # @ O O @ O O @ @ @ X X @ X O % O X @ X & X = O X O . O X . X . O O O X O X X @ X O X X X $ X O . X O X O X = O & @ @ : @ & # : * * > * > > > > : > > : * & * * * : * , & : > : : : * & & = & = & & = & = = = & & = = = = & = & = = = * = = & = # % X = = X . = . . O . & @ @ O O O @ # = @ O O O O & @ O @ O O & = = = , , 3 t i d g N z D P U ~ ( ) ^ ) / Q H P N z z i r t 8 * * + # @ O O O = = + O + = O O & = + O = = O @ = & O @ @ @ # @ @ @ @ @ @ X @ @ @ @ X @ X @ @ @ X @ @ X @ X @ X @ @ X & @ X @ X @ X 1 % 1 1 1 1 1 X % % X % X X % 1 - X @ X X & & @ @ @ @ @ X X @ X O X @ @ $ - $ $ @ X   . O $ O + O @ # O # * * * 6 6 7 e t e t t t r e r r i r r e e 6 , * * = = = O = = = & = % : = % = & = = % & % % % = % & & & % = @ % & & @ & @ & @ - @ @ @ - @ - & - : 1 1 @ - - - - - @ @ - - @ @ 1 - - - : X : X @ @ @ @ @ : X X @ @ X @ X @ @ X @ X X X O @ X X - X @ X X $ @ X @ $ @ O X X X . . X & X = = = O + + + * * 2 2 5 6 t y r i h g x k z k z z z z z k g g i t r t q r r y r y t t t 8 8 9 9 9 9 7 7 8 8 7 t 6 8 7 7 3 t 6 6 6 3 6 6 3 6 6 6 6 6 3 3 6 6 6 6 7 6 7 6 6 8 7 t 7 7 8 7 7 8 8 4 > 4 * # * 2 + # & * + + & = & & # # * # - # # : ; ; ; # ; @ - @ - 1 @ X @ @ @ ",
"= * * * 8 8 a z z I ~ ~ / ' _ +.*.*.&.6.1.8.6.8.8.8.8.8.>.1.>.#.#.#._ _ / ~ ~ P D F C k k g a a 8 , * * & & # O # O O O O O O O @ X @ @ @ @ @ @ O O @ X X = X = @ X @ @ @ @ X X X O X O X O X X X O O X @ X X O X X O X O X X @ = X X @ @ @ @ @ @ & & & & & & : : > : > , > 4 , > > , > > > , , , : > , , * , * * * * & & * & O # = & & & O O = = & + & = + = = = = = = = O & = O = O O O O O O O O O O O & & * * * 6 6 8 r r d g g z D A I T T _ ,.,.4.e.e.s.V.V.D.I.P.`.+X+X#X=X%X-X%X;X@X_.}.(.T.P.D.x.x.s.1.4.#./ ` S g x 8 4 * + + O = + + = + = = O + + O O O O # @ @ X $ O X X @ @ X - @ O @ X @ @ X @ X $ - @ @ @ X O O @ & & @ & @ & @ @ X @ % X % % % X & & % X X & % @ @ @ 1 - X @ @ @ 1 @ X @ @ X @ - $ @ @ @ @ X O $ X . O O O O . = = t I S _ >.>.i.h.z.v.B.Z.Z.B.Z.V.Z.Z.D.S.D.S.D.V.V.V.z.z.e.<.>.#.O._ W T I I v v x s i e t e , * , 3 * = = & = = = = & & & = & @ & @ : @ & @ & : - @ @ % & @ - - - - - - - - : - - - X - X - X X X & : @ @ @ X X % X X @ @ @ X @ @ O @ X @ & X @ @ X @ $ @ - X - X @ @ - $ @ @ X @ X % = = * > s A A F T ^ ` O.&.>.9.h.h.z.Z.D.P.I.P.^.T.!.`.(.(.`.`.`.^.I.E.D.x.C.x.c.x.x.x.l.z.g.h.h.d.h.h.l.f.k.l.h.h.d.d.s.d.e.9.e.9.e.3.9.3.9.4.3.4.9.3.3.9.3.9.9.9.e.q.q.0.s.e.w.d.d.d.h.d.d.z.h.z.w.d.0.6.4.>.#.#...^ ` T I I C g x t 6 6 > * : # # # # ; ; # # # - - : @ @ @ @ - 1 @ ",
"#.1.8.0.z.z.L.(.(.OX;X;X>XqX>XeXpXaXsXjXnXnXnXCXNXnXMXMXxXnXxXaXsXaXeXqXeX<X1X:X%X%XOX}. X(.I.I.D.z.x.w.1.1...E ~ z r r 4 & * = O X . @ O . @ O @ O @ O O X = . X @ O @ @ O O O X O O O O . O @ O X X O O $ O X O @ X O X O O . O O O @ @ O @ @ @ & & @ & & & & & & & & > : : > & > & > > > & > * , : : & & & * * * * = & & & # O # + & + * * + # + + + + = * = = * 2 * 3 3 6 t t i x x z N z I P T ~  .O.#.,.8.8.q.d.r.z.B.B.Z.P.L.(.`.`.}.+X+X%X<X<X<X<XlXlX0XrXeXqXqX9XeXqX9XqXqXqXqXqX9XeX9X9XrX0X0XwXwXqX0X9X<X@X%X{.D.D.h.4.#.#.` Y U S V I N V N F F S I I F I F F F D C a $ X X $ $ X @ @ @ X X X O X @ @ @ @ @ @ @ = & O @ O @ # @ O & # @ @ @ & @ = X & % O O & @ @ @ X & & X @ & X & @ @ @ - 1 @ : @ @ @ X - $ @ $ $ $ $ o O O * * z <.,.V.+X@XeXvXzXMXNXNXNXNXNXMXNXNXMXMXMXMXNXMXNXNXNXMXNXvXMXMXzXzXlXqXeX<X@X%X+XT.`.T.D.S.V.r.h.e.4.4.,.O.O.^ I P z x g r t 8 > & * @ @ @ @ # @ @ @ # @ : @ - : @ @ - - @ - - - @ - @ @ @ @ - X & @ @ @ @ @ @ & & @ @ @ @ X @ @ @ O @ @ X O @ X @ @ @ @ @ - $ @ @ X @ @ $ @ - - @ @ O % O . * W T D.`.{.+X%X&X<XeXrXeXgXnXnXmXNXMXNXNXNXNXNXSXmXMXNXNXBXNXNXNXSXBXnXNXNXmXmXNXnXnXnXvXvXnXnXjXnXjXnXnXjXnXnXnXnXvXvXvXvXvXvXzXlXaXzXzXvXvXvXzXaXzXgXvXzXgXvXgXgXvXgXnXvXgXnXjXvXnXnXnXnXvXnXvXnXjXgXzXaXrXrXqX9X9X&X#X@X_.T.T.C.z.h.w.6.6...A C 9 : ; # : * # @ @ - X - X - @ @ ",
"#.1.6.q.k.z.J.(.(.@X;X;X<XqX>XuXpXpXsXnXjXnXnXnXnXnXCXnXnXxXzXsXaXrXeXuXeX<X<X:X&X;X@X X}.`.I.I.D.z.v.w.1.5.+.U P z r r 4 & * O @ O X O = X O # @ # O @ % O = X @ X @ O @ @ X O O O X O O X O . X O X O X O X O X O O X O X O . O O O @ @ O @ @ @ @ & & & & & : * & & : : : : : : * > > : * * , , * , > : : * * : : * = @ & # @ & = * + # # + * = + + + * = = * * * * 3 3 3 8 t t s g x z N N I P ~ ~ O.O.#.,.4.4.q.w.h.z.c.c.Z.S.L.T.`.`._.+X+X%X<X<X9XlX0X0XlXeXeX0XeX9XqXeXqXeX9X0X9X9XqX0XeXtX0X0XrXwXwX0X9X9X:X@X%X`.D.D.h.4.O.,.T U P V V V V V I D I S F F I F F D F G D a X $ O O X $ @ X @ X X O O @ @ - @ # # @ @ = = O & O & % & = & = & & & O & @ O X = X & X & & O @ @ @ X & X @ @ 1 @ @ 1 @ @ 1 @ X - @ X $ @ O $ . . O O O * * z ,.,.C.%X@XeXnXvXMXNXNXNXNXNXNXNXNXNXMXMXVXBXBXBXMXNXMXNXMXnXmXzXzXlXqXeX&X%X%X+X`.`.T.D.S.V.V.z.e.4.4.,.O.O.` I I N x x r t t > * * = = @ # @ # # @ # # @ & & @ - - ; - - - ; - @ @ # @ : @ - X X @ & @ @ @ @ @ & O @ & @ @ @ @ @ @ O X @ X @ @ X @ $ - @ $ $ @ $ - @ $ - @ $ @ @ @ X @ O O * ~ W J._.{.@X%X%X:XeXqXpXaXnXnXNXNXNXNXNXNXSXNXNXSXNXNXAXSXVXmXmXAXNXNXmXSXmXmXmXmXnXnXnXhXjXgXnXjXjXnXjXmXjXnXnXvXvXvXvXgXgXgXgXzXaXgXaXaXgXvXrXvXgXvXvXvXgXgXaXvXvXnXnXjXjXnXvXnXnXnXnXnXvXnXvXvXvXgXaXaXwXrXeX:X9X&X@X@X_.T.T.Z.g.z.d.1.6...C A 9 > ; # * # # # @ - @ @ @ @ X @ ",
"eXpXaXnXnXnXNXSXAXNXNXNXNXNXNXAXNXNXSXmXNXAXNXNXNXAXAXNXNXMXNXNXNXNXNXNXNXNXNXNXNXNXAXNXAXAXAXAXZXNXMXvXaXpXeX;X;X}.L.L.k.>.>./ D z z t * , & O O O O = O O O O O # O @ O @ = O @ O O @ X O . @ O X X O O X O . O X O . X O . O X O O @ @ @ @ & @ & @ % @ : @ @ # & : # # & * & & & & * : : & & & * & & * * * * * = * : ; # > 6 6 8 r r g z z S U P ` ' O.,.4.<.4.9.e.h.z.g.V.D.D.P.^.^.`.`._.+X@X%X%X%X9X<X9XeXeXeXeXrXrXrXiXpXeXlXeXrXrXeXlXrXlX0XeXlX0X0X0X0XwX0X0X0X0XrX0X0X9XeX0X0X0X0X0X0X0X0X0X0XwX0X0X0X0XwXeXqXeXrXeXqX<X&X&X+X_.+X`.`.`.^.`.^.`._.{.`.`.[.].].].].].Y.q., > o $ $ X O @ X O X X @ # : : ; * * * * > * , 3 3 6 t , , * * & = = O = @ = = = = O = O = & & @ O & @ X & X @ @ @ 1 @ 1 @ & @ @ @ O $ $ $ o o # i r ^ h.h.+XcXlXBXNXDXNXNXVXNXBXBXNXNXNXBXNXNXNXNXNXVXkXVXVXNXNXNXmXvXNXnXmXvXMXMXbXBXMXMXMXMXMXMXnXvXzXlXzXcXeXzXeXqX<X&X@X%X`.T.S.B.z.z.e.>.>._ I I x t 8 > * * + O @ @ # @ # - ; - ; - # : & @ @ @ @ X & & & @ @ # @ = # X % @ O % @ @ @ @ @ @ @ X @ X X X @ @ - - - - - @ @ @ - $ @ @ - @ @ @ @ O O g D.Z.aXnXnXnXnXnXnXxXnXnXnXmXnXnXnXnXmXNXNXNXmXmXmXNXNXmXmXVXSXVXmXAXNXmXVXVXSXFXNXNXNXNXNXNXNXmXmXNXmXmXmXBXBXmXmXmXmXmXBXBXBXBXmXBXNXBXNXBXBXNXNXmXBXBXNXnXBXBXNXNXnXnXmXmXmXBXNXmXmXmXmXNXNXnXNXMXNXNXnXmXvXNXNXNXNXMXMXMXmXMXnXvXnXzXaXpX7X X}.x.+.+.k h j a , 0 & X % @ X @ & ",
"mXmXMXBXNXBXBXBXMXmXBXmXBXNXmXmXBXmXmXbXmXmXmXmXBXnXmXBXmXmXmXmXmXmXNXBXNXBXNXvXNXNXBXMXvXmXmXMXMXvXNXMXZXMXAXAXNXZXMXnXzXqXqX>X%X{.+XT.B.L.h.1.>.` N v r 4 3 * O # O O O @ O & O O O @ @ X O O X O O O O @ O O O X @ O @ O @ O @ @ O @ X @ @ @ @ @ & @ - @ ; @ @ : * # : & & # & * & : & & & & & & * : * * > , s P P >.r.r.v.H.B.L.I.P.Y.`.`.}.@X+X#X&X&X;X<X<X9XeXqXeXrXrXrXyXrXvXrXrXrXvXlXyXlXrXrXrXrXrXrXrXwXrXrXrXrXrXrXrXrX0XrXwXrXrXrXrXrX0X0XrX0XtX0X0XrXwXrX0XwX0XwX0X0XwX0X0X0X0X0X0X0X0X0X0X0XtX0XrX0XwX0X0X9X0XwXwXeX0X9X9X0XeX0XeXeX0XeX0X9X0X0X9XqXqXqX1X7X1XOXOX0.6 4 $ X X $ X $ X X X : / W r.c.v.V.B.B.B.Z.Z.L.L.L.L.L.L.L.J.D.V.w.w.,./ ` A g e 8 * = O # O O = = X X & X @ X @ X @ @ : @ X X X X X $ O O g g 9.`.`.<XBXvXVXVXVXVXBXBXBXBXBXVXBXBXBXBXBXBXBXmXmXBXBXbXBXBXBXNXmXmXNXNXmXNXBXBXBXMXbXBXBXvXvXBXbXlXMXvXMXMXvXvXBXvXBXBXMXBXMXBXvXvXzXvXlXlXeX<XqX:X@X#X}.T.T.Z.z.k.q.&.#.~ A A d 8 8 , > * * # @ O & & O & & = * & = = # * = & = = # * & & O @ O O @ O @ @ @ @ @ @ @ $ - $ $ $ @ $ $ - @ @ @ $ @ @ O O # I #XOXnXvXxXnXxXnXnXnXMXnXvXvXnXnXmXnXmXnXNXNXmXNXmXmXnXmXmXmXSXVXNXmXAXmXAXmXFXmXNXNXNXNXNXmXAXNXmXNXmXNXmXNXmXNXnXmXmXBXBXmXmXmXmXBXmXBXBXmXvXNXBXnXvXBXvXBXNXBXBXmXmXBXBXmXnXBXNXnXBXmXmXmXmXmXmXBXnXMXBXNXBXBXmXBXvXmXvXmXBXBXBXnXBXmXmXmXmXnXNXnX:X:Xq.l.k.z.q.8.E e e @ X @ X ",
"vXBXNXmXBXmXmXNXmXNXBXNXmXmXNXNXNXNXmXBXmXmXBXnXBXBXBXnXmXBXmXBXvXmXmXBXvXBXBXBXNXvXNXvXNXBXMXmXmXMXMXMXMXMXnXNXZXMXMXMXnXqXuX:XOX+X+XT.D.B.w.>.>.` A N r 3 6 * # O # @ O O O O # @ O O @ O X % O @ O X O X @ X @ O O X O X O @ O @ @ X @ O @ @ & % @ & @ @ # @ & # & : # & : : & & & * & * & & = & & : = * , * s W P >.r.r.v.H.B.L.P.T.(.].(.}.@X@X%X;X&X<X<X<XeXqXrXrXrXrXaXlXrXrXrXvXgXyXyXyXrXrXrXrXrXrXrXrXrXrXrXrXwXrXrXtXrXrXrXrXwXrXrXrXrXrX0XrXlX0XlX0X0XwXwXeXwX0XwXwXwX0X0X0XrX0X0X0X0X0X0X0X0X0X0XwXwX0XwX0XwX0X0XqXeX0XlX0X0XeX0X0XeXeX0X0XeX0XqX9X9XqX7XqX1XqX#XOXq.< 4   O $ O X $ X X $ : ~ W k.v.v.c.V.B.Z.B.Z.J.S.P.L.L.L.L.L.J.V.w.w.>.` ~ A r t 6 * = * O = & = O O @ X @ @ @ @ @ @ @ X X & - X O X O $ O l g 6.T.`.:XvXvXNXNXNXBXVXVXNXVXBXBXBXBXNXBXBXBXNXBXBXBXVXbXVXVXVXNXBXmXmXNXmXBXBXBXvXBXBXvXBXBXBXvXbXbXBXBXbXbXBXvXBXbXBXMXBXBXMXNXvXvXzXzXlXrXcXqXqX:X%X@X{.Y.T.Z.z.z.q.*.&./ D D d e 9 4 : : * = @ & O = = @ & & & + & & O O & = & & & O & O & # O # O @ O O @ O @ X $ @ $ @ @ - $ @ @ $ @ @ $ @ @ @ @ O # I OX#XnXxXnXvXnXvXnXnXnXnXzXMXvXnXnXnXNXnXmXnXmXmXmXmXmXNXAXAXVXNXFXAXmXFXmXAXNXmXAXNXNXNXBXNXmXmXAXmXNXmXmXmXNXmXmXmXmXNXnXBXmXBXmXmXmXnXNXBXNXvXBXNXBXNXBXBXvXvXNXBXBXnXBXBXBXmXvXBXmXmXmXmXmXmXBXNXNXBXMXBXvXbXmXvXBXvXmXmXmXnXBXBXmXBXnXmXNXNXNXnX-X=X0.z.c.x.q.8.E e , & X X @ ",
"MXBXvXNXBXmXvXNXBXmXmXBXmXmXBXBXNXBXmXmXBXmXmXBXBXmXmXmXmXmXbXBXBXBXBXbXBXmXmXBXnXBXBXvXNXBXBXvXNXMXMXvXNXNXNXMXmXmXNXmXnXNXmXmXMXMXMXMXvXnXzXeXpX1X#X#XY.c.B.q.#...I r d > = = @ O O O # O O O O @ # # O O O O # O O O O # O O O # O # O @ @ @ # O # # # @ # - # : & @ : & : & & & & ; & & # & & & & > * g >.>.H.4X4X>XuXuXuXiXaXaXfXdXfXiXfXgXfXgXfXfXfXgXaXaXaXgXgXyXfXtXfXyXtXtXtXtXyXyXyXyXrXyX0XyXrXtXrX0XtXtXwXtXyXrXrXyXrXrXrX0XyXyXrXrX0XyXtX0XyX0X0XtXrX0X0X0XtX0XtX0X0XtX0X0X0XtX0XtX8XtX0X0XtX8XtX8X0XwX0X0XwX0XwX0X0X0XlX9X0XqX0X0XwX9X0X0XqX0XqX6XqX8XqX%X#XJ.w.w.~ # > o $ X o $ o X . X a R.R.dXsXsXsXaXsXzXsXsXxXxXsXzXzXzXzXzXsXrXqXqX<X%X%XOX{.L.L.r.,.] D t e * * & X X X O O O X O X & = & % X & = O O k Z.Z.pXNXNXmXmXBXNXVXBXBXVXBXBXBXBXBXBXBXBXBXBXBXBXBXBXBXBXVXBXBXBXBXhXBXBXBXBXBXlXBXBXBXBXBXBXBXBXBXBXbXBXbXBXvXbXBXmXmXmXvXBXvXBXBXvXbXvXvXvXbXvXnXvXnXnXvXNXvXvXnXzXvXpXqXqX>X#X#X}.T.T.D.w.z.1.#.~ ~ I A A z x x i r r t 6 6 > > > > * * * * * + # # O O # O O O O @ O @ O X X @ X $ @ $ @ $ @ @ @ O @ O # U :X:XnXvXxXnXnXnXnXjXnXnXnXnXnXMXvXMXMXNXmXNXNXNXNXhXvXqX9XqX0XqXqXqXqXwXaXsXvXmXnXNXmXNXNXNXNXNXSXNXmXSXmXmXNXmXNXmXmXmXmXmXmXmXnXbXmXmXmXNXNXvXNXMXBXBXBXBXBXBXBXBXBXBXBXBXMXBXBXNXBXNXBXmXmXmXmXNXBXnXNXBXNXBXBXBXvXBXbXbXmXBXBXvXBXbXBXBXBXMXnXMXaXaXB.]. X;X=X3XY.5.,.e X X X ",
"BXBXBXBXBXBXBXBXBXbXBXmXmXBXNXBXNXBXBXBXBXBXBXmXBXBXBXBXBXNXmXmXBXBXmXmXBXmXBXmXBXmXmXmXBXvXNXvXBXBXBXBXNXvXNXBXmXVXmXmXmXmXmXmXMXnXvXnXnXMXMXMXMXZXMXAXnXzXsXaX1XeX;XOX+XL.z.z.8.&.,._ W T A i d 8 * 3 # O O O o O O o O O + O O O O O O O O O $ # @ @ @ # @ - # & & : & & & & & & * & : # * & & # > A A R.,X,XiXsXsXsXfXfXjXfXfXaXfXsXfXfXfXfXfXyXyXgXfXaXgXrXgXtXyXgXgXgXgXyXhXyXyXyXyXyXyXtXyXyXyXyXyXyXyXtXyXtXtXtXtXyXtXyXyXyXtXyXyXyXtXyXtXyXtXyXtXlXtXtXtXtXtXtXtXtXtXtXtX0XtXtXtX0X0XtXtX8X0XtX0XtXtX8X0X0X0XwX0XwX0X0X0X0X0X0XwXwXwXrXwXrXtXwXwXwXwXwX-X$XJ.p.p.&.+.+.k O # O X @ O X O . O o R OX=XnXnXnXzXvXvXgXgXsXzXvXgXsXrXzXaXzXaXaXgXaXaXaXaXzXpXdX1X1X2X2XOXU.L.>.r y O     o . . X X X O X X O @ = t #.#.`.aXaXMXNXBXmXBXmXmXBXBXBXBXBXVXVXBXBXVXBXVXBXBXBXBXBXBXBXBXBXkXVXhXBXBXBXBXBXBXBXBXBXBXhXBXBXBXlXBXBXlXMXbXBXbXmXBXBXvXmXmXbXBXvXmXvXBXbXBXBXbXvXbXvXbXnXvXMXvXMXmXmXvXmXvXnXvXBXbXnXnXzXvXzXaXrXrX<X-X;X#X.X}._.(.(.P.D.D.V.z.V.s.e.9.3.4.4.>.O.#. . .( ..#._ ..#.#.#.#.,.&.%.5.,.' ' c @ # @ O @ $ @ $ @ # O U :X:XxXnXxXnXnXnXjXnXnXnXnXnXvXvXnXvXMXMXNXmXqXqX`.l.z.1.1.=.=.-.-.1.9.9.p.f.f.x.D.Z.P.`._.-XqX7XjXCXnXmXmXnXnXmXjXbXjXnXmXjXmXmXmXmXbXmXvXvXvXBXMXvXBXnXnXnXbXMXMXBXvXbXMXbXBXvXMXmXvXBXmXNXmXmXNXmXmXBXNXBXnXBXvXBXBXvXBXmXmXvXBXBXvXmXmXBXvXNXNXZX;X;Xk.Y.T.;X:X2X2XB.B.e @ X & ",
"mXmXmXBXBXmXBXmXbXBXbXmXBXNXBXNXBXNXBXBXbXVXBXmXmXNXBXBXBXBXBXBXBXmXBXBXBXmXBXmXmXBXmXBXMXBXvXBXvXBXvXNXBXnXmXmXVXbXbXVXmXmXmXmXBXmXvXvXMXvXMXMXMXMXZXMXnXnXsXaXeX1X,XOX+XP.z.z.8.,.&.' W T v s d 8 * * O + O O O o O O o O O O O + O O O O # O # o # O @ # - # @ & # # & & & & & & & & & : & & & & * A C U.>X>XiXfXsXfXfXsXfXjXgXfXfXfXfXfXfXfXtXfXtXtXgXgXaXgXfXyXgXfXyXgXyXyXyXyXyXyXyXyXyXyXyXtXyXtXyXyXyXtXyXyXtXtXtXtXyXyXyXtXyXyXyXyXtXtXtX0XtXtXtXtX0XtXtXtXtXtXtXtX0XtX0XtXtX0XtXtXtX0X8XtX0X0XtXtX8X0X0XwX0X0X0XwX0XqXwX0X0XeXwXwXwXwXwXrXwXwXwXqXwX7X&X%XP.e.9.#.+.#.M # # $ O X . $ X $ . . P OX=XCXsXnXzXgXgXvXgXvXvXgXvXsXzXzXzXgXzXeXgXzXaXaXaXaXaXpXdX1X;X2XOXU.L.>.d s O   $   . . . O O O & O O = & r #.#.`.sXsXNXmXmXBXBXBXbXBXBXNXVXVXBXBXBXBXVXBXBXBXBXBXBXBXBXBXBXBXVXBXBXBXBXBXBXBXhXBXBXBXBXBXBXhXBXBXlXBXBXBXBXBXBXBXBXbXvXmXbXBXvXBXbXbXbXlXbXvXBXvXbXbXvXvXMXvXvXvXmXvXnXvXmXmXvXmXnXvXnXzXvXsXeXaXqXqX;X:X#X}.|.}.(.`.P.D.D.V.z.h.s.q.e.8.1.>.,.#.o... . ._ _ ..O.O.O.#.#.#.%.5.>.,.' ' c - - O X O O @ $ @ # O ~ :X:XnXnXnXxXnXxXnXnXnXnXnXvXvXMXnXnXmXNXNXmX9XqX_.g.h.3.=.1.$.-.-.4.9.9.i.h.h.c.A.Z.P._._.=XqXuXjXjXnXCXmXmXnXnXnXnXmXmXmXmXnXmXbXmXmXnXbXvXMXmXmXMXvXBXBXBXBXMXBXmXmXbXbXMXbXvXNXBXvXmXmXmXmXmXmXMXMXBXNXmXmXbXBXmXvXmXBXvXBXvXbXbXbXmXvXNXBXNXNXNX;X;Xz.Y.(.;X>X2X2XB.B.r % X X ",
"BXmXmXvXvXmXmXmXVXbXVXbXBXmXmXBXBXmXBXmXVXBXmXVXmXBXmXVXmXBXmXmXmXbXmXbXmXBXmXbXmXBXbXBXBXBXNXBXBXBXBXBXBXBXBXBXbXBXbXbXmXbXbXbXmXmXmXmXvXvXmXNXmXMXNXNXAXMXnXAXMXMXnXnXMXnXsXxXcXpXzXaXpXpXeX1X1X;X+X XT.v.V.<._ ( F z k i 7 7 4 # + + O o + + # $ @ $ # @ # @ & : : & * & : & & & # & & # & # & * D {. XdXiXsXsXfXfXfXfXfXfXfXfXfXfXfXfXfXfXgXhXtXfXhXyXyXyXyXyXgXgXyXfXgXyXyXyXyXyXtXyXyXhXtXyXyXyXyXtXtXyXyXyXyXyXyXyXyXyXtXyXyXyXtXyXyXyXyXtXtXtXtXtXtXtXtXtX0XtXtXtXtXtXtXtXtX0XtX0XtX8XtXtX0X8XtX8X0X0XtXwX0XeXeXwXqXwXrXwXrXwXrXqX0X5X$X$XoX`.).P.Z.n.a.1.1.@.O.#.#./ ` n @ @ $ X O O O X O @ # %.uXqXnXgXgXvXgXvXgXhXvXgXvXgXzXrXvXgXlXyXvXyXrXyXrXyXeXpXaXaXaXaXpXpXuXpX1X_ O.O       .   O X X O = & s >.>.+XeXeXnXNXNXNXmXBXBXbXVXVXmXmXBXVXBXVXBXBXBXVXBXBXBXBXBXBXBXBXBXBXBXBXBXBXBXBXhXBXBXBXBXBXBXBXhXBXBXBXBXBXlXbXbXbXvXBXBXbXmXBXBXbXBXmXBXbXBXbXBXvXbXlXBXlXvXbXbXlXvXbXvXvXvXBXBXvXmXmXbXmXmXmXvXmXmXnXvXnXvXvXvXvXgXgXpXiXrXeXqXrXrX0X9X9X<X9X:X&X<X&X%X$X@X@X@X#X@X@X@X+X+X@X X+XOX X{.OX X X].v c X O O @ O $ # O # P :X:XxXxXnXnXnXnXnXnXnXnXnXnXnXnXnXnXnXqX7XP.9.9.<.$.$.#.@.@.@.$.$.$.#.$.$.-.$.=.1.=.2.-.-.7.p.i.l.K.H.].#X#X7XiXiXgXjXjXnXmXkXmXnXvXvXmXbXvXvXmXmXBXMXvXMXBXxXBXBXmXmXMXbXbXBXBXBXBXmXNXmXmXmXmXBXBXmXmXnXnXmXBXvXBXvXmXBXBXvXBXvXBXvXbXmXvXvXrXrX%XZ.Z.d.B.B.OX<X2XOX] ' & % X = ",
"VXbXBXbXBXBXmXBXmXVXmXmXkXVXkXFXmXVXmXVXmXVXmXVXVXmXmXmXmXBXmXBXmXmXmXBXBXmXBXBXbXBXmXmXmXBXbXBXbXBXVXbXbXbXbXVXbXbXVXbXbXbXBXbXbXbXbXbXBXBXbXmXmXmXMXnXNXnXAXnXMXMXnXAXMXCXMXNXAXNXMXNXZXAXAXMXCXNXmXNXMXCXnXnXnXnXsXwXqX7X-X=X|.].!.P.n.c.7./ ' C a a 4 # # @ O # & & & & = & & & @ & & @ & = r n ].dXdXiXaXdXsXfXfXjXfXfXfXfXkXfXfXfXgXfXfXhXfXfXfXfXtXhXtXyXtXhXtXyXhXtXgXtXtXtXhXhXyXtXyXyXtXtXtXtXyXyXyXyXyXtXyXtXtXrXrXtXtXtXtXtX0XyXyXhXhXhXyXhXhXhXhXyXhXtXtXhXyXyXtXtXtXtXtXtXtXtXtX0XtX0X0X0X8X0X0X8X8X5X*X&X+X_._./.P.A.D.j.s.s.y.3.y.2.-.4.-.$.o.o...O.O.' ' ] D R 4 $ @ $ $ O o X   . 0 0 c.sXgXgXgXgXgXgXhXyXlXlXgXgXgXyXlXyXyXlXyXyXgXyXgXgXyXgXiXaXaXaXaXiXaXaXaXuXQ E $ $ $     o O O O r 8.8.%XcXxXMXNXMXNXNXNXmXmXmXBXBXBXmXkXBXVXBXBXBXBXVXBXBXBXBXBXVXBXbXBXBXBXBXBXhXBXhXhXBXBXBXlXBXlXlXlXBXBXBXBXhXBXBXBXBXbXbXBXbXbXBXvXBXvXBXvXBXvXBXbXbXbXBXbXbXbXbXBXvXbXvXvXvXvXMXmXmXvXmXmXmXnXnXnXvXnXbXnXvXnXnXnXvXnXgXvXgXhXgXgXgXgXiXrXrXaXyXrXrXrXrXrXrXrXrXrXeX0XeXeX0X0X<X0X9X&X;X%XOX%XOXOX=X;Xq.q.X X X $ $ O @ $ # E -X-XnXnXsXnXnXnXnXnXnXjXnXnXNXnXgXgX`.3.e.<.$.$.$.$.$.;.$.;.*.;.;.$.$.$.#.$.$.#.=.;.$.$.*.;.-.&.-.2.-.2.4.7.u.d.d.x.S.S.^.$X#X&X9X9XwXpXrXvXmXnXmXMXNXBXNXBXNXNXVXNXVXNXDXNXNXNXNXNXNXNXNXAXNXNXNXNXNXNXNXNXNXNXBXNXvXNXnXmXNXBXBXnXMXMXbXnX:XT.W.x.d.w.d.s.w.z.B.V.] , < @ X X . ",
"bXmXBXbXBXBXmXBXmXmXmXVXmXmXVXmXVXkXVXmXmXmXVXmXmXmXNXmXmXmXmXBXmXbXmXBXbXmXBXnXBXbXBXmXBXbXVXbXBXBXbXbXbXmXbXbXbXVXhXbXbXBXbXbXVXmXbXbXBXBXbXmXmXmXmXNXAXNXMXAXnXnXZXnXMXnXNXMXnXNXAXNXNXAXnXAXNXSXCXSXNXnXCXnXnXnXsXwXpXqX%X-X}.!.].P.c.c.7.( / C a a 4 # # @ O & = & & & = & & % & @ @ & @ @ r p ].dXdXdXiXiXfXfXfXfXfXfXkXjXfXkXfXfXfXgXfXfXfXfXhXfXtXfXyXhXtXfXyXhXtXhXyXyXtXhXtXtXyXhXyXyXyXhXyXhXyXyXyXyXtXtXtXtXtXtXtXtXyXyXtXtXtXyXhXyXlXyXhXhXhXhXhXhXhXhXtXhXyXyXtXtXtXtXtXhXtXtXtXtXtXtX0X0X8X0X8X8X5X5X*X*X+X_._.G.G.D.S.C.s.g.s.y.2.2.4.2.-.$.#.o.O..._ ' _ %.I D 4 @ @ O X $ X   O $ 6 8 c.gXsXhXgXgXgXgXlXyXhXyXaXvXvXlXyXvXlXyXhXgXyXgXgXtXgXfXgXfXiXgXaXaXpXaXpXuX~ Q $ $ $   o o $ O @ r 8.8.%XcXxXCXMXNXMXNXNXmXmXmXBXBXbXVXBXVXBXBXBXVXVXBXVXBXBXVXBXBXBXVXVXBXkXBXBXBXBXBXhXBXhXhXBXlXBXBXhXhXBXlXBXlXBXhXbXBXBXbXbXbXbXbXbXbXbXbXbXvXvXbXBXlXbXvXlXlXbXlXbXvXvXvXmXBXvXmXvXmXBXvXmXvXvXnXnXnXnXnXvXnXmXvXnXvXvXhXvXjXgXjXgXgXgXgXgXrXrXrXrXiXrXpXrXrXrXrXrXwXrXrXqXrXeX0X9X;X;X;X%X%XOX%X3XOX3Xr.w.. O   X O $ O o + U -X:XzXnXnXsXnXgXnXnXnXnXjXnXnXMXaXsX(.e.i.<.$.=.$.$.$.-.$.$.$.;.*.;.$.$.$.$.$.$.$.$.$.-.$.$.-.-.-.-.-.-.4.2.7.d.f.x.S.S.`.#X#X&X9X9XqXrXaXvXnXmXmXBXNXNXNXBXBXVXVXNXBXNXVXNXBXNXVXNXNXAXNXNXFXNXNXNXNXNXBXNXNXNXNXNXBXBXBXmXBXMXBXMXbXvXbXvX<XP.W.c.d.d.w.w.w.v.V.V./ , e O X X X ",
"BXbXbXVXmXmXVXmXkXVXmXkXVXmXVXkXmXVXmXVXmXkXkXmXVXBXmXmXNXmXmXmXVXbXmXNXmXmXmXbXbXVXbXhXbXmXbXVXVXbXbXVXbXVXbXbXhXbXVXbXmXbXBXbXbXbXVXbXbXmXmXmXmXmXNXnXnXNXNXnXNXMXnXNXZXnXnXNXZXNXNXMXCXNXNXMXSXNXCXmXNXSXSXNXNXAXAXNXNXNXNXNXSXNXSXmXCXmXCXMXCXdXuXpX=X].].r._ z x 6 & & & & & & : X & @ & X D D dXdXdXiXjXiXfXfXfXjXjXfXkXfXfXkXkXfXkXfXjXfXfXhXfXtXfXyXfXfXfXyXfXfXyXhXhXtXhXtXtXhXyXyXyXyXhXtXtXtXyXyXyXhXtXhXhXgXgXgXgXfXtXtX8X8X5X5X'./.G.G.F.F.A.A.F.F.F.F.G.N.G.G.G.G.F.F.F.F.G.A.j.m.j.j.j.a.y.y.y.y.y.;.<.<.o.<.<.o.;.<.o.o.;.o.o.<.:.;.o.:.o...o.O...O._ +.#.' d d ; @ $ $ X O X X X X D D  XjXvXgXyXyXyXbXbXyXyXyXyXyXyXyXlXyXlXyXyXyXhXtXgXfXgXyXfXfXfXaXdXiXiXpXaX=X9 9 $   $ o o o o 6 6 q.cXcXMXMXMXAXMXMXNXMXnXmXmXmXmXmXmXbXVXBXBXBXBXVXBXBXBXVXBXBXBXBXBXBXBXBXBXBXBXhXBXBXBXlXBXBXlXBXBXlXlXBXlXBXhXBXhXhXlXbXbXbXbXbXbXbXBXvXBXvXbXbXbXbXbXbXlXbXbXbXbXbXbXbXbXbXvXvXmXvXmXmXvXmXnXmXnXnXnXnXvXnXvXnXnXnXnXnXnXjXnXjXmXjXnXjXjXhXgXjXhXgXaXiXsXgXlXaXiXgXrXaXaXgXvXgXaXiXiXqX9X>X;X%X;X;X3X3X3XU.U.: . . $ O X O + # J ;X=XnXxXnXnXjXnXnXmXjXjXmXSXNX0Xd.s.$.o.o.$.$.$.$.$.$.$.$.-.$.$.$.$.$.$.$.#.$.$.$.$.$.$.$.$.$.$.$.$.$.$.$.$.;.$.$.$.<.$.<.=.$.,.4.<.<.4.4.i.s.d.g.C.D.S.S.D.S.S.S.S.S.S.S.S.S.S.S.G.S.S.S.S.S.P.^.)._._._._._._.}._._._.@X_.@X+X.X+X@X_.`.`.+X`.`.L.z.z.d.e.q.8.' ` t % % O X . X ",
"bXVXkXVXbXbXmXVXFXkXVXFXmXVXmXVXSXkXkXVXVXVXVXVXSXmXVXmXmXmXNXmXmXBXmXNXmXmXmXmXBXbXVXVXbXVXbXVXVXbXVXbXbXbXbXVXVXbXbXbXbXVXbXbXVXbXbXmXbXbXbXmXmXmXNXNXNXNXNXNXNXAXAXnXAXNXZXNXNXNXnXAXnXNXMXNXnXNXNXNXNXmXNXNXNXNXNXBXNXBXVXNXAXmXmXmXFXFXAXAXDXDXAXZXSXCXSXCXeXI.Y.U = & & = X & & & @ & & O E E sXdXdXdXdXiXfXfXfXfXjXfXfXfXfXfXfXfXfXfXfXfXfXfXfXhXfXfXyXfXfXfXfXtXyXfXfXtXtXyXyXyXyXyXtXtXtXhXhXyXhXyX0X5X5X.XE.W.b.j.f.a.i.y.y.y.y.<.;.;.;.;.o.o.;.o.:.:.;.| | ;.;.X.;.;.:.:.:.:.;.X.;.X.o.o.X.;.;.X.;.| ;.o.o.o.o.o.o.;.o.;.o.;.;.;.o.o.;.o.o.o.o.o.o.O.#...#.+.%.E 4 0 # $ O O $ O O $   # %.&.uXjXgXyXbXbXyXyXyXyXhXhXgXhXbXyXhXyXhXhXyXhXyXhXfXhXtXhXjXfXgXiXjXfXpXiXuX8.o o o $ o     o O k z {.CXCXMXMXnXnXvXmXmXBXnXBXBXvXkXmXbXmXkXBXVXVXVXVXVXVXVXVXVXVXVXVXVXBXBXBXkXVXBXVXBXhXBXhXBXhXBXlXlXhXBXhXBXhXBXlXBXbXBXbXbXbXbXbXbXbXbXvXbXlXbXvXbXvXBXBXlXBXlXlXbXbXlXvXvXnXmXvXmXvXvXnXnXvXnXnXBXvXmXnXvXmXnXBXnXnXNXnXnXnXnXnXnXmXnXNXNXSXnXNXNXnXmXNXnXnXnXnXmXnXnXNXNXNXnXNXNXnXnXaX1X9X2X%X;X%XOX3XOXOX Xp . . X o $ O + o U =X;XxXnXjXnXnXnXnXnXnXnXmX}.}.1.o.o.$.,.$.$.,.$.$.*.$.-.$.$.$.$.$.$.$.#.$.$.$.$.$.$.$.$.$.$.$.@.$.$.$.$.$.$.@.$.$.$.#.$.#.@.o.o.#.@.O........... . . . .`  . . . .T  . .`  . . . . . .O. ...X.X.....o.X. . . .| ....o.o.o.o.$.;.=.o.<.o.e.e._.%X%XOX(.Y.J.V.V.r.>.,.g . . X O X X ",
"VXbXVXbXmXmXmXVXmXmXFXkXVXmXFXmXVXkXFXkXmXVXmXVXmXBXmXmXBXNXNXNXmXmXmXNXmXmXmXBXmXmXBXmXmXmXbXbXbXbXbXVXBXBXbXmXmXVXbXbXBXbXBXbXkXbXVXbXbXbXmXmXmXBXmXNXNXNXNXNXNXNXCXAXAXnXNXMXNXNXnXAXnXNXNXMXAXNXNXNXNXmXNXNXNXNXNXBXBXNXNXNXmXmXAXmXNXVXFXAXFXDXSXDXAXAXSXCXuXI.Y.E * * = & = & % & % @ & @ I E 1XcXdXiXaXiXdXfXfXfXfXfXjXfXfXfXfXkXfXfXfXfXfXkXfXfXhXtXtXyXhXfXtXfXfXtXfXtXfXgXyXyXtXtXtXtXyXhXhXhXtXyXwX5X5X'.G.Q.n.M.f.a.y.y.y.4.7.-.;.-.;.;.;.o.@.;.:.;.;.X.X.;.@.:.;.:.:.:.:.;.:.;.:.;.;.X.X.;.o.;.o.o.;.;.o.o.o.;.o.o.<.o.;.o.=.o.o.;.o.o.o.o.o.X.o.O...#...#.#.I 4 4 # $ $ X O @ $ o $ # %.%.1XjXsXgXyXlXhXyXyXhXyXhXhXyXtXhXhXyXhXtXhXyXhXtXyXhXyXfXfXgXfXfXfXjXiXiXwX6.o o $   o o o o O z z {.CXZXMXMXMXvXvXMXvXMXvXmXbXnXbXbXbXbXBXVXBXVXVXVXVXVXVXVXVXVXBXVXVXBXmXBXBXVXBXBXBXbXBXBXBXBXlXBXlXBXBXlXbXbXbXbXbXbXBXlXBXhXhXBXhXhXlXBXbXlXbXbXbXlXBXlXlXlXBXlXbXlXvXvXvXvXvXnXmXmXvXnXnXmXvXvXnXvXnXmXvXnXnXmXnXnXnXnXnXvXnXnXMXnXmXSXNXnXNXNXNXnXnXnXnXnXCXnXmXnXmXmXnXNXNXNXmXmXnXaX<XeX;X;X;X%X%X%XOX X Xp     $ O O $ O O P -X%XnXnXnXjXnXjXnXnXmXnXnX}.}.<.o.o.$.$.<.$.$.$.=.;.-.$.$.$.$.$.$.$.$.#.$.$.$.$.$.$.$.$.$.$.$.$.$.$.$.$.$.$.$.$.$.$.$.#.$.$.o.@.o.X.O........... . . . . . . . . . . . . . . . . . ... . .......O.X..... . . . . ...X.X.o.$.=.=.,.$.=.$.e.e.{.;X;X@X(.Y.J.v.c.d.>.,.s . . X X X X ",
"bXbXkXVXBXmXmXVXVXkXkXFXmXNXmXVXmXVXSXmXmXNXSXmXmXFXmXmXNXNXBXnXmXmXNXNXNXmXmXNXmXBXbXBXBXBXVXbXbXVXBXbXBXBXBXmXbXmXVXbXBXBXbXbXbXbXbXbXBXbXbXmXmXmXmXNXmXNXNXNXCXNXnXNXAXnXMXNXCXNXNXMXNXMXMXNXMXNXmXmXmXNXNXNXNXNXAXNXmXSXAXNXAXAXAXFXFXFXNXqXuXiXCXCXAXAXSXSXCXuXpX5., , = & % & & & @ & @ @ b x ,X2X>XqXiXiXiXfXfXjXjXfXfXkXkXfXfXfXfXhXkXfXfXfXfXfXfXfXfXfXtXtXhXfXfXfXhXtXtXtXyXyXtX0X0X6X'.G.G.j.y.y.2.;.:.;.;.:.;.;.;.;.=.=.;.;.;.;.;.;.;.-.;.;.-.;.;.@.;.;.X.;.;.$.;.;.;.;.;.:.o.;.;.:.X.;.;.X.o.o.o.;.;.X.o.X.o.;.o.o.o.;.o.;.;.o.;.$.o.;.;.o.o.o.X.O.#...' / ( s : : @ @ O $ @ O O $ $ a J.H.xXsXgXgXhXyXyXhXyXhXhXyXyXhXhXlXyXhXyXhXyXyXtXhXhXyXhXhXgXfXjXfXfXiXpX].].u o o o o $   o   O P F ,XMXxXzXzXzXvXvXbXlXvXvXvXhXhXhXhXhXgXhXhXhX5X5X'.*X'.'.'..X'.'.'.'.'..X$X$X$X5X0X0XtXlXhXBXBXBXhXhXBXBXlXbXbXbXbXlXlXhXBXhXhXBXhXBXhXvXbXbXvXlXbXvXlXlXlXlXBXlXBXlXlXvXvXvXmXnXvXvXBXmXMXvXmXMXmXnXnXvXvXvXnXnXvXvXnXnXnXnXmXnXnXnXmXnXjXvXvXgXsXsXiXwXrXiXqX7X6X:X$X$X#X#X@X.X@X+X@X@X|.}.}.`.(.`.Y.{.+X XOXOXe $ . O $ @ O # O U =X%XnXjXnXnXnXnXnXnXqXwXx.+.o.o.$.$.,.$.$.,.=.,.$.$.$.$.$.$.$.$.$.$.$.$.$.$.#.#.$.$.$.$.&.$.#.,.#.#.&.$.$.@.$.$.o.$.#.,.#.#.@.#.@.#.#.#.@...O...O.O. .X... . . . . . . . .X. . .....O.+.X.X.X.X.X.o.o.o...X.X.X.o...X.@.$.$.$.$.=.,.=.,.$.$.9.P.L.OX;X#X|.Y.Y.B.8.8.I , , O X O X ",
"tXgXyXhXjXkXjXkXmXbXjXhXvXfXyXtXtXwXfXfXrXgXyXvXsXgXnXhXvXvXvXlXhXnXvXnXvXvXvXBXvXvXmXvXvXmXBXvXbXbXhXbXvXbXBXBXbXbXbXbXbXbXbXBXbXbXbXbXBXBXmXBXmXmXmXnXBXnXNXnXmXNXNXnXNXNXNXMXMXNXMXNXNXNXmXNXnXmXnXNXNXmXmXnXhXvXhXgXgXiXwX0X$XoXoXP.l.x.&.U U Q ( [ -.0.w.Z.U.U.R.' , , # & & X % @ X & & @ 8 0 5.0.w.k.J.D.oX6X8XtXfXfXfXfXfXfXfXfXfXfXfXfXfXfXkXfXgXfXgXfXfXtXtXtXwXtX0X5X5XoXE.E.j.3.4.;.;.:.;.X.X.;.;.$.-.;.;.;.;.-.;.-.-.;.-.;.-.;.-.;.;.-.-.;.-.;.*.-.;.o.;.y.;.;.$.;.;.@.;.:.;.o.;.$.;.o.o.;.o.;.o.o.o.;.o.o.o.o.o.o.o.;.o.o.o.o.o.o.o.=.o.$.@.X.o.#...#...c c 0 & # @ @ X - $ @ @ $ O E OX3XjXiXfXgXbXyXhXlXyXyXbXhXtXhXtXhXhXyXtXhXhXyXyXyXtXhXtXhXgXgXgXfXfXfX7X....O o o o           O P T <XxXMXzXvXzXvXvXvXvXvXvXvXvXhXhXhXhXhX8X8X'.G.G.G.N.m.F.C.A.A.G.F.m.F.F.F.K.A.G.G.S.W.N.G.*X'.'.'.N.'.'._.'.+X'.5X'.5X0X0X0XtX0XlXlXlXlXyXlXyXyXrXyXlXlX0XlX0XtXlX0XyXwXrXrXrXrXiXrXrXeXwXrXwX6XqX:X:X;X&X@X*X}.`.(.(.P.Z.Z.x.g.h.e.4.1.<.#.,.@.+.+. . . .{ T ^ ^ ! ^ ^ Y T ^ ~ Y T ` T ^ ^ ^ ^ ` ` O.8.>.B.r.r., . $ $ O O O O # F %X#XnXjXnXjXnXjXjX@X8.3.$.$.o.$.$.$.=.$.$.=.$.$.$.$.$.$.$.#.$.$.$.,.o.$.$.$.$.$.$.$.$.$.$.$.$.$.$.#.$.$.$.#.$.#.$.$.$.$.$.$.#.$.$.@.@.$.#.$.+.#.$.o.o.#.o.o.o.o.o.o.O.o.o.X.O.X.#.+.$.o.#.+.o.+.X.O.O.+.X.+.O...O.O.X.#.@.o.#.$.$.o.o.O.o.o.O._ .._ ,.&.6.>.6.#.' ' _ v c : @ X X ",
"tXgXfXhXhXhXmXmXkXnXnXhXgXyXgXtXrXrXrXfXaXyXgXyXgXsXvXgXvXvXvXlXvXhXnXvXmXBXvXBXnXhXmXbXbXvXbXbXbXbXbXkXmXBXvXlXbXbXbXhXbXbXbXBXbXbXbXbXvXmXmXNXmXmXnXmXNXnXmXmXnXnXNXNXnXNXMXMXNXMXNXMXNXNXNXmXNXNXnXNXNXnXmXbXnXnXgXaXgXiXqXwX-X}.oXK.c.l.-.T Q ! [ } &.w.p.B.T.R.R.' , , O @ & & @ & & @ & @ , < 5.0.w.k.J.J.oX6X6XiXiXfXfXiXfXfXjXfXfXfXfXfXfXhXfXfXfXgXfXgXhXtXhXfXtXwX0X5X5X.XE.W.j.4.y.;.;.:.;.:.;.o.;.;.;.;.;.;.;.-.;.;.;.-.;.-.;.;.;.;.-.;.-.-.;.;.-.;.;.;.;.| *.;.$.$.@.;.;.;.$.;.o.;.o.;.o.o.o.;.<.o.;.o.o.;.o.o.<.o.;.o.<.o.;.o.$.o.o.o.$.o.@.#.o.o.+.+.+.c c 0 # ; @ $ $ @ $ @ @ @ O F 3XOXsXgXaXgXyXhXyXyXbXyXyXyXhXlXhXtXhXhXhXtXyXhXhXyXyXtXhXtXfXgXfXfXjXiX7X+...+ O o o o         o U W 2XMXcXzXzXzXvXvXvXvXvXvXgXgXhXhXhXhXhX8X8X'.G.Q.G.F.F.F.C.A.A.F.F.F.C.F.A.A.F.G.G.P.E.N.'.G.*X'.'.'.'._.'.'.'.'.5X5X5X0X5X0XlX0XtXlX0XyXlXlXyXyXlXyXyXlXlX0XlXtXtXlXyXrXrXrXaXrXgXrXrXrXwXqXqXqX0X:X&X&X#X@X*X_.^.`.W.P.D.D.v.h.h.s.3.3.,.$.$.@.O.+... . .{ { ! ^ T ^ T ^ T ^ T T T T T ^ ^ ^ ` ` ` _ >.>.V.r.r.: . . $ O $ O + o P =X#XjXnXjXnXjXnXnX.X3.3.$.@.$.@.;.$.$.;.$.=.$.$.$.$.$.$.$.$.$.#.&.$.$.o.$.$.$.o.,.$.#.#.$.$.$.#.$.$.$.$.#.$.$.$.$.$.$.#.$.$.$.$.#.$.#.@.$.$.$.$.o.o.$.$.o.o.O.o.o.o.o.O.o.o.O.+.o.@.o.@.@.@.+.O.O.O.X.X.#.o.X.O.X.O.O.o.@.@.@.$.#.#.@.#.@.O.+.+...#.&.&.5.6.>.,.' ] _ c c : # O X ",
"!.!.!.W.!.^.`._.`.K.g.j.3.<.-.-.<.=.;.4.=.4.4.4.4.3.3.s.h.h.V.j.z.b.C.b.C.S.S.G.^.^./.`.^.`.`.`.)._.}..X*X#X&X&X5X&X5X5X5X5X5X5X5X5X&X5X5X5X9X5X:X&X&X:X&X$X&X&X-X$X$X$X%X$X*X@X@X}.}._._.+X_.).`.W.S.S.C.f.f.9.-.1.;.X...| ^ ^ Q Y ! Q ! ^ ) / ) ) / _ / ( ` / D e r & & O @ & @ & & % @ & @ @ * & ` 8.8.>.>.1.6.l.f.W.XXXX8X0XtXiXwXtXfXtXfXfXtXtXfXwXtX8X8X8X8X*X4X).m.m.i.;.;.;.o.X.o.;.;.;.;.;.;.o.=.;.;.;.;.;.;.-.;.;.;.-.;.-.-.;.;.-.;.-.;.-.-.;.;.-.-.-.;.<.=.$.;.$.;.$.;.@.$.;.@.;.;.$.;.o.o.;.o.<.;.o.o.;.o.<.o.o.,.;.o.o.o.=.o.=.o.o.o.$.o.$.#.o.@.#.@.#.I r n w @ @ @ $ $ - $ @ $ > > t.pXiXaXgXiXgXyXlXhXyXlXyXyXhXtXtXhXhXyXhXyXhXhXgXhXfXhXgXfXhXjXfXfXfXiXiXH.q r o o o o           @ P P 2XMXcXzXvXzXvXgXvXhXvXvXvXhXhXjXgXgX8X_.[.).).Q.Q.!.W.W.E.W.G.G.E.P.W.E.W.W.P.P.W.P.W.G.G.G.G.G.G.G.G.G.G.^.G.G.G.G.G.G.C.C.y.N.o.;.<.<.y.y.y.4.y.3.3.y.y.y.y.4.y.4.y.4.4.4.4.4.4.<.<.<.;.o.o...o...{  .T T T T  .{ T T T ^ T T  .T ^ T { ^ T ) ^ ^ ^ T T T T T T ^ Y ^ T Y Q T T T T T ^ ~ T T ~ T T T P g & > O O $ O O @ $ # + F #X#XjXjXjXnXsXgX`.o.X.X.o.@.@.o.$.o.$.=.$.$.$.$.=.$.,.$.$.$.$.&.#.$.$.#.o.$.$.$.$.$.$.%.$.$.$.#.&.$.$.$.$.$.$.#.$.$.$.$.&.$.$.#.$.$.$.$.$.$.$.$.$.$.o.$.$.o.o.o.o.#.o.o.o.o.#.@.o.@.@.@.#.@.o.#.o.+.O.O.X.#.+.o.+.O.X.O.X.+.+.+.+.O.O.O.X.O..._ ....' _ +.+.#.' ' ' _ v v > O O X ",
"W.!.!.W.K.G.A.l.f.u.=.<.;.o.o.o.o.;.o.o.X.X..... ...O. . . .o. .X...X. .O. .O. .....O. . . . ....... .O.O. . .X. .X. .O.O.O. .o.X.X.X.X. .O. . ... . .}  .^ ^ { { ^  .^  .^ ^ ^ ^ ^ ^ ^ ^ ^ ^ ! Q Y Q ^ ^ ^ ^ ^ { { ( } ^ } } ( } X...' ...._ _ _ _ _ _ _ .._ _ A , , = @ = @ & @ @ & O & @ & @ & & A q.q.4.1.>.-.-.-.1.9.u.f.A.H.!.oX_.XX.X.X'.~.~.~.W.W.M.a.a.y.;.;.;.;.;.$.$.o.=.=.=.=.;.$.=.;.o.$.;.o.;.=.$.;.-.;.-.-.-.*.-.-.;.$.;.-.;.-.*.;.-.-.;.-.*.$.&.<.;.$.&.$.$.$.$.;.$.-.$.$.;.$.;.;.;.<.o.;.o.$.<.o.;.o.<.<.o.o.o.=.=.;.=.=.o.o.<.=.o.$.o.$.o.@.O.( ( f 8 0 0 $ $ $ @ @ $ @ X $ j l U.sXsXaXiXfXgXhXyXyXhXhXyXhXlXlXhXlXyXhXyXhXyXfXfXjXjXgXjXjXjXfXiXfXuX|.oX! + # o o o o   $ o   O O W W 1XcXMXzXaXzXgXgXhXgXhXgXvXjXjXfX6X6X[.).[.).(.).).).^.^./.^././.^.!.(.^.^.!.!.(.(.^.(.`./.'.G.G.G.G.*X^./.^./.G.G.G.G.y.j.<. . . .Y { T Y T Y T T Y T T T T K T T T Y Y Y Y ^ { T T { T  .T { ^ T { T  .T { { { T { T ^ T T ` T `  .T  .T ` ^ ^ ^ ` ^ {  . .{ { { ^ ^ ^ ^ ^ ^ ^ T T ` T T T ^ ^ T ~ ~ ~ ` i . o $ O $ @ $ O $ o # J #X#XvXnXnXgX).).$...o.o.o.$.o.$.$.$.;.=.$.=.$.$.,.o.$.$.,.$.$.$.$.$.$.o.,.$.$.#.$.$.$.$.$.$.$.$.$.$.#.$.$.$.$.$.$.$.#.$.#.$.$.$.$.$.#.$.$.$.#.$.#.$.,.o.o.o.O.#.o.o.o.o.,.o.@.O.#.o.#.O.o.#.@.o.#.o.@.+.O.X.O.+.O.#.o.+.+.+.@.+.+.O.O.O.....#.#.O.+.+.#.+.+.' #.%.] / s a - X @ O ",
"/.!.^.W.E.K.A.f.l.u.1.1.o.o.o.o.o.o.X.o.X.o...o.o. . .O. .O. .O. ....... . .O.O. .O. ...O... .O. ... . . . . .O.o. .X. .O.O. . .X.X. . . . .X. . . .} { { ^ { { ^ { { { ^ { ^ ` ^ ) ^ ~ T ! ^ Q ^ Q Q Q T ^ ^ { ( ( } ( } } ( } ......} ( [ } _ _ _ _ _ _ _ ' / A , , = O @ @ O @ & X X X & % @ & O A q.q.1.>.1.-.1.-.1.7.9.f.Z.m.Q.oXoX.X.X.X'.).oX~.Q.W.n.a.a.-.-.;.-.;.@.;.;.;.$.=.=.=.=.=.=.;.;.o.=.=.;.$.=.$.-.;.-.;.-.*.;.;.*.-.;.*.-.;.-.-.;.-.-.;.;.$.$.o.$.$.$.$.-.$.$.$.-.$.;.$.;.$.$.;.<.o.;.;.;.<.o.<.;.o.o.o.o.o.;.o.;.$.;.o.=.;.,.o.$.$.$.@.O.o.#./ ( l 0 9 < @ @ @ $ $ @ $ @ $ l l J.sXsXaXgXgXgXyXhXlXyXhXyXhXyXhXtXhXtXyXhXhXfXhXgXjXfXjXjXkXfXfXfXiXqX[.oXJ + + o o o o o o o   o O P T 1XnXxXzXvXzXgXvXgXgXjXhXjXgXnXgX6X6X[.[.).).).).!.`.(.`.^./.^./.^.^.^.^.(.^.^.(.(.^.!.^./.'._.G.*XG.G./.^./././.G.G.G.N.y.<.|  .Y { Y Y T Y Y T Y T Y Y Y Y Y T T T Y Y T T ^ T { T { T T T T T { ^ T T  . .T T  .T  .T  . .T  .T T T T ` T { ^ ^ T ` { T T { { T ^ ^ { T ^ T ` T T ^ ^ T ^ T ~ ^ ^ T ` ^ y o o o $ # # $ @ $ O # P #X#XnXnXnXgX`.).$.X.o.o.@.@.$.$.@.$.$.$.;.=.$.=.$.=.$.$.$.$.$.$.#.$.o.$.$.$.#.$.$.$.$.$.$.#.$.$.$.$.$.#.$.$.$.,.$.$.$.$.$.$.#.&.#.#.$.#.$.$.$.$.o.o.$.#.#.o.o.o.o.#.o.o.#.o.#.O.@.#.@.@.#.@.O.o.@.#.X.@.#.O.X.o.+.O.+.O.#.@.X.+...O.+...O.O...#.....#.#.+.' +._ %.] / a s # X X X ",
"^.).^.).^.).!.).^.^.P.E.C.f.f.u.3.3.-.-.;.<.o.o.o.o.o.O.o.o.o.o.o.o.o.O.o.O.O. .O.o.O.O.o.O.o.O.O.O.O.O.O.O.O.O.O.O.O.X.O. .o.o. .o.o.O.o.O.o.O.X.O.O...O.X.O...O........... ... ..._ ..O...........X.........+...+...+.+...+.+.+.} +.[ +.' _ ' _ _ _ ' _ ' _ ~ g & : & & = @ & @ @ @ & & & & @ O & e >.>.8.1.>.6.-.1.-.1.=.=.1.-.-.4.2.7.2.y.;.;.;.;.-.;.*.;.$.;.;.;.;.$.;.-.$.$.=.=.$.$.=.$.=.;.<.<.$.,.=.=.=.-.$.&.*.$.-.-.-.&.-.-.-.-.-.$.-.-.-.-.$.-.-.&.&.<.$.1.$.&.$.$.&.$.$.-.$.;.$.$.;.;.o.<.;.o.<.;.;.<.;.o.<.,.;.<.,.=.=.$.$.=.$.o.o.<.o.o.$.#.@.@.O.C C 7 0 0 ; $ - $ - $ @ @ O ; ~ ~ ,XsXsXsXaXfXgXyXhXhXhXyXhXyXyXhXhXlXhXgXgXhXgXgXjXjXfXiXiXiX8X6X-X-X).0.0.u + o o o O   o o       X W I <XxXxXsXvXzXvXhXgXhXgXhXgXgXgX-X[.[.].).[.].[.].].[.(.).^.)./.`.).).(.(.(.).(.(.(.(.).`.).G.'.'.G.G.5X)././././._.G.C.;.y.X.|  .{ {  .Y  .T { { { T Y Y { Y { { Y { Y { ^ T { T { { T  . .{ {  .T  . .{  .T {  .T { `  .T `  .T  . . .T { ` T ` ^ ^ ^ T {  .T { { ^ { ^ ^ ^ ^ T T ^ T T ^ T ^ T T ^ ~ / / d o o $ O O $ O $ # O # P #X#XjXjXnX@X4.4.o.$.o.;.o.$.o.$.$.$.$.$.&.$.$.$.o.,.$.#.&.$.$.$.$.$.#.$.o.$.$.#.$.$.$.$.#.$.$.$.$.,.#.$.$.$.#.$.$.$.&.#.$.$.$.$.$.$.$.$.$.$.$.$.,.$.#.o.,.o.o.#.o.o.o.o.o.@.O.o.#.o.O.@.o.@.O.#.#.X.O.X.+.O.#.+.o.X.#.X.@.+.@.+.+.+.+...O...O...#.+.+.+.+.#.+.%._ ' v , > ; @ @ @ ",
").!.!.~.!.!.].~.~.~.~.~.~.~.[.H.W.P.Z.m.n.c.d.p.3.4.4.<.=.,.$.#.#.@.$.#.o.O.o.o.X.O.X.+.X.+.O.X...O.O...X.O.O.@.O.@.+.o.O.@.X.+.+.+.+.+.+.+.+.+.+.+.+.X.+.X.O.+.......+...+...+.+...+...+...+...+...+...+...+...+...+.....+.+.' +.' ' +._ +.' _ ' _ ' ' ] / ] I 8 = = & @ & @ @ & & % % & % & % @ O * I I 6.5.1.>.1.1.1.1.1.1.=.-.-.-.;.=.=.=.-.=.=.;.-.-.-.-.-.&.;.;.-.$.-.;.-.-.;.$.-.-.;.=.=.-.-.$.;.-.*.-.$.$.-.;.-.=.&.1.$.$.-.$.1.-.=.1.$.=.&.&.$.-.&.&.=.1.$.$.1.-.$.-.$.-.-.-.-.$.&.$.-.*.-.;.-.-.$.-.$.-.$.-.*.$.-.$.&.$.$.=.$.$.$.=.$.$.<.$.$.$.@.#.T n d 0 0 0 : X $ @ $ - @ @ $ 0 7.q.dXsXsXfXfXjXfXgXgXgXhXhXiXwXwXwX0X0X0X6X6X5X&X$X$XoX|.).W.W.J.Z.l.l.6.} ..7 o O o o o o o o       O D D 3XxXxXvXsXgXvXgXgXhXkXgXfX6X6X_.~.).[.[.).[.[.~.).).[.'.).~.'.~.'.~.~.oX~.~.~.~.~.'.~.).~.~.~.~.Q.Q.~.Q.'.Q.~.).Q.Q.Q.F.m.j.y.y.;.| :.| ! { Y { { { Y { { ! ! { ! { ! { ! { { { { ! ! { { ! { { { { Y { ^ { ^ { ^ ^ ^  . .T  .{ T { T { { T  .{ { T  . .Y  . .Y  .{ { T  .Y { T { T T T  .{ T  . .T { / ` g o O o $ # o # $ o # + U -X=XjX6X6Xh.$.o.@.o.;.$.$.$.$.$.@.$.$.$.$.$.o.,.$.o.$.$.$.$.$.$.$.=.$.$.$.$.$.$.$.,.&.$.$.$.&.#.$.$.$.,.$.$.$.#.o.$.$.$.,.$.$.$.$.$.$.$.$.$.$.&.$.$.#.o.#.o.O.o.O.+.@.@.O.@.@.@.#.+.@.@.@.*.+.+.@.+.+.O.+.+.X.+.#.+.#.+.+.+.+.#.#.+.+.O.+...#...+.+.+.+.+.] +.' W W 8 : : & @ @ X ",
"].!.~.!.[.~.~.~.~.~.~.~.~.].~.~.!.).(.).~.(.W.I.P.Z.D.x.g.g.h.7.9.3.=.$.o.o.O...O.X.O.O.O.+.X.+.+...X.O.+.X.+.o.+.+.O.+.+.O.@.+.+.+.+.X...X.+...+...+.+...+.+.X.+.+.+...+...+.....+...+...+...+...+...+...+...+...+...+.+.[ +.+.+.+.+.' ' _ +._ _ _ ' ' ] / / x * & @ @ @ @ @ & % & : & & & @ @ & @ @ t 8 / >.5.1.>.>.>.>.>.&.1.-.-.=.-.=.=.=.=.=.=.=.-.-.$.-.&.-.-.-.-.-.-.-.-.-.-.-.-.=.-.=.=.;.$.-.$.-.-.$.;.;.-.$.-.-.-.$.-.1.$.1.$.&.&.$.1.1.-.=.1.=.=.-.-.$.-.-.$.&.1.$.1.$.-.*.$.-.;.-.$.;.$.-.*.$.-.$.=.*.-.;.-.-.$.-.;.=.$.$.=.$.$.$.$.$.$.$.$.$.^ / k 7 7 0 0 0 : - $ @ $ $ @ O $ j U.I.sXsXjXjXjXgXjXnXgXiX%X$X^.D.S.Z.b.l.h.s.s.i.4.3.1.-.=.$.X.+.O.+..... .( / 2 o o o o o o   o         G D =XnXxXsXsXvXgXhXjXhXgXgX6X[.~._.).[.~.[.).[.).~.).).).~.Q.~.~.~.~.~.Q.Q.Q.Q.oXQ.Q.Q.~.Q.'.Q.'.~.'.).~.).).~.~.Q.).).Q.).).Q.Q.Q.m.a.j.y.y.2.;.;.;.X.X...| | { { { ! { { { { ! ! { { { Y { { ! { { { { ^ { ^ { { ^ ^ { ^ ^ T { { { { { { { { { T  .T { Y  . .Y  .Y Y {  .Y  .Y Y { T { T Y T T Y T T T _ ^ z o o O # o # o o # O # P ;X-XpXK.P.&.@.$.$.$.$.$.o.$.o.o.$.$.o.$.o.$.$.o.$.$.$.$.$.$.$.,.$.,.$.$.&.$.&.&.$.$.$.&.$.$.$.$.>.&.$.$.$.o.$.,.$.$.#.$.#.$.$.&.#.#.$.#.$.$.$.#.$.$.$.#.o.o.o.O.o.O.o.#.o.@.#.+.#.#.@.@.#.#.@.@.@.@.+.#.@.#.O.+.O.o.+.#.O.+.#.#.@.+.+.+.+.#...#.+.%.+.+.%.%.*.' j b > : & @ X X @ ",
"~.!.].~.!.!.~.~.~.~.~.~.~.~.~.].!.~.].~.).!.!.!.K.Z.A.c.g.g.d.9.9.4.=.-.o.O.X...X.O...X.X.+.X.X.X.O.O.X.O.X.+.+.o.#.+.o.o.#.X.O.@.X.+.+.+.+.X.+.X.+...+.+.+.+.+.+.+...+...+...+.+...+...+...X...+...+...+...+...+...+.....+.+.+.+.' +.' +.' _ +.' ' ] _ ] W _ v , & @ @ @ @ @ @ O & & : & X @ = O & & 7 e / >.>.>.>.>.>.>.1.-.=.-.-.-.=.=.=.=.=.=.=.;.&.-.$.-.-.&.;.-.-.-.;.-.-.-.;.-.-.=.=.=.=.-.*.$.-.;.-.$.-.-.*.-.$.$.-.1.$.$.-.$.-.=.-.-.$.$.-.1.$.&.=.$.-.1.$.$.-.=.-.1.$.-.$.;.$.$.-.$.-.-.-.$.-.-.$.$.-.;.-.-.$.$.-.$.&.-.$.$.-.$.=.=.$.$.$.;.$.@.) ^ k 7 8 0 0 < - @ X @ $ @ $ $ @ l U.U.sXjXsXjXfXgXgXgXvXwX#X%X^.S.A.Z.x.b.f.d.s.9.7.3.1.=.&.$.+.@.X.+.......( / 4 o o o o o o o           C D =XxXxXgXvXgXjXgXvXhXgXgX6X).'.).).'.).).[.).).).[.).).~.'.~.'.~.'.Q.'.Q.'.~.'.~.'.~.~.Q.'.Q.~.~.~.~.).).Q.~.Q.'.~.).).~.~.Q.Q.Q.m.f.j.y.-.-.;.;.;.X.| | } | { { { { { { { { ! ! { { ! { ! { { { { { ! ! { { ! { ^ ^ ^ {  . .T T  .{ { { { {  . .T  .{ { Y {  .Y  .Y {  .T T { T T  .T { Y T { { T { T ^ ` h o o O O # $ # # o O O U =X-XpXK.J.=.o.o.$.o.$.$.$.$.$.$.$.$.$.$.@.$.o.$.=.o.o.;.$.$.$.$.$.$.$.$.$.$.$.$.$.$.>.$.$.$.&.$.,.#.$.$.$.o.$.o.$.$.$.#.$.$.$.$.$.$.$.&.$.$.#.$.#.$.o.o.o.o.O.o.O.o.#.o.#.#.@.#.@.@.#.@.#.@.#.@.#.#.O.+.+.+.O.+.+.O.+.+.O.#.+.@.+...#.+.+...#.' +.+.*.+.+.%.*.' j j > @ - @ @ X X ",
"!.!.~.!.~.].].~.[.~.].~.~.!.!.~.).~.~.~.!.).).(.)./.^.^.W.^.!.P.E.Z.l.f.i.4.4.=.X.X.X.O.X.X.+.X...O.O.O.X.+.X.+.O.X.O.+.X.O.O.#.X.+.O.+.+.X.+.+.+...+.+.X.+.+...+.X.+.+...+.+.X.+.+...+.+.+.+.+.+.+.+...+.+.X.+...+...+...+.' +...+...+.' #.' +.+.' _ _ ] W W s & % = & O & @ @ & & j j > & & @ = # O + * r ~ ` >.>.>.,.,.&.>.1.=.-.;.-.=.=.=.;.;.-.-.-.$.-.$.-.&.-.$.;.-.-.$.-.-.$.;.-.-.=.=.=.-.;.-.;.-.*.-.-.;.-.;.$.-.-.=.&.$.-.1.$.1.$.-.$.1.$.$.-.$.1.-.=.$.-.1.$.1.$.$.-.-.-.-.$.-.$.=.&.$.;.-.$.;.-.&.=.;.-.$.;.-.$.-.&.$.$.;.$.$.$.$.$.$.$.$.$...Z V r 0 0 n < < - $ @ $ - $ @ @ ; R 3X3XsXsXjXgXjXjXjXiXuX(.7.7.+..... ..... .......| ..| ....| ..} ...._ .._ _ ( 6 o o o o o o o o         k c  XjXxXsXsXjXhXjXgXgX7X8X.X).).).).).).].[.).).).).).).Q.'.~.~.'.~.Q.~.Q.~.Q.Q.Q.'.~.~.~.~.~.~.~.Q.'.Q.~.).~.Q.Q.~.~.).~.~.~.~.~.~.Q.Q.Q.G.G.F.b.m.j.a.a.u.2.-.;.| X.{ { { { { { { { { { { { { { { { { { { { { { { { { { T {  .{  .T { { Y { T T {  .T { Y { Y  .Y { {  .T  .Y { Y Y Y Y { { T T ` T T / ` N o o o + $ # $ o # # O ~ =X=X@X9.9.X.$.o.$.$.$.o.$.o.$.o.;.o.#.o.$.#.$.o.o.$.$.$.$.$.>.$.$.$.,.$.$.>.#.$.&.$.$.#.&.$.&.$.$.$.$.$.#.$.$.$.o.$.$.$.$.$.#.$.$.$.#.$.$.$.$.$.$.$.o.#.o.o.o.o.#.#.@.O.o.@.#.+.@.#.@.#.@.#.@.#.@.+.#.+.O.+.O.#.@.#.+.+.#.+.#.#.#.#.+.+.+.#.+.#.+.+.+.#.+.+.%.D < < @ @ @ @ 1 @ X ",
"~.).~.~.~.~.!.~.~.~.~.~.~.~.~.[.~.).!.).~.~.~.~.Q.^.).Q.~.!.).~.).!.!.!.W.A.C.l.i.d.3.-.-.$.+.o.X...+.X.+.O.X.O.O.+.O.X.O.+.@.o.+.+.+.@.O.+.+.O.+.+.+...+.X.+.+.+.X.+.+.+.+...+.+.+.+.X...+.+.+...+...+.+.X.+.+.+.+...+...+.+.+.+...' +._ #._ _ _ ' ' _ / v v , = = @ @ @ @ @ @ & , %.%.c & * & @ O & O = * r i ~ >.,.>.>.>.>.=.-.-.-.=.-.-.=.=.&.-.=.-.-.$.-.$.-.&.-.-.-.=.-.=.-.-.-.;.=.-.=.$.;.$.-.$.-.;.-.$.-.-.$.;.-.=.$.-.1.<.&.-.1.$.-.1.$.=.-.&.$.1.$.>.1.<.&.&.-.-.$.-.*.-.$.;.<.$.$.=.$.$.=.$.$.=.=.$.$.$.-.$.$.=.$.$.$.$.$.=.$.$.$.$.$.$.$.#.U d d 9 7 7 0 ; - X X X @ $ X $ > > &.uXdXjXjXfXfXjXjXiX(.Y.1.+.+.........+.+.+...+.....+.( } ......_ +._ ....+._ _ 4 o   o o o   o o         b c  XsXxXsXgXgXaX8XwX5X.XoX).).).)._.)./.).).'./.).).).).).'.Q.Q.Q.'.'.Q.'.Q.'.Q.~.'.'.Q.~.Q.).).'.~.).'.).'.Q.'.~.Q.).).'.~.~.).~.).~.).).).).)./.).)./.!.W.K.J.M.f.f.7.;.;.X.} { { { { { { } { { { ! { } { } { { } { { { T { { ^ { { Y Y { { {  .{ T  .{ T  . .{ { { { T { { T { Y T  .{ Y { Y { ^ T ^ ^ ~ I O o o # o o # o $ # # _ =X@XV.o.,.@.#.o.$.o.,.o.o.$.o.$.o.$.$.,.o.$.$.$.$.=.o.$.$.$.$.&.$.$.$.,.$.$.$.=.,.$.$.#.>.$.$.$.$.$.#.$.$.,.$.$.#.$.$.#.$.$.$.#.$.$.$.$.$.$.&.$.&.$.o.o.#.O.o.O.o.@.#.o.#.@.#.@.#.@.#.#.@.#.@.#.@.#.@.+.O.+.O.O.+.+.@.+.#.+.*.+.+.#.O.+.+.+.+.+.#.#.#.#.*.E E 8 # @ O @ X @ X - X ",
"~.~.(.~.~.].~.~.~.~.[.~.oXH.~.~.).!.~.~.~.!.~.).Q.).).^.~.~.!.~.^.(.W.!.E.Z.A.g.i.i.3.-.-.*.X.+...O...O.O.+.O.+.O.X.X.+.o.@.O.+.+.+.+.+.@.+.X.+.+.X.+.+.+.X.+.O.O.+.+...X.+.+.+...+.O.+.+.X.+...+.+.+.+.O.+.+...+.+...+.+.+.+.| ' +.+.' +.+.' #.' +.' ' _ v v , # O O % @ @ @ # # > %.] c * # # & & O & & + r r / ,.>.>.<.>.1.>.1.=.-.-.-.&.-.-.=.=.;.&.-.&.-.-.;.-.-.;.-.=.;.-.-.;.-.$.=.=.=.-.-.-.$.-.*.-.;.$.-.$.-.$.$.<.-.=.$.=.-.$.$.-.-.$.-.&.1.=.1.$.=.=.$.=.-.=.$.1.1.$.-.-.-.$.$.=.<.$.-.-.$.=.=.$.$.<.&.;.$.=.<.$.<.$.$.$.$.$.$.$.$.>.$.$.$.@.~ d d 7 9 9 0 > - $ X $ $ @ O $ > 4 &.pXuXsXsXsXjXjXjXdX(.(.&.+.....+.......| +.+...+.....+..._ ......_ .._ _ +._ _ 0 o   o   o o o           k j  XxXjXsXjXsXaXwXwX5X.X.X_.).).).).'.).'.'.).).).).).).~.'.~.'.'.).Q.).~.Q.~.Q.~.~.).~.).'.).Q.Q.).~.Q.).).~.).).'.).Q.'.~.).'.).).'.Q.).).)././.).).^.!.W.K.K.n.f.f.6.;.@.X.} | { } { { { { { { { { { ! { { { { { { {  . .{ { { { { {  .{ { Y { { T {  .Y { Y T { T Y T { Y { { Y T T Y { Y Y T T T ^ ~ ^ I O o + o # + o # $ # # ( OX#XC.$.#.@.$.o.$.o.<.o.=.o.$.o.=.$.o.o.$.$.o.o.,.$.$.$.$.$.$.&.$.$.$.$.=.=.$.$.$.$.&.$.$.$.$.&.#.$.$.$.$.o.$.$.$.$.#.$.$.&.$.$.$.$.#.$.#.$.#.$.#.$.$.#.o.o.O.o.#.@.O.O.@.#.@.#.@.#.@.@.@.@.#.@.#.O.+.+.O.@.#.+.+.+.+.@.@.+.@.+.*.+.+.O.O.#.@.#.+.*.#.#.*.E P 8 @ @ @ X @ @ - @ X ",
").~.~.~.~.~.~.~.[.~.~.~.~.[.~.~.~.~.~.~.~.[.).~.).^.^.~.!.~.~.~.~.~.!.Q.^.!.^.W.P.W.K.n.n.l.0.d.1.#.$.X.X.X.O...O.O.O.+.O.+.#.o.+.o.$.X.@.@.X.+.+.X.X.+.X.+.+.X.+.X.+.+.X.+.+.X.+.+.+.+.+.+.+.X.X.+.X.+.X.+...+.+.+.+.+.+.....+...+...' #.' +.' ' O.' ' ~ i r & & O & @ @ # @ @ @ p B.B.k.d l # * O & = & O * * a ~ ~ #.>.>.<.,.>.1.-.-.-.-.1.-.$.-.-.-.-.;.;.-.;.-.&.-.$.&.1.$.1.$.;.&.$.1.$.-.$.-.-.;.;.$.-.$.;.-.*.-.&.=.=.=.=.$.=.-.$.-.$.1.$.-.$.-.=.-.&.<.$.<.$.1.-.$.-.-.-.$.$.=.<.$.$.=.<.$.=.=.$.<.=.$.=.$.<.$.$.=.<.$.;.$.$.$.<.$.$.$.$.$.} ( k 9 9 9 n 0 n ; ; $ X X $ $ X O n p c.sXsXsXfXjXfXjXjXXXu.u.:...:.+.:...+.+.X.X.+.+.....+.....+.( +...+.} +...+.' ' 4 $ o o o o     o o $ o   j j ].xXxXaXaXaX8XXXXXoX).).)._._._./.).).~.).).).~.).).~.).Q.).Q.~.~.).Q.'.~.'.~.'.'.Q.Q.'.Q.).'.'.Q.).'.'.Q.'.Q.'.Q.).'.Q./.'./.'.).).)./.).).`.^.).)./.~.[.).).~.~.~.K.n.m.l.u.u.-.@.@.| } { { { { { { { { { { { { { { { { { { { T { { { { { {  .Y  . .{ { { { { { { { { T { { { T { { { T Y { { T T { ^ ~ T # + + + O o # o o > # #.Y.Y.1.o.o.o.,.$.o.,.o.,.o.o.$.o.o.o.#.$.$.#.$.o.o.o.$.$.,.$.$.#.$.$.,.$.$.$.$.$.$.$.$.$.&.$.$.$.$.$.$.,.$.$.$.$.$.$.&.$.#.#.$.$.$.&.$.$.$.$.#.$.$.#.o.$.o.o.#.O.+.#.o.O.@.#.@.+.@.#.#.+.#.#.@.#.@.O.+.@.#.#.O.+.+.+.+.+.+.@.@.+.@.#.#.O.#.O.#.#.#.+.' ' F 7 9 O @ O X @ - - X @ @ ",
").).~.).~.~.~.~.~.~.~.~.~.~.~.[.~.~.).~.~.~.~.~.~.!.).^.!.!.~.).~.~.~.!.^././.!.!.^.!.!.~.!.K.E.A.f.f.1.@.+...X...O.X.X.+.X.X.+.@.+.+.+.+.+.+.+.+.+.+.+.+.+.+.+.+.+.+.+.+.+.+.+.+...+.X.+...+.+.+.+.+...+.+.+.+...+...+.+.X.+...+.O...#._ #.' +.O._ _ ] v , , & = & = @ @ @ # # # l Y.U.OX8.6.6 + * O & # + + # # t t I #.#.>.>.>.-.1.-.-.-.&.-.-.-.$.-.-.-.$.-.&.-.-.$.1.=.$.<.$.=.=.=.-.$.1.$.-.-.$.$.-.-.*.-.$.$.;.-.=.$.<.=.,.<.=.&.1.$.-.$.1.$.1.$.&.-.=.$.<.=.=.$.-.$.-.-.$.=.$.=.$.=.=.$.$.=.=.$.$.<.$.<.$.<.$.=.<.$.$.$.$.$.$.=.$.$.&.$.-.*.G S d q 9 9 9 n 0 ; - X X $ $ @ X $ d l I.sXsXfXjXjXfX6X7Xn.*.;...:.:.+...X.+.+.+.+.+...+.+...+...+.+...+...+...+.+._ ' 8 $ o o   o o o o $ o o $ d j I.xXsXsXsXaX6XoXoX[.).'.[.).).).).'.).~.'.'./.).).).[.'.Q.).'.).).'.Q.~.~.~.'.~.~.).'.).).).Q.).).).~.).Q.).).).).).Q./.).~.).~.).Q.'./._.).).).).^.).).).(.).(.(.).).Q.~.!.W.W.A.b.M.a.7.7.$.| +.| { | } { } { ! ^ { { { { { { {  .{ Y { { { { { { { {  .Y { { Y T { { { { Y Y { { Y Y { ^ ^ T T { T T ^ ) 4 5 o $ O o $ $ # # # ~ k.z.#.#.o.$.o.,.o.o.o.o.o.o.;.,.o.<.o.o.$.,.o.$.$.o.$.#.$.$.$.>.$.$.$.=.$.=.,.$.$.$.>.$.$.&.#.$.$.#.$.#.$.$.$.#.$.$.$.$.$.$.$.$.#.$.#.$.$.$.$.$.$.$.$.#.@.O.@.@.@.o.#.@.@.O.#.#.#.@.#.@.#.#.+.#.+.+.+.+.+.O.@.+.@.@.+.+.*.#.+.+.*.+.+.+.+.+.@.#.+.~ c C 7 ; ; # # @ @ - X @ - - X ",
"!.).~.~.~.~.~.~.oX~.~.~.[.~.~.~.).~.~.~.~.~.~.~.~.!.~.~.~.!.~.~.~.!.!.!.~.(.!.!.!.!.!.!.!.W.E.I.Z.f.d.6.+.@.X.....+.+.X.+.o.+.X.+.@.+.@.X.+.@.+.+.#.X.+.+.+.+.+.+.+.X.+.+.+.+.@.+.X.+.+.X.+...+.+...+.+.X.+.+.+...+.+.+...+...+...+...' #.+.' +.#._ _ _ v , , = & O = # @ # # @ @ l I.U.4Xq.8.0 * = & = & * O + * t t S #.O.>.>.>.-.1.>.-.-.-.-.-.=.&.-.-.-.-.;.-.-.-.-.$.&.-.-.,.=.=.$.1.$.=.1.-.$.$.-.*.-.$.-.;.-.*.-.$.-.=.,.=.=.$.-.-.-.=.&.-.$.1.&.=.-.$.<.$.<.=.1.$.1.$.&.$.-.$.$.=.$.$.<.$.<.<.$.=.$.$.<.;.$.=.$.=.=.$.<.,.$.=.$.$.$.&.$.$.@.F G y 9 q 9 n 7 0 ; ; $ X X X   X O s l I.sXsXsXjXfXfX6X7Xb.$.@.X.+.X.+.+.+.+.X.X.+.+.+.+...+.....+...' ..+.' ..+.+.' _ 6 $ $ o o o O   $     o o l d U.cXsXsXaXsX:XoX[._._.).oX).'.'.).).~./.'.).).'./.'.~.).).Q.Q.'.~.Q.).~.'.)./.)./././.).).Q.)././.'.).).'./.).Q.).).).~.'.~.~.~.oX~.).).)./._.).).^.).~.~.~.).~.).~.).~.).~.W.I.H.H.M.a.7.7.$.) [ ) | } ) | } { { ! { { { { { { { { {  . .{ { { { { { ^ ^ { { { { { { { { Y { { { Y { { Y { Y Y { Y Y T  .T t 5 $ # o + $ # $ # # E h.r.O.,.o.$.o.o.,.,.o.o.o.o.;.<.o.o.,.$.$.$.$.#.$.$.o.,.$.&.#.$.$.&.$.$.$.;.$.$.&.$.$.$.$.$.$.$.$.$.$.$.$.$.#.$.$.#.$.$.$.#.$.$.$.$.$.$.$.$.$.$.#.#.#.o.o.#.o.#.+.@.@.@.#.@.#.@.@.@.#.@.#.#.@.#.+.@.#.#.+.+.O.+.+.+.+.+.+.$.@.+.+.+.+.#...#.@.#.#.~ C z 7 ; # # @ @ @ @ - X - @ - ",
"~.~.].~.~.~.~.~.H.[.~.~.~.~.~.~.~.).~.~.).~.].~.~.].!.].!.!.~.).~.[.!.).~.~.^.Q.~.~.~.~.~.!.!.!.!.W.W.K.l.l.7.2.1.-.$.@.+.X.X.X.X.@.@.@.+.@.+.+.@.+.O.+.+.+.O.#.+.o.@.+.+.@.X.+.+.+.X.+.+...+.+.+.+.+...+...+.X.+.+.X.+.+.X.+...+._ O.' +.' #.' ' ..~ ~ r & = & = & & @ @ & @ # - G ].].4X].}.&.D S r O + + + # * + * 6 z v O.>.>.>.$.>.&.-.&.-.&.=.-.;.-.$.-.-.-.$.&.;.-.-.-.$.=.=.=.<.1.=.&.-.-.-.-.$.;.-.$.;.-.*.-.;.&.;.=.=.<.=.=.-.=.&.=.-.-.-.$.-.1.$.-.=.<.$.=.$.&.=.-.=.-.$.=.=.$.<.$.<.=.$.$.=.$.<.=.$.-.$.$.=.<.$.=.=.=.$.$.$.$.$.$.#.%.Q h l 9 7 q n 9 n 0 - - X X X $ X X O c z  XuXuX>X4X4X).f.l.1.X.o.o.@.o.+.X.+.@.+.+.+...X.+.+.+.+.+...+...+.....+...+.' ' 0 $ o $   $ $ o o o $ o o a p H.xXCXdXaXiX6X'.oX).[.).).'.).).~.'.'.'.).'./.~.~./.).).).'.).).).'.)./.).).'.).).'./.Q.'.Q.'.).).)././.).).).'.).Q.'.~.~.'.oX'.~.).~.).).).)./.)./.`.~.[.).).).(.~.].].(.(.).~.!.!.~.!.L.E.n.H.H.M.k.l.p.p.i.7.-.-.;.X.} ..} { { { | { {  . .{ { { { { { { Y { { { {  .Y { { Y Y { Y { Y Y { { Y Y  . .Y T u q o o + o o $ @ O @ z ,.,.#.o.#.o.,.o.o.o.o.o.,.o.o.o.o.o.o.$.o.o.o.$.o.#.$.o.$.$.;.&.$.$.$.$.=.$.$.$.$.>.&.$.,.$.$.,.$.$.$.#.$.$.$.$.$.$.$.$.$.$.$.$.$.#.#.&.$.$.#.$.@.$.o.$.#.o.#.o.O.@.O.#.o.+.+.#.#.#.#.#.@.+.#.@.+.+.O.+.+.#.O.+.+.+.+.+.+.#.@.*.#.#.O.#.O.O.^ D D l 9 9 9 9 7 7 , > @ @ @ - @ & X ",
").~.~.~.~.~.~.~.~.~.~.[.~.[.H.~.).~.~.~.~.~.~.~.~.~.~.~.!.!.).~.~.~.~.).Q.!.).~.~.~.~.~.~.~.~.~.~.~.!.Q.W.W.K.A.Z.m.x.x.p.1.1.@.+.X.+.+.+.+.o.X.o.+.o.+.o.+.X.@.@.+.o.+.@.+.+.$.+.X.+.+.+.+.+.X.X.O.+.+.+.+.+...X.O...+...X.+.+.....+.#.O.' _ #.#._ A D , & = = & & @ & # @ # # ; )  X[.4X4X#X].I.I.r.A N * = # * = + * > 3 i W ~ ,.>.>.&.-.1.&.&.-.=.-.-.-.-.$.-.-.-.&.-.-.-.$.=.&.$.-.$.1.$.=.&.$.-.-.-.$.-.-.-.-.;.-.-.-.&.-.$.-.-.-.-.-.-.-.=.=.$.1.$.$.=.=.&.-.-.1.1.$.&.=.-.-.1.$.=.$.&.$.$.=.&.$.=.&.$.=.;.$.$.-.$.$.$.$.$.$.$.,.$.&.&.} } N 9 q 9 q q n n n 0 - $ X X X X X X O c c r.w.d.9.7.2.1.$.;.+.@.@.@.#.@.X.+.@.+.+.+.X.+.X...+...+.+.+.+.....+.+.....*.*.+.0 $ .   o         o o o o 9 p v.xXxXsXiXdX6X'.'.'.).'.).).).).).~.).).'.~.~.'.).'.).'.).~.'.).).).).'.).).).).).).).).).).).).).).).oX).'.).~.~.'.).'.~.~.).).).).).)./.).).).).).).~.~.~.].(.~.~.).~.).~.).).).~.).).).).(.].H.!.!.W.W.!.W.K.K.J.M.j.a.d.u.y.y.2.-.y.;.;.;.;.o.X. .} | { { { Y { { Y  .{ Y { { { { { { { T Y { Y { T T  .m h o + o o # $ O O O 9 ~ ~ #.#.$.o.,.,.o.,.o.o.,.,.o.o.$.$.$.$.#.$.$.$.$.$.$.$.$.$.*.$.$.$.=.$.$.$.$.*.$.$.$.$.$.$.$.$.$.$.$.$.,.$.$.$.#.$.$.$.$.,.$.#.#.$.$.#.$.$.#.#.X.@.@.o.#.X.@.+.+.X.+.O.X.+.+.+.O.O.O.@.+.+.+.O.+.........} +... .( ..( } } [ ( ( ^ ) T D A h y d y 9 9 a a r a e 0 ; - - - X - - ",
").~.~.~.~.~.].~.~.~.~.~.~.~.oX~.~.].~.~.~.~.~.~.~.~.!.~.!.).~.).~.~.).!.).).~.~.~.~.].~.~.).~.~.~.~.~.!.W.!.K.A.K.m.b.c.f.1.2.X.o.@.o.X.X.X.O.@.@.X.+.o.@.X.@.X.+.@.+.@.@.+.+.X.@.+.@.| +.X.O.+.+.+.X.+...X.+.+.+...+.X.+.+.+...+.O...' ' +.+._ ' _ I I * & & & # @ & @ @ - # @ $ ) ].[.4X=X=X].I.I.z.v A * + O * + = + 3 > g T T &.>.1.1.-.-.-.-.-.-.-.-.-.-.-.-.-.-.-.-.-.-.-.-.$.1.-.-.$.-.&.-.-.-.$.$.-.$.-.;.-.-.-.;.&.-.$.1.$.$.-.-.$.-.=.,.=.=.=.=.1.>.=.-.$.-.$.$.1.$.-.$.-.$.-.$.<.$.-.,.=.$.-.$.$.&.=.-.$.-.;.-.$.-.$.$.$.$.&.$.$.#.( } N q y q n q q n n 0 $ - $ X X X $ X # c z d.d.d.7.2.2.-.$.$.@.@.@.@.+.@.@.+.+.X.@.+.+...O.+.X...+...+...+...+...+...+.' ] 8 X   o o   $ o $ o   o   9 < H.CXxXdXsXsX-XoXoX).oX).[.'.).).'.'.~.).).'.~.).).).).).).).).'.Q.'.).).)./.)./.'.).).'.Q.'.).'./.).).).).).).'.).Q.).).~.~.~.).).).oX/.).)./.).).).Q.~.~.[.~.).].).(.~.).).~.).).).).[.(.).(.!.!.!.!.I.W.W.I.W.K.H.H.x.d.a.u.y.2.-.-.;.;.o.;.;.| ;.| | { { { { { { Y { { { { { Y { Y Y { Y {  .Y { Y  . .T m M + o + o o $ @ $ O r / ~ #.,.#.O.O.,.o.o.,.o.o.o.,.$.o.,.o.o.,.o.$.@.$.$.$.$.$.$.-.$.;.&.$.$.&.-.$.;.$.$.$.$.$.$.$.#.$.#.$.$.$.$.$.$.$.$.$.#.$.$.$.$.$.#.$.$.$.$.@.@.#.@.o.$.o.#.@.@.+.#.X.+.O...+.O.#.+.+.+.+.+.+...O.....+._ ....} ......[ ( ( } } ( ~ ^ U D S h d y 9 r 9 9 a a r 8 8 # - - - - @ X ",
"~.~.~.~.~.~.~.~.oX~.~.~.~.~.~.~.~.~.~.!.~.~.[.~.~.[.~.~.~.~.~.~.~.~.~.~.~.).!.~.!.~.~.~.~.~.).~.).~.~.!.!.!.!.!.!.!.!.W.W.H.H.H.p.-.1.@.$.o.O.+.+.+.o.+.X.@.+.X.@.+.+.X.o.@.+.@.@.+.X.@.X.+.X.+.+.O.+.X.+.X.+.O.O.X...O.O.X.+...+.....O.O.O.' #.+._ d d = & & @ : @ X : : @ ; : ; t. X4X4X=XXX4X=X=X|.J.J.P * > + * + & + * * t t I #.o.&.&.&.-.1.&.&.-.>.&.&.&.-.t.-.-.-.-.-.&.$.-.-.$.-.-.&.-.-.-.-.-.-.$.-.-.*.-.-.;.-.-.-.-.&.-.-.-.;.-.;.$.=.=.=.=.<.$.&.-.&.-.$.1.-.-.$.1.$.-.&.$.-.$.&.$.&.$.&.$.&.$.$.-.$.-.$.-.$.$.=.$.$.#.$.$.$.$.} Z Z y q 9 q n n q n n 0 $ 1 1 X X $ O X # z z #.+.+...X.O.+.+.@.@.#.@.#.@.@.@.+.+.+.+.@.X...X.O.+.O.+...+.+...+...+...+.+.] *.8 $ .   $ o o o $ o o o o 6 7 w.xXxXsXaXdX6XoX[.[.).).).).oX).).'.'.'.).).Q.).).).'.).).'.~.).).~.'.).'.~.~.).).).).Q.).).).).).).'.).).oXoXQ.~.~.~.).).).).).).).)./.~.)./.Q.).Q.).~.~.~.~.~.].).).).(.).).[.~.~.).(.(.!.(.(.).~.[.~.].!.].~.!.!.~.!.!.!.P.!.P.K.P.K.K.A.K.C.m.M.j.a.f.u.-.y. .{ { { Y { { Y { { { { Y Y { { Y Y { T { ^ A A O o o + $ O # @ $ 4 G A @.#.#.,.o.#.o.#.o.,.$.,.o.$.o.o.o.$.$.$.$.$.$.$.$.$.$.$.;.-.*.$.;.$.$.-.$.$.$.$.$.$.$.$.$.$.o.#.$.$.#.#.&.#.$.$.$.$.$.#.@.$.+.#.X.+.O._ ^ ( ) / ^ ) ~ T Q Q Q T U U U U F F H J F S S S S G S S G A S Z Z C C N N M M M M k g f h d y r 9 y r r r 9 r d r r 8 e : @ - - - - 1 ",
"~.~.~.[.~.[.~.~.H.[.~.~.~.[.~.~.~.~.~.[.~.~.~.~.~.~.~.~.~.~.~.~.~.~.).!.~.~.[.~.).~.).~.~.~.~.!.~.!.~.~.!.!.!.!.!.!.!.!.!.!.I.!.W.K.P.m.f.f.9.;.;.@.X.+.X.X.@.@.o.@.@.@.+.@.@.o.X.@.@.+.+.+.+.@.+.+.+.+.+.+.+.....O.+.O...+.+.+...+.O.' ..' #._ ' E , * @ & O & X & & @ @ & # 4 0 v.4X4X-XXX-X-X=X=X=X|.OXL.^ / 6 + = * * + * + * 3 M k _ 1.1.>.&.-.>.&.&.&.1.&.&.-.&.&.$.-.-.-.-.-.$.1.=.$.-.-.$.-.$.$.-.-.-.-.-.-.-.-.-.$.-.$.-.&.;.&.-.-.-.-.&.<.,.=.$.=.=.=.=.=.&.=.&.=.1.$.1.$.=.-.-.-.-.&.$.&.$.&.$.1.-.$.;.$.-.*.-.-.-.$.$.o.#. .Q U C u y q q q 9 q n q 7 n 0 $ X X X X X $ X # v c #.O.+.O.X.X.o.o.+.@.+.#.@.@.@.#.@.+.+.+.+.X.O.O.O.....+.+.+...+...+...+.+.+.*.*.a     o   o   $ o     o o 4 6 q.xXcXdXsXdX6X'.[.).).oX).).~.'.).~.).Q.).'.'.).'.).).).'.~.'.'.'./.).'.~.~.'.).).)._.Q.'.'.).).).).).).).).).~.~.'.).'.Q.~.'.).).).).).~.)./.)./.~.).[.~.[.~.~.).!.~.).).).).~.).).).(.).[.(.).(.~.~.).~.).).).!.!.~.~.!.!.!.~.(.!.~.Q.!.!.(.G./.Q.Q.W.P.W.H.m.j.y.y.o.| | { { { Y { { { { { { { { Y { T ) T U # + o o O # $ O O * k z O.,.,.#.,.,.,.#.O.o.$.o.$.$.$.$.$.o.$.$.#.$.$.$.$.$.$.$.$.;.*.$.$.;.$.$.$.;.-.$.@.@.@.+......... . .}  . .} ( ^ / ^ / Q T U I U F S Z Z C Z V V C N V N N N N N N N N N N N N k M M M N h m k h h h h g h g f l f h h l l f f y y y r y y r y r d y a a 9 a 8 e > - - X - - - ",
"[.~.~.~.~.~.~.~.~.~.oXH.~.~.~.~.[.!.~.~.~.[.~.~.~.~.~.~.].~.~.~.~.).!.).~.).!.~.).~.).~.).~.).).!.!.!.~.!.!.^.~.!.!.!.~.~.!.~.!.W.K.K.m.l.f.3.;.;.@.@.X.+.@.+.X.+.@.@.@.@.@.+.@.+.@.+.@.+.+.+.+.+.+.+.+.+.+.+.X.O.X...O.X.+.+.O.+._ #._ _ #.' ..+.P 4 3 # & & @ & @ @ & @ - ; 4 0 k.4X4X4XXX=XXXXX=X=X|.#XJ./ ^ 6 O = + + * + * + 3 M k  .>.>.&.&.>.&.&.>.&.&.1.&.1.-.-.&.-.-.-.-.&.&.=.&.-.-.&.-.-.-.-.-.*.$.-.-.;.-.;.-.$.-.-.-.$.;.-.-.-.-.-.<.$.$.<.<.=.-.&.1.$.-.&.-.-.$.-.-.-.-.-.&.=.$.-.>.$.&.$.$.-.$.$.;.-.$.$.-.$.$.&.#.@.@. .! Q M d d q q 9 q q q n n n : X 1 $ X X X $ X # z z #.+.+.o.X.o.X.o.+.@.@.+.@.#.#.#.+.+.+.X.+.O.+.X.X...+.+.+...+...+.....+.+.+.*.] a   $   O   o o o o o o o 6 6 q.xXcXsXdXfX-XoX[.).).).~.oX~.'.~.).).).'.).).'.).'.~.'./.~.'.).).'.).)././.'.)._.[.)././.).).).).).).).).).).).oX~.~.~.'.).).).).).)./.).).~.).~.).~.~.).).).).].~.].).).).~.).~.).).).!.[.).].).].~.).~.~.~.~.!.~.~.).(.~.!.!.(.).(.(.!.(.!.^.W.Q.!.W.W.G.F.C.j.y.y.o.Y | { { { { { { Y { Y Y { Y { { { Y Y U # O + o + o # O O * z z O.$.,.o.,.o.,.o.,.o.#.$.$.$.#.$.$.,.o.@.$.$.$.$.$.$.$.$.$.$.;.$.$.*.$.$.;.*.*.$.+.@.#.X......... . ._ }  .^ _ ) ^ ) ^ ^ Q U J U G S G Z Z Z Z V N V N N N N N N N N N N N N N N N k m M k k h h m h h h f h h f h f d f d f d y y y y r y r d y r r r r d 9 r e > @ - - - - X ",
"~.~.~.~.~.~.~.[.~.~.[.].~.~.~.~.~.~.~.~.~.~.~.~.~.[.~.~.~.~.~.~.~.~.).~.).~.~.~.~.).~.).~.~.~.~.!.~.~.~.~.~.(.!.!.!.].(.!.!.~.~.~.Q.Q.Q.W.W.E.Z.m.j.a.i.-.;.;.X.@.X.+.@.X.+.@.o.@.@.o.@.@.+.@.+.o.+...+.X.+.+.....O.X.O.X.+.+.O...#...+.O._ #._ _ N = O @ @ @ & @ : & @ ; @ @ a n H.-X4X4X-X$X4X$X4X#X=X#X#X].{.q.z h * * + * * * + * * 9 P U #.,.>.>.>.>.>.&.>.&.&.&.t.-.-.-.-.-.-.-.-.&.=.&.-.-.$.-.-.;.-.-.-.&.;.-.-.-.-.-.$.-.-.-.-.;.$.-.;.=.$.<.$.1.$.=.-.$.-.$.1.$.$.1.$.$.1.$.-.$.-.&.=.>.$.&.$.-.$.-.$.*.$.@.@.+.! ) J Z h h l q d q 9 q q q q n q q q n n < X 1 $ X X $ X X ; C A #.#.+.X.+.+.+.@.X.@.@.#.#.+.@.+.+.+.+.+.+.X...O.O.+...O.+.+...+...+.+...+.*.*.%.s . .     $   o o o o   o * > 8.sXsXsXdXsX6X[.'._.[.oXoX).).).Q.'.'.).).'.).Q.).'.).).~.'.~.~.'.).).'.'.).).).).).).).'._.).)._.).).).).).).).~.~.'.).~.).).).).).oX/.).~.).~.).~.).).~.).~.~.~.~.].).).~.).~.).).).(.).!.(.~.).~.].).].~.].).].!.].!.!.).(.).(.!.!.~.(.!.^.!.!.!.!.W.W.Q.Q.G.G.G.G.C.y.N.y.| | { ! Y { Y { { Y Y | T { ^ T ) 4 o o o $ $ o # O # d a ` ,.,.,.#.,.o.,.o.,.$.$.o.o.,.o.o.$.$.$.$.$.$.$.$.$.$.$.$.$.@.$.$.;.$.....@.| | } ( ! T P U H F F F S S G S S A Z V C V N N N N N M N k N k k k N k M N N N k k N M z k M h k h h k h h h h h h h h h f l f f h d h h f f g d y y i y y y d n a y y r r 9 9 8 e > - @ - - - 1 ",
"~.H.oX~.~.~.~.~.~.~.~.~.~.~.~.~.).~.~.~.~.~.~.~.~.~.~.~.~.~.~.~.).~.).~.~.~.~.~.~.~.~.~.~.~.~.~.~.~.~.!.~.~.~.~.~.~.!.~.~.H.~.~.!.!.~.!.~.!.~.!.~.!.W.!.H.H.n.k.7.7.$.X.@.X.o.@.@.;.@.@.$.*.@.@.@.$.+.$.@.#.@.+.X.+.+.X.+.X.O.....O...+...#._ _ _ r # O & & O # & @ : @ # @ @ j l U.-X4X4X-X4X4X4X4X-X4X=X=X=X=X#XL.L.W 4 * * + + + + + + 3 2 h ` ` $.1.>.>.&.>.&.&.5.-.t.-.&.t.-.t.t.-.-.-.-.-.-.-.&.=.-.&.=.-.$.-.;.&.-.$.-.-.&.=.=.1.$.$.$.<.$.1.$.&.&.-.&.&.>.&.&.1.>.>.$.#.@.@..._  ./ ^ Q U U F S S Z Z z N f y f q q y q y q q q q q q q 7 q q q 9 q q y n n > X 1 1 $ 1 $ X $ : A A #.#.#.@.#.o.#.@.o.#.@.#.@.#.+.@.@.+.+.+.$.X.+.+.+.X.+.+.+.+.+.+.+.+.+.+.+.+.%.%.s $ $ . . $     X X X . . > > 5.xXcXsXaXaX-X[.}._.).~.).[.).).'.~.).).'.~./.).'.'.).).'.).'.[.[.).[.[.).).).oX).[.).[.).).[.).[.).[.[.).~.[.[.~.[.).~.).).).~.oX~.oX~.~.oX~.~.~.oX~.~.~.[.~.oX~.oX~.~.~.~.oX~.).~.).).~.~.].~.~.~.~.~.oX[.~.oXoX~.oX[.~.~.[.~.(.~.(.~.].!.!.!.!.!.!.!.!.!.W.W.W.W.W.W.W.P.G.A.Z.f.2.<.X.| { Y { ! { ! { +.*.*.k $ $ # O O O # o # 7 9 ~ ,.,.&.,.#.,.,.#.#.,.$.#.#.#.,.$.,.=.$.$.@.@.@.@.+.| | ( { { ^ } ^ { Q ! ! Q Q Q U ! U Q Y Q U U U J U J S K G Z Z C M C M M M M M M M M M M M M N M M M N m m k M M M k k M h h m h h h h f h f h f f d h f f f d d f d d d u d d y d y a d d q y y 9 9 n 7 9 4 $ @ $ - - - ",
"].[.~.~.~.~.~.~.~.~.~.~.~.~.~.~.~.).~.~.!.~.~.~.~.~.).~.).~.~.].~.).!.).~.~.~.~.~.[.~.~.[.!.~.~.~.~.~.~.~.Q.!.~.!.~.!.~.~.!.~.~.!.~.!.~.~.~.~.!.W.!.W.W.E.H.n.l.7.7.$.o.X.X.o.@.@.@.;.@.$.-.@.@.@.@.$.+.@.@.#.O.O.+.o.+.+.X.+...O...+.+.O.' +./ _ 9 # O O # & & @ & & @ # O @ j l I.=X-X-X4XXX-X-X4X=X=X=X=X=X=X#XL.J.~ > > * + 3 + + * 2 3 3 M ` ^ ,.>.>.1.>.&.>.&.&.&.-.&.t.&.t.-.-.t.-.&.-.&.1.$.&.-.$.1.1.$.&.-.-.-.&.-.&.=.-.-.-.$.<.=.=.$.>.$.>.$.-.&.&.$.$.1.>.$.$.>.>.$.#.#.+. .} ) ^ Q U H U S Z A B m M f y y u y q y q q q q 7 q 7 q 9 q q q 9 q 9 q 8 n > X X $ X X X $ O : A D #.#.#.#.X.#.o.@.O.o.#.@.#.@.$.+.+.+.+.+.+.+.X.@.X.+.+.O...+.X.+.+.@.*.+.+.*.] *.s   . . . . X .   .   . . > > 5.sXcXsXaXdX:X}.[.).).).oX).).[.).~.'.).'.).'.).)./.).).).).[.).).).).).[.[.).).).).[.).).[.).).~.[.).~.~.[.).~.[.~.).~.oX).~.~.~.~.~.~.~.~.~.~.~.~.~.[.~.H.oXH.[.~.~.~.~.~.~.~.).).).].).).~.~.oX~.~.~.oXH.oXH.H.[.oX).~.).~.~.~.(.~.~.~.!.~.!.!.!.!.!.!.!.!.W.!.W.P.W.G.W.S.A.C.f.4.y.X.{ { { ! ^ { } { | *.@.L + $ o O O O O o # 7 8 ~ ,.,.&.#.,.#.#.,.$.#.,.$.@.#.$.$.$.$.$.$.#.$.+.@.+.| [ | | { ( ! ( ^ ! Q Q U Q Q Q Y ! U ! U U U U U Q J F J S S S Z Z M M M M M k M M k M M N M M M M N M M M M M M m m M m m k h h h h f h l f f l f f f d f d f d d d d d q d y d y d d y d d n d 9 9 9 n 0 0 ; @ - - - X ",
"oXH.~.[.~.[.~.~.~.~.~.~.~.).~.~.~.~.~.~.!.~.~.~.~.[.~.~.~.~.!.).~.~.~.).].~.~.~.~.~.~.~.~.~.~.~.~.~.~.~.~.!.~.~.!.~.~.~.~.~.~.!.!.~.~.~.~.!.!.~.~.!.!.!.!.Y.W.W.!.W.P.l.l.2.@.;.$.;.;.;.-.-.1.-.-.-.-.-.&.&.>.$.+.+.+.+.+.X.X.O.X.O...+.O.+.#.~ U * O + @ & & # @ & # @ @ @ @ b L I.4X4X4X$X4X-X4X=X=X4X=X=X=X=X=X-X;X]./ ` 2 # + + * = = + + + 6 6 N ` ( &.1.&.>.&.&.&.t.&.&.5.t.&.t.&.&.&.&.>.&.&.&.$.&.#.&.$.$.&.&.&.&.&.&.$.&.$.$.$.$.$.<.$.&.&.$.#.@.#.+.} ( ~ I U D N N z h h g y y y r y y y y y r q 9 q q 9 r r 9 y y q q q q 7 7 q q q 9 q 9 q q q q q 8 p > $ $ 1 $ 1 $ X O : D D %.#.#.o.O.@.#.O.#.#.@.#.@.@.+.+.+.+.+.O.+.X.+.+.+.+.X...+.X.+...+.@.+.+.+.+.*.%.s   . . . O $ .   . . O . * : %.dXdXsXaXaX-X_.[._.).).).).[.).'.'.~./.).'.).).).'.).[.[.).).).[.[.).).).).).[.).).).).[.[.).[.).[.(.).[.[.~.~.[.~.).).).).~.~.oX~.oX~.~.oX~.[.~.~.oX~.~.~.[.oX~.~.~.~.).~.~.).~.~.[.~.).[.~.~.~.~.~.~.~.H.oXoXoXoXH.).).~.).).~.(.~.!.~.!.!.!.!.!.!.W.!.!.P.W.W.W.W.W.^.W.W.!.W.^.W.G.F.b.j.a.a.p.f.M.M.H.I.W.q.$ ; # O O O o + o 4 6 F #.%.>.#.#.#.$.#.#.#.#.#.o.`  .^ U U M h h u q q q q q q B Z J ! Q Q Q ! ! ! ! Q ! ! ! Q Q Q Y ^ ! ! Q ! Q ! Q ! U U F K K F Z Z Z Z C N B M k M N M M N N h m m m h h M h h f m h h h f f f f f f y d f d d u d u d d y d d d y d y y y d y d 9 n q q 9 9 7 9 0 # @ - - - - ",
"oX[.oXH.~.~.~.~.).~.~.~.~.~.~.~.~.~.~.~.~.~.~.~.~.~.~.~.~.~.).~.).~.~.~.~.~.~.).~.~.[.~.[.~.~.~.~.~.~.~.Q.~.~.!.~.~.!.~.!.~.~.~.~.~.~.!.~.!.~.!.~.~.~.!.W.W.!.W.I.!.!.!.!.P.n.n.i.-.=.$.-.-.-.-.-.-.-.-.-.-.-.&.$.$.+.+.+.+.......O.O.+.+.O.+.c Z # + * # & @ & & # : @ @ @ @ b b I.4X=X-X4X$X-X=X=X=X=X-X=X=X:X:X,X;X2X(.].~ 2 3 2 = 2 2 + = + + + = 7 6 C / / *.5.5.5.&.5.5.&.t.t.*.t.5.&.&.&.>.&.>.1.&.&.1.>.>.1.&.>.>.&.>.&.#.+.../ / ~ F F C z z k a d a 9 9 7 9 6 8 8 8 9 8 7 8 7 7 9 q 9 9 q q q y q t y q y q y q y 9 q q q q q q q q q q q q q q 9 9 q 0 0 O @ $ 1 $ $ @ $ @ > E E %.#.#.#.o.#.@.o.o.@.+.*.#.@.@.@.X.+.+.#.@.@.+.+.+...+.+.+.+.+.:.*...+.+.+.*.*.%.s X X $ . $ O   X $   X O & & ' 1XuXsXpXaX-X`.).).[.).[.[.).).~.'.).'.).~.~.'./.).'.).).[.).).).).[.[.).[.[.).[.[.).).).(.[.).).).).).~.~.~.[.~.[.~.oX).~.).~.~.~.~.~.~.~.~.~.~.~.~.[.~.~.~.~.oX~.~.).~.).~.~.~.).~.).!.~.~.~.oX~.oX~.oXoXoXH.[.oXH.).).).~.~.~.~.].].).!.!.].!.!.!.!.!.!.!.!.!.!.W.W.!.^.^.W./.!.^.W.W.Q./.G./.W.W.!.!.~.!.!.J.G L O $ O O # o # + # a ` / ,.,.>.,.#.,.#._ Y P z y y 9 5 6 5 5 4 5 5 5 w 5 5 5 m q J ! ! ! Q ! Q ! ! ! ! Q ! ! ! Q ! ! Q ! Q ! ! ! ! ! Q ! Q ! ! Q Q Q T Q Y Q Q J U J F K S G Z B N V M M M M m M M f m h f f f y f y y y q q f q y y y y r d q d y d y d d y y y y q y q 9 q 9 0 8 0 @ ; - - - - ",
"~.~.~.~.~.~.~.~.~.~.~.~.~.~.~.~.~.).~.~.!.~.~.~.~.~.).!.~.).~.).~.~.~.~.~.~.~.~.~.~.~.!.!.~.~.~.~.~.~.~.[.H.!.~.~.~.~.~.~.!.!.~.~.!.~.~.~.~.!.~.~.!.!.!.!.!.W.W.W.!.!.I.!.I.n.n.i.=.=.$.-.-.-.-.-.-.&.-.-.-.1.$.$.#.o.X.+.X.O...+.X.O.O.+...+.G C # + # # # & @ # - # @ @ @ @ b L I.4X4X=X-X=X=X=X=X=X-X=X=X3X=X=X,X:X>X].~.Q 4 3 2 = = 2 + + + * + + 6 6 z / ^ &.&.5.&.5.&.5.&.&.%.5.%.&.&.&.&.&.>.>.&.&.&.>.&.&.>.-.>.1.>.&.&.#.+...) ) R K F C z b l d n n 9 9 7 9 0 9 8 9 0 0 9 7 9 9 9 r 9 9 y q y q q y q t y q y q q q q q q q q q q q 9 9 q q 9 q q q q 0 < $ 1 1 $ X X X $ X > E P ,.#.#.@.#.o.@.@.@.#.+.$.+.@.@.#.#.+.+.+.+.+.+.+.X.+.+...+.:.+...@.+.+.+.%.] %.*.s $     . O $ .   X O X o # # ' 1X1XsXaXpX-X[.`.).).).).).[.).'.~.).).).'.'._.).)._.'.).).).[.).).[.).[.).).[.).).).[.).[.).[.~.).).[.[.).).).).~.~.~.~.).).).).~.~.[.~.oXH.~.~.~.~.[.~.~.~.~.~.~.~.~.).~.~.~.~.~.).].).].~.~.~.~.~.~.[.~.[.[.[.H.[.~.~.~.).).~.(.~.!.).!.!.!.~.!.!.!.!.!.!.!.!.!.W.!.!.^.W.!.W.W.W.W.W.W.^.W.W.W.W.W.W.I.!.!.H.G G O # + $ # o # # * d ` / &.,.&.%.#.#.#...U U k y r 7 5 7 5 5 5 5 5 5 w 5 5 5 u m J ! ! Q ! ! ! ! ! Q Q ! Q Q ! ! ! ! Q Q Q ^ ! ! ! ! ! T Q ! ! ! Q Q Q Y Q Y Y U J J J F H S S B V N M N M m M h f M h h f d f f f u d q d u q d q d y y r y a f d q d d q d q d n q q 9 q 7 0 7 9 0 # ; @ - - - ",
"~.~.~.~.~.~.~.~.~.~.~.!.~.~.).~.~.).~.~.!.~.~.~.~.~.~.).~.~.).~.~.~.~.~.~.[.~.~.~.~.~.[.~.~.~.~.~.~.~.~.~.~.~.~.~.W.!.~.~.~.~.~.~.~.~.~.~.~.!.~.~.~.~.~.!.!.!.!.W.!.!.!.!.!.~.~.!.Z.Z.d.2.2.-.$.;.-.-.1.-.-.$.1.=.-.#.$.$.X.X.+.....O.+.+.+.+.b k O # + # # @ # @ & & @ @ @ @ b b J.-X-X-XXX-X#X=X=X=X=X=X-X:X=X:X:X3X>X>X>XJ.b M + * * + = = = = + + * * * 6 8 j P E _ ] *.%.&.&.t.%.t.%.&.>.&.%.&.&.#.%.#.%.....~ I I z d d 9 4 4 4 > > 4 ; 4 , 4 4 0 0 0 0 0 0 8 0 0 8 0 0 0 0 0 0 8 6 9 9 9 9 y 9 t y y 9 y q q y 9 9 y y q q q q q q q q q q q 9 q 9 7 7 4 ; - X $ $ 1 X $ $ X @ : I I %.#.@.#.O.@.+.$.@.@.$.+.@.@.@.@.+.*.@.+.+.#.+.@.+.+.+.+.+...+.@.:.+.+.' +.+.%.*.a O O X .   . $ X $ X $ X O @ W ;X,XaXpXpX-X).'.).).).oX).).[.).).'.).'.).).).`.).).).).[.[.).[.[.).).).[.).).).[.[.).).).).~.[.[.).~.).).).).).[.~.~.~.).).).~.~.oX~.oX~.[.~.[.~.[.~.~.~.[.~.~.oX~.).~.~.~.~.~.~.).~.).).~.oXoX~.~.~.~.oXH.~.~.oX[.[.~.].~.~.(.(.(.~.~.].~.!.!.!.!.(.(.!.!.W.W.^.!.!.!.!.!.^.!.W.!./.W.W.W.!.!.W.W.!.W.!.!. XH.p.0.q o o + $ + o # O * k k _ &.,.#...F P h 9 9 7 5 7 5 5 5 5 5 5 q 5 q 5 5 5 w q q F ! Q ! U ! ! Q ! ! ! ! ! ! ! Q Q ! ! ! ! Q ! ^ ! Q Q ! ! Q ! ! ! Q ! ! Q Q Q ! Q Q ! Q Q Y Q U U U U U U U U J K K K Z Z Z M M h h h j h f h f h f f l l d f f d l d d f d d d d 9 9 y q n 5 9 0 8 @ # - - - - ",
"~.~.~.~.~.~.~.~.~.~.~.~.).).~.).~.~.~.~.).).~.~.~.~.).~.~.).~.).~.~.~.~.~.~.~.~.~.~.~.~.~.~.~.~.~.~.~.~.~.~.~.!.~.~.~.~.!.!.~.!.!.!.~.~.!.!.!.~.!.!.~.!.!.~.!.!.!.~.~.!.!.!.!.!.!.!.^.W.K.E.Z.f.f.9.1.1.1.1.<.$.1.=.$.$.;.$.+.@.X.O.O.+.+.+.*.h k # # # # @ # & & : @ @ @ @ @ k l H.4X-X-X4XXX=X#XXXXX4X4X=X=X>X>X>X>X>X>X>X3X-.,.t + * = + * * * + + * * # * # * 4 > , 8 8 d j l x b b c c j j j g d y r 9 0 * : * * # + & # # # # # # # # ; # : > w 4 > 4 > > , , > > , , > > 0 , 0 , < 6 6 4 8 7 8 9 9 9 9 9 r r y y y 9 q q y 9 9 9 7 8 7 6 6 6 * 4 > # * O X @ $ 1 $ X $ X $ O X , D D #.#.#.#.#.$.@.#.@.$.*.$.*.@.@.#.#.@.+.@.@.*.$.@.#.*.:.*.+.*.+.*.+.+.+.+.+.#.%.&.a o o   O X X X   O X O O X O c {.{.aXpXiX-X).).).).[.).[.).).'.).).).).[.).).[.).).[.).[.).).[.).).).oX).[.[.).[.).[.).).).~.~.~.!.!.[.).).Q.Q.~.~.~.Q.~.).~.~.~.~.~.[.~.~.~.[.~.[.~.~.~.[.oX~.~.~.).).).oX).).~.~.~.~.~.~.oXH.~.~.[.~.oX~.~.oX~.~.~.~.~.).~.).~.~.].~.~.!.~.~.~.!.!.(.(.!.(.!.!.!.~.!.~.!.!.W.!.!.W.!.!.!.!.W.!.!.!.!.!.I.[.!.H.H.{ w w o + $ + # O + * 2 t g j z k d u 9 9 9 q 9 9 q q q q u q q q u q q q 5 7 5 N ! Q ! Q ! ! ! Y Q ! Q ! Q ! Q Q ! ! Q ! Q ! Q ) Q Q ! ! ! ! Q ! Y ! Q ! ! Q ! ! ! ! Q ! ! Q ! ! ! Y Y ! Q ! Q Q U ! ! ) ! Q Q Q J J J K F S F K F K Z S Z S S Z G K F Z K G G Z k h d q 7 7 7 7 8 : : @ - - - ",
"~.~.~.~.~.~.[.~.~.~.~.).~.!.).~.~.~.~.~.).~.).~.~.~.~.).~.~.~.~.].~.~.~.~.~.~.~.~.~.~.~.~.~.!.[.~.[.~.~.~.~.~.~.~.!.~.!.~.~.~.~.).~.~.!.!.~.~.~.!.!.!.!.).~.!.!.~.~.~.~.W.~.W.~.!.!.!.W.K.J.n.f.l.7.1.1.1.$.$.1.1.=.=.$.$.$.+.X.+.....+.+.+.+.k j # # + # @ @ @ # @ & # # @ @ j j H.-X4X=X$X-X#X=X=XXX4X4X:X>X:X:X>X>X>X>X>X3X-.<.7 * = 2 + + * + * # # # # * # # * > 0 9 a a j j b b x z x z x j g g r 9 9 8 * * # O * & O # # # ; # # * # ; ; > 4 < ; 4 > > < , > 4 < > 0 , < 6 , > , , 4 6 6 8 9 7 9 t 9 9 9 r 9 r q r 9 a 9 q r r 9 9 9 7 6 6 4 4 4 2 # = + @ $ 1 $ 1 $ 1 X O $ X > v D %.%.$.#.@.$.$.$.#.$.$.*.*.@.*.@.@.#.$.@.#.@.@.@.+.*.+.*.*.:.*.:.*.+.+.+.*.*.%.%.a $ O X X $ . O O X O X O O X c {.{.pXiXiX-X[.).).).).[.).~.oX).).oXoX).).).[.).[.).).[.).).[.).).[.).[.).).[.).).).).).).).[.~.).[.(.!.).(.).~.~.~.~.~.~.~.~.~.~.).oXH.~.[.~.~.~.~.oX~.~.~.~.~.oX~.).).).~.).).~.~.).~.~.~.~.~.~.oXH.~.~.~.oXH.[.[.~.~.).).~.~.).).~.~.~.~.~.!.~.!.(.!.!.(.!.!.~.Q.~.!.~.!.W.!.!.I.!.W.!.!.!.!.I.!.!.!.!.!.H.].].H.| # # # $ + + # O # * * 9 h g z k r y q 9 7 9 9 q q q q q q q q q q q q q 7 7 5 Z Q U ! ! ! Q Q ! ! ! Q ! ! Y ! ! ! Q Y ! ! ! Q ! Q ! ! Q Q ! ! ! Q ! ! ! Q ! Q Y Q ! ! Q ! ! ! Q Q ! Q ! Q ! ! Q ) ! Q ! Q ! Q U Q U J F K F K S F S S S S S S Z K G Z K G S Z L k h y 9 9 n 7 9 4 : # @ - - - ",
"~.~.~.~.~.~.[.~.~.~.~.~.~.~.~.~.).~.).~.~.~.~.).~.~.~.[.).).~.~.~.~.~.~.~.~.~.~.~.~.].~.~.~.~.~.[.H.oX~.~.~.~.~.!.~.!.~.~.~.~.!.~.~.~.!.!.~.!.~.].!.~.!.~.~.~.!.~.~.~.!.!.!.!.!.!.!.(.!.!.I.(.!.W.W.J.J.c.d.d.9.1.1.1.=.-.$.+.+.X.O.X...+.+.*.h l + # # # # @ # @ ; ; @ @ @ @ l j H.-X=X4X-X$XXXoXoXH.n.n.].=X=X>X>X>X>X>X>XuXI.T.I 3 > * * + * * = * # # # * # # # & @ @ # @ @ O @ @ @ O O @ # # $ $ # $ # @ $ O O - @ # # $ # # # @ @ # @ ; # # # # ; ; ; : - # : # ; # : @ ; : # ; - @ - # # # # * # : * ; 4 2 * , * * , , , > > > * & & # @ O O @ O O O X O X X X @ X X 1 X X $ $ - v x ] ,.#.$.#.$.#.$.$.#.#.%.#.#.*.$.#.#.*.@.@.*.*.*.*.*.*.:.+.*.*.+.+.[ [ *.] *.*.*.a @ o X X o O X $ O X $ X $ O j J.B.uXiXiX7X[.[.).[.).).[.).).).).).oX).oX).).).[.[.).).[.).[.).[.[.).[.).).).).[.[.[.).[.~.).~.[.~.).~.).].~.~.~.~.~.~.~.~.~.[.~.~.oX~.~.~.oX~.~.oX~.[.~.[.H.oX~.~.[.~.~.~.~.oXH.[.~.~.~.~.~.~.~.~.~.~.~.[.~.~.~.~.oX~.~.~.[.H.oX~.[.~.~.~.~.~.~.~.!.!.!.(.!.!.).!.~.~.~.!.!.!.!.!.W.^.!.!.!.!.!.!.!.!.!.!.!.].[.].M.h h + # $ O # + & O + # # * 2 7 y 9 9 q y n y n f q q q q u q q u q q q q 5 5 Z J ! ! ! Q ! ! Q Q ! ! ! ! Y ! Q Q ! ! ! ! Y ! ! ! Y Q ! Q ! ! ! Y ^ Q ! ! Q ^ Q ! ! Q ! Q ! ! ! Q ! ! ! Q Q ! ! Q Q ! ! Q ^ Q ! ! ! U ! Q ! Q ! ^ Q ! Q Q Q ! R ! Q ) Q ) Q ) ) U R F L L l 7 9 6 * * # @ : - ",
"~.~.~.~.~.~.!.~.).).~.~.).~.).~.).!.~.).~.~.).~.~.~.~.~.~.!.).~.~.~.~.~.~.~.~.~.~.~.[.~.~.~.~.~.~.~.~.~.~.~.~.~.~.~.~.~.~.!.~.~.~.!.~.~.~.!.!.!.!.!.!.~.~.!.~.~.~.~.!.~.!.~.~.~.(.!.W.!.!.!.W.W.W.!.^.(.!.(.W.P.Z.D.l.e.e.3.<.=.$.X.X.+.+.+.*.L Z + # # @ @ # # @ @ # # @ @ @ k l v.4X4X4XXX4XoXv.k.*.*.*.9.!.I.4XuX7X>X7X>X7X=X%X>.r i 7 6 2 * + * + * & # * # & # # & @ @ @ & @ @ @ @ - @ @ - @ @ # $ # @ # @ @ # $ # - # - # - # ; @ # - ; $ - - @ - @ # @ @ @ - X - @ @ - @ - @ @ - @ @ @ @ # @ @ @ O # @ @ @ @ @ @ # @ O O # @ @ @ @ @ X O % O O % O X O X X O X $ $ X X 1 X X X @ e a / ' #.#.#.#.#.#.#.&.*.&.%.@.@.%.*.#.*.*.*.%.*.*.*.*.*.*.*.+.*.*.*.*.*.] *.] ] [ 0 $ O O o X $   X X X @ @ X O 8 0.w.uXiXaXuXXXXX).[.[.).).[.oX).oX~.~.).).).[.).).).[.).).[.).).).).).).[.).[.).).).).).).).~.).).~.~.~.).).~.~.~.~.~.~.~.[.~.~.~.~.~.~.~.~.~.~.~.~.~.[.~.~.oX~.~.~.~.~.oX~.~.~.oX~.~.~.~.~.~.[.~.~.[.~.~.~.[.~.~.[.~.~.~.~.oXH.[.~.H.oX~.~.!.~.!.~.~.(.(.!.(.!.!.!.~.~.!.!.!.!.!.!.!.!.!.!.!.W.!.!.!.~.!.!.[.H.H.!.H.;.*.0 + + # O O + + + + * + * 4 r r d y n y y q q f l l u q q q q u q q q 5 5 M Q Q ! ! ! Q ! ! ! ! Q Q ! Q ! ! ! ! Q Q ! Q ! Q ! ! ! ! Q ! Q Q ! Q ! Q ! ! Y Q ! ! Q Y ! ! Q ! Q ! Q ! ! Y ! ! ! ! ! ! ! Q Y Q ! ! Q ! ! Q Q Q ! Q ! Q Y Q Y ) Q Q Q Q Q Q Q Q Q Q Q U U K L z d 6 6 # - @ & ",
"~.~.~.~.~.~.~.~.~.).~.).~.).~.~.~.).~.~.~.~.~.).~.).~.~.).~.~.~.~.~.~.~.~.~.~.~.~.~.~.~.~.~.~.~.~.~.].~.~.H.oX~.~.!.~.!.].~.~.~.!.~.!.~.!.!.!.!.~.!.!.!.!.~.~.!.~.~.~.~.~.!.~.~.!.!.(.I.!.!.!.W.W.!.I.W.!.W.(.P.D.Z.x.p.i.3.=.=.@.X.X.O.+.+.*.Z G + # # # @ @ # ; @ @ @ @ # @ j j M.4X4X$X4X#XoXM.H.*.;.$.9.I.!.=XuX7XuX>X>X7X=X%X>.t r t > 2 * * + * # # * # # # & @ & & @ @ @ @ @ @ @ @ @ - X @ - - # - @ - @ @ - @ @ $ - # - # - - $ @ @ - $ @ @ @ @ @ @ - @ @ - @ @ - @ - @ @ @ @ @ - @ @ @ @ @ @ @ @ @ @ @ @ @ @ O @ @ @ @ @ O @ O X @ X @ X O @ X @ O @ @ $ @ X - X X X X X X X @ a a ~ ' ' #.#.#.&.#.#.&.%.%.,.] %.&.#.*.#.*.*.*.*.*.%.*.*.+.*.*.*.*.*.*.[ *.] [ [ [ p @ X O X $ X . X O $ X $ O @ 8 w.w.uXdXdXiXXXXX[.~.[.).).[.).).).oX).oXoX).)._.).'.[.).).[.).[.[.~.).(.).).).).).).).).[.).[.~.~.[.~.[.~.~.~.~.~.~.~.~.~.~.~.~.~.~.~.~.~.~.~.~.~.~.~.~.~.~.[.~.oX~.~.[.~.~.~.~.~.~.~.~.~.~.~.~.~.[.~.~.H.[.H.~.~.~.~.~.~.~.~.].~.~.~.~.~.H.~.~.!.~.!.(.!.!.!.!.~.~.!.).~.!.!.!.!.!.W.!.!.!.!.!.I.!.H.[.].oXH.!.].~.I.*.*.w o # # O O + # O + * * 2 6 r 9 d y q d y f q f q q f q u u u q q q q 5 5 N ! U ! Q Q ! ! ! ! ! Q ! ! Q ! ! ! ! Q ! ! Q ! ! ! Q ! ! ! ! ! Y ! ! ! Q ! ! ! ! ! ! ! ! ! ! Q ! ! ! Q Y Q ! ! Q ! ! Q Q ! Q ! ! ! ! ! ! ! ! ! Q ! Q Q Q Y Q Q ! Q ! Q Q Q Q Q Q Q Q ) U U K b N y 6 6 # # & - ",
"~.~.~.~.~.~.~.~.).!.).~.~.~.~.~.).~.).~.~.~.~.~.~.~.~.~.~.~.~.~.].~.~.~.~.~.[.~.~.~.~.~.~.[.~.~.[.oXH.~.~.~.~.~.~.~.~.!.~.!.!.~.!.~.~.~.~.~.!.!.!.~.~.!.~.~.!.).~.~.~.!.~.~.!.!.(.W.W.!.W.!.!.W.!.W.(.W.W.(.W.I.(.W.W.U.P.Z.z.f.2.@.+.O.+.*.$.R R w # @ O # # - & @ ; @ @ @ @ j b v.4X XXX[.[.c.;.;.;.;.@.$.7.t.J.4X=X>X7X7X>X>X<XB.I A i t r 2 + * = * # # # * # & : & @ & & @ @ - 1 @ @ 1 @ - - @ @ @ - @ - $ - @ - - ; # - @ - @ - - @ - @ @ @ - - @ @ - @ @ - X 1 @ - X X - X - 1 @ @ X - X - X @ @ @ X @ X X @ @ X O @ = O X @ @ @ @ O @ X & X @ % X X X X X X X X X 1 X 1 X X X O & & a v v P / / _ ' ' ] ] ] ] ] *.*.%.%.%.%.] %.%.] %.] *.*.*.*.] ] [ [ [ W / R v v - X $ X O   X O $ O O @ O O @ , %.%.>XsXfXsX6X-X).[.).).[.).oX).).).).).).).).)._.).).).[.).[.).(.[.).[.).).).[.).).).).).).~.).~.~.~.[.~.).~.!.~.~.~.~.~.~.~.~.~.~.~.~.oX~.[.~.~.oX~.[.~.~.H.oX~.~.oXH.~.~.oX~.~.~.].~.~.~.~.~.~.~.~.~.oX~.oX~.~.~.~.[.~.~.~.~.~.].~.~.~.oX!.!.~.~.!.~.!.~.).!.!.~.!.!.!.!.!.!.!.!.!.W.(.W.!.!.W.!.~.[.H.H.[.!.H.[.W.H.M.Z + + @ O # O O * O # + # 4 8 7 9 r a q d f n q q f q u q q q q q q 5 q 5 M U Q Q ! ! ! U Q Q Q ! Q ! Q ! Q Q ! Q Q ! Q ! Q Q ! Q Q ! Q ! ^ ! Q Y ! ! Q Q ! Q Q ! Q Q ! ! Q ! Y ! Q ^ ! Q Y ! ! Q ! Y ! ! ! Q Q ! Q Q ! Q ! Q Q U Q ! Q Q Q ! Q Q Q ! Q Q Q Q Q Q ) Q Q J U A d d : & @ & ",
"~.~.~.~.[.!.~.~.~.~.~.~.~.~.~.~.~.~.~.~.~.~.~.~.~.~.~.~.~.).~.~.~.~.~.~.~.~.~.~.~.~.~.oX~.~.~.~.[.~.~.~.~.!.~.!.H.~.~.~.!.!.!.!.~.!.~.~.!.~.~.~.~.!.~.~.~.).!.!.~.~.!.!.~.~.Q.^.W.!.^.!.(.!.!.!.!.!.!.!.W.!.W.!.W.(.(.W.!.(.L.I.i.#.$.o.@.+.+.) { w # # ; # @ @ @ @ & @ - @ X b b k.oXoXoXH.H.&.:.;.| | +.:.@.;.7.n.n.[.-X-X>X>X>X(._ _ k x x 3 * + # # # & * & & # # & & @ @ @ @ @ X - : X @ @ @ - @ @ @ X - @ ; $ @ @ - - @ @ - @ @ @ - - - X $ @ @ - - X @ - @ @ - X 1 @ @ @ @ : % & X @ X X X % X X @ X - X @ @ X X % = X X @ X - X @ @ X @ X @ 1 X @ X X % X @ @ X X X X X X X X X X X X O % , e e x v x v D D I W W W W / W / / ' [ [ / / / / W ) R G v b l 0 n 0 ; ; X $ X . . X X O . X @ O $ X O # I P [.dXdXsX7X8XoX).).oX~.~.oX~.[.).).[.).).).).).).).).).[.).).).).[.~.).[.~.).).[.~.~.).).~.).~.).).).).).).~.~.~.~.[.~.~.oX~.~.oX~.oXoX~.~.[.~.~.~.~.~.oX~.~.[.~.~.~.~.~.~.~.~.~.~.~.~.].[.~.~.~.[.~.~.~.[.~.~.oX~.~.~.~.~.~.~.~.~.~.~.~.~.~.!.!.~.~.~.~.!.~.!.(.!.~.!.).!.!.(.~.!.!.(.!.!.!.!.!.H.oX~.oX].~.].!.I.I.I.7.q r O @ O & & O * # # & w 0 w 9 q q f q q n f q q u q q q u u q q 5 5 5 N Q U ! ! Q ! Q Y Q Y Q Q Q Q Q Y Q Q Q Q Q Q Q Q Y Q Q Y Q Q T Y T T Y ^ Q ! ! ! ! ^ Y ! Q ! ! ! Y ^ ! ! Q ! Q Q Q ! ! ! ! Q Q ! Q Q ! Q ! Q Q T T ~ Q Q Q Q Q U U ! Q Q ! U U Q Q Q Q Q Q Q U T P c z < # & & ",
").~.).~.~.~.~.~.~.[.~.~.~.].~.~.~.~.~.~.!.~.~.~.~.).).~.).~.~.~.~.~.~.~.~.~.~.~.[.~.~.H.~.~.~.~.~.~.~.~.~.~.~.~.~.~.].~.~.!.!.!.~.~.~.!.~.~.~.!.~.~.~.~.~.!.!.!.!.~.).!.!.~.^.!.(.^.!.^.!.(.!.!.!.!.!.W.!.W.!.(.!.I.!.W.W.W.W.P.d.$.$.o.@.+.*.) ) 0 # $ # # ; @ @ # @ @ @ @ @ b b k. XoXoXM.n.-.:.:.*.:.:.:.@.@.6.m.n. X-X-X:X:X:X]._ _ z z x 6 + * + * & + # * & & & @ % @ : 1 1 @ - @ X - : X $ - @ - @ - @ - - @ - - @ # @ - @ @ - @ X X @ @ - - @ @ @ - - X X - - @ @ @ 1 @ X @ X 1 1 X X - X : : X 1 @ X @ @ X % @ . % % X X @ X @ - X - X @ X @ X X % X & X 1 X X X X X X X X X X $ X X X % , e p j x v v D v I W E W W W / / / ' [ [ ] W / / / E R G D b l 0 0 ; ; ; X X $ X X . . X X O $ X O O X # P P  XdXsXfX7X7XoX[.).~.oX~.[.).).).[.).).)./.)./.).).).~.[.).).(.[.[.).).(.).).).).oX).).).~.~.).~.).).).~.~.).~.~.~.~.~.~.~.~.~.~.oXH.[.oX~.~.[.~.oX~.~.~.~.~.~.~.~.~.~.~.~.oX~.[.~.~.~.~.!.~.~.~.~.~.~.~.H.~.~.H.[.~.~.~.~.~.~.~.~.~.].~.!.!.!.~.!.~.!.~.~.!.(.!.!.).(.!.!.!.!.!.(.(.!.!.!.(.!.(.].~.].H.H.oXH.!.!.I.I.6.9 9 # O # O # # # & & # ; w 0 9 n n f n f q f q u q q u q q q q q 5 5 5 M Q ! ! Y ! ! Q Q Q Q Q Y Q Q Y Q Q Y Q Q Y Q Y Q Q Q Q Q Q Y T Q T Y ^ Q Q Q Y Y Q Q ! ! Y ! Q ! Q Q Q ! Y ! Q ! ! ! Q Q ! ! ! ! ! ! ! ! Q Y ^ ^ Q U Q Q Q Q Q ! Q U Q Q Q ! Q ! Q Y ! U Q Q Q Q P z C 0 & @ 1 ",
"!.).~.~.~.~.~.~.~.~.~.~.~.~.~.~.~.~.~.~.~.~.~.~.~.].~.~.~.~.~.~.~.~.~.~.~.~.[.~.~.~.~.[.~.~.~.[.~.~.~.~.!.~.!.~.!.~.~.!.!.!.!.!.~.!.~.!.~.!.~.~.~.!.~.~.~.~.).!.!.~.!.~.~.~.!.^.!.^.^.!.(.!.!.!.!.!.!.!.!.!.!.!.I.(.W.Y.(.W.I.W.d.$.;.@.@.+.[ [ ) w # # ; ; # @ @ @ @ @ @ - X b G k.[.[.H.u.2.| *.:...;.:.:.:.:.$.-.-.k.W.I.XX&X;XOX4.5.z I I i * * + & # # & = & @ & X - @ & @ X @ X @ @ @ 1 @ - @ X - - @ @ - @ # @ @ - @ @ - - - @ - @ - - @ - - X - @ X X - @ - X - @ 1 1 @ - X X X @ % % X % X X : @ X X @ X @ X X % % = X - X @ X X @ X @ X @ X X : X X 1 X X 1 X X X X X X X X X X X X X % . . . . . . X 1 % : : , > < 8 p s s x b b l b l p n p 0 ; : 1 # $ $ @ $ $ @ $ X . . X X   X $ X O X O O O d d H.uXiXsXiXuX4X).oX).oXoX).).).[.).).).).).).).).).).).).[.[.).).!.).).[.).).).).).~.).).).).~.).).~.).).).~.~.~.~.[.[.~.~.~.~.~.~.~.[.H.[.~.~.~.H.oX[.~.~.~.~.~.~.~.~.~.[.H.oXH.~.].~.~.~.~.~.~.~.~.[.~.oX~.[.].~.~.~.~.~.!.~.~.~.~.~.~.!.!.!.].~.~.~.~.~.~.!.!.!.!.(.!.(.!.!.(.!.(.!.(.(.!.(.(.H.oXH.].[.~.~.!.I.I.!.H.) ~ * O O # # & & # + * ; + ; 0 q l q f q f q f u q q u u q q q u 5 5 5 M ! Y ! ! Q ! Q Y Q ! Q Q ! Y Q Y Q ! Q Q ! Y Q Q Y Q Y ! Q Y ! T Y T T ! ! ! ! Q ! Q ! ! ! ! Q ! ! Q ! Q ! Y ^ ! ! ! Q Q ! Y ! Q ! ! Q Q Q ~ Y Q Q Q Y Q Q Q Q ! Q ! Q Q Y Q Q U ! Q U Q T T Q Q U F D r @ # & ",
"~.~.~.~.~.~.~.~.[.~.~.[.~.~.~.~.~.~.~.~.~.~.~.~.~.~.~.~.~.~.~.~.~.~.~.~.~.~.~.~.~.~.~.~.~.oXH.].~.~.~.~.!.~.~.~.~.~.!.!.].!.~.].~.~.~.~.~.!.~.!.~.~.~.).!.!.~.~.~.~.~.~.!.~.(.Q.^.!.~.^.!.!.(.!.(.(.!.!.!.!.!.W.Y.W.(.W.I.W.P.P.u.@.$.X.@.X.*.) ) ; # # $ @ # @ @ @ # @ @ - X G G H.[.[.l.*.;.:.:.| :.*.| +.@.+.*.+.+.@.9.9.L. X XOXz.z.S P U F 6 8 + & # # * & & # & : @ & & X : - X : 1 @ @ @ X - X @ @ - $ @ @ - - @ @ - $ $ X @ X X @ X X @ X X @ X - X @ @ X X @ X @ X @ - X @ & 1 X X X : X & X X X @ @ X @ X & X X X . % X @ 1 @ @ X - X @ X X & X X X X X X X X X 1 X X X X X 1 . X X X % % . X . . . . . . X X X X X X 1 1 1 : - - 1 - - 1 - - - 1 1 1 - $ - - $ - $ X X X O . X O X X O X @ O X O 4 0 t.uXuXfXdXfX4X[.[.~.~.~.oX~.[.).).oX).).).'.).).)._.[.~.!.).).).).[.).).).).).[.~.'.).).~.~.).~.).).).).~.).).~.~.~.~.~.~.~.oX~.~.~.~.~.~.~.~.[.[.~.~.~.~.[.~.~.~.oX~.~.~.~.[.[.oXH.~.~.~.!.[.~.~.~.~.~.~.~.~.~.~.~.~.[.~.[.~.~.~.~.~.~.].~.!.!.~.!.~.!.!.!.!.(.~.!.!.(.!.(.(.!.!.!.!.(.!.!.!.(.].~.oXoXH.~.].~.].!.].I.w.w.j # # O O # # & # # ; ; ; w q n n f f f q q q u q q q u u q q 5 5 5 N U Q Q ! ! Q Q Q Q Y Q Q Q Q Q Q Q Y Q Q Q Q Q Q ! Q Q Y Q Q T ^ Y ^ Y ! Q Q ! ! Q ! ! Q Q ! ! Q ! ! ! Q ! ! ! Q Q ! ! ! ! Q ! Q ! ! ! Q Q T ~ T ~ Q Q Q Q Q Y R Q Y Q Q ! U ! U Q Q Q Q Q Q Q Q Q F F g & : @ ",
"~.~.~.~.).~.).~.).~.~.~.].~.~.~.~.[.~.~.~.~.~.~.~.~.~.~.~.~.~.~.!.~.~.~.~.~.~.~.[.~.~.~.[.~.~.~.~.~.~.~.~.~.~.~.!.~.].~.~.~.~.~.!.~.~.~.~.~.!.~.~.~.~.~.~.!.~.].H.~.~.~.~.~.~.!.!.!.!.!.!.!.].~.).~.).!.!.!.!.!.W.!.W.I.W.(.L.P.u.$.$.X.X.o.+./ ) ; + + ; $ @ @ & @ @ @ @ @ @ G D c.[.).d.;.;.*.:.| *.| | ;.:.*.;.+.+.*.u.7.W. X X@Xz.z.D P E F 6 8 O * * # & = & # & & & & @ X X @ 1 : X @ @ % @ - - @ X @ - @ @ - @ @ @ X X @ X X - X X @ X X @ X X @ X @ X - X @ X @ X @ X @ X X X @ X % X & X % 1 @ X @ X - % @ X X % X % % @ @ @ @ X @ X % @ X X O X & X X X X X X X X X X X X X % % . % X % . . . . . . . . . . X . X X X X 1 1 1 - - - - - - $ 1 - - - $ $ - - ; - $ $ $ 1 $ X X X X . X O X @ $ O O < 4 q.>XuXsXiXiX-XoXoX).).[.).[.).).[.).oX).).).~.).).).).).`.).).).~.[.[.~.oX~.~.~.).).~.~.~.~.).~.).~.).).).~.~.~.~.~.).~.~.~.~.~.~.~.~.~.~.[.~.~.[.~.[.H.~.[.H.~.~.~.~.~.~.~.~.[.~.~.~.).~.).~.~.~.~.~.~.~.~.~.~.~.~.~.~.~.~.~.~.~.~.~.~.].!.!.!.!.~.~.~.~.!.~.!.!.(.!.!.(.!.!.(.(.!.!.(.!.!.(.!.~.!.!.!.!.].!.].H.H. X!.r.r.l - - @ # O # # @ ; # ; & 4 9 9 d y f f y y q f q q f q q q q 5 5 5 N Q U Q ! Q Q Y Q Y Q Q Q Y ! U Q ! Q ! Q ! Q ! Q Q Q Q Q Q Y Y ^ Y Y U ! ! ! ! ! Q ! ! ! ! ! Q ! Q Q ! ! ! ! ! ! ! Q ! ! ! Q ! ! ! Q ! Q ! Q ^ Q Q Q Q Q Q Q ^ T Q Q Q Y ! U Q U ! Q ! Q Q U Q Q U F J d ; # - ",
"~.~.~.~.~.~.~.].~.~.~.~.~.~.~.[.~.~.~.~.~.~.~.~.~.~.[.~.~.~.~.~.[.~.~.~.~.~.~.~.!.~.~.~.~.~.~.~.~.!.~.~.~.~.~.!.~.~.H.[.~.!.[.H.!.~.!.~.!.~.~.~.~.~.~.~.~.~.~.~.oX~.~.~.~.~.!.~.~.!.!.!.~.!.~.W.H.!.~.~.W.!.!.!.W.!.!.!.W.W.Z.Z.7.#.$.+.X.@.@.F R + ; ; ; # # @ @ @ @ - - @ X D D n.P.I.2.+.| ;.| ;.+.;.:.*.+.| :.:.:.+...:.t.l.f.U.Z.J.~ U U ~ z c * # & O # & & @ O & X & @ & : @ @ @ - @ @ @ @ @ X - - @ - @ @ - @ - @ - @ 1 - @ - @ @ - - - X - - % - X @ @ - @ @ 1 @ X - @ X - X X X X X X X X X X @ X X X O X X X . X . % X X X X X @ X % X = X % X X X X X @ X X X X X X X X X X X X X X X % % % % . % . . X X X X X X X X 1 1 1 1 - - - - - - 1 $ 1 $ $ - $ $ $ - $ $ 1 $ $ $ X $ X O O X O X O O O # @ ' =X=XdXsXfX-XoXoXoX).).'.).[.[.).).).).).).).'.).).).).).).).).).).~.[.~.~.[.oX).).).'.).).).).~.[.).).).).).).~.[.~.[.[.~.~.[.oX~.~.oX~.[.~.~.~.~.~.oX~.oXoX~.~.~.~.~.~.~.~.~.~.~.~.~.).~.~.~.[.~.~.~.~.~.~.~.~.].~.~.~.~.~.~.~.~.~.!.~.!.~.!.~.~.!.~.~.~.!.!.!.~.!.~.~.!.(.!.!.).(.!.!.(.!.!.!.!.!.!.!.!.~.!.[.].].!.U.H.*.0 4 # @ # @ ; # # ; # # : 7 5 9 u q y f q q f q f f q q q q 5 5 5 N Y ! Q ! ! Q ! Q Q Q ! Q Q Q Q Q U Q Q Q U Q U Q Q Y Q Q Y ^ Q Y Q Q ! ! U Q ! Q ! ^ Y Q ! U Q ! Q Y ! Q Q Q Y Q Y ! U Q Q Q Q Q Y ! Q Q Q Q Y Y Q Y Q Y Q Q Y Y Q Q ! Q Q Q ! Q ! Q U U Q Q ! Q Q E Q k > : & ",
").~.~.~.~.~.~.~.~.~.~.~.~.~.~.~.[.~.~.~.~.~.oXH.~.~.~.~.~.~.~.~.~.~.~.~.~.~.[.~.H.].~.~.~.~.~.~.~.~.~.oX[.H.~.~.~.!.~.~.~.~.~.~.~.!.~.~.~.~.H.[.~.~.~.H.~.~.!.!.~.~.H.oX[.~.~.!.~.~.~.~.~.~.~.!.Q.!.!.!.~.!.!.!.!.!.!.!.!.K.f.p.=.@.o.X.@.+.#.G G ; ; $ # ; ; @ @ @ @ @ @ - O R E J.c.c.*.:.:.| :.:.:.| *.| :.:.*.:.*.@.....) ) Q #.e.q./ ~ U ~ ~ ~ z # & # # & @ @ @ & & X & X 1 @ @ @ @ @ @ @ @ @ @ @ @ @ @ X @ @ X @ - - X @ @ @ @ X @ X - @ @ X - X - % 1 @ X X @ X 1 X X X @ X X X X X X X X X X X O X X @ = X X X % % . . X X O X X X % . X X X X X O O X X X X X X X X X X X X X X X X X X X X . . % . . X . X X X X X 1 1 1 1 1 - - - - $ 1 $ 1 $ 1 1 $ $ 1 $ - $ 1 $ $ $ X @ @ X O O X $ $ O O @ O $ O G ].].sXsXsX7XoX[.).[.).).[.).).[.).).).'.).).).).).).).).).).).).[.[.~.~.).~.~.~.oX).).).).~.~.oX).).).oX).).).~.~.~.).~.[.~.~.~.~.~.~.~.~.~.~.~.~.~.~.[.H.].~.~.~.~.oX~.~.~.~.~.~.~.~.~.~.~.).~.~.~.~.[.!.~.~.~.~.~.~.!.~.!.~.~.~.!.~.~.!.!.~.~.~.~.!.~.!.~.~.~.~.~.!.!.(.(.!.!.].!.~.!.(.).!.!.].!.].!.!.!.!.H.].H.].I.I.H.G L # O @ @ - ; # : & & # > w 9 y y y q y f q u y q q q q q 5 5 5 N Y Q Q Q Q ! Q ! U ! Q ! U ! Q Y Q ! Q Y Q ! Q ! Y Y Q Q Y Q Q Q Q ! Q Q U Q U Y Q T U Q U Q Q Y Q Q Q Q Q Q Q ! Q Q Q U ! U U Q Y Y Q U Q Y Q Q Q Q Q Q Q Q Q Q U Q U Q ! U ! U Q Y Q ! U Q Q Q Q U Q L > , @ ",
"~.~.~.~.~.~.~.~.~.).~.~.~.~.~.~.!.~.~.~.~.~.~.].~.[.~.~.~.~.!.[.~.~.~.!.~.~.!.~.oX[.~.~.~.~.!.!.!.~.].H.~.~.~.!.~.~.!.~.!.~.!.~.~.~.~.!.~.~.~.~.~.~.~.~.!.~.~.~.~.~.~.~.H.~.~.~.!.~.!.~.!.~.~.!.~.!.~.!.!.!.!.!.W.!.!.!.!.W.d.f.=.+.#.X.X.+.+.F Z # ; # # $ @ - # - - @ @ X $ E P J.b.n.;.| *.:.| ..;.*.;.| :.*.:.:.;.| X...) ! ^ #.9.w.^ U ~ ~ E E z @ @ # @ & & X & X & & : @ @ @ 1 - & @ @ & @ @ - @ - - @ - 1 @ - - X @ - @ - 1 @ - - @ @ @ 1 @ X : % @ 1 @ : @ X @ X @ - X 1 X 1 X X X X X X X X X X X O X . X . X . . . X X O X X O X . X . % O X X X X X $ @ @ X X @ X X X X X X X X X X X % X X % . % . X . X $ X X 1 X $ 1 $ - 1 - $ - - $ 1 $ 1 $ 1 $ $ 1 $ $ $ $ $ 1 X O X $ $ @ X O @ X O X O O O O G  X[.dXdXfX7XoXoX).).[.).).).oX[.).[.).).[.).).).).).).).).)._.).~.~.[.).).[.).).).).).).[.).oX~.~.).).~.~.).).~.~.[.).~.~.~.~.~.[.~.~.~.[.~.~.~.[.~.~.oXH.[.~.~.~.~.~.~.~.~.~.~.~.~.~.).~.~.~.].~.~.~.~.~.~.~.~.~.~.~.!.~.~.~.~.I.~.!.~.!.~.~.~.!.~.!.~.~.~.~.!.~.~.!.(.!.!.(.!.!.!.!.(.!.(.!.!.!.~.!.].!.].!.oX[.H.].].U.r.G G # @ # # # @ : # * & * ; 4 7 y y y y y q f q y q f f n q 5 5 5 N Y ! ! ! ! ! Y ! Q J Q ! Q Q Q Q Q J ! Q Q Q Q Q Q Q Q Q Q Y ! Q Y U Q ! Q Q ! Q Q Q Q ! U ! Q Q Q Y Q Y Q Q Y Q U ! Q ! Q Q ! Q Q Q Q ! Q Q ! Q Y Q Q Q Y Q Q Q ! ! Q Q U Q Q ! Q Q Q Q ! ! U U Q E U c > , & ",
"~.~.~.~.!.~.~.~.~.~.).).~.).~.~.~.~.~.~.~.~.~.[.~.~.~.~.~.~.[.~.~.~.~.[.~.~.~.~.~.~.~.~.~.~.~.~.~.~.H.~.~.~.~.~.~.~.~.~.!.~.~.~.~.~.~.~.~.~.!.~.~.!.~.~.~.~.~.~.~.!.H.[.~.~.!.~.~.~.~.H.~.~.~.!.~.!.~.!.~.~.~.~.!.!.!.!.I.H.7.7.@.o.X.+.X.+.+.M b # # # ; @ @ # - $ - $ @ @ X E R U.p.d.;.:.:.| *.;.:.*.| ;.:.:.:.@.@.@.+.@.} S S G ^ ` ~ Q ~ ~ Q / E & & O @ @ & X X @ @ @ @ @ @ - @ X @ @ @ # @ @ @ @ @ @ @ @ @ @ # @ @ & @ @ @ @ @ @ @ @ @ @ @ O @ X X @ # O @ @ @ X @ X @ X @ X X X . X X X X X X X O X O @ @ O % X % X O X O @ @ O % O % = % = = @ = X O = @ X @ X @ X X X X X X X X % X X X X & X X X X X X O X X X X - X 1 1 $ - - $ $ - - - 1 $ $ 1 $ $ $ $ $ $ X $ @ $ $ @ X O @ $ @ $ @ $ O X O O O O d J.J.iXfXdXuXXXoX).).[.).[.).).).).).).).).).).)./.).).).).).).[.[.~.[.[.).).~.).).[.~.).[.).~.~.~.~.~.~.~.).~.[.~.~.).).).~.~.~.[.~.~.oX~.[.~.~.~.~.~.~.~.~.~.~.[.~.~.~.~.~.~.~.~.~.~.~.oX~.~.~.~.~.~.~.~.~.~.~.~.~.~.~.~.!.!.~.!.~.~.~.!.~.!.~.~.!.~.~.!.~.~.~.~.~.!.!.(.!.!.!.!.(.!.!.!.(.!.~.!.~.!.!.!.!.!.!.].].H.oX].H.*.+.0 # @ @ @ : # ; : & & * * 4 r n n y q d q y q q q u q q 5 5 5 N Y Q Q ! ! ! Q Q Q Q U Q Q ! Q ! Q Q ! ! Q Q ! Q Q Q Q Q Q Y Q Q Y Q Q Q ! U U Q Q Q Y Q Q Q Y Q Q Q Q Q Q Y Q ! Q Q ! J Q Q U Q Q Q Q ! U U Q Q Y Q ! Y Q ! Y Q ! ! J Y Q ! U U ! Q ! U Q U ! ! Q ~ U C 0 0 : ",
"~.~.~.~.~.~.~.~.~.~.~.~.).~.~.~.~.~.~.~.~.[.~.~.~.~.~.~.~.~.~.~.~.[.~.~.~.~.~.~.~.~.~.~.[.~.!.~.~.~.oX~.~.~.~.~.~.[.~.~.~.~.~.~.~.~.~.~.~.~.!.~.~.!.~.!.!.!.~.!.~.~.~.~.~.~.~.~.~.~.~.~.~.!.~.~.~.~.W.!.!.W.!.Q.!.!.!.W.W.f.;.-.@.@.+...X...+.y n # $ # @ @ @ - @ @ @ @ X - O E Q J.7.q.| :.*.:.:.:.:.:.*.:.:.:.:.X.@.@.+.@.X.) ^ A S S U ~ Q ~ ~ / E & * # & O @ @ & & X & @ @ @ @ X : & @ & @ @ @ ; : - ; ; @ @ @ # O # O @ # @ @ # O @ @ @ # @ & @ # : > > > > 6 6 8 6 e 8 e r e a r a a r s a g a j g g g g j g g x g g x x z x z g s g t e 8 > * * , = & = @ # @ O O X O X X X X & O X O & @ & X @ % X % % . X X @ X - $ - $ - - - - - - @ $ $ $ - $ $ $ $ @ @ $ - @ X $ @ $ O O X O X X O X X O O X $ O O ; 6.5.>XuXiX7XoXoX[.).).).[.[.).).oX).[.).).oX).)._.).).).).).).~.~.).~.~.~.).[.).).).~.).).[.).oX~.oX~.).~.~.oX~.).).).).).).[.~.~.~.~.~.~.~.~.~.~.~.[.[.~.~.~.~.~.~.~.~.~.~.~.~.~.~.).~.~.~.~.~.~.~.[.~.~.~.[.~.~.~.[.~.!.~.~.~.~.~.!.~.!.~.~.!.~.~.~.~.!.~.~.~.!.).!.!.(.(.~.(.(.!.!.!.(.!.(.~.!.!.!.!.!.].!.oXH.oXH.[.H.I.r.k.h # # # - @ - @ ; ; : & * * * 4 n d r d y q u u u q q q w 5 5 B Q Y Q U Q ! ! U ! Q ! Y Q J ! J ! Q Q U Q J ! Y Q Q Y Q Q Q Q Q Q Q Q Q Q Q ! ! Q Q Q ! Q Q ! Q Q Y Q Q Q ! Q U Q J ! ! Q ! ! Y Q Y Q ! Q Q ! Q Q Q Y Q Q Q Q Q Q Q ! Q Q Q ! Q ! Q U ! ! Q Q Y Q Q Q D 8 8 & ",
"~.).~.~.~.~.~.~.~.~.).~.~.).~.~.~.~.~.!.~.~.~.~.~.~.[.!.~.~.~.~.~.~.~.~.~.].~.~.~.[.H.~.~.~.~.~.~.!.~.!.~.~.~.!.~.H.~.~.~.!.~.~.~.~.H.oX].~.~.~.~.~.~.~.~.~.~.~.!.~.!.!.~.~.~.!.~.~.!.~.~.~.!.~.~.~.~.!.~.E.~.!.E.!.!.E.W.f.-.;.o.#.+.X.+.+.+.n y @ # @ @ @ @ @ - @ - @ @ @ X E E U.7.7.;.*.:.;.+.:.| :.:.*.:.*.:.:.@.@.@.+...Q Q A G A I Q ~ ~ / / E # # @ & & % @ @ X @ X @ - @ @ X & @ @ # @ @ : ; : @ ; @ # # # # # @ O # @ @ # # # # @ # O # O # @ * * > 4 , , , 8 e , e e e e a r a r s a s g s g s g g j g j x g x x j x z x x x x g r t t > , * * * * & # & O @ & O O X X % O X X = X & O % & @ @ % % . X X X @ X @ @ X $ 1 - - $ $ - $ - @ $ $ $ $ - $ $ $ @ $ $ X $ $ X $ @ O X @ X $ $ O $ X O O @ O 4 6.t.>XuXuX7XoX.X).[.).[.).).).).[.[.).).).'./.).)./.).).).).).[.).[.~.).[.~.[.).).oX[.).).[.~.~.~.~.oXoX).~.~.).~.~.).~.).).~.~.~.~.[.~.~.~.~.[.~.~.~.~.~.~.~.~.~.~.~.[.~.~.~.~.~.~.~.~.~.~.~.~.~.~.~.~.~.~.~.[.~.~.~.~.~.!.~.!.~.~.~.~.~.~.~.!.~.!.~.).~.!.).!.!.~.!.(.!.!.(.!.(.!.(.(.!.~.!.!.!.!.!.!.].~.~.~.].H.].].].].H.k.l # # # - ; @ : ; # & * * * 4 4 d d d y q y y q q q 5 q 5 5 5 V U U Q ! ! ! U ! Q U ! ! Q ! Q ! J Q Y ! Q Q U U Q Q Q Q Y ! Q Q Y Y Q Q ! Q ! Y Q ! ! U U ! U Y Q ! Y Y Q Y Q ! Q U ! Q ! Q Q Q Q Y T Q Q Q Q Q Q Q Q Q Q Q Q U ! Q Q Q ! U ! U Q Y Q Q Q ! U Q U Q Q F 9 8 # ",
"~.Q.~.~.~.~.~.~.~.).~.).~.!.~.~.~.~.~.[.~.~.~.~.!.[.~.~.~.~.~.~.~.~.~.~.~.~.~.~.~.~.oX~.~.~.~.~.~.~.~.!.~.!.~.~.~.!.~.!.~.~.~.~.!.~.~.oXH.~.!.!.~.!.!.!.~.!.!.~.~.~.~.~.~.~.~.~.~.~.~.~.!.~.!.~.!.~.!.!.!.~.!.!.).!.!.H.H.t.@.@.X.........| [ 7 5 # @ @ # @ @ @ @ @ X @ @ @ $ E E H.7.2.;.*.*.:.*.;.*.;.:.:.:.:.:.+.+.@.@.@.+.....U V Z F ^ ~ ~ ~ W E @ O O O @ O @ @ @ & @ - @ @ @ # @ # @ & * , 8 8 n n n n 9 8 9 8 r 8 9 8 8 9 8 e t 9 9 d r g g j j j k j g g g j g x x j z c c v v v A v A A C v C A A C A N A v A N A A A A F S I P P P P P I I I v z z g g g a a r t > 3 = O = = X = O X X @ X @ X X X . . . $ X X $ X @ - $ $ $ - @ @ - - $ - $ $ - $ - $ - $ $ - $ $ @ X @ X $ $ O O X O X @ O O $ @ O $ L b M.4X4X:X4XXXoX[.[.).).).oX).'.).).'.).)._._.)._.'.[.).).).).).).).~.[.).).).).~.~.).).).).~.[.~.~.~.~.).).~.~.[.~.).~.~.).oX~.~.~.~.[.~.~.H.oX~.~.~.~.~.~.~.~.~.~.~.~.~.~.~.~.~.~.~.~.~.~.~.~.~.~.[.~.~.~.~.~.~.~.!.~.~.~.~.~.!.!.!.~.!.!.~.~.!.~.!.~.!.!.!.).!.!.!.!.(.!.!.~.~.!.!.).!.!.~.!.].!.!.!.!.!.!.!.[.~.H.[.H.H.J.) > > @ @ # @ - # # & & & * * # 5 9 q y y y y q u u q 5 5 5 q Z U ! ! ! Q Q Q U U ! Q U Q Q Q Q ! Q Q U Q ! ! ! ! Y ! Q Q Y Q Q Q Q Q ! J Q Q ! U Q U ! Q Q Q Q Q Q Q Q Q Q Q U ! Q Q Q Q Y Q Q Q Q ^ U Q ! U Q Y Q Q Y Q Q Y Q Q Q Y Q U Q Q ! Q Q Q ! U Q ! Q ! Q Q F s d ; ",
"~.Q.).~.~.~.).~.).~.~.~.~.~.~.~.~.~.].~.~.~.~.~.~.~.~.~.~.~.~.~.~.~.~.~.~.~.~.!.~.~.~.!.~.~.~.!.~.~.!.~.~.~.!.!.~.!.~.~.!.~.~.[.~.[.~.~.~.!.!.].~.!.~.!.!.~.~.~.~.~.~.!.~.~.Q.Q.~.~.Q.!.~.~.~.~.!.~.~.!.!.!.!.!.~.~.Q.f.l.$.+...............~ 4 4 # # # @ @ @ X @ @ @ @ O @ X E E Z.-.6.;.:.*.*.;.*.;.@.@.@.X.@.@.+.@.@.@.@.@.+.+.} A A G T ~ ~ W W I = = O = O @ & @ @ @ # @ @ @ @ # # + * + * 9 d d j z g z k z z z c c C z A A A A V A S I S I F F F F G C z z z N v N z N A F G F U Q / ( ..+.#.&.1.6.7.6.q.9.q.9.9.7.9.6.4.6.1.6.1.7.6.7.9.9.9.9.e.9.4.8.1.,.>.,.O.O...U P g 3 2 * = = = O @ O & @ @ X X X X X   X X X @ X $ - $ @ @ @ @ @ @ @ X @ O @ $ O O @ $ @ @ @ @ $ $ O @ O X O $ @ @ O X O $ O O $ # 5 4 S ) ( -.u.i.a.f.f.M.n.n.E.G.G.G.5XG.'.'.'.).).[.).).[.).).5XG.G.'./.'.).).).'.)./.).).).).[.~.).[.~.).~.).^.).).).).).).).).).).).(.).~.~.~.~.~.~.~.~.~.~.[.~.~.~.~.~.[.].[.H.oXH.oX).~.~.~.~.~.~.~.).~.~.~.~.[.~.!.~.~.H.Q.~.!.!.~.!.~.!.~.~.~.!.~.!.!.!.(.!.!.(.!.~.).!.!.!.~.~.!.~.~.!.!.~.!.!.!.!.W.!.!.!.!.!.].!.!.I.I.&.n d ; # ; @ # # @ & : & * & * * 6 6 9 d d q u u q 5 q 5 7 7 H ^ Y Q Y Q ! ! Q ! Q ! U U Q ! Q Q Q Q Q ! Q Q Q Q U ! Q Q Q Q ! U Q Q ! U Q Q U Q Q ! Q ! ! Q ! Y ! Y Q Y Q Q ! Q Q Q Q Y ! Q Q Q T Q Q Q U ! Q Q Q ! Q Q Q Q ! J Q Q ! Q Q ! Q Q ! Q Q Y U Q Q Q Q Q Q h j > ",
").Q.~.~.~.).~.).].~.~.~.).~.~.~.~.~.~.~.~.].~.~.~.~.~.~.~.~.~.~.~.~.).~.~.~.~.!.Q.!.Q.Q.Q.!.~.~.!.~.].~.!.~.~.~.~.~.~.!.~.~.~.H.~.H.~.~.!.~.!.!.!.!.~.!.~.~.~.!.!.!.~.~.~.~.~.~.~.~.~.Q.~.!.~.!.~.~.!.).~.~.!.!.!.).!.f.f.;.X.X..... .......~ > 4 $ # @ # @ @ @ @ X @ X X @ X Q E Z.2.t.*.@.:.;.:.:.:.@.@.+.@.@.:.@.@...+.@.@.@.+._ A Z A ~ W ~ ~ W W = = X O X O & @ @ @ # @ @ @ @ # O + & * * 9 g d j j z z z z z C z c A A A A N A V A V I P P F F F D S A z z z z N N N C A S F I Q ~ ) _ _ +.#.#.>.6.6.7.7.7.9.9.9.9.9.9.3.8.3.1.3.7.4.9.w.9.9.q.9.8.8.3.1.<.,.#.#.o.O.P U h * 3 + = = = % O & @ X . X X .   X $ X X O $ @ @ @ @ @ @ @ $ @ @ $ @ O X O @ $ $ @ @ $ @ $ @ # @ @ $ O $ @ O O X $ O X @ O O @ # 4 0 Z | | -.u.u.a.l.a.M.m.n.F.G.G.G.G.G.'.G.'.[.).).).[.).).).G.G.'.'.'./.).).)./.).)./.).).).~.[.).).~.~.~.!.).).).!.).(.).!./.^.).).).~.~.[.~.!.[.~.[.~.~.~.~.~.~.~.~.~.oXH.~.~.~.oX~.~.~.~.~.~.~.~.~.~.~.~.~.~.~.~.~.!.~.~.!.Q.!.Q.!.!.(.!.~.!.~.!.~.!.!.!.!.(.(.!.!.(.!.(.(.~.!.~.~.~.!.!.~.~.!.!.!.!.~.I.I.!.!.!.!.!.I.I.I.t.a n ; # @ @ @ ; ; & : # & * * * 6 6 9 q d y q q u 5 7 5 7 7 S Y ! Q Q ! Q U Q U U ! Q ) Q U ! U Y Q ! J Y Q Q Y Q Q Q Y U ! Q U ! U ! Q ! J ! ! Q ! U Q U Q Q Q Q Q Q ! ! Q Q Q U ! Q Q U Q T Q Q Q Q Q Q Q ! Y Q U Q Y Q ! Q ! Q Y J ! Q Q Q Y Y Q Q Q ! Y Q ) Q Q R j h : ",
").~.).~.~.~.~.~.).~.~.~.~.!.~.~.~.~.~.~.~.~.~.).~.~.~.~.~.~.~.).~.~.).~.~.~.!.~.!.~.~.Q.Q.Q.~.!.~.~.H.oX~.~.~.~.~.~.H.oX~.!.~.~.~.~.~.~.!.!.!.!.!.~.!.~.~.~.!.~.~.~.!.~.~.~.~.~.~.~.~.~.~.!.~.!.~.!.~.~.~.~.!.!.!.!.P.7.9.X.....} ......}  .F # # $ $ # @ @ # @ @ O @ O O @ . ~ Q v.-.-.*.@.*.@.:.*.@.:.@.@.@.+.*.@.+.@.@.@...@.#.O.I U G P ~ W W W W : & & O & O @ O @ # @ # 8 8 c F F S z N g i h h z N z N C N D S S I S I P I I P P P I P I U U U Q ^ { ..>.1.8.d.h.B.U.P.(.}.}.#X:X&X:X8X7X7X8X8X7XqX8XqXqXqXqXqX0XqX8XqXqX0XqX6XqX8XqX0XqXqXqX8XqX9X9X9X>X:X:X:X&X&X&X%X$X_.g.h.O.I I x t t 6 & & O   . . . .   . .   O O $ # @ ; ; # ; # ; # # * & ; # # @ O @ $ $ # $ $ $ @ $ @ @ @ $ @ @ @ @ O O O O # # 4 4 k G Z G K Z G K K K Y Y !  . . .<.<.<.y.y.f.m.m.W.Q.Q.)._.G.5XG.'./.).)._.).)./.'.'.).).).[.~.).).).).~.(.).^.~.].(.).(.).^.).).(.).).~.~.~.~.~.~.~.~.~.~.~.~.[.~.[.~.~.~.~.~.[.~.~.).~.~.].~.~.~.~.~.~.).~.~.~.~.~.~.~.~.!.~.~.!.!.!.~.!.~.~.!.~.~.!.~.!.!.!.!.!.!.(.!.!.!.~.~.~.!.~.~.!.(.!.!.].!.!.!.!.!.!.!.!.!.!.!.].!.k.L L 0 ; ; O @ # # @ & : & & & * * * 4 y r f q u q 5 7 2 q r F Q Q ! ! U Q Q ! ! U Q ! Q ! U ! Q J ! Q Q Q Q Q U ! ! Q Q Q ! U ) U ! U U ! ) Q Q Q J ! Q Q Y Q Q Q Y Q Q U ! J ! Q Y Q ! Q Q Q Q Q Q Q Q U ! J ! Q Q ! J Q Q Q U ! Q Q Q U ! Q Q Q Q Q Q Q ! Q Q Q Q Q C L 0 ",
"Q.~.~.~.~.~.).~.~.~.~.~.).~.!.~.~.~.~.~.~.~.~.!.~.~.~.!.~.!.~.~.~.).~.).!.~.~.~.!.Q.!.Q.!.Q.E.~.~.~.oXH.~.~.~.~.~.~.~.~.~.~.!.~.!.~.~.~.~.~.!.!.!.].!.!.W.~.~.~.!.~.~.!.!.~.~.~.W.~.Q.W.!.~.~.~.~.~.!.!.~.~.!.].(.!.b.=.$... ...| ..}  ...} M # # # @ # O # @ @ @ @ @ @ @ O O E E l.-.-.@.@.;.@.:.;.;.@.@.@.X.@.@.:.@.@.@.+.@.@.@.@.) / S ~ P ~ W / W , 6 O O = O @ # & ; # k B.c.;X>XqXeX>X>X|.Y.Z.Z.z.9.e.9.8.4.>.1.1.1.1.9.9.d.h.h.V.C.D.P.P.`.}.}.#X>X>X9XeXqXwXrXpXrXrXrXwXtXrXiXwXiXwXwXtXwXfXiXfXiXfXfXfXfXiXwXrXtXwXtXtXwXiXfXtXiXtXrXwXtXfXiXwXrXwXrXqXqXwX0XeXeXrX0X0XwXqXeX9X9X<X&X%X%X`.T.P.B.w.q.#./ ~ D Z Z N k k h j h h h j k k k C D A F Q Q ' 6.&.&.) k l w $ $ @ @ @ @ O @ @ O $ @ @ @ @ O O O 5 5 L G Z Z Z K Z Z K K H K K K K K H Y Y Y Y Y { Y { +.X.4.i.y.G.G.G.).).).).).)./.).).).).).~.[.[.).(.(.).).^.).).(.).(.].).).^.^.).^.^.~.~.~.~.~.~.~.~.~.~.~.~.!.~.H.~.~.~.~.oXH.~.~.~.~.~.~.~.~.~.].~.~.).[.!.~.~.~.~.~.~.!.!.!.!.!.!.~.~.!.~.~.~.~.~.!.].!.~.!.!.(.!.(.!.!.!.~.!.~.~.~.!.!.!.!.!.!.W.!.!.!.W.!.!.!.I.I.!.!.U.[ ( n > > # @ ; # : & # * & & & & * * 6 6 r q q u 5 6 2 u y H ^ Y Q ! Y ! Q U Q ! U U U ! Q Q Q ! Q Q ! U ! Q ! Q U U ! U Q Q ! Q Q Q ! U Q ! U Q ! U Q Q Q Q Y Q Q U ! U Q ! Q Q Q ! J Q ! Q Q Q Q Q Q Q Q Q Q ! Q Q ! ! J ! Q Q Q Q Y Q Q Q Q Y Q Q Y Q Q Q Q Q Q Q G D 9 ",
"Q.).~.~.~.~.!.).~.~.~.~.~.~.~.~.~.~.).~.~.~.~.).~.~.~.~.!.!.~.~.).~.).).~.!.~.!.~.Q.Q.!.!.~.~.~.~.~.~.~.~.~.[.~.!.~.oX~.~.~.~.~.~.~.~.~.~.~.!.!.!.!.!.~.~.!.~.!.~.~.~.!.H.~.~.~.!.~.!.!.~.!.~.!.~.!.~.~.!.(.(.!.!.!.M.$.$.....}  . . ..._  .k # # # @ O # @ $ # @ @ O @ $ @ O E E l.-.-.*.@.$.@.;.:.;.*.@.+.@.@.@.@.@.@.+.@.@.+.+.+./ ) I P T W / W W < , O = O & & @ # & * k c.c.:X1X1XeX:X>X|.Y.C.Z.h.w.9.9.1.8.1.1.<.4.8.3.9.h.d.z.V.c.D.P.I.(.}.oX#X6X6XqXqXeXrXrXrXiXiXwXrXwXfXiXtXrXwXwXwXfXiXfXtXiXfXfXiXiXfXtXrXtXrXrXrXrXtXrXtXrXtXyXiXtXgXrXrXiXwXwXwX9XrX0XrXqXwXwX0XwXwXwXqX9X9X:X%X%X`.T.U.B.e.w.#./ ^ F A C z k k k h h j k k l M b L G G F Q Q +.t.t.&.E k l ; @ # # # @ @ @ @ O @ @ O @ @ $ O O # 4 4 C Z K Z K K Z K V H H V K H H H H K K K K K Y T Y @.;.-.i.y.C.G.G.G.G.*XN.).).).).).).)._.`.).).).).(.).^.!.~.).(.(.).(.).`.(.^.).`.^.Q.~.~.~.~.~.~.~.~.~.~.~.H.[.oX~.~.~.H.oX[.[.~.~.[.~.~.~.[.~.~.~.~.~.~.~.).~.~.~.~.~.~.~.!.!.!.].~.~.!.~.~.~.~.!.!.!.~.].!.!.!.!.!.!.!.!.!.).!.!.~.~.~.].!.!.!.!.!.W.!.!.W.!.!.!.I.I.!.R.( ( n ; 0 @ @ # # ; & & & * * * & * * 6 6 y u u y 7 7 4 y y F Y Q Y Q Q Q Y Q U U ! Q ! U Q ! Q Q Q ! Q J ! Q Q J ! ! U Q ! U Q ! U ! U ! U Q J ! Q Q J ! Q Q ! ! Q ! Y Q Q ! Q Q Q ! Q U ! T Q Q T U Q ! ! Q Q U ! Q Y Q ! Q ! Q ! ! Q Q ! Q Q Q Y Q Q Q Y Y Q Q Q Q F G 7 ",
"Q.~.).~.[.~.).!.~.~.~.~.~.[.~.~.~.~.~.~.).~.~.~.~.~.!.~.~.~.~.~.!.~.!.!.Q.Q.~.Q.~.Q.~.!.~.~.!.~.~.~.~.~.~.~.H.~.~.~.H.oX~.~.~.~.~.!.~.~.!.~.!.~.~.~.~.!.~.~.~.~.~.!.~.~.~.~.~.~.~.~.!.!.!.~.~.~.~.!.!.~.!.!.!.!.P.W.9....... ..... ... .) ~ a # # # # @ @ @ # @ @ @ @ @ O O O E Q k.-.$.@.$.*.@.*.+.*.+.*.#.*.+.+.+.+.+.+.@.+.X.O.#.O...I ~ W ` / / I , , X X X X O @ & d r v.eXqX>X9X9XpXaXaXiXsXaXaXvXzXzXzXvXzXzXgXsXgXsXsXvXaXaXvXgXjXaXgXgXgXaXgXaXiXaXaXiXiXgXiXaXgXfXfXrXfXfXtXgXaXyXfXfXtXfXfXrXrXgXtXrXfXtXiXtXtXfXfXtXgXfXfXrXfXfXgXyXrXtXrXfXfXrXrXrXrXwXwXwXwXwXrXrXrXiXrXwXrXrXwXtXaXeXgXrXgXgXgXvXvXvXjXjXvXgXjXjXjXjXjXgXfXfXfXdXiXiXfXiXjXjXjXdX).p.d.6.0.6.t.b k $ # @ O @ $ @ @ $ @ @ @ O # O O 7 6 C F F F F S S H H K H K K H H H H H Y Y V Y K Y U J K Y K Y T  . .y.C.C.N.).'.).).).`.).).).).).).).).).[.).!.[.(.).`.(.(.^.).`.(.).).).(.].~.~.].~.].].~.~.~.oX~.~.~.~.[.].~.H.oX~.~.~.~.~.~.~.~.~.~.~.~.!.~.~.!.~.!.!.!.~.].!.!.~.~.~.~.~.~.!.!.!.~.~.~.~.~.!.!.~.~.~.!.~.~.~.~.!.!.).!.!.!.~.~.!.!.!.!.W.!.~.I.I.!.!.!.W.I.6.t.k 7 7 ; # @ @ @ # # & : & & & & & & * > 8 7 7 4 4 2 f l U Q Q T Q Q Q Q ! ! Q U ! U U ! U Q U ! Q Q ! Q ! Q ! Q Q ! Q U ! Q U ! Q Q Q Q Q ! ! Q ! Q Q ! U Q U U Q Q ! Q U Q U ! Q U ! Q Q Q Q Q Q Q Q U ! Q Q Q Q ! Q Q Q U Q U J ! Q Q Y Q Q ! Y Q Q Q Q Q Q Y Q R R n ",
").).~.~.!.~.~.).].~.~.~.~.~.~.~.~.~.~.~.~.~.~.~.~.!.~.!.~.~.~.!.!.!.~.~.Q.~.~.~.Q.Q.~.!.~.!.~.~.~.~.H.~.~.~.~.~.!.!.~.H.~.~.~.oX~.~.~.~.~.~.~.~.~.Q.~.Q.!.~.!.!.H.~.~.~.~.!.~.!.~.!.~.~.~.!.~.~.~.~.!.!.(.!.!.W.f.f.@.} (  . ._ _  ._ ^ P P 4 O $ # $ # # # @ @ @ @ @ @ # O @ E W l.&.-.$.@.*.@.*.@.:.*.@.@.*.#.+.$.+.@.+.@.+.+.O.#.#.#.T ~ W W v v < % O & O X @ = O * ( ( :XqXqX}.6X6XiXaXaXsXaXaXiXiXiXgXiXiXiXaXaXaXaXaXiXiXaXgXiXgXgXgXgXiXgXfXgXiXgXiXfXgXfXfXgXfXtXtXfXgXfXrXgXrXtXfXfXtXfXtXfXtXtXtXfXfXrXrXtXfXtXgXrXfXtXfXfXgXgXtXtXrXtXaXrXfXtXrXtXrXwXwXwXtXtXwXtXtXtXwXwXrXrXwXtXfXyXtXfXfXrXgXtXtXiXgXgXfXfXgXgXfXgXiXfXgXjXjXjXsXfXfXfXjXfXiXuXK.t.;.;.;.-.*.t.t.t.b @ # @ $ @ @ O @ O @ @ @ O O # 7 0 G F F J J K F H H V H H H H H V H H H Y K Y V H U U K K Y K K Y K Y Y Y ;.u.A.A.W.W.W.W.E.W.W.W.E.W.P.W.W.W.W.W.P.!.J.J.A.n.n.n.n.b.n.A.Q.H.~.!.].!.~.].~.~.[.~.~.~.[.~.~.~.~.~.].~.~.~.~.~.~.~.~.).].~.~.~.~.!.~.!.~.!.!.!.!.~.!.~.!.[.~.~.~.~.~.~.!.~.~.~.~.!.~.~.!.~.~.~.!.~.!.).~.!.~.!.~.~.~.~.!.~.!.!.!.W.I.I.!.!.I.I.I.k.k.F l d ; @ @ @ # # - # & : & & * & # @ # # # # # # w h f P Q Q ~ Y Q Q Q U Q Q ! Q Y Q ) Q ! ! Q Q Q Y Q Q Q Y Q U Q ! Q ! U Q U Q Y Q ! Y Q Q U ! U Q Q ! Q Q ! Q Q U ! U ! Q Y Q U ! Q ! U ! U U ! U ! Q ! Y Q Q U Q ! J ! ! Q Q Q U ! Q Q Q Q Q Q Q Q Q Q Y Q Q R R k ",
"Q.~.~.~.~.~.).~.~.~.~.~.~.~.~.~.~.~.~.).~.~.~.~.~.~.~.~.!.!.~.~.~.!.~.~.Q.Q.!.Q.!.~.~.~.~.~.~.~.~.~.[.~.~.!.!.~.~.~.~.].~.~.~.H.~.!.H.[.~.!.~.!.!.~.!.~.~.~.~.~.~.~.~.~.~.!.~.~.~.~.!.~.~.~.~.~.!.~.~.!.!.(.!.W.l.f.;.} .... ...(  .{ _ U P 4 O # # # $ @ @ @ @ @ @ @ O @ @ O E E k.-.-.@.$.$.@.@.@.*.@.@.+.+.@.@.+.+.@.+.+.+.+.O.#.#.#.P W W W x v , % X & X X O & & * _ ( :X<X>X}.:X:XiXsXaXgXsXiXgXaXaXiXaXaXaXiXiXgXiXaXaXaXiXiXaXiXiXgXiXgXiXjXgXgXfXgXfXfXsXfXfXfXrXgXtXgXtXgXfXtXgXfXyXtXwXfXrXfXtXiXyXrXtXfXfXrXiXtXtXrXrXgXyXfXrXfXgXtXyXfXtXtXfXrXwXtXrXtXtXwXwXwXtXrXrXtXfXtXtXiXtXtXgXrXgXrXtXfXfXaXgXfXgXaXgXaXfXgXfXjXfXgXfXjXjXfXsXfXjXfXjXtXiXH.;.;.*.*.;.t.t.t.q.b # @ @ @ O @ @ @ @ $ O O O # $ 7 8 G F R G J J F H H K H H H H H H H H H V Y V Y H U H U Y K T K H Y K Y K ;.i.A.A.E.E.I.W.!.E.W.P.W.W.W.!.P.W.P.W.W.P.W.A.A.Z.Z.n.n.Z.m.A.G.!.~.[.H.~.!.~.!.~.~.~.~.~.~.~.~.~.~.~.~.~.~.~.~.~.~.[.~.~.~.).~.~.!.~.!.~.!.~.!.!.!.!.!.~.~.H.~.~.!.~.!.~.~.~.!.!.~.~.~.!.).!.~.!.).~.~.!.~.~.~.!.!.!.~.!.!.!.!.!.I.!.!.!.I.!.!.I.!.k.d.F d n 0 # @ @ & @ & : & # & & # & & # # + # w # # 2 l f F Q Q Y Q Q Y Q J ) U ! Q Q Q U Q ! J Q ! U Q Q ! U Q Q ! Q ! U Q U ! ! Q Q U ! Q Q Q ! Q Q Y ! U Q Q ! U ! U Q ! Q Q Q Q ! U Q Q Q ! Q Q ! Q Q Q J ! Q Q ! U Q Q ! Q U ! Y Q Q Q Y ! Y Q Q Q Y Q Y Q Y ) Q Q k ",
"Q.~.!.~.~.~.Q.Q.~.~.~.!.Q.Q.Q.Q.~.~.~.~.~.).~.!.!.~.~.~.~.~.~.!.~.~.!.!.~.~.Q.Q.~.).!.Q.~.~.!.~.~.~.~.~.~.!.!.~.~.~.~.!.!.~.~.~.~.~.~.~.~.~.~.Q.~.Q.~.~.~.~.~.!.~.~.~.~.~.!.~.~.~.~.~.~.~.~.~.~.!.~.!.!.~.!.!.Z.-.=...|  . . . .^  .` ) M B w ; # @ @ O # # # @ @ # @ # O # * ) Q k.-.$.@.@.@.@.@.*.*.+.@.+.+.+.@.*.@.+.+.+.@.+.+.#.#.#.~ ` / v & & = % O & & & O & # z L.P.rX$X$XQ.XX6XfXfXjXfXfXgXfXgXgXfXgXfXiXgXjXiXaXgXfXjXgXaXgXaXjXaXfXiXjXfXfXjXiXjXfXfXfXjXfXjXfXfXiXyXgXgXrXtXfXfXgXfXyXfXyXfXtXfXtXtXtXrXtXgXgXfXfXfXfXtXfXgXtXgXtXfXfXtXgXtXfXyXtXfXiXtXtXfXtXiXtXtXiXtXfXtXhXtXtXhXhXfXfXtXfXyXyXfXfXfXfXfXhXfXfXfXgXfXgXfXfXgXfXfXfXfX8XwX.Xa.M.;.y.| ;.;.;.;.*.-.;.t.l a # O @ O O $ @ @ @ O O O O 8 0 G R R D R R R G J K K S H H H H H P H H U H H T H H H H H Y T K K K Y Y Y { X.X.:.;.:.;.;.;.;.o.o.;.;.;.;.;.<.X.;.o.o.X.X.;.| X.X.X.X.:.;.t.p.M.M.m.E.W.!.~.~.[.~.~.~.).~.~.~.~.).~.~.~.~.~.).!.!.).~.(.~.~.~.~.~.!.~.(.!.!.(.~.!.~.~.!.~.~.!.~.~.!.~.).~.!.~.~.!.!.~.~.~.!.~.~.~.~.~.~.~.~.!.!.~.!.!.!.!.!.!.!.I.!.I.!.W.W.I.z.x.) z k 8 # @ @ & # @ : # & # : & & # & @ # # # # * * g g P U T ~ Q Q Q Q ! Q ! Q Q U ! J ! ! Y Q Q J ! Q Q U ! ! Q U Q ! U U ! U Q Q Q Q Q Q Y Q Q J ! Q Q Q Q Q Q ! Q Q Q ! Q Q ! ! U ! Q ! U Q Q U Y Q Q ! ! Q J ! Q Q Q Q ! ! Q R ! U Q ! ! Q Q Q ! R Q U Y U Q Q R L ",
"!.!.Q.Q.!.!.!.!.~.!.~.Q.~.^.Q.!.~.~.~.~.).~.(.).~.~.I.~.~.!.~.~.~.!.~.~.!.!.!.Q.!.Q.!.~.!.~.).~.~.~.!.!.!.~.!.~.~.!.~.~.~.~.!.Q.!.~.!.!.Q.~.W.!.Q.Q.!.!.~.W.~.~.~.~.~.~.).!.!.!.(.!.~.~.~.~.!.~.~.~.~.!.!.P.K.9...} { { ^  ._ ^ ` ` ` ^ q q $ $ # # @ @ @ $ @ @ @ @ @ @ # O * ` / l.&.-.+.+.+.@.*.@.+.@.*.+.@.*.+.+.+.+.@.+.+.+.+.#.#.&._ ~ ~ 6 X O O @ X & O @ O 8 6 1.qXqX$X!.Q.Q.6X$XfXfXfXjXjXfXjXfXgXjXfXjXjXgXfXgXfXfXgXfXgXgXfXgXfXaXgXgXfXgXgXfXgXfXgXgXfXfXgXfXfXfXyXfXtXfXgXfXtXfXtXyXfXtXgXfXgXfXfXhXfXgXfXfXtXfXtXfXtXgXtXrXtXgXgXtXgXfXtXgXfXtXgXtXtXfXfXrXyXtXfXyXtXfXtXfXfXfXtXfXtXfXtXhXhXfXfXfXfXgXfXhXfXtXhXhXfXgXgXfXtXiX0X$X$X_.M.j.y.;.;.;.| ;.| ;.:.;.@.@.*.*.) W : @ @ @ @ @ @ O @ @ # O # 8 8 D R R R D F F F F F K H F U S H H H H Y V H H H H H H H H H K K T K {  .| | X.| X.| X.X. .| X.| X.X.| | X.X. .X.| X. .| |  .X.X.X.X.| X.X.| | ..| :.;.t.u.M.M.K.!.~.~.!.).~.~.).~.].~.~.~.).~.).).~.~.~.~.!.!.!.!.!.!.!.(.(.!.!.!.!.~.~.!.~.!.!.~.~.!.!.~.!.~.!.).~.~.!.~.).~.!.!.!.!.!.!.~.~.Q.!.!.!.W.!.!.!.!.~.!.(.I.W.W.I.h.h._ C C l ; # # @ @ : & # : & # & # & & # # & & * * > h k P ~ U Q Q Q Y Q Q Q J Q Q ! Q Q Q Q Q Q Q ! ! Q ! Q Q U Q ! U ! Q ! ) Q ! Q ! U J ! Q Q Q ! ! Q ! Q Y Q ! J Y Q ! U Q ! U Q Q Q Q Y Q ! Q ! Q ! Q Q Q U ! Q Q Q Y Q U Q ! Y Q Q Q U U Q U ! ! Y ! Q T Q Q Q Q S ",
"!.Q.!.!.~.!.Q.Q.!.Q.Q.Q.~.!.Q./.~.~.~.~.~.~.!.).~.~.~.~.~.~.!.~.~.~.!.~.Q.!.Q.!.Q.~.~.~.!.~.!.).~.~.).~.).!.~.!.!.~.~.Q.Q.~.~.!.~.~.~.~.!.~.!.~.~.E.!.!.~.!.~.~.~.~.~.~.!.(.!.!.!.!.!.!.~.!.~.!.!.!.!.Q.!.J.J.9.....{  . .^  .^ ` ` ` ~ y q + ; @ @ # @ @ @ # @ # O # O O # * / ( l.;.&.+.@.+.#.*.@.*.@.+.@.+.+.@.*.+.@.+.@.@.+.+.#.,.&._ / W 8 @ O & X & @ # @ * 8 8 8.qXqX$X).~.!.4X6XfXfXjXfXfXjXjXfXfXgXfXfXfXgXfXgXjXfXfXgXjXfXgXgXgXgXjXfXjXgXgXfXfXjXfXjXfXjXgXfXfXgXrXgXfXtXrXtXtXtXyXfXaXtXtXfXtXfXfXyXgXtXfXtXyXfXhXfXfXtXgXrXfXfXfXfXtXfXfXtXtXgXtXtXwXfXtXtXiXtXfXfXfXtXtXgXtXfXfXfXtXfXfXtXtXtXgXfXfXfXfXfXfXfXgXfXfXfXgXfXwXtX9X&X6X).M.b.y.;.;.;.;.;.;.;.:.:.;.*.*.%./ E : O @ @ # @ @ @ $ O O # O 9 0 G E D D R R G J G F S F K V V U H Y V V K H H H H H H H H K K Y Y K { Y | | ..X.| | X.| X.|  .X.| X.| X.| X.| X.X.X.| ....X.X.X.X.X.X.| | | | :.:.;.-.;.u.j.M.G.Q.!.Q.~.~.).~.~.).~.~.~.~.~.~.).~.).~.~.~.!.!.~.!.(.!.!.(.!.!.~.~.!.~.!.(.~.!.!.~.!.~.!.!.!.!.!.!.~.!.~.~.~.!.!.~.!.~.~.~.!.~.!.Q.!.!.!.!.!.!.!.!.W.I.I.W.W.P.h.h._ C A d ; # # - & @ : : & & : & : & & & & O * * * * j g E Q T Q Q Y Y Q ! Q ! ! Q Q ) Q ! ! Q ! ! Q Q Q Q Q Q U Q Q Q Q Y Q U Q J ! U ! ! ! Q ! Y Q Q Q ! Q Q Q Q Q Q Q Q Q Q Q ! ! U ! Q Q Q ! Q Q Q Y U Q Y ! ! Q Y Q ! Q ! U ! ! Q ! ! Q ! ! Q Y Q U ! U T Y Q U Q G ",
"m.P.K.!.!.!.!.Q.Q.!.!.Q.!.Q.!.Q.~.~.~.!.(.).!.!.~.~.~.~.!.!.~.~.!.~.~.~.!.!.!.(.!.!.!.~.~.~.~.!.~.~.!.~.~.!.~.~.!.~.!.Q.Q.!.Q.!.~.!.!.~.~.!.!.~.!.~.!.!.!.!.!.~.!.!.!.!.!.!.(.!.).!.!.(.!.~.!.~.!.Q.!.!.m.9.u.O.{  .^ ^ { ` ^ ` ^ ^ ) S 4 4 + ; # @ @ @ # $ @ @ # @ # & + O 8 ....z.1.-.+.+.+.@.@.+.+.+.+.*.@.@.+.@.@.+.+.+.+.@.#.%.>.,.] x x @ X X = X X & O @ * U U OX:X-X`.W.E.!.6X-XfXfXfXfXfXfXfXfXjXfXfXjXgXfXfXjXfXgXgXfXiXgXfXfXfXgXiXgXfXfXfXjXgXfXfXfXfXkXfXfXfXfXfXfXgXfXgXfXhXfXfXyXyXfXyXgXyXfXyXfXtXfXgXfXgXfXfXfXfXgXyXfXfXhXfXfXfXgXgXyXfXtXtXfXfXfXfXfXfXfXtXtXtXfXtXtXhXfXfXfXfXfXtXtXhXfXtXfXtXhXtXhXyXfXfXfXtXtXwX8X.X'.A.y.u.;.;.;.:.:.;.;.:.:.:.:.;.:.@.$.*.*.[ [ 6 @ @ @ @ @ @ @ @ # @ # # 0 p D R R E R R R J R F K F J H H H P K Y V Y H H H H H T H T Y Y Y T {  .o. . ...X.| |  .| X.X.X.| X.| X.X. .X. .X.| ......| | X. . . .X.X. .:.| | +.| ..| ....X.;.i.a.n.W.E.~.~.~.~.~.!.].).).(.!.!.~.(.(.~.!.!.~.!.W.(.!.!.!.(.(.!.(.(.!.!.(.!.(.!.!.!.(.!.).!.).!.~.!.!.~.~.!.(.!.!.!.(.!.~.!.!.~.!.!.(.!.!.!.!.I.(.W.(.W.(.P.9.9.( I P k > @ @ # # & # & # : @ @ & @ @ @ & & & & * , j k P Q Q Q Q Q Q Q U Q Q Q Q ! J U Q U Q U J Q ! U ! J ) ! Y Q Y Q Q Q ! U Q ! Q Q Q Q Q U Q Q ! U J ! Q Y Q ! U ! U ! J ! Q J Q Q ! U Q U Y Q ! R ! Q Q Q Q U ! Q U Q Q Q U Q U U U Q U Q Q Q Q ! Q U Q Q ) Q Q G ",
"@.7.u.l.m.b.A.F.A.E.!.E.W.Q.!.Q.Q.Q.).!.!.).!.(.!.!.].!.!.~.!.!.~.!.~.~.!.(.!.!.!.!.~.~.!.~.!.~.~.~.~.~.~.~.!.!.~.~.~.Q.Q.~.!.~.~.~.~.W.!.!.!.~.!.!.!.!.!.!.~.!.!.!.(.!.!.!.!.!.(.(.(.!.~.!.!.E.W.Z.f.f.1.} { ^ ^ ^ ^ ^ { ^ / ` ` T T g + w + + # @ @ @ @ @ @ @ @ O @ @ O # h ,.#.x.1.-.+.X.+.+.+.*.*...*.@.+.*.@.@.$.+.$.@.#.#.#.#.,.%.P : : = X O % @ X @ # O r B.c.:X).`.W.E.W.!.$X5XfXfXgXfXfXfXkXfXfXfXfXfXfXfXjXfXgXfXjXjXgXfXfXjXiXgXjXfXjXfXfXjXfXfXjXfXfXfXkXkXiXgXfXgXfXgXfXgXtXfXtXfXgXgXtXfXhXtXfXfXgXtXgXfXfXfXkXfXyXfXyXfXfXfXfXfXfXfXfXfXfXyXyXtXfXfXfXfXfXfXtXtXtXtXtXtXfXfXfXfXfXfXfXfXtXgXtXtXfXfXtXfXtXtX0X7X$X).^.M.3.2.;.;.;.o.;.;.;.;.;.X.;.;.:.;.;.$.;.*.*.&.[ / < @ @ @ # # @ @ - # @ $ # 9 n D E R E D F R J R G J F K T V H H V H H H H H H T K Y Y Y T  .|  .o.| o. . .o. .X.X.| X.X.X.|  .X.X.X.X...X.X.X...X.| X.| X. .| X.X.| ..| ......| | | | X.| X.| | | ;.-.y.M.E.K.W.!.~.].~.!.(.).).(.!.(.).!.!.!.^.!.^.(.(.!.(.(.!.!.!.!.!.!.!.(.!.!.(.(.!.!.!.!.(.!.(.!.(.!.!.(.!.!.!.(.!.!.!.(.!.(.!.(.~.!.!.!.!.!.!.!.W.W.Z.1.=.^ ~ T A 6 @ # # # @ & @ @ : & X : @ @ : # & & # : > k k U U ~ U Q Q Q Q ! Q Y Q Q ! Q ! ! U Q ! ! ! Q U ! U Q Q ! U U ! Q ! Q ! U Q Q Q Q ! ! Q Q ! Q Q Q Q U Q ! J U ) Q Y ! U Q U Q ! Q ! U Q U ! ! Q U ! ! U Q ! Q Q U Q ! ! Y Q U Y U Q U Q ! ! Q Q ! U Q T Q ) ) R ",
"@.u.u.f.M.m.Z.F.K.E.W.W.!.Q.Q.!.!.Q.!.(.(.!.!.!.~.!.!.~.~.!.!.~.!.!.!.!.~.!.(.(.!.!.!.~.!.~.~.!.~.!.~.!.!.~.~.~.~.!.Q.!.Q.!.Q.Q.~.!.~.!.!.!.!.E.!.!.!.!.~.Q.W.~.!.!.!.!.!.!.!.!.).!.).!.!.~.~.E.E.A.f.f.=. . .^ ^ ^ ^ { ^ ^ ^ ^ ~ T W g + w + $ $ # @ @ # @ @ # @ O # @ # # h #.#.x.>.1.+.+.+.+.@.+.@.....+.@.+.#.@.+.+.+.@.#.#.#.O.,.%.P , , . X X O X X & # # r V.c.:X`._.P.E.P.!.-X5XfXkXfXkXkXfXfXfXkXfXkXfXjXfXfXgXfXgXfXfXfXjXgXfXjXfXfXgXfXgXfXfXjXfXfXfXfXkXfXfXgXfXgXfXfXtXtXyXfXyXtXhXyXtXyXfXtXfXtXfXtXgXfXfXfXfXfXfXgXtXfXfXhXfXfXfXfXfXfXfXfXyXyXfXfXfXfXfXfXfXtXtXtXtXfXwXgXfXfXfXhXtXfXtXfXfXfXgXyXfXtXgXtXwXwX8X$X^.^.M.2.2.;.o.;.;.o.;.:.;.;.:.:.;.;.:.@.;.*.*.*.*./ [ 0 @ @ : ; @ # @ @ @ @ # @ p p G E D R R R F G R J K K F V H H H H H H H H H H H Y Y Y Y Y  . .| | o.|  .| | X. .X. .X. .X.| ....| ..| ..| ..| X.| X.|  .X. .X. . .X.X.X.X.| ....| +...| X. .| X.| :.u.2.M.m.K.!.~.!.~.!.(.(.!.(.(.).(.^.!.!.^.!.^.!.W.(.(.!.!.(.!.).!.(.).!.!.(.!.!.~.(.(.!.!.~.!.!.(.!.!.(.(.!.(.!.!.(.!.!.!.(.!.!.!.(.!.!.^.!.Y.!.!.!.W.Z.$.$.^ ~ ~ C 8 # @ @ @ @ # : & @ & @ @ & & # & # & & & > k k U ~ ~ T Q T T Q ! U Q Q Q U U ! Q Q Q U Q Q Q ! Q Q ! U U ! Q Q Q U U ! U ! ! Q Q U Q U ! J ! Q ! U ! Q Q ) U U Q Q Q Q Q ! U Q Q Y Q ! Q Q U ! Q Q Q Q J ! ! Q ! Q U Q Q Q ! R U Q ! ! Q U ! U Q U U Q Q Q Q R ",
"{ { { { | X.X.y.4.y.i.i.j.b.j.N.W.W.Q.Q.!.Q.(.Q.~.~.!.!.!.!.!.~.!.(.(.!.(.!.!.!.!.!.~.~.~.!.).!.~.~.~.!.~.~.!.~.~.~.~.Q.Q.Q.!.Q.!.~.~.W.!.!.!.!.!.!.!.W.Q.W.Q.~.!.!.(.(.!.W.W.!.W.K.W.m.n.M.v.u.i.;.{ { ^ ^ { ^ ! T ^ ^ T ^ T ^ T P P t + + # # # @ # O @ @ ; $ # O $ # 4 6 I 1.1.x.1.1.+.X.+...+.+.*.+.*.*.+.*.+.@.@.+.@.+.#.#.] ] P P e % = . O O X @ O O , , ( |.oX[.W.E.E.S.E.!.6X6XfXfXkXfXfXfXkXfXfXfXfXjXfXjXgXfXjXfXfXgXgXfXfXgXfXfXjXfXgXfXfXgXjXfXkXfXfXfXfXfXfXgXfXfXgXfXfXgXyXyXfXfXyXfXfXfXfXfXfXfXfXfXfXhXfXfXfXgXtXfXfXtXyXfXfXfXkXfXfXfXfXtXtXfXfXfXfXfXfXfXtXtXfXtXtXtXfXtXfXfXtXtXyXtXgXtXyXtXwXwX0X6X5X.XA.A.d.=.=.o.o.:.;.;.o.o.;.o.o.;.:.;.X.:.X.;.@.;.;.@.*.*.W / > @ @ # # @ - @ @ # # @ @ a 9 D E E R R D D R F F F K F T V H H H H H H B K V Y Y Y { |  .o.|  . . .| o.o. .X. .X.X.| X.X.X.....X.X.X. .X.X...| X.| ....| X.X. .X.| X...| ..| X.} X.| ..X.| | X.| X.X.X.@.-.7.l.m.J.I.!.(.^.(.(.(.(.^.^.!.(.^.(.(.(.(.W.(.!.(.!.!.!.!.].!.(.!.!.(.!.!.!.!.!.!.(.(.!.!.!.!.!.!.(.!.(.!.!.!.(.(.!.^.(.!.^.!.!.!.!.W.!.P.Z.Z.9. .O.^ ` / U a * : @ @ & # @ @ & @ : & - & & : @ # & # > z k P U U ~ Q Q Q Q Q ! Q Q ! ! U Q Q Y Q ! J ! Q U Q Y Q ! Q ) ! U ! U Q Q Q U ! ! U ! Q ! Q ! Q Q Q ! Q Q ! J ! Q Q ! ! Q ! J Q J Q Q ! Q ! Q Q U ! U ! Q Q ! U Q ! Q Q Q U Q U ! ! R U Q Q Q Q Q Q ! Q Q U ) Q Q ",
"Y { { { ! ! Y Y Y Y Y Y Y X.| y.p.p.l.m.n.K.W.P.!.I.!.!.!.~.!.!.!.).!.~.(.!.!.~.!.(.!.).~.~.!.!.!.!.~.!.!.Q.!.Q.!.!.!.!.!.~.Q.~.~.~.!.~.!.!.!.!.!.!.!.~.W.W.W.E.H.H.n.M.n.l.u.i.7.t.-.;.| +.{ ! ! Y { ^ ^ ^ T ^ ^ ^ ^ ^ { ^ ^ ^ T A N * # $ # @ # @ @ @ @ @ # $ O O # # k k _ 8.7.l.&.&.+.+.+.*.+.+.+.+.+.@.@.+.*.+.@.+.#.+.+.O.,.W e e = % % . X X = X X & d d c.].].W.G.P.W.W.W.!.8X8XjXfXfXjXjXkXfXjXjXfXjXfXgXfXjXfXfXfXjXfXfXjXjXfXfXgXiXgXfXjXjXfXfXgXfXfXgXfXgXgXfXiXfXfXtXfXgXtXfXfXyXfXyXfXtXtXtXfXtXtXtXwXtXfXwXtXtXwXtXtXtXtXtXtXfXfXfXtXfXtXtXtXtXtXwXwXfXiXwXwX8XwX0X6X8X6X6X6X6X$X5X5X5X5X*X5X*X@X_.).A.f.g.3.o.=.o.o.o.;.:.;.;.o.o.;.o.o.o.X.;.:.;.:.@.@.$.@.*.*.*.#.F D ; @ @ & : - # @ @ # @ @ @ 8 0 C E E E D R R F R F F F K V T H H V H H H Y Y Y {  .T  .X.o. .o.| o.| o.| o.| | X. .|  .X...| X. .X.| | X.X.| .. .X.X...| X.|  .| X. .| ..X.....} X.| ..| | X.| | X.| | ..| | | +.-.-.u.l.l.A.J.K.L.!.I.W.W.(.Y.W.(.W.Y.(.Y.(.!.!.(.~.!.!.^.!.(.(.!.^.(.!.!.(.(.!.!.].!.(.!.[.!.!.(.!.(.Y.!.W.!.!.I.W.W.W.!.P.P.m.z.l.i.-.-. . .^  .^ ^ ~ C > > @ # @ : @ & @ & X @ % @ @ @ # # & ; , x k U ~ T U Q Q U ! Q U Q Y U Q ! U Q Q Q Q ! Q Q ! Q Q Y U Q U U ) U ! ! U ! Q Q J ! U Q Y U Q Y U Q Y U ! Q Q U Q Y U U Q ! Q Q ! ! U U Q Y U ! U U ! U ! U U Q Y U Q Y U ! U Q U Q Y Q Y U ! U Y U ! Q Q Q U Q Q ",
"{ { { Y { { Y Y { Y Y Y Y X.X.y.a.i.j.Z.Z.A.E.!.!.!.!.!.!.!.!.Q.W.Q.~.!.!.(.Q.~.!.!.~.~.!.Q.).Q.!.~.~.~.~.~.I.~.!.!.Q.!.!.Q.Q.~.!.!.~.!.!.!.!.!.~.!.!.Q.!.W.W.H.A.A.Z.M.b.f.i.i.7.-.2.;.....{ ! T { Y ! { T ^ ^ ^ ! ^ ^ ^ ^ ~ ^ ` A A * + + # # @ @ @ # @ @ @ @ @ @ O * k k _ 9.7.l.&.-.@.#.+.@.*.+.+.....+.*.@.*.+.*.@.+.+.+.@.#.P e e = % = . X X X X @ * s d c.].].W.W.E.W.P.G.).0X6XhXgXjXfXfXfXfXkXfXkXfXkXgXfXgXfXfXjXfXhXjXfXfXgXfXgXfXfXfXjXfXfXfXfXfXgXyXfXfXfXfXfXtXtXfXfXyXyXyXfXyXtXtXfXtXtXtXtXrXtXtXrXtXwXwXtXwXtXwXtXtXwXfXwXwXfXfXfXiXfXwXwXtXwXwXwXiXwXwXwX8X8X8X8X6X5X6X5X5X&X5X5X$X5X$X*X5X.X/.'.G.f.g.2.=.o.o.o.o.;.;.o.;.;.;.o.;.o.o.o.o.o.;.:.@.;.@.@.*.@.#.*.E D & @ @ & @ @ & # @ @ @ # @ 0 9 G E E D E R R F R K F F K I V U V Y V Y V Y Y Y Y  . . .| X.| X.| | X.X. . .o. .| X.| X.X.| ..X.X.| ..X.X. .X.| X.X.|  .X.|  .X.| X.|  ...| ....| X.| |  .....| X. ...| | X.} X.X.=.=.i.M.l.Z.A.P.P.W.W.I.W.!.^.^.(.^.W.(.W.(.!.(.!.!.(.!.^.^.!.!.^.!.^.(.!.!.^.!.^.).(.^.(.!.).^.^.!.!.!.W.W.I.W.W.W.I.W.W.G.G.D.l.g.i.<.-...^  .^ ^ _ ^ c > > # @ @ @ & @ & @ & & @ & & # @ # & & > k z U ~ T T Q Q U Q Q U U ) U ! Q U ! J ! Q Q Q U ! Q Q ! ! U ! Q U Q Y Q ! U ! U ! U ! U ! Q U ! U ! Y Q U U U ! Y Q Y Q U ! Q Q Q ! ! U ! Y Q U ! U Q Q Y Y Q U ) U Q ! U R Y Y ! U U ! U U ! U Y Y ) Q Q Q Q Q ) ",
"{ Y { { { Y { { Y { Y { Y Y Y Y ! ! { X.X.=.3.7.i.a.a.x.x.l.l.M.j.m.A.m.A.K.m.m.K.E.E.E.P.P.W.E.E.W.W.!.W.!.~.~.Q.Q.~.~.!.~.~.~.!.~.~.~.I.W.K.H.A.M.l.l.p.9.u.-.=.=.o...} { { ^ ! { Y { Y ^ Y ^ ^ ^ ^ ^ ! ^ ! ^ ^ ^ ^ ^ ^ ^ ^ ^ T g g + * + O @ - $ - @ @ - @ @ $ # # r ^ Q #.7.0.d.$.&.+.+...+.:...*.*.@.*.+...+.*.@.+.*.+.*.Q / g , * % % % % O O @ & # : / / (.!.!.P.K.A.S.E.W.).6X6XiXwX8X7X8X$X5X4XoX4XoXoXoX'.oX'.[.oX[.oX[.'.[.'.[.[.'.oX[.[.oXoXoXoX[.'.'.'.'.'._.'.'./.).'.).~.'./.'.'.).).'./.).)./.!././.!.!.W.!.!.^.!.W.W.!.!.!.Q.).!.!.^.!.!.!.!.Q.W.W.W.K.E.H.m.m.j.j.j.g.f.f.f.a.u.a.a.a.a.i.i.u.-.4.;.o.;.:.o.o.o.o.o.o.o.o.o.:.o.o.o.o.;.o.o.o.:.:.@.@.*.@.@.*.#.*.j k # : # @ # : @ - # ; # @ # ; ; l E D E E R R F F F J S F V Y V B V U Y Y Y ^ {  .X.| X.X.X.X. .X.X. .| X.| X.| o.X.|  .X. .....| X...X.| ....| X.X.| ....X.| X. ... ...| | ..| X...| X.| | ..X.| | X.....| X.| } | ....o.X.=.2.3.9.i.i.h.l.x.x.b.m.Z.Z.A.Z.P.P.W.W.(.W.(.^.^.^.^.(.W.I.W.P.P.P.K.K.K.J.A.K.Z.n.n.n.x.x.x.l.h.d.d.d.d.p.p.9.3.4.;.X.X. .{ { { ^ }  .( { / ~ 7 7 ; ; # & - % = X @ X @ @ O @ @ & : * , z z P Q ~ U Q Q Q Q ! ! Q U Q U ! ! Q ! J ! Q ! Q Q Q Y U Q Q U Q Y U Q U J Q U Q Q Q U U U ! J U Q U Q U Q Q U U U U Q U Q J ! J Q J Q Q U Q U Q U Q Y U Q Q U Q U U Y U U Q Q Q U ! U U Q ! U Q R Q U Q Q Q Q ) R ",
"{ ! { Y { { { Y { Y Y {  .{ Y Y { Y Y ! Y Y Y Y ! { | | | } | | X.:.;.;.-.;.-.y.-.-.y.-.-.u.y.7.i.p.p.f.f.k.M.c.b.m.F.F.P.K.K.m.M.l.f.p.9.u.2.-.=.o.| | { { ! { ! { ^ Y Y ^ Y ^ { ! { ! ^ T ^ ^ ^ Y T ^ ^ ! ^ ^ ^ ^ ^ ^ ^ ^ ) ~ P t e & @ O # - @ - - @ @ $ - # $ 4 4 G #.+.>.i.i.9.@.@.+.+.+.+...*...@.*.....*.+.@.*.+.#.#._ z x , % , = = X . & X & O O e r.w.I.I.W.P.K.S.S.E.P.E.).).!.A.K.M.a.a.i.i.2.u.u.2.2.y.2.2.-.-.7.-.-.-.-.2.-.-.-.-.-.-.-.-.y.-.-.y.;.<.-.2.-.-.2.y.-.y.-.y.-.y.-.-.-.-.y.<.;.-.=.=.<.;.;.=.;.;.=.<.=.;.;.<.;.;.=.;.;.-.;.;.<.;.=.;.;.;.;.@.;.@.X.X.X.o.o.X...X.X.X.:.@.X.X.o.X.X.o.:.:.:.o.X.;.o.o.$.o.$.o.o.o.o.o.;.;.o.;.;.X.o.;.*.;.;.@.$.*.@.$.#.+.8 8 # @ @ : & @ : # - # @ @ @ # @ 4 b x E W W Q U P J U U J Y V Y U Y T T  . .X.X. .X. .| |  .X.| X. .X.X. .o.| o.| X.X.....X.| X.|  ...X.| ..| X. .X.X.........| | X.| | X... .X.|  ...{ X.....| | | | .. .} X.X.} | ....| | ..{ } } } | ....+.X.$.&.;.-.2.1.7.u.9.f.l.x.x.b.b.j.g.f.9.9.9.7.2.2.2.2.1.1.=.-.;.$.$.@.X.+.X.} .. .} ( { { { { ! { { ^ ^ {  .{  . . . .^ ` ` / g d # @ # @ @ & @ % @ @ & X & @ @ # & : > x x P Q T ~ T Q Q Q U Q ! Q ! U U Q Q Q Q Q Q Q U ! ! Q U Q ! ! U Q Q U U ! U ! ! J Q U Q U Q Q Q ! Q J ! U ! Q Q U Q J ! U Q U J Q Q Q U Q Y Q U ! ! J Q U U ! ! U ! U Y Q U U U ! ! U Q R U Q U Q Q U Q Q ) Q Q ) ",
"{ ! { { { { Y { T { { { { { { { Y { ! ! Y Q T Y ! } { | ..X.| +.X.;.;.;.-.-.-.-.y.-.-.2.-.2.y.y.p.d.p.p.l.l.M.M.M.m.A.G.E.K.K.m.H.l.l.p.u.u.2.;.=.X. .| { ! { Y ! Y Y ^ Y ! { Y ! ! Y ^ ^ ^ ^ Y ^ ! ^ ^ T { Y ^ ^ ! ^ ) ^ ~ ~ ^ P e t & # @ @ @ @ - @ @ - @ @ $ # 4 4 G @.#.&.0.u.7.;.@...+.+.+.+.+.+.*...*.@.+.+.+.+.@.#.#._ j x , = = % X X % O X X = O e w.w.(.U.P.K.S.P.S.E.E.E.^.Q.!.K.m.n.l.a.a.u.u.u.2.2.2.2.2.2.7.-.-.y.-.-.-.-.2.-.-.-.-.y.u.;.-.y.-.;.y.-.2.-.-.2.<.-.-.-.;.y.-.;.-.4.2.-.;.;.4.<.;.=.;.;.-.=.=.=.=.;.;.<.;.=.=.=.=.;.;.;.;.=.;.<.;.=.$.;.;.;.@.@.X.X.X.X.X.X.X.X.X.X.:.:.X.X.X.X.o.X.o.o.;.o.o.o.o.o.o.o.o.o.o.#.$.o.o.o.o.o.o.o.;.X.:.:.:.@.@.$.@.*.*.' 8 8 # @ @ # @ & # @ # # @ - @ # @ 0 b j E W E Q J U U J J U Y U U T Y Y  . .X.{ X.X. .X.X.X. .X.X. .X.| | X. .X. .o...| X. .X.X.X...X.| X.X.X.X.....| X... ...| .. .| | X.| | | X.| | | X.| | | .. .X...| | | } X.|  ...|  . .} } { {  .| ..X.@.X.$.-.$.1.1.-.7.u.p.d.l.l.c.x.C.b.f.f.s.9.u.7.2.2.2.1.3.3.1.-.-.$.;.@.@.X....... . .} } { { { { { Y { ^ { { { ^ } { }  . .^ / s g * # @ @ @ & X @ @ % O & O @ & @ & : , z j F ~ T Q ~ U T Q U ! Q U ! Q ! Q ! Q U ! ! Y Q Q U Q ! Q U Q U U J ! Q Q Q J Q Q J Q U ! ! J Q J Q ! U Q J ! U Q Q ! U Q U Q ! Q Q J ! U Q U Q U Q ! U Q Q U U U U Q U Q ! U Q Y U U ! Y ! U Q U Q Q Q Q Q Q Q Q ",
" .Y { Y Y Y { { { ! ! ! { { { { { ! ! { Y ! Y Y ! Y ! Y ! Y Y ^ Y { ! ! Y | Y { { ! ! ! ! ! { ! ^ | { | | } | +.:.;.;.;.4.;.;.;.o.....{ ( { ! ! ^ { Y { T { ^ Y ^ Y ^ ^ T ^ ^ ^ ^ ! ^ ^ ! ^ ^ T ^ Y ^ Y ! ^ ^ ! ( ^ ) ^ ( ! ) ^ C > > @ @ @ @ @ - - @ - - @ @ @ * z z ' $.&.&.0.i.7.*.@.:.+.| *...+.:.+...*.+.*.+.#.+.+.+.+.F 8 , : % % % % X % % X & O @ j B.J.P.P.P.K.K.J.A.m.b.f.3.3.1.-.;.$.$.;.;.;.;.;.@.@.o.$.o.o.o.$.@.o.;.o.@.;.@.@.:.@.:.;.:.;.:.:.:.:.X.X.o.o.o.o.X.o.;.:.:.;.:.:.;.o.o.o.o.o.X.o.X.o.o.o.:.:.:.o.o.@.o.o.o.o.o.@.@.@.@.o.@.o.o.o.o.o.o.@.@.o.o.$.;.o.o.o.$.o.o.o.o.o.o.o.o.o.o.o.$.:.;.o.:.o.;.@.$.o.o.o.$.o.o.:.;.o.o.o.o.o.o.;.X.o.:.:.:.:.$.@.@.*.*.( ; # @ @ @ & ; @ # @ @ ; @ # O # @ @ 0 8 c ~ ~ / ) ~ ^ ^ { ^ { { { |  .X. .o...X.X.X.| X.....X.X.| X. .......| X.| X. ...| X.|  . .....X...X.X.| | X.X.| | X.| X.| ..| ........| ..| X.|  .X...| X.|  ...X.| X.} |  .| ..} } } } } | { { { } | { { { { { } { { {  . ...X.X.@.$.o.;.X...| } { { { { { ^ { { ^ { { ^ { { { { { { ^ ` ^ T { { { ^ { { ! { { { { {  .{  .} {  .( / c c : @ @ & X @ & X = @ @ O & @ @ @ : & 4 k j P Q Q Q U Q Q Q ! ! U Q Q Y Q U Q Q ! Q J Q ! Q Q Q ! ! Q U U ! ! J Q Q Q J ! Q ! Q J Q Q Q Q Q Q J J ! Q Q J ! Q J ! Q J Q J ! U ! ! U U Q R Y U Q U U U ) Y Q U Q ! U Q U Q R Q U Q U ! R U ! J ! ! Q R ) R ) ",
"{ { { { { {  .Y ! { { { Y { Y ! ! { { Y { Y ^ ! { ! { { { { Y { ! | { { | Y { ! { ! Y | { Y ^ ^ ^ T ^ ! ) ! { ! { Y ^ ^ ! ^ ^ ^ ! T ^ Y Q ! ^ ^ T ^ ^ T { T ^ ^ ^ ^ ^ T ^ ^ ^ T T { T T ^ Y ^ ^ ^ Q ^ ^ ^ ! ^ ! ! ^ ^ ^ ! ^ ) ~ f # # @ @ ; X - - X X - @ $ @ - g / _ &.-.&.6.p.0.2.*.@.:.+.+.+.*.+.+.+.+.+.+...+.+.+.+./ / d * * : = : % % % = & O X & & c B.B.J.K.J.K.A.Z.g.9.u.<.;.$.;.;.;.;.;.$.$.$.*.;.*.;.$.;.$.$.$.@.;.$.;.;.@.@.;.@.;.X.:.:.:.:.;.;.:.;.;.o.;.X.o.;.o.o.:.:.;.o.:.@.o.o.:.@.@.o.;.o.o.o.@.@.$.o.;.o.$.o.o.o.;.o.o.o.$.o.$.@.;.o.o.o.$.o.;.@.@.$.@.@.o.@.@.@.@.o.o.$.:.;.o.o.o.$.o.@.o.;.o.o.;.o.o.o.o.o.$.o.$.o.o.o.o.o.o.;.:.;.o.:.:.@.:.;.*.;.*.@.*.$.*.F # O # @ @ @ @ @ - ; @ # # @ @ @ @ # & & 8 D G ~ ^ ( { ...... ... ... . . .X.X. . . .X.X.....| X.X. .........X. .X. .....X.X.....| X.| X.| X.X.X.X.X. .X.X.X.X.| ......| | ..X..... .| X.| X.X.X. .| ..| | X...| X... .| } ..} ..{ .... .} { { { { { { { ^ { { { | T { { { { { ^ { ^ { ! { { { { { { { } { { { { { } { { { { ^ { { {  .{ { { { { { { { ^ {  .{ { } } { ` { _ _ F F > # # @ = @ X X @ % @ & @ @ @ @ & * : j j P Q Q Q ! Q Q ! U Q U ! Q ! Q ! Y Q Q ! ! Q Q Q Q ! Q U ! ) U U Q Q U Q Q ! Q J J Q Q ! J Q ! J Q ! Q Q ! J Q Q Q ! Q J Q Q Q Q ! J U Q ! U ! U Q U ! U Q J U Q U Q U Q R ! U Q R ! U ! Q Y Y R U Q ! R Q Q Q ! ",
"{ { { { { Y { Y Y { Y { { { { { { ! { Y ! { Y ! ! { { ! { ! ^ { ! Y Y { ! ! { { | ! ! | ! { Y { { T { ! ! ! ! ! Y { ^ ! ^ ! ! ^ ! ^ ^ ^ ^ ! ^ ^ Y { T ^ ^ T Y { ^ T ^ T ^ Y ^ ^ ^ ^ ^ ^ ^ T Y ^ ! ^ ^ ! ! ^ ! ( ( ^ ) { ^ ^ Q ~ d # # @ @ - - 1 - 1 - - $ @ - - j / _ &.&.&.6.0.i.6.;.*.+.+.+.+.+.*.+.+.+.+.+.*.+.+.+.#._ / g & * = & & = % % X @ X & = & c B.c.J.K.J.K.A.Z.M.9.3.=.$.;.$.;.;.$.;.$.-.$.$.$.;.;.$.$.$.o.@.;.@.@.@.X.@.;.;.@.@.@.;.:.;.:.:.;.:.;.o.@.@.o.o.o.;.o.o.o.o.o.o.o.o.o.;.o.o.o.o.o.:.;.;.o.$.X.$.X.o.@.o.$.o.o.@.;.@.o.o.@.$.o.o.$.o.o.$.o.o.$.;.o.o.o.o.$.;.o.o.o.o.o.$.o.o.o.o.o.o.o.o.o.o.$.o.o.@.;.o.$.o.o.o.o.:.:.;.X.@.:.X.@.;.@.:.*.:.:.@.*.*.*.*.R O @ @ @ @ @ # @ @ @ @ # @ @ @ # @ @ * & 8 D A ~ ( (  ... . ...O. ..... .X. ..... ... . .|  .....X.| } ......| X.X.X.....X...X...X.X.X.X. ...| ........| ..| |  .X.| X.X.| | | |  .|  .X.{  .| | X.| | | ..| ...... ...|  . .....| { } } { }  .{  .{ ^ } ^ { { { { { { { { { { { { ^ ^ { { ! { { { ! { ^ } { ^ } { ^ { { ! } { ^ { ^ { { { { { ^ { { { { { { } { { { { ` { _ _ F D > O @ @ @ @ % & @ % @ @ @ @ & @ # ; > j j U Q Q Q Q Q J ! Q Q Q ) Q U Q ! Q Q Q J ! Q U ! ) J Q U U ! U Q U Q ! J Q J Q Q ! J ! J ! ! J Q Q Q U ! Q Q Q Q Q Q Q Q U Q Q ! Q U Q U U Q U Q U Q Q U U U U Q ! Y Q U Y U Q Y Y U Q U Q ! ! ! ! Q Q Q Q Q R Q ",
"{ { Y { { { {  .{ { { { ! { ! { { { ! { { ! { Y { ! ! { Y { { Y { ! { ! { { ! ! ! ! { Y { ! { ! { { Y { { ! { { { ! ^ ^ ^ ^ ^ ^ ! ^ ^ Y ^ ^ { T ^ ^ { ! ^ { ^ ^ ^ ^ { ^ { T ^ T ^ ^ Y ^ ^ ^ ! ^ ^ ! ^ ^ ! ^ ^ ! ! ! ( ! ^ ! ~ U 8 @ @ - X @ - X X X - - @ @ - p / >.&.1.1.1.6.0.i.t.:.:.+.:.:.+.:.+.+.+.+.*.+.+.+.+.+.#.S I 6 & = & % % = & & % & @ @ & @ c c.c.D.Z.Z.n.f.h.3.;.=.$.;.$.;.$.;.$.;.$.$.$.;.-.$.$.$.$.$.$.;.$.;.@.;.;.@.@.@.@.;.;.:.;.X.;.;.:.;.:.;.@.;.o.o.;.X.o.;.o.;.o.o.;.o.$.o.o.o.$.@.o.;.@.@.@.o.$.o.$.$.@.@.o.;.$.@.;.@.;.@.;.@.o.$.X.$.$.@.@.;.@.;.@.$.@.@.@.o.$.o.;.o.;.o.o.o.o.;.$.o.o.$.o.o.o.o.;.@.o.;.o.;.o.;.:.:.:.o.@.X.;.@.o.;.@.;.:.*.;.*.;.@.*.$.l $ # # @ @ # @ @ @ # - @ @ # # $ # @ @ O # e t D / )  . .....X. .X.....X...........X. .X.X......... .+.....+.X. . .X...| X.| X.| X.| X.| ....X. .X.| ..X.X.X.X.| |  .| |  ...| X...X.X. .X.|  .X.{ X.....| X.| | | | } ....| |  . ... .}  . .{ {  .{ { {  . .^  . .^ { { ^ {  .^  .{ { { { } { { { } {  .^ { ^ { { } ^ ^ } { { ` {  .{ { { { { { { { { (  .{ }  . .{ | { { _ / ~ / 8 O # & X @ O & X O & X & X @ @ : # : d g F U ! Q Q Y Q Q ! Q ! J Q ! U Q U ! ! Q U U ! Q Q U ! ! Q U Y U Q U Q ! Q ! J ! Q Q Q Q Q U Q Q J ! Q J Q J ! J J ! J ! ! J Q J U Q U Y Q U ! U ! J U ! ! U ) J R Y U Q U ! U Q U ! U Q Q R R ! U Q Q Q ! Q ) ! ",
"Y { { { { ) { ) { { | ! { | ! { ! | { ! { ! ! { ! { ! { ! { ! ! | ! Y { ! { ! ! { ! ! { ! { { Y { Y { ! { ! { Y { { ^ ! ^ ^ Y { ^ ^ ^ ! ^ ^ ^ ^ T ^ Y ^ ! ^ T ^ T { ^ ^ ^ { Y ^ ^ ^ ^ ^ Y ^ Y ^ ^ ^ ^ ^ ^ Q ^ ^ ^ ^ ) ^ ) ^ S D > & # @ @ % - 1 1 1 1 X 1 p < W &.>.>.>.2.6.7.9.0.t.@.@...+...+.[ +.+.+.+.+.+.+.+.+.*.Q y r * & = & % & = % = % @ & X = @ j w.w.c.x.x.i.-.2.-.;.$.;.$.;.$.;.$.=.$.$.-.;.$.$.$.$.$.=.$.$.$.;.$.$.;.$.@.;.$.o.;.@.;.:.;.:.;.*.@.;.:.@.;.@.;.@.@.;.X.@.o.;.o.@.o.@.;.@.o.@.@.;.;.@.@.;.+.@.@.;.$.o.;.@.;.@.;.;.@.@.;.@.@.@.$.@.$.@.;.@.;.@.@.@.@.@.;.@.o.@.o.o.o.@.:.;.:.@.;.@.@.@.;.@.@.@.@.;.@.@.;.@.X.@.:.X.;.X.:.;.:.:.;.*.;.:.;.*.*.;.*.;.*.| [ 5 $ # @ @ @ @ @ @ @ @ # @ @ @ # @ @ @ $ $ @ # # 0 c c ~  . . ...................} ....} } +.....| ........+.} +...| ....| X...| ..| X.} X.........| X.| ..| | X...| ....} } ..{ X.X. . .| .. .| X...| } X...| X.} | }  .}  .} .. .} } ..} }  . .{  .^  .{ ^ } ^ } { { ` {  .T ` { { {  .^ { } { { { { { { ^ { ^  .{ ^  . .{ { { { { { { { { { Y { Y  .{ {  . .{  .{  .{ {  .{ _ / / d ; # @ @ & & X @ % @ @ O % @ @ & & : a a F Q Q Q Q Q Q Q U U ) J Q ! U Q U ) Q Y Q J ! Q Q Q ! ! U ! U ! U Q U ! ! J Q J ! U Y R Y R Q U ! J Q J Q ! Q ! U ! U Q Q Y ! U ! U ! U Q U U Q U Q U Q U ! R ! Y R ! U Q U Q U Y Y Y Y ! ! ! ) ! R R Q ! R Q ! ",
"{ { { { { { { { { ! ! { { ! | ! { ! ! { ! { ! | { Y { ! ! { { ! Y { { Y { ! Y | ! { { ! { Y ! { ! | ! { Y { ! { { ! ^ ^ ^ ^ ^ ^ { Y T { T ^ Y ^ { ! T ^ ^ ^ ^ ! ^ ! T { ! ^ ^ ^ ^ ! ! { Y ^ ^ ^ ^ Y ^ Q ^ ! ^ ! ( ! ~ ^ ^ ~ z z & @ @ % - @ X 1 % 1 @ 1 < D D %.&.,.&.-.t.7.6.7.2.*...+...:.+.+.+.+.+.+.[ +.+.+.+.) ) l # 2 + & = & = & % : % & % O O & & e >.>.l.9.0.-.$.;.;.$.;.$.;.$.=.$.;.$.;.$.$.$.*.-.;.$.$.$.$.$.;.$.=.$.;.$.$.;.$.;.$.;.;.*.:.;.;.;.:.:.@.;.;.@.@.@.;.@.@.;.@.;.@.;.@.;.@.@.@.;.@.@.@.@.;.X.@.@.@.@.@.$.;.@.*.;.@.@.@.;.@.:.*.;.@.$.@.$.$.@.;.@.;.@.$.@.@.@.$.+.;.@.X.;.:.:.:.:.:.@.@.@.@.@.$.@.@.@.;.@.o.;.;.@.;.X.;.@.:.:.:.:.:.;.*.:.;.:.;.| *.*.*.R Q ; ; # @ # @ @ # @ # @ @ @ # @ # @ # @ # # @ O @ O * * d I F } ..' +._ +._ ..' ..+.....+.....} ..........+...................| X.X.........| | } | ......| ..:.| |  .} | ..} } X.| { | X.X.| ..X...| ..| ..| ..| } ..} ....} ..} } ....} }  .}  . . . .{ `  . .{ }  .^ { { {  .{ {  .^ { } { { { { } { ^ { ^ { ^ ^ ^ { ^ { ^ { { { { { { {  .T  .{ {  .{ { {  . .{ { { {  .{  ./ _ ' j @ @ @ & X @ X & & O X & % @ @ @ @ # 8 8 D Q ~ Q Q Q Q ) ! Q Q ! U ! Q ! ! J Q Q Q ! Q Q Q T U Q Q Q Q U Q U Q J U Q Q Q U U ! Q U ! U ! Q Q Q ! J J Q J Q U Q U U Y R Q U Y R Q U U ! U Q U ! Y Q U Y U ! Q U Q U ! U Q R ! R Y R R ! R Q ! ! ! ! ) Q ) ",
"{ { { ! | ) { { { { ! ! ! | ! { ! { { ) | { ! ! ! { ! ! { ! | ! { ! ! | ! Y { ! J { { Y ! { ! Y Y { { Y { { ! { Y { ! ! ^ ^ ^ T ^ ^ ^ ^ { ^ T ! ^ ^ ^ ! ^ Y ^ Y Y ^ Y T Y ^ ^ ^ ^ ^ ! ^ ^ Y ^ Y Y ^ ^ Q ! ^ ^ Q ) ) ^ ) / / k h * @ X : X - 1 1 1 1 1 X p D E %.&.&.&.>.t.2.6.6.2.;.*.+.+.+.:.| +.+.+.+.+.+.+.+.+.) ~ g * * O = & & = & & & & % X & @ @ O e ,.>.l.0.9.-.$.-.;.@.$.;.$.;.$.;.$.=.$.;.;.*.;.$.$.$.$.$.=.$.$.;.$.;.$.$.;.$.$.;.$.;.| ;.;.;.:.:.;.;.@.:.@.@.@.;.*.:.@.;.@.@.@.;.;.X.@.;.@.;.;.o.@.;.@.;.;.$.@.@.@.;.$.;.@.@.;.@.@.;.;.;.;.*.@.$.@.*.@.@.@.@.;.@.;.@.@.$.+.$.;.@.@.@.:.:.*.:.;.@.:.@.@.@.@.$.;.@.;.@.@.@.;.@.@.@.X.@.*.;.:.:.:.;.| ;.*.;.*.;.;.*.*.) R ; # # @ @ @ O @ @ @ @ @ @ # @ $ @ # @ @ # @ O O # * > a F F _ ' ...._ +.....+.+.....+.+.} ........| ........+.............| X...X...X.| ..| ....| | | | ..| ..|  .|  .| ..| ..{ |  .X. . ...} |  .| ..X.} ..| ..} | ..} } ..( }  . . . .}  . .{  . .{ { } { (  . .{ { { {  .{ { } ^ { { ^ { { { { ^ { ^ ^ ^ ^ { ^ ^ ^ { {  .{ { { { { { T { { {  .{ { { { {  .{  .{  .{  . . ._ _ [ x # # @ X & X @ & & X X = @ & O & # ; 9 8 D ~ Q ~ Q Q W Q U ! Q Q Q Q Q Q Q Q Q ! Q ! ! Q Q Q T Q U ! U U Q J Q Q J Q ! J Q U Q U ! U Q U Q J Q U Q Q Q Q R Y U ! Q Q Q U Q U U Q ! U U Y U ! R Y U ! U Q U U ! U Q R Y Y ! Y R R ! R ) Y Q R Q R R ! Q R ",
"{ { { | { ) { { { ! | { | ! { { | ) { { { ! | ! | Y { | ! | ! ) ! | | ! | | ! | { { { { { ! ! | { ! { { T ^ ^ { ! { ! ! T ! ! { ^ ^ Y ^ Y ^ ^ ^ T Y ^ ^ ^ T ^ ^ ^ ^ ^ ^ ^ ^ { Y ! { ! ! ^ ^ ^ ^ ^ ! ^ ^ ^ ! ^ ^ ) ^ ~ ) ^ D 6 8 : @ @ X & % X - 1 : : > G ] ] %.%.%.$.%.t.;.&.&.*.@.+.| | | *.| } +.[ +.+.+.+.*.Q d d > & # # & & & & % % % & & @ & X @ & , ` _ q.-.-.-.-.-.$.-.-.$.-.$.-.$.=.;.-.$.-.;.$.;.$.-.=.$.;.$.$.;.$.;.@.;.@.;.;.@.;.@.;.;.:.:.;.:.*.;.;.;.@.;.:.;.;.;.;.:.;.o.;.@.;.@.@.;.@.@.@.;.;.@.;.@.@.@.$.@.$.*.$.@.;.@.@.@.;.@.*.;.| ;.;.*.;.@.$.;.@.@.@.@.@.*.@.;.@.;.X.X.;.:.;.:.;.:.:.:.;.@.$.o.;.o.@.@.@.@.;.@.X.@.X.X.;.@.:.;.:.;.:.*.;.*.| *.:.*.*.*.*.L L # @ # # @ @ # O # @ @ @ @ O @ $ # O @ @ O @ @ @ O # O # 4 * d F F / ' _ ..' +._ .._ .._ ..........+.[ ..+.+.( +...| +.....+.| ..| | ........} ....X.| | :...| | ..| X...| | ..| X.{ X.|  . . .{ X...| ..}  .}  .|  . .} ..} ..} ..}  .}  .{ `  . .{  .}  .{ } ^  .} { { {  .{ { { } {  .} { { { { { { { { { { { { { { { ^ { { { { { { { { { { Y  .Y { { { { { { { { { { { { { / / [ c ; @ @ @ X & O X @ X & @ @ X % @ @ @ , , c P E ~ E Q Q Q Q Q Q Q Q Q Q Q Q Q Q Q U Q U Q Q Q Q Q Q Q Q ! ! ! U ! Q ! Q Q ! Q Y Q U Q U Q Q ! Q Q J ! ! J Q Y Y R ! U U ! U ! U ! U Q Q U Y R Q U Q U Q Q U Q U Q Y Y R ! R Q ! R ! ! R Y R ) ! ! R ! ! Q ",
"{ { { ( { ) ) { { ) { ) { | { ) ) { { { { { ! { ! { { ! | ! ! { ) { { { ! ! { { ! { { { { ! ! { { Y ^ { ! ^ ^ Y ! { ^ ^ ^ T { ! ^ ^ Y T ^ ^ ^ T ^ ! ^ Y ^ ^ { ! ^ ^ { Y ^ ^ ! ^ ^ ! ! { ! ^ ^ Q ^ ^ ! ^ ^ ! T ^ ~ ^ ~ C V 6 # # # @ - - X & 1 - - 1 p < [ %.5.*.*.#.#.+...+.*.| | +.+.| +.+.[ | [ ..+.+.+.' W ~ s @ # # # # & @ @ % & % % & % & & @ X @ @ < W ~ 6.&.$.&.$.-.-.$.-.;.-.$.=.$.-.;.-.$.*.$.;.*.*.;.$.;.*.;.;.$.*.;.;.*.*.;.$.;.$.@.*.;.;.*.;.;.:.;.;.*.;.*.;.;.;.@.;.@.;.@.X.;.@.@.@.@.;.;.@.;.@.;.@.@.*.;.@.@.@.@.:.;.:.;.*.@.*.;.:.;.;.;.;.*.:.;.$.@.$.@.@.$.;.:.*.;.:.;.@.X.@.X.;.:.:.:.:.:.:.:.;.o.@.;.@.@.@.;.;.@.:.;.@.@.o.;.| ;.*.*.*.;.;.*.;.*.:.+.+.*.+.y y ; # @ @ @ @ # # @ # @ @ O # O O $ @ @ @ $ # O O @ @ @ # O # # > > 8 z z I ( ( +..._ ......+.[ +.[ +.| +.} [ +.[ +.+.+.+.+.| +...X.| ....| ..+.....| +...| ..+...| ..| | ..| | | ..} }  . ..... . .} | ..} ...... ...{ } ..} } ..} } } }  .} }  .{ }  .} ( } } } } } }  . .{ { ( } } } } } { { {  .{ { ^ { { { { { { { ^ { { T { T  .T T { { ^  .{ { { { { { { { { } ^ { { { T ( ( ' D : * @ @ = X % O & X & X & X X @ @ - : ; a I I E E Q ~ Q Q Q Q Q Q E E ) Q Q Q Q Q Q T Q ~ T Q Q Y Q Q U Q Q ! Q Q Y ! Q U Y Q U Q U Q U Q Q U Q U ! J Q U Q U Q Q R Y U U U ! R ! J ! Q Y U Q U Q U ! Y ! U ! R Q U Q ! ! ! Q Q R ) R R ! R ! ! ! ! Q ! ",
"! { } ! } { { { { { { | { ! { { { { { { ) { } ^ ! { ! { { { { ! { { ! ! | ! ! { { { { ! { { ^ ^ ! { ^ ^ ! ^ ^ ^ ^ T ^ Y ! ^ Y ^ ^ Y ^ ^ Y Y ^ ^ T ^ ^ ! ^ Y T ^ Y ^ Y ^ T { Y { ! ! ^ ! ^ ! ^ ^ ^ ! ^ T ! ^ ^ ~ ) ) Q C N 6 # # @ - @ X % X - X - 1 < p ] %.%.%.*.#.@.+.+.+.| +.[ | [ [ [ | [ +...[ ( +.+.+.~ ~ a # # # O # # & & & % & % & & % X @ @ @ @ > Q W 6.-.1.$.-.$.-.$.$.-.*.;.=.-.-.$.-.$.;.-.$.$.;.*.$.$.;.;.*.;.$.;.;.;.;.;.;.@.@.;.;.@.:.;.:.*.;.;.;.;.:.;.;.:.:.;.:.;.@.;.;.@.X.;.;.@.@.@.;.@.;.@.$.;.@.;.;.*.$.@.;.*.;.*.;.;.:.;.*.;.*.:.;.;.*.;.$.$.@.$.*.@.;.*.;.;.*.:.@.;.@.;.*.:.:.;.:.;.@.;.;.@.@.;.@.;.;.@.@.:.;.:.@.@.@.X.;.:.;.:.;.*.| :.*.| *.*.:.*.*.n n # @ @ @ # @ @ @ @ $ # @ @ $ @ @ # $ # $ # @ @ @ @ O @ @ O # # > 4 8 k k P ( ( ' _ +.....+.+...+.+.+.+.+.+.+.+.+.| [ +.| +.[ +.....+.........} | ..| | ..| ..| | X.| ......| .. .} ..| } ....} X.| } ..| | } } |  . .....} } ..( ..}  .}  . .}  . . .{ } } ( } ( } ^ } { {  .{ } } } } } } { { { { { { { { { ^ { T { ^ { { { { { { { { { { { {  .Y { { { { { { { ^ { {  .{  . .( ( / D * * & X @ & @ @ X & @ % @ @ & @ @ # > : a I I W Q Q Q Q Q Q ~ Q Q ) Q Q Q Q Q Q Q Q Q Q T U U Q Q Q Q Q ! Q U Q Q Q U Q ! R U ! Y U U ! J ! ! U Q ! Q Q ! U ! U Q U Y Q Q Q U Y U Q Q U Q Q R ! U Q R Y U Q U Y U ! Q R ! R ! R R ) ) ) R ) ! R R ! R ) ",
"{ } ) } ) } ) { { { { { { { ) | } { | { { { } { { ! { { ! { { { { ! { { | ! { Y { ! { ! ! { { ! ! { ! ^ ^ ^ T ^ ^ Y ^ ^ Y ^ ^ ^ ^ ^ T ^ ^ ^ Y ^ { Y ^ ^ ^ ^ ! ^ ^ ^ ^ ^ ^ Q ! ^ ^ ^ ^ Y ^ Q ^ ~ Q ^ Q ~ ^ Q ^ ) ~ ~ A 6 6 & O = @ @ @ @ : X 1 - X X > > D %.%.*.*.+.+.[ | | +.+.+.| | +.| +.| +.} +.' +.' W r r # # # # @ # @ & @ & X = % % % O @ @ # @ @ : E E >.&.&.=.-.-.$.-.-.;.-.-.;.-.-.$.;.$.*.;.-.$.$.-.;.*.;.*.;.;.;.;.*.;.$.@.;.$.;.@.@.;.;.:.*.;.$.*.*.;.;.;.:.;.:.:.:.@.;.*.@.;.@.;.;.@.@.;.*.;.$.$.$.@.$.@.$.@.*.$.*.;.*.;.;.*.*.;.;.*.*.;.:.*.;.*.@.@.*.$.$.*.;.:.:.:.*.;.*.:.:.@.:.;.:.:.@.;.;.@.@.;.$.;.;.;.*.;.*.;.*.*.@.@.@.@.:.*.*.:.| *.*.+.:.*.*.*.*.*.) 0 0 @ @ @ # @ # @ # # @ @ @ $ @ @ @ @ @ O $ @ $ # # O @ # @ O @ # O @ # # # : 4 > 8 d d h L C F R U ) [ ( [ +.+.+.+.*...*.+.*.+.+.+.#.+.@.+.+.+.+.+.#.#.+.+.+.+.+.....+.+. ..............._ ..} ..( ....} } .. .} ..}  .} } _ +.} }  ._  ._  ... ._ { _  ._  .(  .} ( } } } } |  .} } } } } } } } } } ( } ^ } ^ { { { {  .{  . .{  .{ { {  .{ { {  .{ { { { { { { } } } { { } ^ ^ ( ( / R , > @ & X % @ @ @ O & O X & @ & @ @ # # < c c W W Q ~ Q Q Q E Q Q Q Q Q ~ ~ Q E Q ~ Q ~ U ~ U ~ Q Q U Q U Q ! Q Q Q ! Q Y R U Q U U U ! U Y J Q Q J U Q Q U R Y Y Q Q U Y R ! U J Q U Q Q U Y U ! U U ! ! U ! U R Y U Q ! R ! R R ! R ! ! ! ! R Q Q Q ! ",
") ( ( ( ( ( ( ^ ) ) ) { ) ) { ) ) ( ) ) { ) ^ } { { { Y { ! ! { ) { { { ! { ! | ^ { ! { ^ ! ^ ^ ! ! ^ ! Y ^ ^ ! ^ ^ T ^ ^ ^ Y ^ Y ^ ^ ^ Y ^ ^ ^ ! ^ ^ T T ^ ^ Y ^ T T ^ ! ^ ^ ! Q ~ ^ ^ ~ ^ T ~ ^ ^ ~ ^ ~ ^ ~ U k k * # # @ = X X & 1 1 % & - X - 1 > < G %.%.] +.( [ +.| *.| [ +.+.+.[ +.| [ +.[ ..+.F F 0 # O # @ & @ & & & X & X % & % O % & X @ @ @ O : P P >.1.&.=.$.-.-.$.-.$.*.-.$.-.$.;.-.$.;.$.-.$.$.$.$.;.;.$.;.*.$.*.*.;.;.$.*.;.*.@.;.*.*.;.*.:.;.*.:.*.*.*.*.:.*.;.@.@.@.$.*.*.$.@.@.;.*.*.@.@.$.@.@.$.@.$.@.$.;.$.;.*.;.;.*.;.;.*.;.*.;.*.;.;.*.;.*.;.;.*.@.@.@.;.;.*.:.:.;.:.:.;.:.;.*.;.*.:.*.@.@.@.@.*.@.@.;.*.*.;.;.*.:.:.*.@.;.*.:.+.:.*.+.*.*.*.*.*.[ [ k $ # # @ # # $ O @ @ @ @ @ @ @ O @ @ O @ O # @ @ O O O @ @ @ # = @ # # @ @ @ @ O @ O O # O # O O # # # # # 4 4 4 8 9 y q l k j k C z c C Z A F F H F J R J J R J R Q Q Q ) ) ) ^ ^ ) } } } .._ .._ ..} ...._ .._ _ _ _ _ ...._ ( _ .._ _ ...._ _  .} _  ._  .( ..( _  . ._ } _  .{ } _ }  .( ( (  .( } } ( } ( ( }  .^ { ` ^  .T { T  .T  .{ { ^  .{ { { { { { { { { { { ( } { { ( ( / / W 0 4 @ @ & O @ % & X X & X @ X & % & % & : e 8 b D D E P E Q Q E E ~ E ~ E Q Q ~ E E Q ~ ~ P ~ U T ~ ~ U Q Q U ! ! U U ! ! ! U Q ) U U U Q U Q Q Q U Q U Q U ! U U Q U ! U ! U Q Q ! Q Q U Q U ! U Q U Y R Q U Q Y Q Q ! ! Q Q ! ) R ) ! R R ! ! ! ) R Q ",
"^ { ^ ( ( } ( { | ) ( ^ ( { { ( { ^ } { ^ ( { ^ { ^ ^ ^ ^ ^ ^ ^ ) { ! } ^ ^ ^ ^ { ^ ^ { ^ ! ^ ! ^ ^ { T ^ ! ! Q ^ Y ^ ! ^ Q ^ ^ T ^ ^ ^ Y ^ ^ Q ! ^ ^ ^ Q ^ ^ ) ^ T ^ ^ Q ^ ^ ^ T ^ T ^ ^ ~ ~ ^ ^ ~ ^ ) ~ ) ) R j z > & O O & O - % X % @ 1 - 1 - 1 < 1 v %.*.] +.[ +.[ [ +.[ +.[ | | +.[ [ +.| +...+.I F 8 O & @ & @ & @ & @ & & % & X % & X & O & & O O : P F >.-.1.&.-.-.$.-.$.-.-.;.-.-.;.$.;.*.-.;.$.$.;.;.;.-.;.*.;.*.;.*.;.;.$.$.$.$.$.$.$.$.$.$.$.#.$.@.*.*.$.$.$.$.$.@.@.*.@.*.;.*.;.@.$.@.$.@.;.@.$.$.$.$.#.@.@.;.@.$.*.;.*.;.$.*.;.*.;.*.;.*.;.*.;.;.*.@.$.*.:.*.;.*.:.| ;.| ;.;.:.*.;.:.*.;.*.;.*.;.@.@.;.*.;.;.*.*.;.;.;.*.*.+.:.+.*.+.:.*.*.*.+.*.| *.*.*.[ [ l $ ; @ # @ @ # @ # # @ # @ @ @ @ $ @ @ # O @ @ @ @ O @ @ @ @ O @ # @ & @ @ X @ O X @ # @ O # O @ # # # w # > 4 4 6 9 n n h j j k C z c C c A F G P R U U U J J Q Q Q Q Q ~ ) ~ ^ ^ /  ... ._  ..... ..._ .._ .._ ..} _ _ .._ .._ ...._ ...._ _ _ _ _  ._  ._ _  .(  ._ } _ } {  .( ..( } ..( }  .( { ( _  .} ^ ( { ^ ^  .( ( ( ( ^ { ( ^  .{ ^  .^ { { { _ { { { { } } { { } ( { ( / ( / W < , @ & @ % % O X @ @ & & @ @ & & % & % & e 8 x D D E ~ E U ~ Q P ~ ~ T ~ Q ~ ~ Q ~ E ~ ~ Q E ~ U U ~ U Q Q ! U U Q Q Y Q U U U Q U U U Q U Q U Q U Q Q U ! Q J Q Q U Q Q U Q U ! Q R Q ! U Q R Q Q Q Q Q Q Q U Y Q Q R R ! R ! ! ! R ! R ! Q ! R ) Q Q ",
"` / _ ^ ^ / ^ / ) ) ~ ` / ^ ^ ^ ^ / / ^ ^ ^ / ^ ^ ^ ^ ^ ^ ! ( ) ) ) ) ) ^ ^ ^ ^ ! ^ ^ ^ ( ^ ^ ^ ^ ^ ^ ^ ^ ^ ^ ) ^ ^ ! ^ ) ^ ^ ! ^ ^ Q ^ ^ ^ ^ ) ^ ^ Q ) ^ ^ Q Q ! ) Q ^ ) ) ) ) ) / ~ ) ~ ) ) ~ Q P A A k a a w @ # # O # # X % @ % 1 & X & 1 @ - 1 - 0 W t.%.*.+.+.[ +.+.| +.} | +.+.[ } +.+.' ' / c > 6 # @ O @ @ # @ @ & X @ X @ X = & X @ X X X X O @ & D D #.>.#.&.$.&.$.*.$.*.$.#.#.@.#.$.;.*.*.-.$.$.*.@.*.;.*.;.*.&.;.;.*.-.$.*.%.#.$.@.@.*.*.@.$.$.$.$.;.@.$.$.@.*.@.@.*.;.@.*.*.:.*.@.+.*.@.+.+.*.+.+.+.+.$.@.@.*.@.*.;.*.*.| @.@.*.@.*.@.$.$.*.&.*.*.@.@.*.*.*.:.*.| *.*.*.| *.*.:.+.+.+.+.| | +.| +.| +.| +.| ....+.[ *.[ | +.*.| *.| *.*.| | +.+.| *.[ } R l y ; # # # # @ @ # @ @ O @ @ @ @ @ O @ $ # $ @ # O # $ @ @ @ @ # # @ @ @ O & @ & @ & # @ ; - # @ # # # O @ O # @ @ # # @ # # # # # # O # # # # # # # * > # # w * 2 2 > 2 2 4 4 6 6 6 8 6 9 r y z D A W ` / _ _ / _ _ _ .._ _ .._ _ +.( _ _ _ _  ._  ._  .^ _ _ } } _ ...._  ._ _ _ _ ..( ' _ ( ( _ ` _ _ _  .` _ ` _ ` _ _ / _ ` / ( _ ` ` _ ( _ / ^ _ ^ _ ^ ` } ( ^ ) ^ ) ^ / ^ ^ ) ) Q W ~ c : ; @ % % @ @ & & & X X O % & X @ X & @ & & & > 8 , a a d j k L k C c G D D F P P E P P P Q P Q P E Q E J Q Q Q U Q Q Q Q Y Q Q U ! Q Q Q Q U Q U Q Q Q U R J ) Q Q Q U U Q Q Q Q Q ~ Q Q Q Q Q Q Q Q Q R Q U Q U U Q Q R ! ) R R ! R ! ! ) R ! R ! Q ) ",
"~ / / ^ / / / ~ / / ~ / ~ / ~ / ^ ~ ~ ) ) / / ~ ) ~ ~ ~ ) ~ / ) Q ) ) Q ~ ~ ) ~ ) ~ ) ~ / ~ / Q ^ ) ) / ^ ) ) / ) ) Q ) ! ) ! ^ ) ) ) Q ) ^ ~ ~ Q ) Q ~ ) Q Q Q ~ E Q ~ E E R F C C C j l g n 9 8 , > ; # # @ @ @ @ @ @ @ @ & 1 X 1 1 1 % & % % 1 1 < < W t.t.] +.[ +.} | +...' [ [ +.+.' _ / ~ s j # O @ @ & @ @ @ @ - @ % X @ & O & X X @ @ X X @ X @ @ # c c >.>.&.&.#.#.Q F F C z L k k k k L h k L b b C G G G Z G F F G R R F U Q E U ~ T Q Q ) ) Q ) ^ / ( ) / ^ ) ) ) ( { ( ( } } | | | [ | | | } ( } } } ( } [ } [ } ( } | | [ } [ } ..[ +.+.[ | [ +.[ ..+.[ +.| +.*.*.*.| *.*.*.+.| [ +.[ [ | [ | [ [ [ +.[ +.[ [ [ } [ [ [ | [ | | *.| [ [ [ [ [ [ R L 0 0 ; # + $ # # @ @ @ @ @ @ # @ @ @ @ @ O @ @ O @ $ @ $ # $ @ O @ @ @ @ # @ @ @ = & @ @ @ @ @ @ & @ # @ & @ # # @ # # # # @ # # # @ O # # # # # # @ # # * # # # # # # w # # # * O # & + + * + * * + + * + * 3 t 8 g z C A I F F P P P E E E P U P E P E P T W P P P P P I I I F I I U I I F F D F F F F F D D S D D A A G S A A D D D v D A D D D A G A c z C C N N N N C Z C Z C C C N M z h d 8 8 > # @ @ X @ @ @ X O % & @ % O X O @ & & @ & @ & @ @ @ # @ O # * # # : * 2 , 4 6 9 t a d d h j k k C z G C C D F G G F F F R F R R R J J R F R F R F F E J F F F F F F F F E Q R U Q E Q Q R ) Q Q ) E ) Q Q Q Q E Q Q Q Q ! R Q Q ! R ) R Q R Q Q ! Q Q ) ",
"/ / / ^ / / ~ / ~ / ~ ~ ~ ~ ) / / / ~ ~ ~ ~ / ^ ~ ~ ) ~ ~ ) Q / / / / / ) ~ ~ ~ ~ ~ ~ ) ) Q ) / ^ ) / ) ) ) ) ) ) ^ ^ ! ( ) ! ) ) ~ ) ) Q ) ~ Q ~ ~ ~ ~ ~ Q ~ ~ Q Q ~ E W E F F C c c k l l d 9 8 4 : : # O # $ # @ & @ @ @ 1 @ - 1 % % : X X : - - < < W %.t.*.*.+.+.[ ..[ +...*.+.[ } _ _ / E d g ; @ O @ @ # # @ & X @ @ - @ X X & @ @ & X @ @ X O @ # & c c &.&.&.&.#.#.) F F Z C k k k k M k k L L L C C C G Z G K G F K F R R R Q U ~ P T Q Q Q ! ~ ) ^ ) ) ( ) ( ( / ( ) | ) ( [ ( [ ) } ) | [ | } } ( ( ( } } [ } } [ | [ [ [ | ' } ' [ ..| [ +.+.[ +.[ +.+.+.+.[ +.*.*.*.*.*.*.[ *.[ *.[ [ *.*.+.[ [ +.} } [ [ | [ } [ | [ [ *.| [ *.| [ *.[ | [ / ) R b 7 5 ; $ # # $ $ @ # @ @ @ O # @ @ @ @ @ @ O @ @ @ # O O @ @ O @ O O @ @ @ @ @ @ @ O & & O & O # @ : @ : @ # @ # # # # @ # # # @ # # # @ @ # # @ # # # # & # # # # # # + + + + * + # # # * + * # + * * + * * 2 e e g c z A F I P P U E U E Q E P W U U U P P P U P P P U I I I I F I I I I S I F F F G F D D S S A S A A S G G A S A D D A A D D A A G C A C c N C N A N C C C C N C c N z z z g 8 8 : @ # X & X & @ % @ @ X @ @ @ % & X & X & & @ @ & # @ @ O @ # # # # * * * > 4 8 9 e r d s j j k k c C Z C G G F F G F G R R J J J J R F F J R F J U F F F R F F F F F F F F R Q U Q Q E Q ) E E ) E ) E E E Q Q Q Q R Q Q Q Q Q Q ! ! ! Y Q Q Q R Q Q Q R ",
"z c c v G c G D D v v v A v A v A v v A A c A C C C C c C C c G C v C c c D G C A A G A D F F F F E E Q Q E E / E ~ Q ~ ) Q Q / W E Q E E R F D D D C c c j j s a a p 0 6 > ; : : # @ @ $ @ $ $ # @ @ # @ @ @ # # @ # @ # - - - 1 X 1 X % X @ 1 - $ ; ; b [ +.*.*.*.+.[ ..+._ ' _ ../ / E k c , O O @ X X @ @ @ X @ & @ @ - @ @ & @ % @ @ X @ X X = @ @ O @ g g #.#.%.,.( / n # ; w w # # # + # # # + # # w ; + ; # ; + w ; ; ; # w ; > * > * > , 4 2 6 6 4 6 6 4 8 8 4 5 7 7 7 q q l h l h L h m m m L M L L L k h h k m m h h h k h h k b M L c C G Z G G K R R R Q / ) ( / / [ [ [ [ [ [ [ / / [ ) / ) / ) Q E Q ) R Q Q ) ) R R R G Z G L l b l y l n 0 5 w # # # # # $ # # # # @ $ # @ @ @ @ @ @ @ @ O @ $ $ @ O @ @ O @ @ @ O @ @ @ @ @ @ @ # O & O & @ & @ : # : @ & ; # @ # ; # @ ; # @ @ # @ # # # ; @ @ # # @ # # ; # ; # @ ; ; # ; # ; # # # # # # # ; # # # * * : * & ; # # # * : ; ; ; ; ; : ; > ; * * * # * * * * & # * # # * # # # # # # # ; # @ # # ; # ; # ; # & # # # ; @ @ - * & @ # @ ; # - @ # @ ; @ ; # # & # # ; ; # ; ; # ; ; ; : ; ; ; ; - @ @ @ & @ X % & X @ @ X & & & X O % @ @ X & X @ O & @ @ O @ @ @ # O # @ & & # # @ # # @ & # # $ ; ; ; ; w w > w 0 4 0 0 5 7 7 q 9 9 9 9 n 9 n q q n n n n 0 n 7 7 9 9 7 9 n 9 y n l k k C A D F E F R E R E Q E U Q Q E Q Q Q Q Q Q R R ! ! Q Q Q Q Q U Q F ",
"8 6 , < > 0 , > , , , : > : > : * > : : : : : # : : : : : : : : ; - : ; ; : : : : : > > : > > , 0 8 0 a a l j b x c b b b c b j l a a p < 0 < : : * & : @ @ @ O - X @ X @ @ X - X @ @ @ @ - @ @ # @ - @ - @ @ @ @ @ @ @ @ @ - X - 1 : % : : X @ 1 - - - > l l G R Q Q E E P P A A z d d , O O @ @ @ - @ @ % % % & @ @ X @ - @ @ & @ @ @ @ & @ % @ X X @ @ @ > > s j j g 0 0 ; ; # $ # # ; ; ; # # # # $ $ ; $ @ # @ # # $ ; ; ; ; @ # @ # & & = # O & = O # O & # # # # + o # # $ $ + + # # $ # + + $ $ o + $ + # # + $ o + $ # # O + + O # o # @ O + + # # # # ; ; 4 0 0 0 n n n l l n a l n n n 7 0 0 0 0 0 0 0 0 4 0 0 ; ; ; ; w # # # # + $ # @ $ # $ # ; $ $ $ # ; # # # $ $ # # @ @ # @ # @ # @ @ @ $ @ @ @ @ @ @ # @ $ @ @ @ @ @ @ # @ @ & @ @ @ & @ @ @ @ @ @ @ # @ @ # ; @ # @ @ # ; @ @ # ; - # @ ; # ; # - # @ : & : - ; ; - ; ; ; ; & & : & : & : : & : : : * : : : ; : : : : ; ; # ; ; # - ; # ; # & # # # O # O @ & # @ # @ ; # - @ # - - # # # ; - # @ ; # @ - # # ; - - # - ; # # # ; @ - @ @ & ; @ # : # @ - @ & @ - @ - - @ - - - @ - # - ; @ - : - - @ @ & % = X X & & X @ X & @ & X & X @ & @ @ & @ @ @ & @ @ @ @ @ O & O & @ & & @ @ # # @ @ # ; # # ; ; ; # ; # - # # # @ # ; $ # # @ # # $ # # $ $ # # # # # ; ; @ ; ; @ - # ; # ; > > 0 , 0 8 n a j j b C z C D D F F F F R F E R Q R R Q F D F G k j r ",
"< 0 0 4 < 4 < < > > > , > > : * : : * > : : * : * : * : : # : : ; ; ; : : * : * > : > : > > 4 < 0 8 8 a l a l x b b b b c c b l l a a p 0 0 > > > : # : @ @ @ X X X - - @ X @ X X @ @ @ @ $ @ - @ - X @ @ @ @ @ - @ @ @ @ @ @ 1 1 X 1 & X & - 1 - - - - ; h l G R ) E E U ~ I D A c a a , @ # # @ @ @ @ @ X X & @ @ @ % @ @ - X @ @ @ @ @ & X @ X @ X @ O @ : > d j j l 7 0 ; ; # ; ; ; w $ # # $ ; @ # # # # - - ; ; $ - $ @ - @ ; @ # & = & & # @ & O * & & # # @ @ # # # # # # + # + w $ + $ + $ + + + $ $ + # o + o $ + $ + o + + o # + + # # # # $ # # # w ; ; > 4 0 0 n n n l n l l a l n n 0 0 0 0 0 7 0 4 0 0 4 0 w w ; w ; ; w # + + ; $ # # $ # # # $ ; # # $ $ @ $ # # # @ @ @ # @ @ @ @ @ @ @ @ O @ O @ @ @ @ @ # O X O @ @ @ @ @ @ @ & & O & @ & @ @ @ # # - - # ; # @ # # ; # - # ; # # # @ ; @ # # @ # ; : & ; @ # - ; ; ; ; - ; # : # : & & # & & ; : ; : ; : # : ; : : ; : ; ; ; # ; @ - ; # # # # & + & O @ # # @ # @ # @ # @ ; @ ; # ; - - ; ; - - ; - # - - - ; # - @ # - # @ - @ - - @ ; - @ @ & @ : - @ - @ - @ @ @ $ - @ @ - - @ - - @ - - @ : - ; @ X & & X @ & & @ X @ X % @ @ @ @ X X % @ & @ & @ @ @ @ @ O & O & @ & & @ @ & @ # @ @ $ # @ # - @ ; $ @ # $ ; ; # @ # # # # $ # ; @ $ $ ; + ; $ ; # # # # ; # # ; # # ; # ; # > ; > 4 6 8 9 9 a j j k C C C D D F F F F E F Q Q E R J P F F F G k k r ",
"; : : : : ; ; > : : > : : & > & * : & : > : : : : & ; : # : ; - ; - - ; ; : ; : ; : # : ; : ; @ - - @ - @ - - @ - - - @ - @ - - @ & # @ : @ @ ; @ @ @ @ 1 @ @ @ - @ @ X 1 @ @ X @ - @ - @ - - @ @ @ @ - @ @ - @ - @ @ - @ - @ @ : % X % 1 X X - X $ - - - @ ; - ; > ; > * * * O # # @ # O @ @ @ @ @ - @ @ : - % @ 1 @ @ 1 @ @ @ @ @ @ @ @ @ - @ @ X @ @ @ O # # - @ ; @ $ # # ; $ # ; ; $ @ - @ $ @ @ ; $ $ @ $ - $ - $ @ @ @ @ @ @ @ O O @ X O X @ @ X O X @ @ @ - @ @ $ # $ $ # $ $ # $ # $ # # $ $ $ + + + + $ # # # + # + $ # o $ # $ # # $ @ # $ # # $ # $ # # O @ # $ # ; $ $ @ @ $ O $ $ # $ # @ @ @ $ # $ $ @ $ @ O @ $ $ # $ $ $ # $ + # $ $ # $ # $ # $ ; @ $ # # # @ @ @ $ # @ O @ @ @ @ @ O @ # O @ O O O O O @ O O & O O = O O @ O = O @ = O = O & @ # @ @ # @ # @ # @ @ @ @ # # @ @ # - # # # @ ; ; ; @ @ ; # @ - ; @ # ; - - ; - : ; - @ ; @ : - - : ; * ; : ; : ; : - - : - : : : ; : ; ; > : : & * & & & * & # & : # & & @ : # : @ & @ @ # @ @ @ @ # @ @ - - - - - - - : % - % & & : @ @ : @ - - - - - - @ : @ X @ @ 1 - @ @ - @ - - - @ @ - - - - X @ 1 @ & @ X & @ X X @ & & O & X & X & & @ @ @ @ @ O & O & @ @ @ @ @ @ # @ # O # @ @ - @ @ - @ - @ - @ $ @ - ; @ ; ; $ @ - $ ; # - # $ # ; ; $ ; $ + ; ; $ ; # ; $ # ; ; $ # # # # # # # ; - # ; # # # ; ; > : , 6 4 8 n 9 d j j j j k j j j a 8 9 4 ; & # ",
"@ & & @ : @ : - ; @ ; ; : : & : & & : : & : & : - & : : @ : : : - : : # - : : @ - : : - : @ - - @ - - @ @ - @ - - @ - X & 1 @ : @ : @ @ : @ X - @ @ @ - & X - : X @ - @ @ - @ X - X 1 @ @ @ @ 1 - @ @ X - 1 @ @ X : @ @ X - - @ X 1 @ % 1 % 1 X X 1 & 1 @ - - @ @ @ @ @ O @ @ O @ @ % @ % O X @ & X @ X : - @ X X : @ @ @ 1 @ - - @ @ @ @ - @ X X @ X @ @ @ O & @ - @ @ ; ; $ ; ; @ $ $ ; ; ; ; $ $ ; @ @ $ @ - $ @ $ @ $ - @ - @ @ @ X X @ O X X @ X @ X O X @ @ X @ X @ O @ $ @ $ @ - $ - @ $ @ @ O @ $ - @ $ $ - @ # # $ @ @ @ $ @ @ @ @ @ @ @ @ @ @ O @ @ @ O # @ O @ @ O @ $ # @ $ $ $ # $ O O @ @ $ $ $ @ $ O @ $ O O @ @ $ @ O $ # @ $ @ @ O # $ # ; $ @ $ $ - $ O # @ # O @ & O O @ O & # @ $ O @ O O O @ O O = @ = O O O = O O O & & O X O O & @ & O O O @ O # # # & & @ # @ ; # # # # @ @ # ; ; # @ - # ; # ; @ - @ ; # - - ; @ : : - ; - : # : ; : : : & - : : : : : : : 1 : : : : : : : : 1 1 < ; - - - - - & & @ : - : : X : @ : 1 - 1 @ @ : 1 @ : 1 @ @ - 1 - - 1 - - - - - 1 % : 1 @ - % - @ X - - - - 1 - - @ 1 - X @ - - @ X X - - - 1 - - - X @ - 1 X @ - @ @ 1 - X @ & @ X X X @ & X @ : - X & X X @ X @ @ & @ @ X @ - & @ @ @ @ # @ - @ @ - @ @ - @ @ @ $ $ - @ @ @ - @ - $ $ - - $ @ - @ @ ; - - - # ; ; $ ; ; ; ; ; # $ ; ; # @ ; # @ @ & @ # @ # @ # - @ # @ $ # $ # O # # # O ; # * * * & * O # O # @ @ ",
"& X & & X : X ; - # - : ; & & : & & : : : : : : : & @ : @ : @ & : - : : : ; : : : : # : : : & @ : X @ - - @ - @ - @ @ X X : : X 1 @ 1 & X : @ - @ - @ @ @ @ @ X : - X @ X X & & @ & @ @ - 1 @ @ - X : X @ @ @ 1 @ @ 1 @ - @ @ @ @ @ % 1 X & % & % : % @ @ @ @ - @ @ $ @ @ O O @ O X @ @ X & & @ & @ : X @ X @ : - @ X - & @ @ - @ @ - - @ @ & & @ @ @ @ @ @ & & @ @ # - $ $ ; ; - # @ - ; $ - # @ @ @ - ; $ # $ @ - $ - @ @ @ $ @ @ @ @ O X @ @ @ X O @ @ X @ @ $ - $ @ $ @ $ @ @ O @ $ - $ @ $ O $ @ O @ $ @ - - $ @ $ $ # @ @ @ @ @ @ @ @ @ O @ @ @ # @ O @ @ @ O @ @ @ O @ @ @ O @ @ # $ $ O O O $ O @ O O $ @ $ @ O O O $ O $ @ $ @ @ O @ @ @ # $ @ # $ $ - $ # $ # @ $ @ O @ @ @ @ & @ & @ @ @ @ @ @ O # O @ O @ O X O X & O % = X = O O = O & % O O = = @ @ # @ @ # & * & ; @ @ @ @ @ # # @ ; # @ @ # ; # ; @ - # ; @ - @ - @ ; - ; ; # - - ; - - - @ @ : - : # : & : & : : : : : 1 : : : : 1 : < 1 1 - - < 1 - - & & : & - : : @ - - @ - : @ : - : @ - & - : : - & - - - - 1 - 1 1 : & 1 & : @ - % : & - 1 - - - - @ - - @ - - X X @ - - X - - X - X - - 1 - - @ - X 1 @ @ @ X : X @ & @ & & X @ X X @ & @ @ & @ & & X X @ % : X @ @ @ @ @ @ @ @ - @ @ - ; $ @ @ - @ ; ; @ @ - @ - @ @ @ - ; ; ; - - - - @ - - - @ $ ; ; $ ; $ ; @ - ; $ # # # @ @ # # @ # # # @ # # @ # @ # # $ # O # O O # # # * * * & * O O @ @ # @ # ",
"@ @ X X & @ & - - - : & ; & @ % & & @ X : X & & @ : @ : 1 : : : # : : - & - : - - : : - - : : : : @ - & X : 1 & @ : % : % & % : % : : % : % @ @ X - 1 X X % & % X & @ 1 : X X @ X : X - X : : @ @ X - - - X @ 1 @ 1 : @ @ @ - - - @ X % X & 1 & % X % & - - @ @ - @ @ @ @ @ @ X @ & X & & & X @ X - X - X @ X : : X X - X & @ @ @ - - @ - @ X @ - @ X & @ @ @ O @ # @ $ @ @ # - @ ; ; # $ # # - - @ $ @ @ @ @ - @ $ @ - $ - @ @ - $ @ X X @ @ X X X X X X X X X X X X X $ X O @ O @ X @ $ X $ X @ O @ $ $ - $ - $ - - $ @ @ @ @ X @ $ X @ $ @ @ @ $ @ X X X X @ @ $ @ $ @ @ @ @ @ @ @ O @ O O O O @ O O O $ O @ @ O $ O @ X X O O @ O @ $ # $ @ O # # $ @ @ # $ ; ; @ @ @ $ @ @ # @ & @ # @ @ @ @ @ @ $ @ O O O O O O O X = O = & O X = X O = O X @ O O X @ O & @ # @ # # @ * & ; # # # # : * & # ; - # - # # @ @ - @ - ; - @ ; # - # ; - ; ; ; ; ; ; - ; : : : - : : - : : : : 1 : 1 : : 1 : : : < : : < 1 p 1 - : : : : : : : : : : - - - : 1 1 - - - - - 1 - - 1 - - - - - - - - - - & 1 & & % : : @ - @ : - @ - - - 1 @ @ @ @ 1 @ @ @ - X - - 1 @ - - 1 X - 1 @ - @ @ @ @ @ X - @ - X & @ & @ X X & & @ X @ X & @ % & X % @ - & @ - X & & @ @ @ @ @ @ @ @ @ - ; - - @ @ - @ @ - @ @ @ - @ @ @ @ - @ @ @ @ - - - - - - # ; @ @ $ - @ # - - @ # @ @ @ # @ @ @ @ @ @ @ @ @ @ # @ @ @ # # @ O # O # # # # # O O # O # @ @ O # @ ",
"% @ & @ X & @ @ @ @ @ @ @ @ : @ & @ & : & & & & - % - @ & @ - - - : - : & & : & @ & & & : @ @ : X - : X : @ & & : @ - @ - : X & & : X : % : 1 @ & @ % - % & X % @ X & X @ & & @ X @ & X & X X % X - % @ % & % @ : X X X X - @ @ X 1 1 @ % 1 X X @ 1 X X @ @ X - @ - X - X - X @ X @ @ @ X @ @ % & % & X : @ 1 @ @ X : @ - X 1 @ @ @ @ @ @ @ & @ @ @ @ & O # @ @ @ ; ; $ ; @ @ @ $ $ ; - ; - # - ; - ; - - @ $ - - - @ @ @ - @ 1 X - @ @ X @ X @ X O @ X X O @ X X @ @ X @ O X @ X X O X @ @ @ @ @ $ X @ - $ - $ @ $ @ X $ @ - $ X X X - @ @ X @ @ $ X @ X @ X @ @ @ @ @ O X O . O @ $ @ X @ O @ X O X X @ @ X O $ @ O @ O X O O @ O O @ @ @ @ @ $ @ @ @ $ @ $ @ @ # @ @ O # @ O O @ @ @ O & & O O @ O # @ = O O O @ @ O O O O O O O O O O O O X O O = O = O O O O O @ @ # # * * ; # * * # & & * # # # @ # @ # @ ; @ ; # @ # - @ - @ ; & : & & - & & : & : # : @ & - : : & : 1 : : 1 : 1 1 : : : 1 : 1 : 1 1 1 1 : 1 : : : : % : @ 1 1 : 1 - % : & : 1 % 1 & & 1 % : - % 1 - 1 - - & 1 - & @ : % : @ @ : @ : - @ @ - @ - @ X - X @ @ @ 1 X - @ - X - 1 @ X - X - - - X 1 @ 1 1 @ & @ % X @ & X X @ & @ @ @ 1 & @ X & = X % & = X % X % @ @ @ @ @ - @ @ - @ - - @ @ $ @ # - @ - - @ 1 - - - $ - - - - - $ - - X - - @ $ - @ @ - @ @ - @ - - $ @ - @ @ @ @ @ @ @ & @ - @ @ @ # @ @ @ # @ @ O @ @ @ @ @ @ O @ @ @ @ @ & @ @ & @ @ O ",
"= X & % & & @ @ @ X @ @ @ & @ & @ & & & @ : % : : @ 1 : X & - : : & - : : @ : & & : & & & : & & : & X : @ : 1 & & : X : @ : - & : % : % X & % & % 1 @ % @ % & X & & X @ & @ X % & & @ X % @ % & X : % & @ X : X X & X & % @ X @ & X % X - X : X @ % @ & @ @ @ @ X @ @ @ - @ @ X @ & X X & X X & % @ % % X 1 @ @ - @ X @ & X & @ - @ @ @ X @ & @ @ @ @ @ & @ @ & - @ @ @ # @ @ ; - - @ - ; ; ; ; @ - - - @ - @ X @ - @ $ - $ @ @ - @ X @ @ @ @ X @ X X X X @ X X X X @ . X X X O X @ X X X X O X O X X O $ $ - $ @ @ $ X X X X @ @ X X X @ X @ @ @ @ X @ X @ X X @ $ X O X @ @ @ O X X O O O X O O = X O O O X O @ X @ . @ X O X O O @ @ @ @ @ @ @ $ @ @ @ @ $ @ @ @ # @ @ O @ $ @ @ @ @ # @ @ & @ @ O O @ O = O O = + + O O O % O O O O = O = % O O O = O O = @ @ # # # % = * : * * # * = = : = # @ & & & & # # @ # # & ; ; # ; & & * & * & & & ; & : : # : ; : : - - : : 1 : % : 1 : : : : 1 1 1 : : : : 1 : 1 1 : : : 1 & : % : 1 : % & 1 & : : X : : % : & X : % : 1 : 1 & - 1 - & 1 % & & % & @ : @ - & @ - - @ - @ @ @ - - X - - @ - X - X X - X : - @ 1 @ 1 @ - @ X @ - @ @ X % @ @ X @ @ X % @ @ @ & X X @ & X & % & % & % & % & & @ @ & @ @ & @ @ @ @ # @ - @ @ @ - - @ @ - X X - @ - & @ - @ X - @ - 1 1 - - $ - - @ @ @ @ - - - - $ - @ @ @ @ @ @ @ @ @ @ @ @ @ - @ @ @ @ @ & @ @ @ @ @ @ # @ @ # @ @ O & O & @ & @ & ",
"@ & O O @ @ & X & O & @ @ @ & & & @ # & & @ @ @ @ & & @ : @ - - 1 - - - & @ X & @ & @ @ & & X & : @ : @ & @ @ & X @ : @ : X : @ % & @ & & % & X % @ % & @ @ X & X @ X & X @ & O @ X @ & @ % @ X % X @ X X : @ % @ % @ X @ @ X X X @ X X X X @ X X % X X X X X X X @ X X X X X @ X @ @ & @ @ & X & % @ & & @ X & @ @ @ - @ @ @ @ @ O @ @ = @ @ @ @ % @ # @ O O # # @ # O # O @ @ # @ # # - $ ; - ; - $ ; - @ ; # $ # # - @ - - @ @ @ @ - @ - - - @ @ @ @ X @ O @ @ @ O X O @ X @ X = O @ O & O X @ @ @ @ @ @ @ @ @ $ X @ O @ @ @ @ @ @ - X @ X X @ X X @ @ @ @ @ X @ X X X X X . X @ X X X X X X X . X X X X X X X X . @ X X X O X X X X X - X X @ - $ @ @ @ @ @ @ $ @ $ @ @ @ @ O @ @ O @ = & O # O O O = O . = O O O + O + + O O = = O O O O = O O O & = * * * : * * * 3 3 3 3 6 6 , 6 , 3 , , > > * > * * * & # @ # # $ O O @ = * # & & & * & ; # # ; - # : ; ; : : : : & : 1 1 1 % : : 1 1 : : : 1 : : : : : 1 : % : % & & % & & X & % & & % % & & % & % & & & & % & % & & @ & @ @ & & @ @ & @ & @ : # & & @ @ @ # @ @ - X @ @ X X @ X @ @ X @ % X X X 1 - X - X X - - - @ $ @ % @ X % & % @ & O X & X & @ & @ % & X O X O % O % O X X @ @ @ @ @ @ @ @ @ @ O @ @ @ @ @ @ @ - 1 @ : - X - X X - X - @ @ 1 - X - - - - $ - @ - - @ $ - X - - - @ - 1 @ X - 1 @ - @ @ @ @ # - # @ @ @ X @ @ @ # @ @ @ @ @ @ @ @ & @ @ # & O & O ",
"X = % = % = = X X = X = & # & + O & & & & @ & & # - ; @ # @ @ : - 1 X : & & & & & % % & & X X & X : @ : X & @ : & & X : @ : X : & @ @ & & @ = % & & X X X X & @ X & @ & X & & @ @ X X & @ @ @ @ @ @ @ @ @ X @ X X O X @ @ @ @ @ @ @ O & @ X @ X @ X X X @ X X % @ X @ X X X X @ X = & O @ @ @ & X & @ X @ @ # @ @ @ @ # @ @ @ O @ # @ # O & @ = = X X # # # O # # # # # # O # # @ # # # ; ; ; # ; # ; # @ $ # # # # # # # # # @ # @ @ - - @ @ # @ O O O # O O O O O # @ O @ O O O @ O @ O O = = @ X O @ @ $ @ $ $ @ $ @ O @ @ @ # $ @ $ X @ X X X O @ X X @ X @ X X X X X . @ @ O X X O O X X X % X X X X X O X X X X . X X X X X X X X X X X - X @ - @ @ $ @ $ @ O @ @ # O O @ @ O @ O O & & = O O O O O O = O + = = = 3 3 3 r t x A N I T T / ` _ O.,.,.1.8.8.5.8.4.>.4.,.8.>.4.4.4.8.8.8.8.4.>.>.8.4.4.8.>.#.%.~ A A j r a 6 * * * O + # = & # # # & & * ; ; # : @ # & 1 & : : : : : 1 : : : % : & : 1 : % & : - : & & % : & % & & % % X % % & % & % % & & % % @ : X % & X : @ & @ & @ & @ & @ & @ & & @ & @ @ @ @ @ @ X @ - @ X @ X @ X @ X 1 X X - X X X - - @ X - @ @ @ @ @ @ @ @ @ @ @ & & O @ & X @ O % X & @ % % = % & % = O & & @ @ @ # @ @ @ # @ @ & # @ @ # @ @ @ $ X - @ : : X X & @ - X X - @ - - X - - - - @ $ $ - @ - - - X - X - - @ @ @ X - @ @ @ @ - - - $ - - @ & @ - X @ @ & @ @ & & @ @ @ O @ @ & @ @ & @ ",
"O % O % = O % & = % = % @ = & O # # + & O & # # @ # @ # @ ; - : @ : @ - X & @ X & & @ & & @ : @ : @ 1 @ : @ & X : @ : @ : X : @ & X & & X & X % X % & % & @ O % @ @ @ X & O X X & & @ X % O & & & @ X @ @ @ @ @ @ @ O @ @ X @ @ @ X X @ @ @ @ @ O % O X & X & % @ X X X @ @ X X X X & X & @ @ % % @ & X @ @ # @ O # @ @ @ # # & O @ O @ O & = & @ & O # O # # & $ # + $ @ # # @ # @ # # # ; ; $ # ; # ; ; ; # # # # # $ # @ # @ @ @ @ @ @ # @ @ O # O @ O @ @ = O @ @ @ O O O # O # O O O @ % = @ O @ O O @ @ @ @ O @ @ O @ @ O O @ @ @ @ @ @ @ X X X @ O @ @ O O X X O X X O X X @ O X X . X X . X O . X X X X . O X X O X . X X X X @ X - X X @ - $ @ @ @ @ @ @ $ $ # O @ O @ @ @ O @ @ # = = + # + + O O O O O + + = * * t t i x z A I P T ~ _ ` O.,.,.>.>.8.8.4.8.4.5.5.,.8.>.4.8.8.4.8.8.,.1.5.>.8.8.8.8.#.+.~ A D j a r 6 * * + # = + = % & # # # # # ; # ; & : : : & : % : : % : : : 1 : : & 1 : 1 : & & : : : 1 % & % & & % & % & & % & % & % & X % % & : % % & & % @ & : X & - % @ & & & @ : # # & @ & @ @ @ @ @ @ - $ X - X - X - X - X @ X X : - X @ X - @ - @ - @ @ @ @ @ @ @ & @ X X % @ X & X & @ @ = X = = X = O = X % = X @ # @ @ @ & @ @ @ @ & @ @ @ @ @ @ - - @ : X X - @ @ & X - - - @ - - X 1 - $ - @ - ; ; - - X X - - - X @ X @ 1 - @ @ - @ - - @ @ @ $ ; - @ X @ @ @ @ @ @ @ @ @ @ @ # @ & @ & O @ @ O & ",
"= = O = = = = = = = = & = & O * + * O * & & O = * & & & & & & & : & & @ & & @ & = & & = & @ & & : X : X % @ @ & X & : @ - @ : X & & @ & & X % & % % X @ X & % & & X @ X & X @ @ & X @ & O & & O @ @ @ O = & O # O @ O @ O = @ O O O & O = % & = = % = O = = % = @ # @ O @ @ O & O & O O + O O # @ @ O @ & = O O = = # O = & O O O O = = = = = = = O = + + O & = + & * * * * * * * * * * 2 * > > > > 3 , > 6 6 3 2 3 3 6 6 6 , 6 8 6 6 e 8 e t 6 , e 6 , e , e , 6 6 e 6 , 6 , 6 , , , * > > * * * * * * & * * * & & & = @ O O = @ O @ O # O X O O @ O @ # O + # . = O X O O O O O O O O X X @ X X @ X X O X X X X X O X X X @ O O X @ X @ X X - @ @ @ @ - $ $ @ @ @ $ # $ @ $ @ = = = = = , , 3 * = = t t i I I ~ ,.,.4.V.w.B.T.T.`.+X+X%X%X<X<X<X<XeXzXeXeXeXeXeXcXeXlXeXeXeXqXeXeXeXlX1XcXcXeXeXeXeXcXeXzXeX1X1X%X+X+XT.D.B.V.8.8.o.I P h t t 3 * + * * + * * * & & & & & & & % % % % = = 3 % & = & & & & & & % & = % % = % & % & % : & % X % = % % = % & = % % % & @ & % & & = % = & & @ & X X & @ @ # # @ @ @ @ @ O @ @ @ - @ X @ X @ X @ @ @ - @ $ @ ; - @ @ - @ - @ @ - # @ @ @ # & @ @ @ & O @ & X & X = O % = % = X = % % = % O % = @ & O & # O & O & O @ O # @ & O & @ & @ X @ X & @ X @ - $ - @ - $ - - - - - - $ - @ @ - - - @ 1 - - @ X @ 1 - X X - @ @ @ - @ - @ - @ @ - X - - X @ @ @ X - @ X @ @ @ # @ & @ @ @ @ ",
"O.' _ _ _ _ ` ` ` / ` ~ ^ ` ` ~ ~ ~ ~ T ~ T P P S N N k d d t 6 , , > > : > > & * & & & & & @ # @ & & & & & & @ : @ @ : @ : : & @ @ @ @ & O O % O & O X @ @ O O @ @ @ @ @ @ O & @ = & O @ O O @ @ O O O + = = = = = = & * = * = * * * * = 3 * * * * * * = 3 * > > * * * 3 * * * 2 2 2 3 3 3 3 3 6 4 3 6 3 6 6 t 8 t t r i t i i i h x z V P T T O.O.,.,.,.4.4.8.8.e.4.8.3.8.9.8.8.8.8.9.9.e.e.w.w.z.h.z.z.z.z.v.c.v.v.b.v.B.B.J.Z.Z.J.J.J.B.B.J.L.D.D.D.D.D.L.B.B.B.V.V.B.z.V.z.z.z.V.x.z.r.h.z.w.w.w.e.e.e.q.8.9.4.>.>.,.O.#._ Q F I v z z g d d r 8 7 6 * * # + O O O O O $ O O O O O O O O O O X O X @ X X @ O @ X @ @ O @ $ O O $ X @ @ $ @ $ @ - $ @ @ @ @ @ # @ @ # # # # * * 3 3 x ` ` O.4.4.e.D.B.`.+X+X:X9X9XeXlXlXvXvXvXnXvXMXbXMXvXMXMXnXvXvXBXMXvXvXnXnXMXvXMXmXMXvXbXvXvXvXBXlXzXBXvXMXlXnXMXvXMXMXnXnXvXMXnXzXzXlXeXrX9X%X%X`.T.D.h.>.<.` I I z d g t 3 6 * * = & 3 % 3 = % = % = = & = = & = & = = & % & & % & % % @ % X % @ = % X & % % X & % & & & % & X & & @ & @ @ @ @ @ @ @ @ @ # @ @ - # @ O # O @ O @ @ @ @ @ @ O @ @ @ O # @ @ # @ $ @ - - @ $ - @ # @ @ # # O O O @ O X @ X X @ O O @ O & = O = O = = = O = X = O = O = = O O & O @ O & # O @ # # + O @ @ @ @ @ @ & @ @ @ @ - @ @ @ - - - $ - $ - @ @ - @ - @ 1 - @ @ - - : @ @ @ - @ @ 1 - X - X @ X @ 1 X @ X X @ @ 1 1 @ - @ @ & @ @ @ @ @ @ @ @ # @ ",
"O._ O._  .' _ / ` / ` / ) / ` ~ ~ ~ ~ T ~ P P I I v A x g f 8 6 6 > > , * > * & = * & * & * & & & & & % & & @ & @ & - @ : @ @ @ & @ @ # = @ % O = X @ @ @ @ % X @ @ @ @ @ @ & X & & & % O & O & # & O O = = = = = = O * & = * = & * * * , % 3 = * * * * 3 % = , * > * * * 2 > * * * 2 3 > 3 2 3 4 6 6 3 , 3 7 8 t t t r r r i i g i x x v T P ` O.,.,.>.>.4.4.4.4.e.3.4.4.8.8.4.4.8.q.q.8.w.e.e.w.r.r.z.z.z.V.z.x.V.c.V.V.B.Z.B.J.J.B.J.J.J.J.B.Z.B.B.D.L.D.D.B.J.B.B.B.V.V.V.V.z.V.z.z.z.z.z.d.w.w.w.e.e.q.q.8.e.8.>.4.,.#.O._ ~ P F A z z g d d r 8 9 4 * 2 # O O O O O O O # o O O O O O O @ # O X @ @ X X X @ X @ X O @ @ @ @ X @ @ @ @ @ @ @ @ O @ @ @ @ @ $ O @ # @ # # # = = 3 3 x ` ` ,.,.4.e.B.D.T.@X%X&X<XeXcXzXlXzXBXmXvXmXBXBXnXvXvXvXMXvXNXMXvXmXmXMXvXMXNXvXMXvXBXBXmXvXmXlXBXzXzXBXxXnXnXvXMXmXvXMXnXnXnXnXzXzXzXeXeX<X%X+X`.D.D.h.,.>.` P U z g g t 6 3 * = & = % = = = = = = = = = = = = = & & & % = % % % & % % & & X % % % % @ % @ % % & % & & & & & & & @ # & O @ @ @ & @ # @ @ # @ @ @ @ @ @ @ @ # @ @ @ @ $ @ O O O @ = = @ @ # @ # ; # $ # @ @ @ @ @ # @ @ O O # O @ & @ @ X @ @ @ @ O & = O O = = = + = = = = O = = O = = O O = O O & O # = O # & O & = @ @ @ # & O & O @ @ - @ $ - @ - - - $ - - @ @ - @ @ @ @ @ - $ - X & X - X : 1 @ @ @ @ X - X - X @ @ 1 @ X @ @ - 1 @ @ @ @ @ - - @ @ @ @ @ @ @ @ ",
"<X<X<X<X:X:X;X;X-X;X&X%X%X%X;X;X%X@X%XOX@XOX@X.X_.`.`.(.L.L.B.w.w.%.A A d 7 8 4 3 > * * * * * * : & & & & X & # & @ # - @ - # ; # O = = O O O O O O O . O O = % O . O O O O = & & * & , 6 6 t g d N I I ~ _ _ O.,.,.,.4.4.8.e.e.s.z.V.V.V.V.V.V.V.V.D.B.B.D.D.B.B.D.B.Z.V.B.V.v.V.x.z.x.x.x.V.v.V.V.Z.Z.D.S.P.I.T.(.T.`.`.`.}. X+X+X@X%X%X&X&X<X<XqX9XeXeXrXeXeXeXeXeXeXeXeXeXqXeXqXrXqXeXeXeXaXaXpXzXaXzXzXeXzXpXaXsXsXaXsXaXsXsXaXcXxXxXxXcXxXsXzXxXzXzXcXcXcXcXpXaXpXaXpXaXeXpXeXeXeXuXeXeXpXuXeXeXeX9XeXeXeX<X1X1X<X9X;X<X;X;X=X#XOX X+X{.`.{.(.L.L.Z.v.v.h.e.e.>.....~ I I C g g 7 > 4 @ @ O O @ O X @ @ @ @ O O @ $ @ @ O @ O @ O @ $ @ @ @ @ @ @ @ @ $ # # # # ; ; ; 9 h x I ,.,.T.%X%X<X<X<XeXcXlXBXnXvXBXvXvXvXzXvXzXlXlXvXyXlXlXvXvXvXvXvXlXvXvXbXbXlXlXvXvXvXbXvXvXlXvXlXvXlXzXzXvXBXvXlXvXvXvXvXvXbXvXvXvXzXvXvXlXzXvXvXvXvXBXlXlXlXeXeX9X&X%X*X.X{.{.T.B.D.z.4.8. .I I i e t , = = + = = = = & O & = & % & = & % % % X % & = X & O % % @ = X & & & @ @ & @ - @ # ; # @ # @ @ # O & @ # # O @ @ # # # # O O O @ $ O O $ O O O O = = O # # # # ; ; w , 4 6 6 7 0 9 9 r t r r r r r r r r r e e t e t e 8 t 3 > 3 * = & * * & * * & & * & * * * # * * O + O O O = O = O # O # @ @ O O @ # # @ - $ @ ; $ - - - @ @ - @ - @ @ @ - @ - @ - X @ : X @ @ @ @ 1 @ - X @ X @ X @ X @ @ X : X @ @ 1 - - @ @ @ @ @ @ # & @ @ # ",
"vXvXvXgXvXgXvXgXvXgXgXgXjXsXgXgXsXaXgXiXsXrXrXpXqXqXqX6X6X6X:X=X=XXX].`.L.w.d.,.` ^ S g g n 4 0 # # & @ & @ @ & & # @ # # @ # O * * + 3 t t i x g v N A I I I T ` ` ` ,.&.8.r.r.B.L.L.R.{.Y.+X%X%X;X<X<X1XeXeXeXeXlXlXzXeXzXzXzXxXxXxXMXMXzXcXzXzXMXMXMXMXMXMXMXMXMXMXMXMXMXxXnXMXvXvXxXnXnXnXnXnXnXnXCXnXnXNXnXMXMXZXnXAXCXNXnXMXMXMXvXMXMXMXBXvXvXzXvXzXzXzXvXvXzXvXzXvXzXvXsXnXgXzXvXvXvXnXxXzXnXnXnXzXnXzXvXxXgXjXsXjXsXjXsXjXsXsXnXzXvXjXsXsXsXgXgXsXgXsXvXnXsXsXjXsXgXsXaXzXzXsXaXvXsXgXsXzXsXsXsXgXsXaXzXzXzXaXzXaXzXzXzXsXsXsXsXzXsXaXsXaXaXaXpXpXiXpXuX9XqX9X>X<X&X&X=X@X`.{.T.c.Z.8.Q E t * # @ O @ O @ @ @ O O @ @ @ @ @ $ @ @ O @ @ @ O # O O + + + , z z +.l.k.I.+X+X%XlXeXzXvXzXzXMXMXvXvXvXbXvXlXbXvXvXvXvXvXvXlXyXbXyXbXbXyXhXgXvXvXhXvXyXlXbXhXvXhXbXgXvXvXlXvXlXbXyXbXyXvXvXbXvXvXvXvXvXvXvXvXvXlXvXvXvXvXlXvXyXvXrXgXgXgXyXgXaXgXaXaXaXaXaXaXaXpXrXrXqXeX<X;XOX%X}.Y.T.B.e.e.,.^ T A i g t > , & = = % & & & @ @ X @ & X X & @ @ & X @ & & @ # @ # @ # @ # @ @ O O # O O # O + O O + + + # 2 6 3 t i i x A V F T ~ ~ O.` O.,.,.4.8.4.p.z.h.B.Z.L.T.T.`.^.(.`.`._.{.}.}.{.}.{. X{.{.{.{.{.`.}.`.T.T.T.B.D.V.h.h.w.w.r.h.V.z.V.z.x.v.x.V.h.h.r.e.4.4.O.P T m i y 6 2 + = + O + # o # # O O O O @ O # O O X @ @ O @ @ @ @ @ @ @ @ @ @ X - X - 1 @ - @ X @ X - X X - X @ X @ X @ @ - X X - @ @ # @ @ @ @ @ O O @ ",
"gXzXgXvXgXvXgXsXgXjXgXsXgXgXfXsXaXaXiXaXiXiXiXiXwXqXqX6X7X6X:X$X$XoX`._.D.d.d.&.^ / C g h r 0 4 : # # : & & @ & @ @ # & @ @ @ # & * * 3 e t g x z z A A I I I P / ` ] ,.%.8.z.r.B.L.L.R.Y.{.{.OX%X;X<X<XeXeXeXzXeXeXeXzXlXzXzXzXzXMXcXMXzXMXMXMXzXMXMXMXMXMXMXMXMXMXnXMXMXxXMXMXxXnXmXnXnXxXnXnXnXnXnXnXnXCXnXmXnXMXnXNXAXnXSXnXNXMXNXBXBXMXMXzXzXvXzXzXvXvXzXzXzXvXzXvXzXvXzXvXsXsXnXxXnXnXvXnXnXnXnXxXnXxXjXsXnXsXjXjXjXgXsXgXsXgXjXgXnXsXgXjXvXgXgXsXgXgXsXvXgXsXgXzXzXsXvXaXgXsXaXvXaXgXgXsXgXsXgXsXaXgXvXaXaXzXaXzXsXgXaXzXzXgXsXgXsXaXaXaXaXsXaXaXpXiXwXqXeX9X9X:X<X&X%X$XOX}.{.T.Z.c.8.~ ~ r * # O @ O @ O @ $ @ @ $ @ $ @ O @ @ $ @ @ @ # # @ # # O # # 4 z k +.k.k.T.|.+X&X<X1XzXzXMXMXBXzXvXvXvXvXvXbXlXvXlXgXvXlXvXvXbXlXbXlXlXhXvXvXlXgXhXlXhXbXlXbXyXhXgXhXvXvXbXlXbXyXbXlXbXvXvXvXbXvXvXvXvXbXvXvXvXvXvXvXlXvXvXyXvXgXgXgXaXgXaXaXrXaXrXzXzXvXgXaXaXaXpXuXeX9XqX-X%X@X}.T.T.V.9.e.#.~ ~ N g g t 4 , = O = % 1 X & X @ & O & O @ & & @ @ @ X & @ @ @ # # & @ # O # # # # O o # O O O + + O + + + 2 3 6 t r t x A S I ~ T ` ` ` O.,.O.4.4.4.0.h.h.c.Z.P.S.T.T.`.`._.`.{.}.`.}.{.`.}.}.{.+X{.}.`.`.`.`.T.(.L.L.D.V.h.z.w.h.r.w.V.z.V.V.z.z.z.z.z.w.d.w.4.4.O.P P z i y 7 * = + + + + # + + o # + O # O # O & @ O @ @ @ @ O # O # @ @ & @ @ : @ X @ @ - X @ - X - X @ @ X @ X - X @ 1 X - @ - @ @ - - ; @ @ @ # O @ O ",
"vXgXvXaXvXgXvXjXvXgXgXjXgXhXgXhXgXgXtXyXgXtXwXwXwX0X0X6X6X6X:X:X>X:X&X:X&X%X%X@X@XOXOX(.(.J.*.*.8 & # @ @ O @ # # 0 g j j F F +.h.V.B.T.+X+X%X%X;X%X;X<X2X&X<X<X1XcXcXcXcXzXcXxXxXxXxXnXMXMXNXDXMXNXDXDXNXNXNXNXNXNXDXNXMXZXNXDXNXDXZXDXNXDXDXDXNXVXNXVXMXNXDXVXAXAXAXGXZXFXAXFXDXNXAXNXNXAXNXFXZXAXAXFXSXAXNXAXNXNXNXNXNXNXNXNXBXMXMXMXBXvXBXzXvXvXzXzXaXzXaXzXzXvXzXvXzXgXzXvXvXsXxXvXzXvXsXgXaXvXvXaXiXaXzXgXsXgXsXaXaXaXaXaXiXgXaXaXsXgXaXaXaXgXgXaXaXgXvXsXsXsXgXvXgXvXaXvXaXvXaXaXgXvXzXvXnXvXsXvXvXzXaXzXzXzXrXzXrXvXrXvXaXaXzXaXsXaXaXaXaXaXaXaXiXgXaXrXrXyXrXrXrXwXwXeXeX<X<X&X-X-X#X|.+XS.O.#.r & # @ O @ @ @ @ @ O @ $ @ @ @ @ @ O # @ O # # 4 k z @.Z.OXOXuXaXaXvXvXxXzXzXBXvXBXBXvXvXBXvXBXbXbXlXbXbXhXyXbXbXyXbXvXlXhXbXyXbXgXhXhXhXgXgXlXhXlXbXyXbXvXbXvXgXvXgXlXlXbXlXyXvXvXvXvXvXvXvXvXvXvXvXbXbXvXvXvXvXgXgXvXyXlXvXyXyXgXvXrXrXrXrXyXrXrXaXrXrXgXrXiXaXaXaXaXaXaXaXeXqXeXeX<X<X<X>X;X#X#X XY.Y.c.8.4.W x x < & X X & % @ X @ O & @ @ O # @ # # # # # # # # # # * 4 r k k I ^ ^ O.<.<.e.z.g.D.T.T.`.+X@X%X;X;X<X9X<X<X1XeXeXeXeXeXcXrXrXrXrXvXlXzXlXvXvXvXvXvXsXnXvXvXxXvXvXnXvXnXnXvXnXnXvXzXaXaXaXpXaXpXqXeXeX<X1X1XcXeXeXeXpXpXaXpXpXeXrXeXeX9XqX<X<X&X%X_._.^.x.g.<.T T x 7 * w + + O O O O O O O O O O O @ O # @ # @ @ @ @ @ @ @ @ - @ - @ 1 X - @ X @ X X - X - X @ X @ X @ X - @ - @ @ @ # # @ O # O + ",
"gXzXgXvXgXvXgXvXgXvXgXgXgXgXfXgXyXgXyXfXrXrXrXwXqXwXqXqXqXqX0X<X9X9X<X;X<X;X<X<X<X<X<X1X2X3Xk.v.C 0 8 ; @ @ @ # & v (.(.2XiXiXsXzXzXMXzXMXcXnXMXMXMXMXMXnXMXMXMXMXMXMXNXMXMXVXNXNXDXDXDXDXAXNXGXDXAXVXNXNXDXGXDXDXDXDXAXDXDXGXGXGXGXGXGXDXGXDXDXDXDXDXDXNXDXDXDXDXGXGXGXGXGXGXGXDXGXAXFXAXNXNXAXAXAXSXmXSXmXmXAXMXNXNXNXNXNXNXnXnXBXvXMXnXMXnXvXvXvXgXgXvXvXvXgXvXaXvXaXvXaXvXaXvXgXgXgXgXgXgXaXgXaXaXsXgXzXaXvXrXaXgXfXgXaXgXgXfXsXgXaXfXiXgXaXaXyXaXrXgXaXrXaXrXgXrXrXrXrXrXrXrXrXrXlXrXrXrXaXiXrXrXrXaXrXgXaXrXaXyXaXzXrXaXrXaXrXaXrXrXrXrXaXyXrXrXrXrXrXrXlXrXrXtXrXrXrXrXrXrX9XwXrXqXqXqX9X<X<X;X;X(.#.*.7 @ O @ O O @ @ @ @ O $ @ O $ # # # 6 U U Z.>X:XpXsXnXgXnXnXvXnXvXvXBXlXlXvXlXlXBXlXvXbXlXlXbXbXbXbXyXbXgXbXhXbXvXbXgXvXbXgXvXvXgXvXbXgXbXlXvXlXbXgXlXyXbXlXbXyXbXvXyXbXbXgXlXbXlXbXNXBXvXyXlX5X+X'.W.G.S.^.*X@X&XwXrXaXaXvXrXrXrXrXrXrXrXrXrXrXaXrXrXrXrXrXrXrXeXrXrXiXeXrXrXrXpXaXeXrXrXeXrXqXqXqXeX1X2X,XOXOXr.I & = @ O & = @ & O @ @ & # # # # # * h g Q #.$.h.`.`.-XwXqXrXpXeXaXsXgXgXxXvXvXvXvXmXnXvXmXMXnXnXnXMXvXnXbXlXvXbXlXvXbXbXvXvXmXbXbXvXbXlXvXvXvXvXvXvXvXvXvXvXvXvXvXvXvXzXzXvXvXvXzXvXvXzXzXzXzXlXzXlXpXcXlXlXcXzXzXzXgXvXzXgXvXgXgXlXvXlXvXrXrXlXeXrXrXwX9X<X:X}.P.P.u.` ` z 7 6 * O O O O O O O O O O O O # O @ @ @ @ @ @ @ @ @ @ @ @ X - X - $ @ - X - 1 @ X - X @ @ X - : @ @ @ # @ O 3 * k ",
"gXsXgXgXhXgXgXgXvXgXgXgXgXyXgXgXyXyXfXiXfXfXwXwXwXwXqX8XqXqX0X9X<X<X>X:X<X<X:X<X<X<X2X2X<X;Xk.k.v 0 n - @ @ @ # & z `.`.<XaXeXsXsXnXnXnXnXMXnXMXMXMXMXnXZXMXnXMXMXMXNXZXNXDXMXDXNXDXDXDXNXAXGXNXDXDXVXNXDXVXVXGXDXAXGXAXDXVXGXGXGXGXGXGXGXGXFXFXDXVXGXVXGXAXFXFXGXGXGXGXGXGXGXFXGXVXNXGXAXNXNXNXNXAXAXNXNXNXNXNXNXNXNXNXNXNXNXNXNXmXNXmXnXnXbXnXvXvXgXvXgXnXgXnXgXgXzXgXgXvXsXsXgXvXgXgXgXsXgXsXaXsXgXsXgXaXsXaXyXzXyXyXgXaXfXgXaXgXaXfXiXaXfXaXaXaXgXaXyXaXgXrXgXaXrXrXzXrXrXyXrXzXrXyXrXlXgXaXrXaXrXgXrXgXrXaXaXaXrXzXaXrXzXrXrXrXaXrXrXaXrXrXaXrXrXrXrXrXlXrXrXrXyXyXrXrXrXrXrX0X0XeXqXqX9X<X<X:X%X%X{.%.#., & O # O @ @ X O @ O @ $ @ @ # # # 4 P U D.:X:XrXgXvXnXvXbXvXbXvXvXvXlXbXlXlXbXbXbXlXbXbXlXbXbXhXlXhXhXhXhXhXvXhXvXvXgXvXbXvXvXvXgXvXbXlXgXbXyXvXgXvXyXvXlXvXlXvXgXlXlXvXlXlXvXvXbXmXbXbXyXyX5X+XoXG.G.G._.@X.X5XtXwXvXyXaXaXrXrXrXrXaXrXrXaXrXrXrXrXaXrXrXaXrXrXaXrXrXrXrXeXpXrXpXrXpXeXrXrXqXqX8XqX>X>X,X4XOXJ.I O & @ @ = @ = @ @ @ @ # # # # # # 2 l g U #.#.z.`.`.%XqXqXeXrXeXvXaXaXvXgXnXvXvXnXvXnXnXnXnXnXmXnXnXvXmXvXvXmXvXvXvXvXvXlXBXvXbXbXbXbXbXlXvXbXvXvXvXvXvXvXvXvXvXvXvXvXvXvXvXvXzXvXaXvXaXzXzXrXaXzXrXzXeXzXaXzXzXzXzXgXvXgXgXgXvXvXgXlXyXvXvXrXrXrXrXeXeX9X9X&X+XS.P.e.` ` x 6 8 * + + O O O O O + + O + O O O @ O O # O O @ @ # @ @ @ X - @ @ $ $ - - X - X @ X - - X - X - @ & = * + O * * h ",
"vXvXnXvXvXnXgXnXgXvXhXgXhXgXyXfXgXgXgXfXaXiXgXaXiXiXiX6X[.[.D.c.x.d.e.9.3.4.8.4.4.1.1.>.>._ Q / R n a @ @ @ @ # = A ;X;XzXMXNXNXNXNXnXMXMXnXnXNXBXnXNXMXnXMXMXMXMXMXMXAXDXMXNXDXDXDXDXAXGXGXGXBXNXNXMXBXnXzXvXzXrXrX0X:X<X%X_.+X`.T.^.S.L.D.P.A.S.D.D.D.D.n.m.H.C.C.D.S./.^.'.@X*X<XwX9XrXgXgXgXgXgXgXaXgXgXaXiXaXaXgXaXgXgXgXnXvXmXbXnXnXnXnXvXnXgXnXnXnXnXmXnXnXnXnXnXsXnXvXvXgXvXvXgXvXgXgXvXgXjXgXsXsXgXgXaXgXaXaXgXfXiXjXiXiXgXfXfXgXgXyXgXgXiXtXgXtXgXrXaXrXrXlXrXyXrXlXrXyXyXrXaXrXrXrXrXlXrXlXrXaXrXzXgXlXrXgXyXvXgXrXgXgXrXrXaXrXaXgXrXrXaXaXaXrXrXrXrXrXrXrXwXrXrXrXrXrXrXrXrXrXrXrXeX0XqXeXqX1X2X1X,.> , @ O O @ @ @ $ @ @ @ @ @ 4 j l 9.<X:XvXbXvXmXvXvXvXvXlXhXbXbXbXbXbXhXbXbXlXlXbXlXlXbXbXbXbXbXbXhXlXhXvXvXhXvXgXvXgXvXyXvXgXvXgXvXgXvXvXlXbXlXvXvXvXlXvXlXvXlXvXvXvXbXbXvXlXtX*XS.G.s.4.4.o.X.X.X.o. .X.o.X.4.f.s.P.&X&XqXrXiXrXaXiXiXrXrXeXrXrXrXrXrXrXrXiXpXrXrXaXeXeXrXiXaXpXpXrXrXqXpXpXpXuXiXiXpXuXuX2X3X] & & = O & O & @ # @ @ @ O # i ....(.iXrXmXBXmXnXvXmXmXnXmXnXmXmXmXmXvXnXmXmXnXBXmXnXmXBXmXmXmXbXBXBXbXvXmXvXvXvXvXvXbXbXbXbXbXlXbXlXbXbXbXbXvXbXlXvXvXvXvXvXvXvXvXlXvXvXvXvXlXvXzXvXzXlXaXvXrXlXlXrXrXrXaXlXlXgXgXgXvXgXvXgXvXyXyXgXyXgXlXyXrXlXyXlXyXyXrXlXrXrXeXaXrXeXrX<X+X+XD.3.e.` V A g q 7 3 + = O O + O O O + # O @ # # O @ O O @ @ @ - @ $ X @ X - X @ X X @ @ - # @ + = * 3 S C.c.9X",
"vXnXnXsXjXnXvXgXnXgXgXgXfXhXgXnXmXkXjXgXaX:X).).n.0.0.$.^ } ^ ( ^ ^ ^ T ~ U U P U U I U U P ~ E D 9 n # # @ # * & I <X<XNXBXBXBXBXNXmXmXNXBXmXmXmXNXnXNXAXnXNXZXGXGXDXCXNXaX:X<X_.P.P.b.s.s.3.<.4.<.<.O.O.o.o.O.O.O.O.O.O.o.#.o.o.o.o.,.$.$.$.$.,.,.,.$.$.$.*.;.o.$.$.o.o.o.o.o.o.o.=.o.1.1.2.3.9.9.s.h.f.c.D.J.P.^.(.].}.}.@X#X#X-X:X:X6X:X:X-X-X-X$XXXXX.X}.|.[.].(.(.(.(.(.(.^.^.[.[._.|.|..XXX#X$XXX$X-X-X&X$X6X&X:X6X6X:X7X7X:X7X6X7X6X0X6XqX8X0XqXqX8XwXwXrXrXrXwXrXrXrXrXrXrXwXrXrXrXwXrXrXrXwXfXrXaXgXiXiXaXaXiXrXiXrXiXiXrXaXaXaXaXaXgXvXgXgXgXjXgXvXgXyXgXgXtXyXyXgXgXaXgXrXrXrXtXrXqXqX9X<XqX1XdX1Xq.8 6 O O @ O O @ O @ $ O 4 4 ) }. XvXvXvXlXbXlXbXbXvXvXbXyXBXbXbXbXlXbXbXbXlXbXBXbXhXbXlXlXhXhXhXlXbXhXhXhXhXhXvXgXvXvXvXgXvXvXvXbXbXgXvXhXvXgXvXvXvXvXgXgXgXrX9X9X*X^.^.j.4.4.X. . .X.X.X.X.X.X.| X.| X. .X.X.| X...O.;.-.n.#X#XqXuXwXqXqXwXwXqXqXqXqXqXwXqXeXqXqXrXrXwXqXrXwXpXrXwXuXpXwXuXwXuXuXuXuXuXuXuX1X].A O O @ # O @ O # O @ @ @ # 2 I.AXAXNXmXmXBXmXmXBXmXvXBXBXBXBXvXmXvXBXmXvXmXmXvXvXbXBXmXbXbXmXvXnXkXnXbXbXbXbXvXbXbXvXvXbXbXbXlXbXgXbXhXbXvXbXbXbXvXvXvXhXvXvXhXvXvXvXbXvXvXvXvXvXvXvXzXvXvXsXlXzXrXlXaXvXzXzXrXaXvXvXyXyXlXhXyXyXbXgXhXyXvXyXlXvXyXyXlXyXrXyXyXlXrXlXyXzXlXlXvXvXaXzXvXzXaXaXeX&X<X_.D.S.8.^ ~ z 6 7 3 + O O O + O O O @ $ @ @ @ $ @ $ $ - X X $ - X @ @ @ # 4 * I S.T.zXNXNXBX",
"vXgXvXjXjXjXjXnXnXvXgXgXgXgXgXnXjXnXnXaXgX:X`.`.Z.9.u.+.} ( ( ^ ^ / Q ^ ~ U ~ U I U U U P E E W D n 8 - & @ @ # # S <X9XNXmXmXBXBXNXNXmXnXNXnXNXmXNXnXMXCXNXMXNXGXGXDXCXNXaX:X:X_.P.S.g.f.s.3.<.<.o.O.<.o.O.o.#.O.O.o.O.O.o.@.@.o.o.#.$.$.$.*.@.,.o.$.$.,.$.;.t.=.o.o.o.o.o.o.;.o.o.o.$.=.4.2.u.i.e.d.f.h.b.D.D.L.(.(.[.}.}..X$X#X-X:X:X-X-X6X:X-X-X#XXXXX|.}.oX}.).`.].(.`.^.^.(.`.[.`.}.oX}.|.#XXXXX4X$X-X-X-X$X-X6X$X-X6X6X:X7X6X7X6X6X6X6XqX8X8XqXqXqXqX0XrXwXwXwXwXwXrXrXrXrXrXrXrXrXrXrXrXwXrXrXrXrXrXiXrXiXaXaXiXaXaXaXiXaXaXrXaXaXgXaXzXgXzXsXgXgXgXgXaXgXrXgXrXyXrXgXaXfXiXgXiXtXrXwXqX0XqXeX<X1XdXcXq.8 6 # O O @ O @ @ O O # 4 4 ( |. XxXzXnXlXbXbXbXbXbXvXbXbXbXhXbXlXbXbXbXbXbXbXlXbXbXlXhXbXbXlXlXbXlXyXhXvXgXhXgXbXvXgXvXvXvXgXvXlXgXvXgXgXgXhXvXvXvXvXvXgXzXrX9X9X#X^.^.j.<.4.X. .X. . .|  .X.X.X.X.+.| ......X.} X...&.&.n.@X@XqXwXuXwXqXqXwXqXqXqXrXwXqXrXwXrXrXqXrXqXwXwXpXwXqXpXiXuXiXuXwXuXuXuXiXiXpX1XdX XA O # O O & O # O @ @ # # * * T.AXAXNXmXnXmXBXBXmXbXmXmXmXmXbXBXvXmXvXBXBXbXmXbXBXbXvXvXvXmXvXBXmXmXnXmXvXbXvXbXvXbXBXvXvXbXbXbXbXbXvXbXvXbXbXvXbXvXvXbXvXvXvXvXvXvXvXvXvXvXlXvXgXvXvXvXvXgXvXaXvXlXrXaXlXrXaXzXgXaXgXgXlXgXyXvXgXyXyXbXyXyXvXyXlXyXlXyXyXlXyXyXyXaXrXzXyXyXaXzXzXzXvXvXvXzXzXeX:X;X+XD.D.8.T ~ k 7 6 + o o O O O O O O $ O $ O $ @ @ - @ $ @ @ X X X X O O # 2 * I T.S.zXNXNXBX",
"nXnXnXgXvXzXnXzXgXaXaXgXrX$X$X^.l.x.3...O.^ ^ ^ ) ( ( ( ( ^ } } ( } ( ^ / ) / ^ ) ) ~ / / / Q W j > > # @ # @ & + I <X9XBXBXBXBXVXbXVXBXBXNXBXMXMXNXMXNXNXMXvXeX`.^.z.<.<.o.o.o.$.$.$.=.<.,.<.<.<.,.<.<.<.<.1.<.-.1.1.-.-.1.1.1.4.1.>.<.2.t.-.2.4.1.6.1.t.7.t.t.4.1.1.1.-.u.-.-.4.4.1.1.-.-.-.-.<.$.=.@.@.@.o.@.+.@.o.X.@.+.+.$.$.$.-.-.-.-.-.*.;.*.$.@.@.+.+.+.+.=.=.1.4.1.1.3.3.3.7.9.9.9.9.9.7.9.9.q.7.6.9.7.7.u.9.9.9.i.i.p.p.i.d.i.i.d.i.s.d.d.d.g.g.g.g.b.C.C.C.C.C.C.C.C.C.C.C.C.C.C.C.D.Z.Z.C.C.D.Z.Z.Z.A.D.D.D.Z.b.C.x.l.x.x.V.b.b.D.P.P.^._._.XX@X#X$X&X&X9XrXwXrXiXgXgXiXiXgXtXgXrX9XeX<X9XeX1XeXuX8.8 7 @ O @ O @ O $ O O # z z =XvXmXlXbXlXbXbXlXbXbXlXbXlXbXbXlXbXhXbXbXlXbXbXbXlXbXbXhXbXbXlXvXgXhXhXyXbXhXgXhXhXgXvXvXvXgXvXvXgXgXgXyXyXiXwX$X:X}.S.P.g.9.i.<.o.O. .{  .{  . .X...X...o.X...X.X.X.| X...| X...X.X.X.......X.$.=.s.C.b.g.l.z.f.g.h.g.g.g.g.j.l.f.z.f.f.f.g.f.z.g.n.K.K.!.!.(.}.|.oXXX|.|.OXOX Xw.8 @ @ # O @ # O # @ O @ O 3 6 ;XAXNXnXmXBXbXbXbXbXbXbXbXbXBXbXbXbXbXbXbXvXvXbXbXbXBXvXbXvXmXbXvXvXmXmXvXbXnXvXbXhXbXvXhXbXbXbXhXbXhXbXvXnXvXmXvXvXvXvXvXvXhXhXvXvXvXvXvXvXvXvXvXvXvXvXvXvXvXvXgXlXaXrXzXrXlXlXrXzXvXyXlXyXlXyXyXyXhXyXyXyXyXlXlXlXyXyXlXyXlXyXlXyXrXlXrXyXyXlXlXvXyXlXlXyXzXvXrXlXvXrXzXvXvXnXnXsX>X2X(.d.d.` z z 6 * * & # # @ # # O O @ @ $ @ X X O X # = d h.s.lXBXBXBXhXhXBX",
"xXnXnXzXzXaXqX@X#XY.w.h.o.` ` T ^ Q ~ ) / ` ^ / / ^ ( ^ ` ^ / ` ^ ^ / _ / ^ ^ / ( ( ` / / / G v 0 ; ; # : - & # & D 9X9XmXBXbXBXBXBXBXbXnXnXnXMXnXaX&X&XP.4.3...O.o.,.4.<.8.4.4.1.4.4.4.4.1.1.1.4.4.4.4.1.7.1.6.2.1.1.6.t.7.2.1.1.1.1.6.2.t.7.2.1.1.1.6.7.t.7.t.1.6.6.1.t.2.2.2.1.3.1.1.-.2.u.-.1.1.1.1.-.1.<.$.=.=.=.$.$.$.$.$.#.@.@.$.$.@.$.$.@.$.$.@.$.;.@.@.=.1.1.9.p.u.i.i.9.i.i.9.u.i.i.9.0.i.u.i.i.i.u.i.9.u.i.9.9.9.9.i.9.9.9.9.9.9.9.i.9.9.u.9.9.9.9.e.3.9.9.3.i.3.3.9.9.9.u.9.9.9.u.9.u.9.u.u.9.i.9.9.9.9.9.9.0.9.7.q.9.9.3.9.9.3.8.9.9.9.7.9.7.9.3.3.9.i.s.f.f.Z.^.^.#X9X6XwXrXrXqXqXeX9X1X9X1X=X#X/ * > O @ @ X O O O # O * ` ` xXnXvXvXlXbXbXlXbXbXbXbXbXbXbXhXbXhXhXbXbXbXhXbXhXbXlXbXbXlXbXbXvXvXbXlXvXvXvXbXvXvXvXvXgXzXrX:X:X_.W.T.b.e.i.,.o.@.X. . ..... ...X...X.o.....X.X...X.| ....X.{ | X.........+...X.X...X.X...X...X...O.o.@.o.o.X...X...X.o.X.o.o.$.o.o.o.:.:.o.=.=.=.=.-.-.-.2.-.7.6.6.9.q.9.q.q.q.W & & @ @ # @ @ @ @ # # @ + x x lXnXnXbXmXbXbXbXbXbXBXvXbXbXbXbXbXbXbXlXbXbXbXbXbXvXBXbXmXbXbXmXmXmXhXmXbXbXbXbXvXvXmXvXmXbXvXbXvXvXmXvXbXhXhXhXbXbXvXhXnXgXnXnXvXvXvXhXnXvXvXvXvXjXvXvXhXgXgXvXvXgXvXzXgXvXaXaXzXgXaXaXvXvXlXvXyXlXgXvXlXvXyXvXyXyXvXyXlXyXyXyXyXyXlXyXlXlXvXyXvXlXgXvXyXlXvXyXvXlXrXvXgXaXvXgXvXvXvXvXnXgXvXsX1XqX|.Z.B.>.E U A d f 9 7 0 4 - ; O O X @ g z `.MXBXBXBXBXhXBXBXbX",
"zXvXjXsXaXaXeX@X%XT.h.w.,.` ` T ^ ^ ^ ) ^ ^ ` ` ` ^ ^ ` _ / / _ ` / ( ^ ( ^ _ ( ) / ( [ / / G G 0 ; ; ; @ & & * * S 9X9XVXBXVXBXBXBXNXmXmXNXMXvXMXrX&X&XP.3.3.O.O.o.,.<.1.4.8.3.3.1.1.3.1.3.3.1.3.1.4.6.1.1.6.1.6.1.1.6.7.-.t.2.6.1.6.7.t.2.7.2.t.7.6.1.t.7.u.t.1.6.1.6.t.t.2.t.7.-.2.1.2.t.-.t.1.1.1.&.1.$.<.$.1.$.$.,.$.$.;.*.$.@.%.$.@.$.@.@.$.@.$.@.@.$.$.@.=.1.1.u.i.p.i.p.i.i.9.p.p.9.i.i.u.i.i.i.i.i.u.0.i.9.i.9.i.9.9.9.9.i.9.i.9.9.9.9.9.p.9.9.u.9.9.9.9.9.9.9.9.9.9.9.9.3.9.9.9.9.9.9.0.u.0.9.9.9.9.9.9.9.7.9.9.9.9.9.9.3.i.9.3.9.9.4.3.7.7.3.9.3.7.y.i.y.u.f.f.b.^.^.$X6X6XwXrXwXeXeX9X<X9X<X1X=XOX/ > * $ O @ $ X @ O O O * ` _ nXvXvXvXvXlXbXbXbXbXbXbXbXlXbXlXbXbXlXbXbXhXbXbXbXbXbXhXbXbXbXlXvXvXlXbXhXbXvXvXvXvXvXvXgXgXwX:X&X_.P.^.b.9.u.=.o.+... . . . .o.X...X...X...X...X.o.......|  ... .............X.X...X.X...X...X...X.X.X.o.o.O.X.X...X.X.o.X.o.o.o.o.o.o.o.o.o.;.;.=.=.1.-.-.2.2.7.6.6.q.8.q.q.w.q.W & @ @ @ @ @ @ # O # @ @ = x x aXnXmXbXmXbXbXbXvXvXbXBXvXbXbXbXbXbXbXbXbXlXbXvXbXbXvXmXbXbXmXmXhXbXmXbXvXvXvXbXbXvXbXbXhXbXbXvXbXhXvXvXhXhXvXbXhXbXvXjXhXnXvXvXvXhXvXvXhXnXvXnXmXhXvXvXvXvXvXgXgXgXgXyXvXaXgXzXgXaXvXgXlXvXyXvXyXvXyXyXlXvXlXyXlXlXyXlXgXyXvXyXyXlXyXyXyXyXlXlXvXgXlXvXlXvXvXgXgXgXvXyXgXgXgXvXgXgXvXvXgXnXvXsXeXqX|.B.v.>.~ Q C l h r 8 7 > ; - $ @ O O x x +XMXBXBXBXhXBXBXBXBX",
"{.P.P.x.3.3.O.^ ` T ~ T ~ T ~ ` ^ ^ / ~ / ( ^ ^ / _ ^ / ^ ` ^ ^ ^ ` ^ / ( ( ( / ( ( ( / / E s s 0 ; ; ; : & & & & I 6X5XVXBXbXBXBXBXBXmXvXvX<XS.S.e.,.;.O.$.,.<.4.4.9.4.9.1.3.1.1.3.1.1.7.1.6.1.6.1.3.8.7.1.3.1.7.1.7.6.t.7.2.2.7.1.2.6.7.7.t.2.7.6.6.6.u.t.t.t.6.7.6.7.7.7.7.6.7.7.2.7.2.2.2.2.1.1.1.1.1.1.$.1.=.=.-.<.&.;.-.;.-.$.$.&.$.$.$.;.*.$.$.;.*.;.t.2.p.p.p.d.i.9.9.p.p.p.i.i.p.i.p.i.p.i.i.i.u.i.u.0.p.9.p.9.i.i.p.9.i.i.0.u.p.p.u.p.9.i.p.i.i.i.9.9.e.9.9.9.9.9.9.9.i.9.9.9.9.e.9.9.0.9.0.9.9.9.9.9.9.9.9.0.0.9.0.9.9.e.9.9.9.9.9.9.9.9.3.9.9.9.u.7.9.9.3.9.9.3.3.9.u.h.d.C.P.W.(.D.D.z.>.1.Q k k > O O @ @ @ @ @ $ O g g A w.w.nXvXvXvXbXbXbXhXbXyXlXbXbXhXbXhXbXbXbXbXbXlXbXlXhXbXbXlXbXbXbXgXvXvXbXlXbXgXbXhXhXpXiX9X`.^.d.=.<.o.............X.X.X.X.X. .X.O...X...X...X...X.........................| ..............X...X...X...O.o.o.=.1.<.4.4.1.4.2.2.2.2.3.4.2.3.2.2.3.2.1.3.2.3.2.2.7.7.7.7.7.0.0.q.w.5.8.x # @ & @ @ @ @ @ @ @ @ # & P T nXnXnXvXbXbXbXbXBXbXbXbXbXbXbXbXbXbXbXbXbXbXvXbXbXbXmXvXvXmXbXbXmXmXhXbXbXBXvXbXvXhXmXbXvXbXbXgXbXbXvXmXbXvXhXbXvXbXhXvXnXnXhXvXhXbXvXvXvXvXvXnXvXmXvXvXvXvXvXvXvXvXvXzXvXvXvXgXaXvXaXvXgXyXvXyXyXyXgXvXgXyXgXvXgXgXvXyXvXyXgXgXgXgXlXvXrXvXyXvXyXlXvXyXyXvXgXvXgXvXyXgXgXgXvXgXvXgXsXgXvXsXgXiXsXsXjXnXnXxXaXsXqX:X:X#XY.].k.+.] n $ O * V.V.MXvXBXBXBXBXBXBXbXBX",
"^ T T T T T T ~ T T ` T ` ~ ` T ~ ` ` ^ ~ ^ ` / ` ^ ` / ^ _ ^ ` _ ` ^ _ ( ^ ( ( ) / ( Q ~ c 0 0 4 > : - @ : : ; & A <X<XBXBXBXBXBXVXBXmXXX#Xd.1.1.>.1.1.1.3.4.4.3.1.9.6.7.1.9.7.3.7.2.7.7.1.7.9.7.3.7.3.1.7.1.9.7.7.t.7.t.7.7.t.1.7.2.7.t.2.7.t.u.t.7.t.u.q.t.u.6.7.q.u.t.t.u.7.t.u.u.u.t.t.t.2.6.1.6.-.7.-.1.-.t.;.t.2.;.2.2.t.-.-.-.-.-.-.-.-.-.;.2.u.7.l.H.n.W.P.P.m.f.d.p.i.u.p.p.i.p.p.i.p.i.i.i.p.u.p.i.p.i.i.0.p.i.0.i.0.9.9.p.i.p.9.i.9.u.u.p.9.i.9.9.9.9.9.s.9.9.e.9.9.w.9.9.9.e.9.9.9.9.9.9.9.q.9.9.9.9.e.9.0.9.0.9.0.3.e.9.i.9.e.y.e.9.9.i.9.9.i.9.9.9.y.9.i.3.3.9.3.u.7.9.9.p.0.-.M M 4 5 0 4 # # @ # @ X O O O $ $ # k.p.9.(.^.vXbXhXbXhXbXlXhXbXbXhXhXBXlXbXlXbXbXhXhXBXlXBXlXBXhXbXbXgXhXvXhXnXhXnXhXjXgXiXfX-XK.P.1....... .........| ........X.o. .o.o. .X.o.....X.X.....X...X.X......... ........... ...X...X...o.X.....X. .o...X.X.<.4.3.3.9.e.i.3.3.9.9.3.9.3.9.3.i.9.9.9.9.7.9.9.9.i.0.u.0.u.p.r.0.w.%.' 6 @ @ & @ # @ & @ # $ # # O 1.4.MXmXnXbXmXbXbXbXbXbXbXbXbXbXbXbXbXbXbXbXbXbXmXhXmXbXbXbXmXbXmXbXhXbXbXBXbXbXvXbXvXvXbXbXhXmXnXbXbXbXvXbXjXhXbXbXhXhXnXvXbXhXbXbXvXhXvXgXgXvXyXgXyXaXrXiXtXwXrXwXrXrXeXrXiXaXaXgXrXyXzXgXlXgXvXvXvXvXbXvXhXgXvXgXvXvXgXgXgXgXgXgXyXgXyXlXgXlXyXgXgXlXvXyXvXgXgXgXvXvXgXgXgXgXgXgXvXvXgXvXgXvXgXjXvXjXjXjXsXgXnXsXsXaXaXaXaXpXuX X Xc o o 9 &X&XMXBXBXBXBXBXBXbXBXbX",
"T T T T T T T T T ` ~ ~ ` T ~ ~ ` ~ ~ ` ` / ^ ` / _ ^ ` ` ^ ` / / ^ ^ / ( ( / ( / ^ ( ~ Q c 0 0 w ; : ; & & # * & A <X<XBXBXBXBXBXVXBXbX#X*Xe.1.1.<.1.1.4.1.9.3.3.7.9.3.7.1.3.6.7.3.7.2.3.7.7.1.3.6.2.6.7.1.1.6.7.t.7.7.6.7.7.t.6.1.6.7.7.2.7.7.t.u.7.t.t.t.t.u.7.6.t.7.t.u.7.t.t.7.7.t.t.u.7.2.2.6.1.1.-.7.-.6.2.;.u.t.2.t.t.;.1.-.&.-.-.-.-.-.-.-.t.2.7.f.m.H.K.P.P.n.a.d.i.p.i.p.i.p.i.i.p.i.p.i.p.u.p.u.i.i.0.i.u.i.i.i.i.i.p.i.p.9.i.9.i.p.p.0.p.i.i.p.0.9.9.9.9.9.q.9.9.0.9.0.9.9.9.9.9.9.9.0.0.9.e.9.9.e.9.9.9.9.w.9.i.0.i.9.9.e.9.9.9.9.9.9.9.9.i.3.i.9.9.i.9.3.3.i.9.9.9.9.9.9.0.u.-.k M 4 7 7 4 * * # @ X @ X X X $ @ O d.k.q.^.T.bXbXlXbXlXbXbXbXbXlXhXhXbXhXbXbXhXbXhXhXhXhXhXhXBXhXbXvXbXbXhXnXhXkXhXjXnXhXiXfX$XJ.J.1.....} ..} } .. ...........X. .X. ...o. . ...o.....X.....X.......| X...................X.X...X.....X.o...X.....X.O.<.3.3.4.9.3.9.3.s.9.3.9.3.9.y.e.3.3.3.9.9.9.u.9.9.7.0.p.p.p.p.r.p.q.*.%., @ @ @ @ @ @ @ # @ @ @ @ # 6.<.MXvXnXvXmXbXbXBXvXbXvXmXvXbXbXbXbXbXbXmXbXmXhXmXvXbXnXmXvXvXmXbXmXbXbXbXvXbXbXvXvXvXbXbXvXhXvXvXhXbXvXvXbXhXhXbXBXbXhXnXvXnXnXnXbXjXhXnXgXgXvXaXgXyXrXtXrXrXwXrXrXwXrXrXrXrXvXaXvXzXlXgXvXlXvXbXlXhXvXvXgXgXgXgXgXvXgXgXgXgXgXgXgXgXyXyXyXrXvXgXlXgXyXlXyXgXgXgXgXgXgXgXgXgXgXvXgXaXvXgXvXsXvXgXsXgXnXsXvXsXsXjXsXaXaXaXpXpXeX X{.c o o 9 %X&XNXBXMXBXBXBXBXbXbXBX",
"^ ^ T T T T ~ T T T ` ~ ~ ~ ` T ~ / ` ~ ~ ` ` ^ ^ ^ ^ ^ / ^ ` ( ^ ` ` ^ ( / ( ( ) ) ) D G 8 4 > > ; : # : & & & * z <X:XVXBXVXBXBXBXBXvXZ.Z.1.7.4.8.3.8.9.4.3.1.3.7.6.3.3.7.7.3.3.7.7.3.7.3.2.7.7.6.3.7.7.1.9.1.7.7.7.t.7.t.7.7.7.1.7.t.t.7.7.7.u.t.t.7.H.t.u.t.7.7.7.7.t.t.7.t.t.u.7.u.u.u.2.2.7.1.6.1.7.t.7.1.2.t.t.u.2.2.t.2.-.6.6.1.t.7.t.7.u.u.a.H.n.P.!.!.!.W.!.W.Z.m.a.i.p.p.i.i.p.i.i.i.i.i.i.i.0.p.i.i.i.i.i.i.i.i.i.i.u.p.u.p.9.p.9.i.i.p.9.i.s.9.9.i.e.i.9.9.9.w.0.9.0.9.9.9.q.9.9.w.0.9.9.0.9.9.9.9.9.9.9.0.i.0.9.9.9.9.9.9.i.9.9.9.9.9.9.9.y.i.9.9.i.3.9.3.9.3.9.9.9.i.0.u.7.9.+.y d 4 7 8 4 * & @ X @ X X X X $ O # %X%XP.<X9XvXlXbXbXbXbXbXbXbXhXBXlXhXhXbXhXbXlXBXhXhXhXbXBXlXBXbXhXhXjXvXjXjXjXiX8X6X.XA.Z.6.....} ..| ..................X.X.......X.........X. .X.X...X.....X.X... .X. .X.................O.X...X.X.........X... .X.<.3.9.9.9.e.y.9.9.s.9.e.s.i.e.9.9.i.i.i.u.9.9.9.u.p.p.d.k.k.k.H.q.w.W W : & @ @ @ @ @ @ @ $ # # @ # Z.B.MXmXbXBXbXbXbXbXvXbXbXvXbXbXbXBXbXbXmXbXbXhXmXmXvXmXmXbXmXmXbXbXbXnXbXvXBXbXvXBXBXbXbXmXvXmXbXmXbXBXvXBXvXgXvXtXwXwXwX0XqX6X6X6X$X@X@X}.^.^.S.S.S.D.C.D.b.g.g.h.h.h.h.z.g.C.S.S.^._._._.@X.X*X5X5X6X0X0XrXiXrXgXnXvXzXvXvXgXvXyXvXgXgXvXrXyXyXyXgXyXgXvXaXgXgXgXgXgXgXsXgXgXvXgXgXvXvXgXgXgXgXvXgXvXgXvXvXvXjXhXgXaXsXiXqX>X X' #.w o + i rXrXmXBXBXBXbXbXBXbXbXBX",
"~ T ~ T ` T ` ` ` ~ T T T ` ~ ` / ^ ^ ^ ` ^ ^ ` ` ^ / / ^ / ^ ^ / ^ ^ / ^ / ) ^ ~ / F a n 0 < , ; ; ; - & - & * & z :X:XVXBXBXBXVXNXBXaXf.g.9.3.7.7.6.7.9.8.8.9.7.3.7.7.7.3.6.6.6.7.1.7.7.2.7.3.7.3.7.7.7.7.7.9.7.7.u.u.7.7.7.7.7.7.7.7.u.t.7.7.t.q.u.7.t.t.t.u.7.t.7.t.t.H.t.u.7.u.t.t.u.t.t.u.7.7.7.7.7.2.2.7.2.2.2.t.2.2.2.2.7.1.7.7.7.a.a.v.H.m.H.Q.!.!.!.!.!.!.!.!.I.!.n.a.p.i.p.i.i.p.i.p.i.i.0.i.u.i.0.u.i.i.i.u.i.0.i.u.0.9.p.9.p.u.p.p.i.9.9.0.9.e.9.e.3.9.e.9.9.9.0.9.9.9.0.9.e.i.9.9.9.0.0.9.0.9.w.9.w.9.0.9.9.9.9.0.y.e.i.3.e.9.9.e.e.9.e.i.9.e.9.9.e.9.9.e.9.9.9.9.9.9.9.9.7.6.Q 7 7 4 4 6 : & : % X X . . X $ X $ i sXsX>XeXrXbXbXhXbXlXbXhXbXbXbXlXBXbXbXbXlXhXbXlXBXlXBXhXlXhXhXbXhXhXgXgXwX$X$XW.l.f.=.....| | } ..} ....} } ............ .X.X.O.........O...X...X...X...X.X.X.....X...X...X.X.X.X...X.X...X.........X...X.X.....X. .o.1.4.3.9.9.3.9.e.3.9.y.9.9.y.i.3.e.9.e.9.9.9.9.9.i.0.d.d.p.k.q.H.q.c c @ @ & @ & @ # @ @ # @ @ # * }.}.nXBXvXvXbXbXbXmXbXmXbXmXbXbXvXBXvXbXbXkXmXmXmXkXmXmXmXvXnXbXbXgXvXvXfXvXyXlXyXrXwXwXwX0X0X6X5X6X$X*X.X*X'.^.).P.C.Z.b.g.f.i.3.3.<.o.o.X.X.o.X.....X.X.X.O.o.o.o.o.o.o.X.X.X.O.O.O.o.o.o.;.=.<.4.4.9.h.g.C.^.P._.#X*X&X9X9XqXwXqXwXrXrXgXaXgXaXgXgXgXgXvXgXgXgXvXgXvXvXgXnXgXnXnXvXzXgXnXsXnXsXnXjXgXsXgXiXwXqXqX-X#X#X`.z.k.~ 8 6 + + o V mXnXmXbXbXBXBXBXbXbXbXbX",
"~ T T ~ ^ ` ^ T ~ T ` ` ^ ^ ^ / / ~ ` T T ` ^ ` ` / ^ ` / ^ / ^ ^ ^ ^ ^ / ^ ( / / / F n a 0 4 4 : ; ; ; : & & * * z :X:XmXmXVXBXBXVXNXtXg.g.3.8.9.8.3.7.8.3.7.1.9.1.7.3.3.7.6.3.7.3.4.7.7.7.2.7.7.7.7.7.7.7.7.7.7.7.7.u.u.u.7.u.7.7.7.7.7.u.7.7.7.t.u.7.7.7.7.7.u.u.*.H.u.t.u.u.7.7.t.7.u.2.u.t.7.7.7.2.-.7.2.2.2.2.2.2.2.2.7.7.2.2.7.7.7.p.p.M.m.m.I.!.!.!.!.!.W.!.!.!.W.I.n.a.a.i.i.p.i.p.p.i.p.i.0.i.i.u.p.u.u.p.u.p.i.0.i.0.i.i.u.p.9.p.i.9.9.0.e.i.9.e.9.9.9.i.9.e.9.w.i.9.0.9.0.w.9.i.0.9.9.9.i.9.9.i.0.9.0.9.p.9.9.9.9.9.9.i.9.9.e.9.9.9.9.e.9.9.9.9.e.9.9.9.9.3.3.9.9.9.9.9.9.9.7.8.Q 0 7 0 0 4 > : ; @ X X $ X . X $ . d sXsX9XyXlXhXhXbXlXbXbXbXbXbXlXBXhXhXlXbXhXbXbXhXbXlXbXhXlXBXhXfXkXkXgXjXwX$X4X^.f.f.-.+.| ..| ......} ....} } ......| ......X...........O.X. .X.o...X...X.X...X.....X...o.X.....X.X.....X...X.X...X...o.....X...o. .o.3.9.9.9.9.9.9.9.9.9.9.i.9.9.9.e.9.9.9.9.9.q.9.9.i.0.a.d.k.H.k.k.0.v c & @ & & @ @ @ @ # @ # @ @ * }.}.nXBXvXbXbXmXBXvXbXbXkXnXbXvXmXvXmXmXhXmXmXmXkXmXmXkXnXbXvXmXvXbXbXgXgXgXyXgXyXrXwXwXwX0X8X6X5X5X&X$X*X*X'.^./.G.Z.C.M.g.g.i.4.y.=.o.<.o.o.o...o.X.X.X.o.o.o.O.o.o.o.o.o.o.X.O.o.O.$.o.o.<.;.<.4.4.3.g.g.C.^.G.+X*X*X&X9X9X0XwXwXwXrXgXlXyXlXgXyXgXaXgXyXvXgXgXgXvXvXgXgXnXvXvXxXgXjXjXvXjXjXvXgXsXsXgXaXpXwXqX9X:X#X#X`.x.z.~ 6 0 + O + N nXmXmXmXbXBXBXbXBXbXbXBX",
"~ ` ~ T ~ T ` ~ ^ ^ ` T ^ ^ / ^ ^ ^ ^ ` ` ^ ~ ^ ^ ^ ^ ^ ^ ^ ` ^ / _ / _ / ( ( ^ ~ Q j 8 0 4 : : ; # - @ & & & & & z ;X;XBXBXBXBXNXVXVXwXi.i.7.7.1.9.9.6.9.1.7.9.9.9.7.3.7.2.3.7.3.6.9.1.7.3.7.7.2.7.7.7.7.7.7.7.u.u.7.t.7.t.7.t.7.u.t.7.7.t.t.7.7.u.t.u.7.t.7.7.t.t.t.u.t.u.u.t.u.t.u.7.7.u.t.7.7.7.7.2.7.7.2.7.u.t.t.u.2.t.7.q.6.u.p.l.M.K.K.E.!.!.!.!.!.!.!.!.!.!.!.!.!.!.K.l.l.p.p.i.p.9.u.p.i.u.i.i.p.0.p.p.p.u.p.u.p.i.i.i.i.i.p.9.p.9.p.u.i.i.9.i.e.i.9.9.e.9.9.9.9.9.9.9.9.i.9.9.0.0.9.9.0.9.w.0.0.9.w.9.9.e.9.9.9.i.e.y.9.e.9.9.9.9.9.9.9.9.9.9.9.9.9.9.9.e.9.9.9.9.9.9.q.9.9.9.-.-.G w w < > ; : @ @ X X X X X . . $ . P nXCXgXlXlXhXhXbXhXbXlXhXbXhXbXbXhXbXBXbXbXlXbXbXbXbXhXBXhXbXBXjXjX8X[.[.m.u.u.@...| ..| ..| ..} } ....} .............. .......o.....O.......o.....X.....X...X...X.X...X. .....X.....X...X.X.....X...X...X.X...O. ...o.<.<.9.4.3.3.3.3.3.3.3.4.4.4.1.1.-.=.1.$.<.$.%.@.@.@.$.%.*.[ &.t.+.p e @ & & X & @ & @ @ # O O @ r :X>XNXvXbXbXvXvXbXbXbXbXmXbXmXBXvXmXmXmXmXhXvXfXwXwX0X5X:X$X*X.X.X.XoX_.).).^.E.E.S.C.C.g.f.g.i.y.y.4.<.;.;.=.$.;.o.X.o.o.o.X.o.o.o.o.o.o.o.o.o.o.o.o.o.o.;.o.o.o.o.;.o.,.o.o.o.o.o.o.o.o.o.$.o.;.:.o.O.X.X.o...X.o.<.4.i.h.h.C.C.D.P.^._.^._._..X.X'..X@X*X*X$X$X$X$X%X$X#X.XXX.X}.}.}.}.}.}.[.].(.(.^.S.Z.C.k.3.9.$.}  .U j k 6 @ # + + O ) NXNXmXmXbXbXbXbXbXbXbXBX",
"` ^ T ` ~ ` T ` ^ ~ ` T T / ^ ^ ` ^ ^ ~ ` T ` ` ^ ` ` ^ ` ` ` / ^ ` / ^ ^ ( ^ / C C p 4 0 > ; : # - # - & & & & * i ;X%XNXmXmXBXBXNXBX:X9.9.7.7.7.7.3.1.3.9.9.4.1.1.9.9.7.9.3.6.7.9.8.7.7.2.7.2.u.2.7.7.7.7.7.7.7.t.7.7.7.7.t.u.7.7.7.2.u.t.u.2.7.t.7.u.7.7.7.7.u.t.u.t.u.t.t.u.7.7.7.7.t.u.7.7.t.u.t.2.2.7.7.7.7.7.7.7.u.2.u.a.f.H.K.E.].~.~.!.!.).~.!.!.!.!.(.!.!.!.!.(.!.W.m.A.f.p.i.p.i.p.0.p.0.i.i.0.u.0.u.u.p.0.u.i.i.0.p.0.i.i.i.9.9.u.0.p.w.i.w.i.9.9.i.9.9.i.9.9.9.9.9.e.9.0.9.9.9.9.w.9.0.0.9.i.0.9.9.i.9.e.9.9.e.9.e.i.e.e.i.9.9.9.9.9.3.3.9.9.9.9.9.9.9.9.9.e.3.9.3.q.9.9.7.+.+.y > 4 ; ; > @ @ X X X X . X X .   . &.NXBXbXBXlXbXhXbXhXlXbXbXbXbXhXlXBXhXhXlXbXbXbXbXbXbXbXBX0XtX5X!.!.a.;.;.:.:.| ..| X.| +.| +.| } ..} ..+.} +.| X.| ......| ....................X.....X.....X...X...X.X...o...X...X.X.X.......X.X...X...X...X...X. .X.X.=.$.<.<.4.=.o.=.o.......{  .^ Y ! U ! ! T U J J J F J R R G L L l # : @ X & @ & @ @ @ # @ @ O # I pXaXNXBXbXbXbXbXvXbXmXmXhXhXmXvXmXmXwX0X.X!.Q.A.b.M.f.u.s.4.4.3.4.-.-.<.=.<.$.o.@.:.o.o.o.o.o.:.o.o.$.;.o.@.$.;.$.@.$.@.;.@.;.$.$.@.@.o.o.o.o.o.o.$.o.o.$.o.$.$.$.$.o.o.o.o.o.,.o.o.#.$.o.o.$.o.$.,.o.o.o.o.$.o.$.o.o.o...X.X... ...o.o.=.;.;.4.<.4.4.4.4.4.<.3.3.3.4.=.-.@. .{ ^ ( ^ }  ...} {  .^ Q Y P H F S N N N z N k 0 8 & O # O + + 7.NXNXmXmXBXVXbXbXbXbXbXbX",
"~ T ^ ` T T ~ ^ T ^ ^ ^ ^ ^ / ^ ^ ^ ` ^ ^ ` ` T / _ ^ / _ ^ ^ _ ` ^ ^ ` ( / ) / C C 9 0 < > ; # @ # - @ & & & * = x ;X;XNXBXmXBXVXNXmX&X9.3.3.8.7.3.8.9.6.9.6.9.9.9.3.7.7.7.7.3.9.1.3.7.3.7.2.7.2.7.7.7.7.7.9.6.7.7.7.7.7.7.7.7.7.7.u.2.2.7.7.2.7.u.t.t.7.7.7.7.t.u.t.u.t.u.u.t.7.u.t.7.7.2.7.2.u.t.7.7.7.7.7.7.u.t.2.7.7.7.u.l.l.n.K.I.!.!.~.].!.).).!.!.!.~.!.(.(.!.!.!.(.W.A.m.f.i.p.i.i.p.i.i.i.i.0.i.i.p.u.p.u.p.u.i.i.u.u.i.i.9.p.i.p.p.i.9.9.9.9.9.w.9.e.9.9.9.e.9.9.i.e.9.9.i.0.9.0.9.i.0.9.9.0.9.9.9.0.9.9.9.9.i.9.9.9.9.9.9.3.9.3.e.9.9.9.e.9.9.3.9.9.9.3.9.9.9.9.9.9.9.9.9.7...+.a > > 4 > ; @ 1 X X X X X $ X   . . >.nXmXbXlXBXlXhXbXbXbXbXhXbXbXbXbXlXBXhXbXhXbXbXlXhXbXbXBXtX0X5X~.~.k.;.;.:...| ..+.| ..| ..| +.+.....| } +.| ......................O.....O...X...o.....X.....X...X.....X...X...X...X. .X...X. .......X...X...o. .X. .O.=.,.1.4.<.<.=.$.o.O.X... . .^ T ! Y Q ! Q U U J J J J J R R L L l ; : @ : @ & @ & @ @ @ # # O O I iXeXBXbXvXvXBXbXbXmXbXbXbXmXbXnXmXvXwXwXXX!.^.A.b.b.f.i.i.4.4.3.1.2.4.<.=.=.$.;.@.;.X.o.o.o.;.:.$.o.o.:.o.$.@.;.@.$.;.@.$.;.@.;.$.;.@.o.o.$.o.o.o.o.$.o.$.$.$.$.o.$.o.o.$.;.o.o.o.$.o.o.o.,.$.$.o.o.o.o.<.o.,.o.o.o.o.o.X. . .....| X.o.=.<.<.<.<.;.4.<.4.2.2.4.3.3.1.<.=.o.} } } ^ ^ } .... .{ } ^ T Y Y F F A N N N z z k 6 0 # @ O O + + 7.NXNXNXmXbXbXbXbXbXbXbXbX",
"` / ^ ^ ) ^ ^ ^ ^ ^ ^ ^ / ^ ^ ^ ^ ( ^ ^ ( ) ( ^ ` ^ ` ^ ^ ` ^ ^ ` ^ ` ^ / ^ / U n y 0 < < > - - : - @ : : @ : * & i %X%XMXMXBXBXNXmXNX}.3.3.7.8.7.q.9.9.7.7.9.1.3.7.3.9.7.7.7.7.7.7.9.7.7.7.7.7.7.7.7.7.7.7.7.7.7.u.7.u.t.7.7.u.7.7.7.7.2.7.7.7.2.2.u.t.-.u.7.2.u.u.t.u.7.7.t.t.u.7.u.7.7.u.t.u.7.7.t.u.7.7.2.t.u.t.u.u.u.p.M.H.K.!.~.~.).~.).!.~.~.~.!.(.!.!.(.!.!.(.!.~.!.(.P.W.a.i.i.p.u.p.i.p.u.0.p.u.p.0.u.p.p.u.p.0.u.p.0.9.p.9.i.i.0.9.i.9.d.i.0.p.9.0.9.s.9.9.9.e.i.9.9.i.9.9.p.9.9.9.0.9.e.i.9.9.9.9.i.9.9.9.e.i.3.9.9.9.i.9.9.9.9.9.3.9.9.9.3.e.9.9.9.9.9.e.3.9.9.8.9.9.0.9.6.P U 4 > > > ; ; @ X @ X X X   X . $     V.CXNXvXbXvXbXbXbXbXbXbXbXhXkXbXbXbXbXbXhXbXyXBXbXlX5X0X/.j.j.y.;.X.X.| | +.| +.| :.| | *.| +.| } +.} } +.} +.} | +.....} +...} +.+.+.....+...X.+.+.X.| X.X.X.O...X. .X.X...X.....X.X............. .o.X.X...X.X... ...o.o.o... . .{ ^ ^ Y T Y U H U H U J J J J J J R J F J J R J F 9 9 # # @ @ @ & @ : @ & @ @ # @ O O &.sXsXmXbXmXvXvXbXmXbXmXmXhXmXmXvXvX&XC.C.4.<.;.:.X.o.o.o.o.o.$.$.$.$.;.=.;.$.$.;.$.;.$.$.@.$.$.$.$.$.$.$.$.$.$.$.$.$.@.;.*.;.$.;.$.$.$.$.@.;.o.$.o.o.$.@.@.$.;.$.$.$.$.=.$.o.,.o.$.$.$.$.$.$.$.$.$.o.$.$.$.$.$.$.$.o.;.o.o.o.$.$.@.$.@.@.@.@.@.@.X.@.@.o.o.X.X.o. ...^ U U V N N Z Z Z I ^ ^ ^ T ^ ^ Y T ^ T T T ~ U U P P x * * @ @ @ + + # A.mXNXmXbXBXbXBXbXBXBXBXlX",
"/ ^ ` ^ ( ^ ) ^ / ^ ( ^ ^ ^ ^ ^ ^ ( ^ ^ ^ ^ ^ ( ^ _ / ` ` ^ ` / ` / ^ / ^ / ^ D 0 0 ; > ; ; - - & % - % & 1 & & * r +X%XMXBXNXNXNXNXmXW.7.6.7.7.7.7.8.1.1.7.1.9.7.7.7.7.3.3.9.9.9.7.3.3.7.7.7.9.u.7.7.u.7.u.u.7.q.7.7.7.u.u.u.t.7.u.u.7.u.2.7.7.7.7.u.u.7.7.u.2.u.t.t.u.7.7.7.u.7.7.t.7.t.u.u.t.7.7.u.t.u.t.u.u.u.2.t.u.n.M.E.].~.~.~.~.!.~.!.~.!.~.!.(.!.(.!.!.(.!.!.(.(.!.~.P.P.l.i.u.i.a.p.i.p.u.u.p.u.0.p.u.u.u.p.u.p.u.u.p.i.u.p.i.i.u.p.i.i.9.i.u.i.i.i.9.i.i.9.i.9.i.e.i.i.e.i.0.i.p.9.9.9.3.9.9.9.i.9.i.9.i.9.9.9.e.e.i.i.3.i.9.9.9.9.9.9.3.9.9.9.3.9.9.e.3.9.3.9.9.9.9.9.9.9.>.g j # , > ; @ ; @ X X X X X X $ X       {.xXMXvXBXvXbXbXbXbXbXbXbXbXbXbXbXbXbXhXbXbXtX*X*XS.y.y.X. .{  .|  .| | +.| ..| ..| +.| +.| | | +.} +...} +.+.} } +.} +.| +.....+.| ..[ | +.+.| | ....+.X.......X...o.....X.....X.o. .X.X...X.X.X...X.....o.....X.o...X. .....{ { ^ T ^ U Y U P H P P H J R J J U J J J R J J U R G ; w @ @ # - & @ & @ : @ - @ @ # # + c.nXvXmXvXmXmXBXnXbXnXkXnXmXnXhX*X%Xh.$.o.;.o.o.;.$.;.$.=.$.$.=.;.$.;.-.;.$.$.$.*.$.$.$.$.$.$.$.$.$.@.$.$.$.$.$.;.*.$.$.*.;.$.$.$.$.$.$.$.$.$.$.$.$.;.o.@.$.$.@.$.$.@.$.$.o.$.o.$.$.#.$.#.$.$.$.#.$.,.$.$.%.$.$.$.$.$.o.$.$.$.$.@.$.@.$.$.@.$.@.@.$.@.;.$.#.$.$.@...X.{ U U Z V N V A Z U ^ ^ ^ / ^ ^ / ^ / ) ^ ~ Q Q ~ A A 8 & O @ @ O O * * [.mXBXmXBXbXbXbXbXvXyXyX$X",
"_ ^ / ^ ( ^ ^ ( ^ ^ ` ^ ( ^ ( ^ ( ^ ^ ( ^ ^ ( ^ ( / ( ^ _ / / ` / ^ / ^ / ^ ~ D 4 4 > ; ; ; : - : % & % : & & * * i %XOXNXNXBXBXBXNXNXP.3.3.6.7.9.6.7.3.6.3.3.6.7.7.9.3.7.7.7.7.3.7.9.7.7.3.7.u.7.7.7.u.7.7.u.7.u.t.u.u.u.7.u.u.7.7.u.7.7.7.7.7.u.7.2.2.9.7.7.6.t.t.u.t.7.7.7.7.7.7.7.7.u.t.u.t.7.7.7.7.u.u.t.t.7.7.u.u.H.M.E.!.!.~.!.~.!.!.!.~.~.~.~.!.~.(.!.(.(.!.!.(.(.!.Q.P.W.l.i.a.i.p.i.i.u.p.u.p.u.p.u.p.p.u.u.p.u.p.u.p.i.i.i.i.i.p.0.i.i.9.9.p.9.p.9.p.9.i.s.9.9.e.9.9.9.e.i.u.9.i.9.p.e.i.3.e.9.9.i.9.i.3.9.i.9.9.9.i.9.i.9.9.9.9.9.e.9.9.9.9.9.9.9.9.9.9.9.9.9.q.9.9.9.0.9.1.g g > > > > - ; @ - - X X X $ X X $ .   {.MXnXbXbXbXbXbXbXbXbXbXbXbXbXbXbXBXhXbXbXbXyX*X*XG.y.y.X.{ {  .|  .X...| +.....| +.| ..| +.| +.| ..| ....[ } +.} ..| ..+.+.| +...} +...+.+.+.| +.+.+.+...X.X.X...o...X.o.....X...........o.X...X.....X.......X...o...........{ { ^ ^ Y Y Y H Y U U H Y J J J R J R J U J U R R J G ; 4 @ # # # & # # & @ : @ @ # @ # + v.nXnXnXmXBXBXbXBXmXmXmXmXmXmXjX$X*Xh.=.=.o.o.;.;.$.$.=.$.$.$.$.$.;.*.;.$.-.;.$.$.$.$.$.$.*.;.$.$.$.;.*.$.$.$.$.$.$.$.$.*.$.*.;.*.;.$.$.$.@.$.$.$.@.$.$.;.$.$.$.$.$.$.$.,.o.$.o.$.$.$.,.,.$.$.#.$.$.$.$.$.$.#.$.@.$.$.$.$.$.o.$.$.@.$.@.@.$.@.$.$.$.@.*.$.@.$.@.@.o.X.^ U U Z N N A Z Z U ) ^ ^ ^ ^ ^ ^ ^ ^ ^ ^ Q ~ ~ ~ A A 8 O # . O @ # * * `.mXNXBXBXbXbXBXvXBXrXyX*X",
"/ ^ ^ ^ ^ ( ^ ^ ^ ^ ^ ^ ^ { ( ^ ! } ^ ^ ( ^ ^ ( ^ ` ^ ` ^ ` ^ ^ ` ^ ^ ^ ` ^ ) k > > ; - - ; : - & : X : & : & & & t +X+XMXNXNXMXNXnXBXv.6.7.7.7.7.9.7.6.3.6.7.3.9.7.9.9.u.i.0.u.9.9.9.u.7.u.7.6.u.7.u.7.u.7.7.u.u.u.u.7.q.7.u.7.u.7.u.7.u.u.u.u.u.u.u.u.u.i.u.u.u.H.u.a.u.p.u.0.u.u.u.u.u.u.u.u.7.7.7.6.t.u.u.u.u.a.a.H.!.I.~.!.~.~.!.).!.~.~.~.~.!.Q.(.!.!.(.!.!.!.(.!.!.!.!.K.K.a.i.i.i.i.p.i.u.0.p.u.p.u.p.u.0.p.u.p.p.u.p.u.i.i.0.i.i.9.p.u.i.p.i.p.9.i.p.u.p.p.9.i.i.9.w.d.p.9.i.p.p.p.9.9.9.9.i.9.i.9.9.9.9.i.e.9.i.3.e.9.9.9.9.i.9.9.9.3.e.3.9.9.9.9.4.e.3.9.9.9.9.9.9.9.9.7.9...4 4 * > > > - - @ X X X X X X   $   X X 3XnXMXvXlXbXbXbXbXhXbXbXhXbXbXbXhXyXhX5X^./.f.<.;.{ ^ { { { {  . .| | | | | ..| +.| ....+.| | +...[ +.| | } +.} +.} +.+.} ..+.| ..+.| +.| } ..+.| +.| ..............X...X...X.....o.X...X.....X.....o...X...X.X.X.....X.X.X.........^ ^ Y I P H H H U H Y J J J J J U J J R J R R j # @ @ # @ ; @ @ : @ & @ - # @ @ # w T.nXnXnXmXvXmXnXvXmXjXmXnXvXhX#Xs.s.o.o.o.$.o.;.$.;.;.$.=.$.$.;.$.$.;.$.;.$.$.$.$.$.$.$.@.;.*.;.$.;.*.;.;.*.$.;.$.$.*.;.;.$.$.$.$.$.$.;.$.$.@.$.$.$.@.$.$.$.$.$.$.$.$.#.o.$.$.$.#.$.$.$.$.$.$.$.$.$.$.#.$.$.$.$.$.#.$.$.$.;.o.$.@.@.$.$.$.@.$.@.$.@.$.@.@.$.$.#.@.o.#. .U U A N N C N C F Q ~ ^ ( ( ^ ^ ^ / ^ ^ ) ~ ~ P s d * O O X @ O O # # |.nXmXBXbXBXbXvXbXrX_.'.b.",
"^ ^ ) ^ ( ^ ^ ^ ( ! ) ! ^ ( ^ ( ! ( ^ ( ! ( ( ( ^ _ ` ^ / ^ ^ _ ` ^ / ^ / ^ ^ d ; ; ; ; ; : - : % : X : & : & * = e +X{.nXBXBXMXNXgXvX9.6.3.6.9.6.9.7.9.6.3.3.6.3.9.i.d.f.f.f.f.f.f.l.d.f.f.k.l.l.p.a.k.l.a.a.k.l.l.l.l.H.H.a.l.l.M.M.c.H.M.c.M.H.M.n.n.n.H.m.J.H.H.H.E.H.!.H.K.H.K.J.H.H.H.H.H.M.H.M.M.H.l.k.H.H.H.E.~.~.~.~.!.~.~.!.~.~.!.~.~.~.~.~.!.!.(.!.~.(.!.!.(.!.!.!.A.K.a.a.i.i.p.i.i.p.u.u.p.p.u.p.u.u.u.u.p.u.p.i.i.i.u.p.i.i.i.i.p.9.i.9.p.i.i.i.p.i.9.9.0.i.9.i.9.9.0.p.9.i.i.9.9.9.e.i.9.3.i.i.9.9.i.9.9.e.i.9.9.9.9.i.9.9.9.9.9.9.9.9.9.9.9.3.9.9.3.9.9.9.3.9.9.9.7.6.F # * * > > > - @ X X @ X X X X X X . * & 1XvXMXvXBXbXbXbXbXbXvXvXbXhXBXyX5Xb.m.4. . .^ Y Y { } | { | | { } } | +.+.+.| +.| +.| ..+.| | +.} } | +.+.+.} ..} +.} | | [ | +.......| +.| +.+.| +.+.......| | ..X...X...X...X.X...X...X...X...X...X...X...o. ...X...o.....X.....X.....{ ^ Y U U H J J J J J U U R J Y J R J F F 9 # # ; @ # # : @ : # @ @ @ @ # & 7 e {.nXnXnXbXmXmXmXnXkXmXmXmX$X*Xs.$.$.;.o.;.o.=.$.$.$.=.$.$.<.$.$.$.;.$.-.*.;.;.$.$.$.$.$.$.;.$.$.$.$.$.$.$.@.;.*.$.$.$.$.$.$.$.$.$.$.;.*.$.$.$.$.$.o.;.o.@.$.@.$.*.;.$.$.$.$.$.$.o.,.$.$.$.$.$.#.#.$.$.$.$.$.%.$.$.@.o.$.o.$.$.@.$.@.@.$.@.$.@.*.$.@.*.$.$.@.$.@.$.@.@...T T S N N N N Z F Q Q Q ^ ^ ^ ( ^ ^ / ^ ~ ~ W b * > O @ X X X @ O 2 * @XNXBXmXbXbXvXrXrX_.j.b.g.",
"/ ^ ^ ^ ( ^ ( ^ ! ( ! ) ^ ^ ! { } ) ( ! ( ( ! ) ` ^ ^ / ^ ^ ^ / / ^ ^ ` / ~ ~ y # ; ; ; ; ; - - : X : % : % & * = e {.+XMXMXNXMXAXvXgXp.7.6.9.7.8.7.7.7.3.6.7.3.9.7.i.f.p.k.l.d.f.f.d.l.d.l.a.f.p.l.a.l.l.a.l.k.a.l.l.k.a.a.M.l.l.M.M.M.M.M.M.H.c.M.n.H.n.m.m.m.H.H.H.H.I.H.K.H.K.J.H.H.H.H.H.H.H.H.M.H.l.H.M.H.M.H.H.H.~.~.~.~.~.!.~.!.~.~.~.!.~.!.~.!.(.!.!.(.(.!.~.!.~.(.!.H.J.a.i.i.p.i.a.i.u.p.p.u.u.p.u.i.u.p.u.0.u.p.i.i.i.i.i.0.0.i.0.u.p.i.0.u.0.i.i.9.i.p.p.9.i.0.0.9.d.9.i.i.9.p.9.9.y.e.9.9.i.9.9.9.9.9.9.3.9.9.e.9.i.i.3.9.i.9.3.9.9.9.3.9.9.9.9.9.9.9.9.9.9.9.9.9.9.7.6.G 2 w > ; > : @ - @ 1 X X X X X X X . , > 1XmXmXvXbXbXbXbXbXbXBXbXhXbXlXyX*XC.m.4.X.X.^ ^ ^ { | { | | {  .| | | | | | | | | +.+.| | +.| | +.+...| | ..+.} +.| [ ..+.| +.| | | +.+.} +.+.} ....| +...} +.+. .X.X...X.X.X.....X.X.....X...X...X...X...X.....o. .X...X.....X.X.X. ...{ Y Q J J U U J J U R U R Y J R R U U R F 9 # @ # @ - @ # & @ & @ - @ @ # O t 7 +XnXnXMXnXbXBXbXbXmXmXmXhX$X$Xs.=.o.o.o.o.$.o.;.;.;.;.$.o.$.o.$.$.;.;.$.*.;.$.$.$.*.$.$.$.*.$.$.*.;.$.$.$.$.*.;.$.$.$.;.$.$.$.$.;.@.*.@.$.$.$.$.$.$.$.$.$.$.$.$.$.$.$.@.#.o.$.o.$.$.#.$.#.$.$.$.$.$.#.$.$.$.$.$.#.$.;.$.o.$.o.$.$.@.@.*.$.@.$.;.@.$.$.@.@.$.;.*.$.+.@.O.T ^ S N N C N C F Q Q ^ ^ ( ^ ^ ^ / ^ / ~ W ~ x * > O X X O @ @ O 2 * #XvXBXmXvXbXbXtXrX_.b.b.h.",
"&.$.#.$.+.#.+.@.*.+.+.+.} } } ( { ! ( ) } ! ) ) / ^ ^ ` ` / ^ _ ` / / ^ ) T ! n ; ; > ; ; : ; - : & 1 : @ : & & = t +X{.nXNXMXMXNXrXqX9.3.7.3.7.7.3.7.3.3.7.7.d.x.l.Z.A.P.W.P.W.P.!.W.P.I.E.K.I.W.K.K.H.H.H.E.K.H.W.K.K.H.H.H.H.H.I.K.K.K.R.I.E.E.W.I.E.!.!.I.!.H.oX~.~.!.!.!.~.!.!.!.!.~.I.E.W.H.~.W.W.H.~.H.~.W.~.!.~.~.~.!.!.~.!.!.!.~.!.!.~.!.~.!.!.(.!.(.!.!.!.!.!.!.!.!.n.n.p.i.u.u.p.u.p.i.i.i.p.0.p.u.i.p.p.u.p.u.u.u.u.p.u.i.i.i.i.p.p.p.i.i.i.9.i.i.0.9.9.i.i.9.9.p.9.9.9.9.p.9.i.p.9.9.9.i.9.9.9.i.9.9.9.i.i.9.9.i.i.9.e.9.9.9.9.9.9.u.9.9.9.9.9.u.9.9.9.9.9.u.7.u.0.9.#.+.f 2 # 4 > > - - @ - X X X X X X X .   0 0 pXAXMXmXBXBXbXlXbXvXbXvXtX'.'.j.;. . .Y Y ^ { { { } | } { { { | } } +.| | | | | | | | } | [ | | } } +...+.| +.} +.} | +.+.+.*.+.@.@.$.@.@.+.+.+.+.O.X...+.| +.| ........X. ......... .X.........X.X. ...X.o...X...X...X.X...X...........O.} } ^ U U U J J J U J K R R Y U U J G G ; # @ @ ; # # & @ @ & & @ @ # O O g h =XnXnXmXmXmXmXmXmXmXvXbX$Xi.i.;.o.o.$.$.o.;.$.$.$.$.$.$.$.$.=.$.;.$.@.$.;.$.;.@.$.;.$.@.$.$.$.$.$.$.$.*.$.$.$.$.$.$.$.@.$.$.$.$.$.$.@.$.$.$.$.$.$.@.$.$.@.$.$.$.$.$.;.@.$.=.$.$.o.#.$.$.$.$.$.$.,.#.$.$.$.$.$.$.$.$.$.@.$.$.$.$.$.$.$.$.$.*.$.@.$.@.@.$.$.@.$.*.@.$.@.$.^ / S N N N C N S Y ~ Q ^ ^ ^ / ^ ` / ~ ~ D G 0 & @ X O O X O O O 6 4 :XvXvXmXBXBXyX.X.Xb.h.g.f.",
"p.0.i.0.u.0.u.0.i.u.9.0.7.7.-.-.$.$.+.} } ( ) ) ^ / / ^ / ^ ` ^ ^ ` ^ ` ) Q ) 9 ; ; > ; ; ; : - : - & @ & & & & * e `.T.nXMXNXNXNXqXqX9.9.1.9.7.7.9.7.9.p.n.n.J.!.!.(.Q.~.!.~.~.!.!.(.Q.(.~.~.~.~.~.).].).).).~.!.~.~.~.~.!.~.H.W.W.W.W.!.E.E.W.W.E.!.!.!.!.!.!.oXH.~.~.!.!.~.~.~.~.!.~.~.~.~.!.!.~.!.~.!.~.~.!.~.~.~.~.!.~.~.~.~.~.~.~.~.!.!.!.!.!.!.].!.(.!.!.!.).!.).).!.W.M.b.i.i.i.i.9.p.u.i.u.0.u.0.i.0.p.u.p.p.u.p.0.p.0.9.0.i.u.i.i.u.u.9.i.9.p.p.i.i.u.i.p.p.9.p.i.9.p.p.i.i.i.i.d.9.i.i.9.9.9.9.i.9.9.i.9.9.9.i.9.3.9.9.9.i.e.9.9.9.9.3.9.9.9.9.3.7.9.9.9.9.9.9.9.0.p.1.Q Q y * 2 ; > > > # : X X 1 X X X . . .   8 8 aXMXnXmXmXBXvXbXvXwX_._.i.o.o.{ Y { { { | { { | { { { { }  .| } } } | | ..:.*.*.*.;.*.&.-.-.t.;.-.-.-.-.1.6.-.6.7.7.6.9.9.9.0.7.0.q.9.9.9.9.9.7.7.3.7.7.6.6.7.t.1.$.<.=.$.$.$.@.o.o.o.o.+.X.X.....O.X.X.....X...X...X.....X...X.X...X.O.X...O. .^ ^ U J J R U R Y R Y R R R R l h # $ # @ ; @ ; @ : : X @ : & @ # + Z A ;XNXnXmXbXmXmXnXmXmX0X9Xd.o.$.o.o.$.o.$.$.$.$.$.$.&.;.;.$.$.$.$.$.$.$.$.$.$.$.$.$.@.$.$.$.$.;.*.$.$.$.;.$.$.$.@.@.$.o.$.$.$.@.$.$.$.$.$.$.$.;.@.$.$.@.$.;.$.@.$.$.$.$.$.$.o.o.$.$.$.$.$.$.$.$.$.$.$.$.$.$.$.$.$.$.$.o.$.@.$.o.;.@.$.@.$.$.@.$.@.$.;.*.@.@.$.$.@.$.#.$.#._ ..S V Z N N Z S T T T ^ ^ / ^ ^ ^ / ) E a a ; @ O O X X O O @ # 7 7 6XmXvXmXvXvX6XC.C.f.f.f.f.",
"0.0.p.q.0.0.t.t.0.9.0.0.q.t.7.t.*.*.*.| [ ) ) ) / ^ / ( ^ ) ( ^ ` ^ _ ^ / T ~ 9 # ; ; ; ; ; - ; : : & X & & & & * t Y.{.MXMXMXMXNXqXqX9.8.3.3.7.7.7.9.9.a.c.c.P.W.W.!.!.].~.(.).!.~.!.~.!.~.~.~.!.~.!.!.~.!.~.!.!.!.!.!.W.W.I.W.!.!.H.E.!.E.I.E.E.W.I.W.W.!.!.].!.].!.!.~.!.!.!.!.!.!.!.(.!.).!.~.H.~.~.~.~.~.~.H.].~.~.~.!.~.~.!.~.!.~.~.!.!.!.!.!.(.!.!.(.!.).!.!.~.!.~.!.W.M.j.i.i.y.i.i.i.i.i.i.i.u.i.i.p.u.i.i.u.p.u.p.u.0.i.9.i.i.u.i.i.u.9.i.i.d.9.i.9.p.9.p.9.i.9.p.u.p.9.i.i.9.p.p.9.i.9.9.i.9.i.9.9.i.9.9.9.i.9.9.9.i.9.y.9.9.9.9.3.i.9.9.9.9.u.9.9.9.3.9.9.9.9.9.i.i.6.Q Q q # 4 ; > > > - - X % X X X 1 X . X   < 8 cXMXnXnXmXmXvXvXbXrX_._.y.o.o.{ Y { Y  .{ { { { { } { { { { | } } } ..| | *.:.*.;.*.;.-.t.*.t.t.-.-.-.-.t.t.2.6.6.6.6.9.7.0.7.0.9.0.9.9.0.q.0.6.7.6.6.9.6.7.t.t.=.=.1.$.$.$.$.$.+.@.+.o.O.X.O...X.O...X...X.| +...X.O.X.O.X.....+.X.| X.X...X...^ { Q J J J J U R R R R ! Y R h l $ ; # ; # @ @ & @ & @ # & & # O + A N ;XNXnXNXnXbXmXmXmXnX0X8Xa.o.X.;.o.$.o.$.$.$.$.$.;.$.-.$.$.$.$.$.$.@.$.$.$.$.$.;.$.;.$.$.$.$.$.*.;.$.$.$.$.$.$.@.;.$.o.$.$.;.$.$.@.$.$.$.@.*.$.$.$.$.@.$.@.;.$.$.$.$.$.@.o.$.$.$.$.$.$.$.&.#.$.$.#.$.$.$.$.$.$.;.*.;.$.$.$.@.$.;.$.;.$.@.@.$.$.@.$.$.@.$.#.$.@.@.$.@.#.@. .} G N C N V N S Q U ~ ~ ^ ) ^ / ^ ` ~ P a d @ O $ X $ X @ @ O O 7 7 >XBXmXmXvXvX:XC.C.f.f.g.f.",
"p.p.p.0.u.0.p.H.0.d.p.p.p.p.u.0.0.0.u.7.u.t.t.*.O.( { ^ ^ ) ^ ( ( ( ^ ( ^ ~ ~ 9 - # ; ; ; - ; - - @ & & & & & * = , T.T.cXMXMXNXAX6X6X7.7.7.9.9.9.i.b.b.P.!.!.!.(.!.).~.~.!.(.!.~.].~.].~.].~.!.~.].).~.!.~.].!.].).!.~.!.!.!.!.!.!.].!.~.~.W.W.!.!.~.!.!.!.!.!.!.!.!.~.~.!.!.~.!.!.(.!.!.(.!.~.~.~.~.~.~.~.!.~.oX~.~.~.~.~.~.!.!.~.~.~.!.!.!.!.(.!.!.).(.!.(.!.!.~.~.~.~.!.E.f.f.i.i.i.i.i.i.i.u.0.p.0.0.i.u.p.i.9.p.u.i.9.i.i.9.i.9.i.i.i.u.p.i.i.i.9.i.i.i.p.p.u.p.p.i.9.p.9.u.p.p.9.i.9.i.9.i.3.9.9.i.9.9.i.i.i.9.9.9.i.9.3.9.e.i.e.9.9.9.9.3.9.9.9.3.9.9.9.9.9.3.9.9.u.9.9.} G Z 9 2 # * > - ; - - - X % X X X X . X . p n sXMXnXmXbXmXvXwXwXD. . .T T T T { { Y { { | { |  .{ { ..} X...X.;.$.-.3.7.7.u.0.u.0.i.7.q.0.u.p.0.0.0.i.0.0.u.p.i.p.i.0.0.0.p.0.i.0.p.0.0.p.u.p.d.i.0.i.0.u.p.u.9.9.9.9.9.9.9.9.0.7.u.9.7.7.9.9.2.1.3.8.3.2.7.t.1.4.1.1.-.2.1.1.t.t.2.1.1.1.1.1.7.7.t.+.+.Q J J R Y K R R R R w w + ; # # # ; @ % : X & @ & O O # + U U <XnXnXmXBXmXmXmXNXfXC.A.X.o.X.o.@.o.;.$.o.$.$.$.$.$.;.$.$.$.$.$.$.;.;.@.$.o.$.@.o.@.$.@.$.@.$.$.$.$.*.$.$.$.$.$.@.@.$.$.$.@.$.@.$.$.$.$.*.;.$.$.@.$.;.@.@.$.$.$.$.$.$.$.$.;.@.$.$.$.$.*.$.$.&.#.$.$.$.#.;.*.$.@.;.*.@.$.@.$.@.@.$.*.@.$.$.@.$.;.*.@.$.@.$.@.$.$.$.#.@.#... .F V Z Z N V I U U ~ Q Q ^ ~ ~ ~ T W z > w # @ @ @ O O O O @ # 7 9 qXvXvXmXlXvX@Xf.g.h.f.f.f.",
"u.0.u.p.0.0.p.0.0.0.0.0.p.0.p.0.t.p.u.p.u.p.q.q.7.1.>.#. ...( ) ^ ^ ( ^ ) ~ T 8 ; # # ; ; - - - - @ & @ & & & * = , D.D.zXZXNXZXAX6X6X9.7.7.9.i.p.n.W.I.!.!.~.!.~.~.(.(.].(.).!.!.~.~.~.!.~.!.~.].~.].~.~.!.!.~.~.~.~.~.(.~.~.~.~.!.~.~.~.~.~.].~.~.~.~.~.~.~.!.!.!.!.].].!.!.].[.!.(.(.].~.!.~.~.~.H.oX~.~.~.~.~.~.~.~.~.~.~.~.~.!.~.~.).!.!.).!.(.(.!.!.!.(.!.!.~.~.~.!.~.m.i.a.i.i.i.i.u.i.i.u.p.p.u.i.i.0.i.i.i.i.p.i.9.u.9.s.9.i.i.i.i.p.i.9.i.i.i.9.i.9.9.9.p.p.9.p.9.p.i.0.i.i.i.p.9.9.i.9.i.9.9.9.9.9.3.9.9.i.3.i.9.9.i.9.y.9.9.9.9.9.9.9.9.3.u.9.9.9.u.9.9.u.9.9.9.;.@.F C Z 6 * 2 > > : ; @ - X % % X X X X X . . s s sXMXMXnXvXvXvX.X+Xo.T T T { Y ^ {  . . ...| ..X.X.$.=.=.1.7.7.9.i.i.i.p.p.p.p.p.p.p.i.d.0.0.0.p.0.0.p.0.0.p.0.p.0.p.p.0.0.d.0.0.0.p.0.p.p.0.u.0.p.9.i.p.0.0.0.p.d.9.w.9.e.d.s.s.p.p.p.p.p.d.e.9.i.p.p.9.9.9.i.0.9.9.9.e.9.9.u.9.0.i.p.0.i.9.d.e.i.p.p.0.0.$.~ Q K K R Y U U l ; + ; $ # # ; $ - @ : X & @ @ @ O O + / ` 7XmXmXnXnXbXmXmXmX_.o.:.X.X.o.o.@.$.o.$.$.$.$.@.*.$.*.;.$.$.$.$.$.@.$.@.o.$.o.$.$.$.$.$.$.*.;.$.*.$.;.$.$.$.$.$.$.$.$.@.o.$.@.$.$.$.;.$.;.$.$.$.@.$.@.$.@.$.$.$.$.$.@.$.$.$.$.@.@.$.$.$.$.$.$.$.$.$.&.$.$.$.;.*.$.*.;.$.;.$.$.$.@.@.$.@.@.$.@.*.@.$.@.$.@.$.@.$.$.#.$.@.( ( F S A S S A F U U U P U U T ~ U A C 6 O # $ @ @ @ @ O @ O O O q y qXlXvXvXaXyX^.s.s.g.f.g.f.",
"p.0.p.q.0.p.0.0.d.0.p.0.0.0.u.0.t.H.0.u.p.q.q.p.8.1.1.&._ ..( ) ^ ( { ( ~ Q Q 9 # @ ; ; ; - ; - - : & & & & & & : * B.D.zXNXMXNXAX<X6X9.9.3.7.i.9.n.I.W.!.!.].!.(.(.~.(.~.!.).(.~.].~.~.~.].~.].~.!.!.~.~.].].!.!.~.~.].(.(.(.!.!.~.].].!.].!.!.].!.~.~.!.].~.].(.(.~.~.~.~.~.].!.(.).!.~.(.(.~.~.~.oXH.~.~.!.~.[.~.~.~.!.[.~.~.~.~.~.!.!.!.!.!.!.(.!.(.(.!.!.(.!.~.~.~.W.!.m.p.a.i.i.y.i.i.i.i.p.u.0.0.i.i.i.u.u.i.i.i.i.i.0.0.9.s.i.i.i.i.i.i.i.s.9.i.p.i.p.i.0.u.u.9.p.i.u.0.i.i.9.p.i.p.i.9.9.i.9.i.9.i.9.i.i.9.9.9.i.9.9.i.9.e.9.9.i.9.9.9.9.9.9.9.9.9.9.3.9.9.9.9.u.u.*.*.J V C 7 # 2 # : : ; - @ X 1 X X X X X . . $ s s xXNXMXBXBXvXlX'.'.o.{ T T { Y ^ { { | | } } X.X.X.@.=.=.1.3.7.9.i.i.i.p.u.p.p.p.p.0.p.0.p.0.p.p.p.p.0.p.p.0.p.0.p.0.p.0.p.0.p.p.p.0.p.0.0.p.0.0.0.p.0.0.p.0.p.0.0.p.i.d.s.i.s.w.0.p.0.0.p.9.i.s.d.9.i.0.0.9.7.0.9.9.9.9.9.i.e.9.0.p.0.u.0.s.9.d.0.p.i.0.9.-.) ) F R R J R U l # # # ; # # $ ; ; & @ & & @ # @ O O + ` ^ uXCXnXmXBXmXmXNXmX}.o.o.X.:.o.o.$.@.$.o.$.$.$.$.;.$.-.$.$.$.$.$.$.$.@.$.$.@.$.$.o.$.$.@.$.@.*.;.;.$.$.$.$.$.@.$.@.;.$.$.$.$.$.@.;.@.*.@.$.$.$.$.;.$.$.@.$.$.$.$.$.$.*.;.$.o.$.@.$.$.$.$.#.$.$.$.$.$.#.$.$.$.$.$.$.$.$.$.@.$.$.$.@.$.*.@.*.;.$.@.$.;.*.@.$.@.$.$.@.@.$.@.}  .F Z Z A S S H U U U U U U ~ U U A A 7 # $ # $ @ @ O @ @ @ O # q r qXvXzXmXlXgX^.s.s.f.f.f.f.",
"u.u.0.u.u.0.0.u.0.u.u.0.0.0.p.0.u.H.t.q.q.p.u.0.0.0.9.0.6.7.6.t.&.@.+.+._ ) ~ 8 # # @ - - # - - - # - @ # # @ O = + z.V.cXMXMXZXSX7X7X7.7.9.p.Z.Z.!.!.(.].~.!.~.~.~.~.~.~.).).).~.~.[.[.~.~.~.~.~.).~.~.~.~.~.[.~.~.).~.~.~.~.~.~.~.~.~.~.~.).~.~.~.~.].~.~.~.~.~.~.~.~.~.~.).~.~.).).~.~.~.~.~.~.~.~.].~.~.~.~.~.~.~.~.~.!.~.~.!.~.~.~.~.!.!.!.(.!.!.!.(.!.!.!.!.!.!.!.H.E.M.0.p.u.p.u.a.i.u.i.p.p.u.p.i.i.p.u.i.p.u.p.p.u.p.p.i.i.i.p.u.u.p.u.i.y.i.i.u.i.i.i.i.i.p.u.u.p.p.i.i.9.i.9.9.9.i.9.i.9.9.9.i.9.3.i.9.9.9.i.9.9.i.9.i.9.3.i.9.9.9.9.u.9.9.u.9.9.9.9.3.u.7.i.i.7.Y ! J N L 4 # # * & : * - @ @ X X X X X X $ $   j j sXnXNXmXvXvXrXD.S. . .........X.o.o.@.$.=.$.=.1.-.3.9.9.i.p.p.p.d.p.d.0.p.p.p.i.p.u.p.p.p.p.p.u.p.i.i.p.0.i.d.0.p.p.p.i.i.p.i.i.p.0.d.0.p.p.p.p.p.p.i.d.i.p.0.p.i.d.i.d.p.i.d.p.d.p.p.p.p.p.p.p.9.s.p.p.i.d.i.0.0.p.p.i.d.p.p.p.0.p.p.0.p.p.p.i.p.i.i.i.0.u.7.7.*.[ } ) F F 4 + + ; $ ; @ - - @ X @ : X @ @ @ O + * +.#.uXnXSXmXmXmXmXwXwX2.o.o.;.;.o.;.$.$.o.$.$.;.$.$.-.;.$.$.$.$.$.$.$.$.$.$.$.;.$.$.;.$.@.$.$.;.$.$.$.$.$.$.;.$.$.@.;.*.$.$.@.$.@.;.$.$.$.$.$.$.$.$.$.@.$.#.$.$.$.$.$.$.;.@.@.@.$.$.@.*.$.$.@.$.$.*.$.$.$.$.$.@.$.$.$.+.$.#.$.$.$.@.*.;.$.$.*.@.@.$.@.$.$.@.$.@.#.@.#.o.@.o.(  .F S S S I I P I F U U P U ~ Q E j h # # @ @ @ $ @ - @ @ O @ & d y 9XvXlXBXrXrXZ.i.i.f.l.g.l.",
"p.0.u.0.0.u.u.0.u.0.0.u.u.p.0.p.q.p.q.u.p.0.0.u.0.0.0.q.0.0.0.0.0.0.7.q.1.#.#.7 # # @ ; @ - - - - @ - & # # # + + = e.w.eXvXnXZXNX>X6X9.p.p.m.!.!.Q.).(.~.!.~.~.~.[.~.[.~.).).).~.[.~.~.~.~.~.~.~.~.).~.~.[.~.~.].~.~.~.].~.~.~.[.~.~.~.~.~.~.~.~.~.~.~.~.~.).~.).~.).~.~.~.~.~.].~.~.~.~.~.~.).~.~.~.[.~.~.~.[.H.oX~.~.~.!.~.!.~.~.!.~.~.!.!.].!.(.).!.!.!.!.!.~.~.!.I.M.l.i.p.u.p.u.p.u.i.i.i.u.p.p.u.u.p.u.p.p.u.p.u.u.p.u.p.u.p.u.u.i.p.u.p.i.i.i.i.i.i.i.i.u.p.i.p.9.p.9.i.p.p.i.p.p.i.9.i.9.3.i.9.9.9.i.9.9.i.i.3.9.s.9.9.i.9.i.9.s.9.i.3.9.u.9.u.9.9.9.9.9.9.9.9.9.) Y J J j h 2 # > * : * : - @ 1 X : X X X . X X   b x xXNXNXnXvXvXwXZ.C.o.o.;.;.o.$.$.;.=.$.<.1.2.3.9.u.u.i.i.i.i.0.p.p.p.p.p.d.i.p.p.p.p.u.p.p.0.p.q.i.p.p.i.i.p.i.i.p.0.p.i.i.0.0.p.p.i.i.p.p.u.p.p.p.i.i.p.p.0.p.p.p.i.d.i.i.d.i.p.p.p.p.p.p.i.0.i.p.i.i.0.i.0.p.p.i.i.i.p.i.i.0.p.p.p.p.p.p.0.p.p.i.0.9.i.i.i.0.p.u.0.9.7.$.*.y # # ; $ ; # @ @ X - X @ - @ @ @ # O * >.-.pXmXnXmXmXmXkXl.j.o.3.3.y.4.4.<.;.$.;.$.$.$.$.$.$.$.-.$.$.=.=.o.$.-.$.-.$.@.$.$.@.$.$.$.$.*.@.$.$.$.$.@.@.$.$.$.$.$.$.$.$.$.$.$.$.$.$.$.$.$.$.o.$.$.o.$.@.$.@.;.$.$.*.@.@.$.$.$.$.@.$.@.@.@.$.@.#.$.+.$.$.@.@.@.@.$.$.$.@.#.$.#.@.$.$.@.;.@.$.$.*.;.@.@.$.#.$.$.$.#.@.o.^ ^ I S F S S S F H I I P U U P Q R l l + # $ @ - @ $ @ @ O @ O @ g g rXrXrXnX0X0Xf.3.3.f.f.l.l.",
"p.u.p.0.u.0.t.H.0.H.0.0.u.p.p.p.0.p.0.0.u.q.u.0.0.0.0.9.0.0.0.9.0.0.9.7.6.+.#.6 # # @ - - - - - - ; # @ & & + + = + w.e.eXnXzXAXSX6X7Xu.p.a.m.!.!.(.!.(.~.~.~.].~.).).~.).~.).).~.~.~.~.~.~.~.~.!.).~.~.~.~.~.~.~.~.~.~.~.~.~.).~.~.~.~.].~.~.~.~.).~.~.~.~.~.~.).).~.~.).~.).~.~.~.~.~.~.~.).~.~.~.~.~.~.~.~.H.~.!.~.~.~.~.~.!.~.~.~.!.~.!.!.!.(.!.!.(.(.!.!.!.!.~.!.E.l.l.p.u.p.u.u.i.i.i.i.u.p.u.u.0.p.u.i.u.i.i.u.p.p.u.p.u.p.u.u.p.i.i.p.9.y.i.i.i.u.p.i.i.i.i.i.i.p.9.p.9.9.u.9.i.9.p.i.9.9.i.9.i.9.i.9.9.i.9.9.9.i.3.i.9.9.i.9.9.9.i.9.i.9.9.i.9.9.9.3.9.9.9.9.7.7.} J J J h h w # * * : : : # - @ & X X X X X $ $   j x nXnXMXnXnXvXqXD.D.o.o.o.o.$.$.$.<.<.$.1.1.1.3.u.i.9.p.p.p.i.s.p.p.p.p.p.p.p.p.p.p.p.u.p.p.0.p.p.i.i.p.p.p.p.0.p.i.d.0.p.i.i.p.i.p.p.0.i.0.p.u.0.i.0.p.0.p.p.p.p.p.p.d.i.p.p.p.p.p.p.i.p.i.p.i.p.i.p.p.i.i.p.0.p.p.i.i.i.p.i.i.p.u.p.p.i.i.p.0.i.i.0.p.u.i.i.0.i.i.0.9.6.@.*.d # # $ - @ - @ @ - @ @ @ 1 @ @ # O + * -.>.aXmXCXmXmXmXBXj.j.o.4.3.9.3.4.=.$.;.@.;.;.$.*.$.$.;.$.$.$.$.$.$.$.;.$.$.$.$.$.o.@.@.;.@.$.$.$.$.$.@.$.@.$.@.$.;.$.$.*.;.$.$.$.$.$.$.$.$.$.$.$.$.$.$.$.$.@.$.$.$.$.*.$.$.$.@.@.$.;.$.@.$.*.;.@.$.@.$.$.$.$.$.$.$.$.$.#.$.#.@.$.@.$.@.@.$.$.$.*.$.$.@.*.$.$.$.$.#.#.o.#.o.^ ^ S F S F F S P H F U U P U Q Q F l d # # # $ @ @ - @ O @ @ O # g g wXwXrXmX0X0Xh.7.3.f.f.l.f.",
"p.0.u.0.0.u.t.u.t.t.0.p.0.u.p.q.p.p.u.p.p.u.0.0.u.0.0.9.0.0.0.0.q.0.0.q.0.6.6.d O # # # @ - - - @ @ - @ & * + + + + 4.>.uXzXzXMXNX:X>Xp.n.n.!.(.~.(.!.).].!.~.~.).~.~.).~.).).).~.~.oX~.].~.].~.~.~.~.~.~.~.~.~.~.~.~.).~.~.).~.~.~.~.~.~.~.~.).~.~.~.~.~.~.~.].~.~.).~.~.~.~.~.~.~.~.).~.).!.).~.~.~.[.~.~.~.!.~.~.~.~.~.!.~.~.~.!.~.!.~.!.~.!.!.!.(.!.!.(.!.!.].W.!.M.p.p.u.p.u.p.i.i.i.i.i.p.u.p.u.p.u.p.i.i.i.9.p.u.u.p.u.u.0.p.p.u.i.i.i.i.i.i.i.i.i.i.i.i.i.i.i.i.9.p.u.p.9.p.p.i.i.i.9.p.9.i.9.9.9.9.i.9.9.9.i.9.9.9.9.9.9.9.9.i.9.9.9.9.i.9.9.9.9.9.u.9.u.i.3.} | J J U J d y ; * # # * & # - @ X X % X X X X $ X   v D MXnXnXnXzXvXwX`._.s.4.4.4.4.2.3.9.9.9.i.i.i.p.p.d.p.p.i.d.i.p.p.p.p.p.p.p.i.p.p.p.p.p.p.p.p.p.p.p.0.i.i.i.p.p.p.p.i.i.i.i.p.i.p.i.p.p.p.p.p.p.p.p.p.p.p.u.p.0.p.p.9.p.i.i.i.0.p.0.p.p.p.p.9.i.0.p.i.i.p.p.p.p.p.p.i.p.i.0.i.p.i.p.0.p.d.i.0.p.p.p.p.9.p.i.u.0.0.u.0.0.0.p.p.J # # # @ @ - @ - X & 1 @ @ @ # O + O 2 8.q.pXnXnXkXNXFX_.o.;.4.s.i.i.i.i.i.9.u.7.2.-.-.-.-.$.$.$.$.@.$.$.$.$.$.$.;.@.$.$.@.$.$.$.$.$.$.$.$.$.$.$.;.@.$.$.*.@.$.$.$.$.$.$.$.$.$.$.$.$.$.$.$.$.$.o.$.$.$.$.$.$.;.$.@.$.@.*.$.*.@.$.@.$.$.$.@.$.@.$.$.@.@.*.@.$.$.@.$.$.$.$.#.@.@.$.$.@.*.@.$.@.$.$.$.#.@.$.@.$.$.@.o.` / P S I S F I H I F U P F U E R R h h # @ @ @ - @ - @ @ @ @ O @ z z eXrXwXvX:X6Xu.3.3.f.z.l.f.",
"0.0.p.q.u.t.t.p.0.0.i.u.0.i.p.0.i.u.p.0.u.0.0.p.q.p.q.p.u.7.q.p.u.0.q.0.0.0.0.G $ + $ ; @ ; - - @ - @ @ # @ # O + = o.#.eXzXaXZXZX>X:Xb.W.W.(.(.(.~.(.).!.).(.).~.).~.~.).~.~.[.~.[.~.~.~.].H.~.~.~.~.~.~.[.H.oX~.[.~.~.~.~.~.~.~.H.oX~.~.~.[.oX~.~.~.~.~.~.~.[.~.~.~.~.~.[.~.~.~.~.~.~.~.~.~.[.~.~.[.~.~.~.~.~.~.!.~.~.H.~.~.~.!.~.!.~.!.!.!.!.].~.!.!.!.].!.!.!.H.n.a.9.u.u.p.0.p.u.p.p.u.p.u.p.u.u.p.u.u.p.p.i.i.i.i.i.i.i.i.i.i.i.i.i.i.i.i.y.s.i.i.i.i.i.i.p.i.i.i.9.i.i.i.9.i.s.9.i.9.s.i.9.9.9.i.9.i.3.i.9.9.9.i.9.9.9.i.9.9.i.9.9.i.9.i.i.9.9.9.9.9.7.9.2.7.X.J J ! U ! Z 5 5 w # * # & ; # - - - X X X X X X $ .   ` / nXMXvXmXvXmXlX*X$X}.`.^.S.l.g.d.i.i.s.i.i.d.p.d.d.i.d.i.i.d.p.d.p.p.p.p.d.i.s.a.i.i.s.i.i.i.s.i.i.p.i.d.i.p.u.p.p.p.p.p.u.p.p.u.t.H.p.p.p.p.p.p.p.p.p.p.p.p.p.p.p.i.i.i.p.i.p.p.0.i.p.p.u.p.u.p.p.p.p.q.p.p.p.p.u.p.u.p.p.q.p.p.p.p.p.p.0.p.p.p.u.u.p.0.p.u.0.0.0.7.9.9.0.0.Q @ + # - # @ @ - X - : @ X @ @ @ O O 2 w.e.aXnXNXmXwX0X4.<.<.y.s.i.y.i.i.s.p.0.p.p.0.u.q.0.7.7.t.2.-.-.$.$.;.$.$.$.$.$.$.$.$.$.o.$.;.$.$.$.$.$.$.o.@.$.$.$.$.$.$.$.*.$.$.$.$.$.$.$.$.$.$.$.,.$.$.o.$.$.@.$.@.$.$.$.$.$.$.$.@.$.@.$.$.@.@.$.@.$.$.$.$.@.$.$.$.@.$.$.#.$.@.#.@.$.$.@.$.@.$.$.o.@.@.#.@.@.#.$.@.@.@.O.^ ^ ~ U U I S S I P F P U P U U Q F j g # # # @ @ - @ @ # @ @ @ O C A rXqX0XvX*X@X4.y.3.p.l.l.l.",
"u.u.p.u.u.H.u.q.i.9.0.9.9.0.9.9.0.0.7.0.0.u.u.0.u.0.0.0.p.0.7.p.0.0.0.7.q.7.q.[ 0 ; ; ; # - @ : @ X @ X @ & + + + + ` ` 1XpXaXZXNX-X:XA.).!.!.(.~.(.~.(.~.Q.~.Q.).).].~.~.].~.~.~.~.~.~.~.~.oX[.[.~.~.[.~.~.~.~.~.~.~.~.H.[.~.~.~.[.~.~.~.~.].H.~.~.[.~.~.~.~.~.~.].!.~.~.!.~.~.~.~.].~.~.[.~.~.~.~.~.~.~.!.!.!.!.~.!.~.~.~.~.~.~.~.!.~.~.!.!.!.!.!.].!.~.!.!.!.H.p.a.u.i.p.p.u.u.u.p.u.p.u.u.p.u.p.0.p.p.u.p.u.s.y.y.i.i.i.i.i.9.i.i.i.y.i.i.i.i.i.u.i.i.i.i.i.i.9.9.i.9.9.9.9.i.9.i.i.y.i.9.9.9.i.9.i.9.9.9.9.i.9.i.3.3.i.9.i.9.i.3.9.9.9.9.3.9.9.u.i.9.9.u.2.} } Y U Y Y J J h # 4 # # # & & # - @ @ @ X - X X X $ X . O >.>.nXvXvXmXvXvXeX*X*X'..X@X@X.X_.!.C.d.h.s.d.i.d.i.i.f.i.s.s.p.i.i.p.p.p.i.a.p.i.i.i.a.i.s.a.i.i.i.i.i.i.i.0.0.p.p.u.p.u.p.p.p.p.0.q.u.p.p.p.p.0.p.0.p.0.p.i.u.0.p.0.p.p.p.p.0.p.u.p.i.i.p.0.p.p.p.u.p.u.p.p.p.u.p.u.q.p.p.u.p.p.u.u.p.0.p.0.p.0.p.p.0.p.u.u.p.p.0.0.0.q.0.0.0.J $ $ # @ @ @ @ @ @ @ X @ - & X @ = O 6 z.h.aXnXnXvXg.g.<.3.e.s.i.i.s.s.i.i.p.p.p.u.p.p.d.p.p.p.a.i.u.0.9.-.7.-.;.=.;.$.;.;.$.;.;.$.;.@.;.o.$.$.$.;.$.o.o.;.$.$.;.*.;.$.@.$.$.$.$.o.$.$.o.$.;.o.$.$.o.$.$.$.$.$.$.@.@.@.@.@.$.@.@.$.$.@.$.@.$.@.@.@.@.@.#.$.#.@.$.#.$.$.$.$.$.@.@.$.@.$.@.@.@.@.$.$.@.$.$.$.$.#.@.O... .^ ^ T Y P H H P U H P P U U E R l j # @ @ @ @ @ @ @ & O @ O O D S pXqXqXvX_._.4.3.3.d.f.f.f.",
"u.0.p.u.u.q.u.p.i.9.9.9.u.0.9.i.7.0.u.p.0.0.0.9.q.u.q.u.u.q.q.u.0.7.0.0.0.q.7.[ w ; # # @ - @ : @ X @ & & = & + + + ~ ^ 1XaXcXAXNX&X&XA.!.~.^.).(.(.~.~.~.Q.~.).).!.!.).).~.).~.[.~.oX~.~.~.~.~.H.H.oX~.~.~.~.~.~.~.~.~.oX~.~.~.~.~.~.~.~.~.~.~.~.oX~.~.~.~.~.!.!.~.!.~.~.~.~.~.].~.~.~.~.~.~.~.~.H.oX~.~.~.!.].].~.~.~.~.~.~.~.~.oX~.~.~.!.~.!.!.~.~.!.!.!.!.!.H.k.p.p.i.i.i.p.u.p.u.p.u.p.u.p.p.p.u.u.u.0.u.u.i.i.i.i.i.i.i.i.9.s.i.i.s.i.i.i.i.i.u.i.i.i.9.i.i.p.9.s.i.9.i.i.3.i.9.y.i.y.i.3.9.9.9.9.9.9.i.9.i.9.3.9.i.i.3.3.i.9.9.i.i.9.3.i.3.i.9.9.9.7.9.4.} } Y Y U Y J J h w # # * # & & - & - @ @ X - X X X X   . o >.>.xXmXvXvXvXvXyX$X$X+X.X.X.X_.oX^.C.h.f.i.p.p.p.d.d.d.i.d.p.p.p.p.p.a.p.a.i.i.i.p.a.i.i.y.i.i.y.s.i.d.p.i.i.i.p.i.p.p.p.p.0.p.p.p.u.p.u.p.0.p.p.u.p.p.p.u.i.p.i.i.i.i.i.0.p.i.p.0.i.p.p.i.p.p.p.p.u.p.p.p.p.u.u.p.p.u.p.p.p.u.p.p.u.0.p.p.u.u.p.u.p.q.0.u.u.p.p.q.0.7.0.9.0.0.R # O @ @ @ @ @ @ X - @ 1 @ & @ @ # = 3 h.z.aXnXnXvXh.g.,.9.e.s.i.e.i.i.i.i.u.p.p.p.p.p.p.p.p.p.p.i.i.u.7.t.1.-.;.$.;.;.$.$.$.$.;.@.$.o.;.;.$.$.$.o.$.$.$.$.$.$.$.@.$.$.$.@.$.o.$.o.$.#.$.$.$.o.$.o.$.$.$.$.$.$.$.$.@.$.$.@.@.$.$.@.@.@.@.$.$.@.$.@.$.o.$.#.$.@.$.$.$.*.$.$.*.@.$.$.$.@.$.$.o.$.$.@.$.$.#.$.$.@.@.o. . .^ ^ ^ P H I P F P P U P U P Q F l j ; @ @ @ @ @ # @ @ @ @ @ O F D pX0X0XlX_._.<.3.3.i.g.f.f.",
"p.u.0.q.u.p.u.q.9.9.i.9.0.u.u.0.u.u.0.0.u.0.u.i.u.p.u.p.p.u.0.p.u.0.7.u.7.0.0.t.n n # # # @ : @ @ & & X = & + + + = N V ;XzXsXZXnX:X-XE.^.).!.(.(.~.).(.).).Q.Q.~.).).~.).).~.].~.~.~.~.~.~.[.~.oX[.~.~.~.~.~.~.oXH.[.~.~.~.~.[.~.~.~.[.~.~.~.~.[.H.~.~.~.].~.~.~.~.].~.~.~.~.[.H.~.~.~.~.~.~.~.~.[.~.~.!.!.!.!.!.~.~.[.~.~.~.~.~.H.].~.~.!.!.!.!.~.!.!.!.!.K.K.l.u.u.u.i.i.i.u.p.u.p.u.p.u.p.u.p.u.u.p.p.p.u.p.i.i.y.i.s.9.i.9.i.9.i.i.y.i.i.y.i.i.i.i.i.i.9.p.9.i.i.9.9.9.9.9.i.9.i.i.9.u.i.i.9.i.i.9.i.i.9.9.9.9.i.i.9.9.9.i.i.9.9.9.i.9.i.9.i.3.u.u.7.3.1. .J J U Y U K Z Z d w 2 # # # # & & @ $ - @ - X X X 1 X   . O w.d.zXvXvXvXvXyXwX&X&X'.@X.X.X@X@X.X|.W.!.b.f.f.p.d.d.i.d.p.d.i.i.a.a.i.i.d.i.a.a.p.a.i.a.i.i.s.i.i.i.i.i.i.0.p.i.i.u.0.q.p.p.p.p.p.p.p.q.t.H.u.0.p.p.p.p.0.p.i.p.i.p.p.p.p.i.p.p.i.i.p.i.i.u.p.p.p.p.p.p.u.q.p.p.p.p.p.q.u.q.p.p.7.p.u.0.0.p.0.p.0.u.p.u.p.q.p.u.u.7.q.6.0.0.9.F # O # @ # @ @ @ @ X X : @ X & O = & 6 V.B.zXNXmX_.<.<.3.9.y.s.y.s.s.d.9.p.0.p.p.p.p.p.p.p.p.i.p.p.p.p.p.0.u.p.9.9.3.1.2.=.=.=.;.$.;.$.$.$.;.;.@.$.$.$.$.$.$.$.$.$.$.@.$.;.=.o.$.#.$.o.o.$.$.$.$.$.$.;.o.$.@.;.$.+.$.@.@.@.o.$.@.o.@.$.$.@.@.$.@.@.$.#.o.o.$.o.@.@.$.@.$.@.$.$.@.$.@.@.+.$.#.#.@.$.$.@.$.@.@.@.#.o. .` ` ^ T T P S H Y H U I U P U Q F g g * # O @ @ @ @ @ @ @ @ @ @ ~ / rXeXeXvX_._.-.3.3.s.f.f.f.",
"p.p.u.u.H.u.p.q.9.9.i.i.i.9.9.9.u.0.9.0.u.0.0.9.0.0.u.0.0.u.0.7.7.u.0.7.q.0.q.0.G G $ # # ; - 1 & % @ & & O + + + + 3 6 B.pXaXCXAX:X&XW.^.^.!.!.!.).).~.!.Q.).Q.~.~.).].~.~.oXoX~.[.[.~.~.~.~.~.~.~.oXH.~.oX~.~.~.[.~.~.~.~.~.oX~.[.~.~.[.~.[.~.[.~.~.~.~.~.].~.!.~.!.~.~.!.~.~.oX[.~.~.[.~.~.~.~.[.~.~.~.!.!.!.].~.!.H.~.!.!.~.~.~.~.!.~.!.!.].!.!.~.!.!.E.l.l.p.p.u.p.p.u.p.u.0.u.u.p.0.u.p.q.u.p.u.i.u.p.u.u.i.i.i.i.u.i.i.i.i.i.i.i.i.i.i.i.i.p.i.i.i.i.i.i.i.i.9.i.i.9.i.3.i.9.9.i.y.i.i.9.i.9.3.i.9.3.i.9.9.9.y.9.3.9.3.i.9.9.9.i.9.9.i.9.9.9.9.9.7.;.$.Y H Y H H K Z N N y ; w # # # # & @ & # @ $ X @ X X X . $ . O v.V.zXvXzXyXlXyXrX5X&X+X'..X.X.X@X.X.X@X.XoXP.W.f.p.d.i.d.d.d.i.d.i.p.p.p.i.i.s.i.p.s.a.i.i.y.s.i.i.i.d.i.i.p.p.u.0.p.p.p.p.p.u.p.0.p.t.q.u.p.p.p.p.q.p.p.u.i.p.i.i.u.0.p.p.p.p.p.i.i.p.i.i.d.i.p.p.p.p.p.q.u.p.u.p.u.0.p.p.p.p.u.p.u.p.0.u.p.u.u.p.p.p.p.p.u.q.p.0.9.q.q.9.w.9.D O $ @ # @ & X X & & X : @ X @ O = = t D.L.zXwXeXs.4.4.s.s.9.s.i.i.9.i.0.p.i.p.d.0.p.p.p.p.p.p.p.p.p.p.p.p.p.p.p.p.i.p.i.u.9.9.2.1.1.=.=.=.=.;.$.=.;.$.$.$.$.$.$.$.$.$.$.$.$.$.$.$.#.$.$.$.o.$.o.$.$.o.$.$.o.$.$.o.@.@.@.o.$.o.o.$.$.@.$.o.@.o.@.$.#.o.$.$.o.$.@.$.@.@.$.o.@.$.@.$.$.o.$.#.$.o.#.$.$.@.$.@.$.#.@.O. ... .(  .^ U U U F U F J U P U Q R j k ; @ @ @ & @ @ @ @ & & O O >.,.1XeXeXlX_.'.4.3.3.i.f.f.f.",
"u.u.0.0.t.t.u.u.i.9.9.9.9.9.i.9.0.u.u.0.0.u.u.0.u.u.0.0.u.0.7.0.0.7.7.0.0.7.0.q.G G # # ; @ @ - @ @ & & # & & + * + 5 3 J.aXaXCXNX:X:X^.^.).!.).!.(.!.(.Q.).).Q.[.~.).~.~.~.~.H.~.~.~.~.~.~.~.~.~.~.~.[.~.~.~.~.~.~.~.~.~.~.~.H.~.~.~.~.~.~.~.~.H.~.~.oX~.~.~.!.~.].].~.~.[.~.~.oXH.~.~.~.~.~.~.~.~.~.~.~.].!.!.!.~.~.~.~.~.~.~.~.~.~.~.~.!.!.~.!.!.!.!.!.J.l.l.u.p.p.u.u.p.u.p.p.u.p.u.p.u.u.p.p.u.p.i.p.u.p.u.u.p.i.i.u.i.0.i.9.i.9.i.i.i.s.y.i.u.i.i.i.i.i.i.9.i.i.9.9.9.9.i.9.u.i.y.3.i.9.i.9.9.i.9.9.i.9.9.i.9.e.y.i.9.i.9.9.i.9.3.9.i.3.i.9.y.9.9.9.;.;.Y J K U K K Z B N 9 w ; # O # @ @ : @ @ - @ X X X X X . $ O O c.c.vXaXvXvXyXyXrX5X5X'..X.X*X.X.X@X.X.X.X|.W.W.l.p.i.f.d.i.p.i.d.a.p.a.p.a.a.i.a.i.i.i.a.i.s.i.i.a.i.i.p.i.0.p.p.p.p.u.u.q.0.p.p.p.u.H.p.p.u.p.p.p.p.p.p.p.i.p.p.0.p.p.p.p.0.p.p.i.p.i.p.0.i.i.i.p.p.p.p.p.u.p.0.p.p.p.u.u.u.p.u.0.0.p.u.p.0.p.0.u.p.u.p.u.u.p.q.u.9.9.9.9.9.w.S O O @ @ @ @ @ & X @ - X & X & & O = e L.D.xXqXeXs.4.4.3.s.e.9.s.i.s.i.p.p.p.i.i.d.p.p.0.p.p.p.p.p.p.p.p.p.p.p.p.p.p.i.p.9.9.9.3.3.2.1.1.1.=.$.$.=.$.$.=.$.$.$.$.$.;.@.$.#.$.o.$.$.$.o.$.$.$.$.o.$.$.$.$.o.$.$.o.$.o.$.o.;.o.@.o.X.o.o.o.$.$.o.o.o.o.o.o.o.o.o.$.o.@.$.$.$.$.@.$.@.@.$.o.@.o.$.$.$.@.$.@.$.$.@.@.O. .( ^ ( _ ^ U U F J F F U J J E E F j j * O @ @ @ @ @ # @ @ @ & . &.>.eXwX0XlX+X_.<.3.3.s.f.f.j.",
"u.0.u.0.q.u.u.u.y.9.i.9.i.9.9.i.u.9.u.0.u.0.i.9.u.0.0.u.u.0.u.0.7.0.0.u.7.0.0.q.( / ; # # # - @ & @ @ & O & + + + + + + >.aXpXNXnX:X:XE.Q.!.!.!.).!.(.~.~.~.Q.).~.~.~.[.~.[.~.[.~.~.~.~.~.~.~.~.~.[.~.~.~.[.~.~.~.~.~.~.[.H.[.].~.~.~.~.~.~.~.~.oX~.[.H.~.~.~.~.~.~.~.].~.~.~.~.[.~.~.~.~.~.~.~.~.~.~.~.~.~.~.!.!.!.!.~.~.!.~.~.!.!.~.!.!.!.!.!.(.!.Q.K.K.x.u.a.p.u.u.p.p.u.u.u.u.p.u.p.p.u.p.u.u.p.i.i.u.p.p.u.i.u.i.u.p.i.p.0.p.i.i.i.y.i.i.i.u.i.i.i.i.i.0.u.i.i.i.i.9.i.9.9.i.i.y.i.i.y.9.i.9.9.i.9.i.9.i.9.i.9.i.3.9.i.y.9.i.9.i.9.9.9.s.9.9.i.i.9.7...X.U K K S B Z B C L q w w # @ # # @ @ - @ @ $ @ X X X X X X X O J.J.zXaXrXvXlXyXyX9X9X'..X@X*X.X.X.XXX.X.X#XXX.XQ.b.b.f.s.p.p.f.d.a.p.a.i.a.i.s.a.i.a.y.i.i.a.i.i.i.i.p.0.i.0.p.p.u.u.p.p.p.p.i.0.p.7.t.p.p.p.p.u.p.0.p.p.p.i.i.0.p.i.p.i.0.i.i.0.i.i.i.0.i.i.p.i.i.u.u.p.p.p.p.0.p.q.p.p.p.u.0.p.p.u.p.0.p.u.p.p.0.q.p.p.p.p.p.0.7.9.q.9.q.q.0.C O O # & @ @ @ % - : 1 @ X @ X & & & r U.P.zX_._.4.3.s.e.i.s.i.p.0.i.p.9.p.p.0.p.p.p.p.p.p.p.p.p.p.p.p.p.p.p.p.0.p.p.d.i.d.i.i.d.i.i.i.9.u.7.3.3.3.6.2.1.6.7.t.-.1.1.1.&.-.=.=.=.$.<.$.=.$.=.;.=.=.;.o.;.o.;.o.;.o.;.$.o.:.$.o.:.;.o.o.o.o.$.o.;.o.;.o.o.o.o.$.$.$.;.$.@.;.@.@.;.$.$.o.@.#.@.@.o.$.$.$.$.@.o.@.@.o.....}  . . .^ ^ U U U U U U Q Q ~ ~ z k : # @ @ @ @ @ @ @ @ @ O O k.r.%XwXwXvX*X*X4.3.9.i.f.f.f.",
"u.u.u.p.u.7.0.p.9.i.u.i.u.i.u.i.i.u.i.u.i.u.u.i.u.0.u.0.0.u.7.0.0.u.0.u.q.7.0.7.) / 0 # $ # @ - X & & & & & = * O * + O _ eXpXnXAX:X6X!.!.).).Q.).~.~.~.~.).~.).~.[.~.~.~.~.~.[.oX~.~.[.[.~.~.~.~.~.~.~.~.~.~.~.~.[.~.~.~.oX~.~.~.~.~.~.~.~.~.~.~.~.].~.~.~.~.~.~.~.~.~.~.~.~.[.~.~.~.~.~.~.~.~.~.~.~.].~.~.~.~.~.~.~.!.~.~.~.~.~.!.!.!.!.!.!.!.!.!.K.l.l.i.i.u.u.0.p.u.p.u.0.p.p.u.p.u.u.p.u.p.u.i.u.0.p.p.u.u.i.i.i.i.i.i.u.i.i.i.i.i.i.i.y.s.i.u.u.u.9.i.u.i.9.i.y.i.9.9.i.9.9.i.9.i.u.i.i.9.9.i.9.9.9.9.i.9.9.9.9.i.9.9.9.9.9.9.i.9.i.9.3.9.y.3.9.i.2.{ { J Z K Z Z Z Z L L y # # # # # @ @ @ X @ @ @ X O $ X $ X   X O U.I.aXlXyXyXlXlX0X0X9X*X.X'..XXX.X*X.X.X.X.XXXXXXX)._.b.d.f.s.d.i.i.a.p.a.p.a.s.i.i.s.a.i.s.i.y.s.i.p.i.p.i.u.p.p.p.p.p.u.p.p.p.u.i.u.H.u.p.q.p.p.0.p.u.u.0.0.p.u.p.i.0.i.0.0.i.0.0.0.p.i.i.i.0.p.i.p.p.0.u.p.u.u.p.p.u.q.u.p.p.u.0.0.p.u.u.p.0.0.p.p.u.u.q.p.7.7.0.9.9.q.7.p.0.k O O - X @ @ % @ @ X @ @ - - @ @ & & i T.U.eXC.V.3.s.i.s.e.s.s.p.p.d.p.p.p.p.p.p.p.p.p.p.p.p.p.p.p.p.p.p.p.p.u.p.p.d.i.d.i.d.d.i.d.s.d.d.i.d.p.p.p.p.p.i.i.i.a.p.i.u.9.9.u.u.9.9.7.3.3.7.3.3.3.4.4.2.2.4.2.4.4.4.<.<.<.4.-.-.4.-.2.-.-.<.<.<.<.=.<.-.-.<.<.<.=.=.<.-.;.=.=.-.-.-.=.$.<.<.$.<.=.=.=.=.=.=.=.=.=.=.$.+.+.X.O.+.X.#.O. .{  ._  ._ .._ _ *.Q E 8 # ; # & @ & & & # & & O R.R.+X0XeXlX&X&Xi.3.3.s.f.f.f.",
"u.p.0.0.9.i.9.u.i.u.i.9.u.i.u.u.0.u.i.u.9.i.u.i.u.0.0.u.0.u.7.u.0.u.0.u.0.0.7.t.) / 0 O # X @ - : % @ & O & + O * & + + _ eXeXnXNX:X:X!.Q.!.~.~.~.~.!.).!.).).).oXoX~.~.~.oX~.~.~.~.~.~.~.~.~.~.~.~.[.~.~.~.~.~.[.~.~.~.~.~.~.~.~.~.~.~.~.~.~.~.~.~.~.~.~.~.[.~.~.~.].~.~.~.~.~.).Q.Q.Q.).Q.~.~.[.~.~.~.~.~.~.~.].~.~.~.~.!.~.[.Q.^.!.^.!.!.!.!.!.!.K.l.l.i.i.i.i.p.9.u.p.i.p.u.p.u.u.0.p.u.i.i.p.i.i.i.i.y.i.i.i.u.i.i.i.i.i.i.i.i.i.y.i.i.i.i.i.9.i.i.u.u.i.u.9.u.i.u.9.9.i.9.i.9.9.u.i.u.9.i.9.9.i.3.3.i.9.9.9.9.9.i.9.9.i.i.9.9.i.9.9.9.i.3.u.u.i.i.1.} { H K Z B Z Z B L Z n w ; + # # # @ @ @ $ - @ $ @ X $ X   . O O T.T.aXaXaXvXyXlXyX0X9X.X'.*X.X*X.X.XXX.X.X*XXXXX*X).'.m.a.d.p.d.i.f.p.f.p.a.s.a.i.s.a.i.i.s.i.i.a.i.p.i.i.a.i.i.p.i.p.u.p.u.p.p.p.p.p.p.p.p.p.p.0.u.i.p.0.i.0.i.0.u.0.i.0.0.9.d.9.9.p.p.9.p.p.u.p.9.u.0.u.p.p.u.p.u.p.u.0.p.u.p.u.0.p.0.p.p.u.p.p.u.i.i.i.0.u.0.9.9.9.9.4.e.0.0.k O $ @ @ - @ - X - X @ X : & X = & = d Y.Y.eXV.V.9.s.e.s.s.s.i.p.p.p.p.H.p.p.p.p.p.p.p.p.d.p.p.p.p.p.H.t.0.p.p.p.p.i.p.i.d.s.d.i.d.p.d.p.d.i.d.i.d.p.p.p.i.p.p.u.i.i.9.9.u.9.9.u.4.9.3.9.3.4.4.4.4.3.4.2.2.4.<.4.<.4.<.1.<.<.4.<.<.4.;.<.<.<.<.<.<.<.<.<.<.<.<.<.<.<.<.<.;.1.=.=.$.1.$.=.$.$.=.<.$.=.;.=.=.$.$.$.$.@.@.X.O.+.X.O.O. . .`  ... ...' +.*.E E 8 # # @ @ @ @ & @ & & = X U.R.|.wX0XvX$X&Xy.3.3.i.g.f.f.",
"0.u.u.7.9.u.9.i.u.i.i.u.9.i.i.9.u.i.u.9.u.u.i.u.u.0.u.0.7.0.0.0.u.7.0.7.7.7.7.*.E J d # # @ : @ @ & @ & & * + * + + + + U qXeXnXNX>X6X^.!.!.).~.~.~.).).~.).~.).H.[.~.~.~.~.~.[.[.[.~.[.[.~.~.~.~.~.~.~.~.~.~.~.~.~.~.~.~.~.~.~.~.~.~.~.~.!.!.~.~.~.[.~.~.~.~.~.~.~.~.~.~.~.~.~.~.!.).).!.).Q.~.!.~.~.~.[.~.~.~.H.oX~.~.~.~.~.H.Q.!.^.!.!.!.!.!.m.m.l.i.i.i.i.u.u.i.u.p.i.i.u.p.u.p.u.p.u.p.u.i.u.i.p.u.i.i.i.i.i.i.u.i.i.p.i.i.i.i.i.i.i.i.y.s.i.u.u.u.0.u.u.i.i.u.u.i.9.9.9.9.9.i.u.i.9.y.i.9.i.9.i.9.i.9.9.i.i.9.9.9.9.i.9.9.9.i.9.9.i.9.3.s.i.i.9.9.$.Y Y K Z Z B Z B G Z G y # # # # # O @ @ @ @ - $ @ $ X X $ . O O O Y.Y.zXrXrXlXyXrXrX0X0X*X.X'.'..X.X.XXX.X.X.X.X*XoX*XXXoXA.A.d.p.d.p.a.i.a.i.i.i.i.a.i.s.a.y.s.i.i.i.i.p.p.i.p.i.u.p.u.p.p.p.p.u.p.u.p.p.p.u.p.u.p.p.i.u.u.i.0.p.p.u.u.0.0.u.0.9.9.p.p.9.0.i.0.u.9.p.u.p.p.p.0.p.0.0.0.p.u.p.p.0.u.p.u.0.u.0.u.0.u.0.0.i.i.i.i.0.9.9.9.9.9.9.6.6.n $ O ; @ @ - X & X : - @ X X & O O = g Y.Y.;Xh.h.s.i.s.i.e.e.s.p.p.p.0.t.p.p.p.p.p.p.p.d.i.p.p.p.p.p.p.p.p.p.p.p.p.d.p.s.p.p.i.d.d.p.i.p.d.d.i.i.d.i.d.d.p.d.p.f.p.a.d.p.d.p.i.s.s.i.i.i.i.i.s.a.i.i.i.i.i.s.y.u.i.i.i.i.i.9.i.i.i.y.i.i.3.3.e.9.9.9.9.u.i.y.9.3.i.i.3.i.9.9.9.i.9.9.9.9.9.9.9.9.9.9.9.9.9.9.3.9.1.1.1.1.1.3.1.2.1.9.7.7.9.7.9.9.7.7.q.&.&.j # # # & # : @ & & O & @ ].{. XeXeXvX9X<Xs.9.y.i.f.f.j.",
"u.u.i.u.0.9.0.u.i.u.u.i.i.u.u.i.i.u.u.i.i.u.u.0.u.u.0.0.0.0.7.u.0.7.u.7.q.t.;.) F F j # & @ % : : X & % & O = * * + + + z >X7XnXnX7X7X^.^.Q.!.~.~.~.).!.~.~.).).~.~.~.[.~.~.~.~.~.~.~.~.~.~.~.~.~.~.~.~.[.~.~.~.H.[.~.~.[.!.~.~.~.).~.~.~.~.~.~.~.~.~.~.~.~.~.~.).~.~.~.~.~.~.~.~.).).Q.Q.).~.).~.~.[.!.~.~.~.~.[.!.~.~.~.!.~.!.!.^.!.^.^.!.W.n.d.k.u.i.p.u.p.u.i.i.i.p.i.i.u.u.p.u.p.u.p.u.i.i.i.u.u.i.i.i.i.u.p.u.p.u.i.u.i.i.u.i.i.i.y.s.i.y.i.u.u.9.9.p.0.u.u.i.i.y.i.i.9.9.i.9.u.i.u.u.i.i.9.i.9.9.9.9.i.9.9.i.i.3.9.9.i.3.9.9.i.9.9.9.i.s.u.u.t.2.{ H K Z Z Z B Z B Z Z G h # # # $ # $ @ @ - @ $ @ $ @ X O X . . . # (.Y.rXlXrXyXrXyXrXwXrX*X'.+X*X.X.X.XXX.X.X*XXXXX*XXXXXXXoXoXA.d.d.a.p.a.a.f.s.a.i.s.a.y.i.i.y.i.y.s.i.i.p.i.i.p.i.p.p.p.p.u.0.u.p.0.p.p.u.q.p.0.0.u.p.0.p.u.u.0.u.0.i.9.i.0.9.s.0.9.i.i.i.i.u.p.p.u.p.0.q.u.u.p.u.p.u.0.u.u.p.u.p.0.u.p.p.u.p.p.p.p.i.p.i.9.0.u.9.9.9.9.9.4.} +.4 O @ X - X : @ - @ @ 1 & @ & @ O & & g `.Y.+Xs.w.s.s.e.s.i.i.s.i.p.p.p.p.p.p.p.p.0.p.p.p.p.p.p.p.p.p.p.p.p.p.p.p.p.i.d.s.p.p.i.d.i.i.d.i.s.d.i.p.s.i.s.d.s.i.i.a.d.d.p.s.i.i.s.i.s.i.s.s.i.s.i.i.s.s.i.i.s.s.i.s.s.i.s.s.i.i.s.s.i.i.i.s.s.s.e.s.s.i.s.s.i.s.i.s.s.i.s.i.s.i.s.i.d.i.d.h.s.d.s.d.d.i.d.p.p.i.d.d.i.d.i.d.i.u.p.d.i.p.d.i.s.s.i.w.0.w.w.7.q.D : ; # # : # & @ & & & %  X X(.qX9XnX0X9Xj.y.i.i.g.f.f.",
"p.9.u.0.u.9.u.u.9.i.u.9.u.i.9.u.u.i.i.u.9.i.u.u.0.7.7.u.u.u.7.0.u.0.7.7.7.*.*.) F F j & * @ : X @ : @ & & & O + O * + + N >X>XCXnXqXqX^.!.).[.~.).~.~.).~.).~.).[.~.~.~.~.~.~.oX[.~.~.[.~.~.~.].~.~.~.~.~.~.~.~.oX].~.~.~.~.~.!.).~.~.~.~.~.~.~.~.~.~.~.~.~.[.~.~.~.~.).~.~.[.~.~.Q.Q.Q.).Q.~.~.~.~.~.~.~.~.~.~.~.~.~.~.~.!.~.~.Q.!.!.!.!.!.W.H.f.a.u.i.u.p.u.p.i.i.i.u.i.i.i.p.u.p.u.p.u.p.i.i.i.i.i.i.i.i.i.p.i.p.u.p.i.i.u.i.i.i.s.y.i.i.i.i.i.9.i.i.u.u.u.u.9.i.u.i.9.9.9.i.9.i.u.9.i.i.3.i.9.9.9.i.i.9.9.9.9.9.9.i.i.9.9.i.i.9.3.i.i.9.i.3.u.a.-.t.^ H F V Z Z Z B B L Z Z f $ # # # # # O @ X @ @ @ X @ $ . X O O . O Y.].aXrXrXgXvXyXrX9XwX*X'.'..X.X.X.XXXXXXX.X*XoX*X.X.XXX.XoXA.d.p.p.a.p.p.i.i.i.i.a.s.y.a.i.i.a.s.i.i.p.i.p.i.i.p.i.u.p.q.p.p.p.p.p.0.p.H.t.p.p.p.u.u.0.p.0.p.i.p.p.i.0.i.0.0.i.9.p.p.i.0.i.0.p.9.p.u.u.p.p.u.0.0.p.p.p.p.0.p.0.p.u.p.u.0.0.0.u.0.u.0.i.0.p.u.0.9.q.9.9.9.8.+.[ w O O @ - @ X & X @ @ @ X @ & X & = O g T.(.+Xs.s.w.i.s.e.e.s.i.d.i.p.p.p.p.p.p.p.p.p.0.p.p.p.p.p.p.p.p.p.p.p.p.p.p.s.i.i.d.i.d.i.p.d.i.d.i.i.a.i.d.f.i.s.i.s.d.s.s.d.i.s.i.s.i.s.i.s.i.s.s.s.i.s.i.i.s.i.s.i.s.i.i.s.i.i.s.s.i.i.s.s.i.i.s.s.i.s.e.s.s.i.s.i.s.s.i.i.s.s.i.d.i.d.i.p.s.s.w.s.d.i.i.d.d.i.d.d.p.e.d.d.e.d.9.p.i.s.i.p.i.d.9.i.p.i.w.d.d.q.q.D : > # @ @ & @ & # & & @ OX X{.9XqXmXqXqXg.i.3.a.f.f.l.",
"9.9.9.9.u.9.u.0.u.9.9.u.9.9.9.u.0.9.9.u.9.u.9.u.0.u.7.0.0.0.0.7.0.7.0.0.6.} | R R D b ; > # & : : @ @ & & @ & O * O + O h ;X:XnXAX7X7X^.!.~.).~.Q.).~.~.).~.~.~.~.oX~.~.~.~.~.~.~.[.~.~.~.~.~.~.~.~.[.H.oX~.~.~.~.~.~.!.~.~.~.[.~.).~.~.~.).!.~.H.[.~.~.~.~.~.~.~.~.~.~.~.~.~.).~.).!.).).!.).~.~.~.oX[.~.H.~.~.!.~.~.~.!.~.~.!.!.^.!.!.K.M.n.p.u.p.u.u.p.u.i.i.i.0.i.i.i.i.i.i.p.u.i.i.i.i.i.i.i.i.u.i.u.i.u.i.u.p.i.u.0.i.i.y.i.9.i.i.9.i.i.9.9.i.u.u.u.9.u.9.y.9.i.9.i.9.9.i.i.i.9.u.i.9.i.i.9.y.i.9.9.9.9.i.9.i.9.9.i.9.9.9.9.9.u.i.9.3.i.i.u.2.| | K K Z Z Z Z B B Z Z Z Z h # # # O # @ @ @ - @ @ $ $ X X . O . . X O {.(.aXgXaXrXrXrXyXwXrX5X'.'.'..X'..XoX*XoX.XoXXXoX.XXX.XXX.X[.m.C.a.s.a.a.i.a.i.a.i.a.i.i.a.s.i.y.a.i.i.i.i.p.p.p.u.p.u.p.p.u.p.u.0.p.u.p.p.p.p.u.p.p.u.p.p.p.p.p.u.i.0.9.0.0.i.9.s.0.0.0.i.p.9.0.u.p.u.p.0.0.u.p.u.u.p.q.u.0.0.u.p.u.p.0.p.0.p.i.p.i.u.i.u.u.0.0.9.8.9.9.$.Q Q ; $ $ @ @ @ 1 @ @ 1 1 - X : & @ O O = g Y.`.U.s.h.e.p.d.9.d.p.0.p.u.p.p.p.H.p.p.p.p.p.p.p.p.r.p.p.p.0.p.p.p.p.p.p.p.p.p.i.d.s.p.i.s.s.s.i.s.s.s.i.d.s.i.s.s.s.i.i.s.i.s.i.s.s.i.s.s.y.s.s.i.s.s.i.s.s.s.i.s.i.s.i.s.i.i.s.i.s.i.s.i.i.i.i.w.i.s.i.s.s.i.d.i.i.s.i.s.s.i.s.i.d.i.d.p.i.d.d.i.d.s.p.d.s.p.d.i.a.s.s.s.i.s.s.i.p.p.i.d.d.i.s.i.d.p.p.w.d.0.0.q.P > > * : @ & @ : @ & @ @  X XY.<X<XNXiXrXA.i.9.s.f.f.f.",
"u.u.u.9.9.9.9.9.u.u.i.u.u.9.9.9.9.9.9.9.9.9.9.9.7.0.u.0.7.u.0.u.u.7.7.u.-.Q ) R R F k ; : ; & % X & @ & @ & & O # # & + a @X|.NXSXqXqX).(.!.!.(.(.Q.).~.~.~.~.~.~.~.[.~.~.~.~.oX~.~.H.[.~.~.~.~.].~.oXH.~.~.~.~.~.~.~.].].~.~.~.).!.!.).!.~.].~.oX~.~.[.~.~.~.~.~.~.~.~.(.~.).~.).!.!.(.!.).(.~.~.~.H.].~.oX~.~.~.!.!.~.H.].~.!.(.!.K.W.H.u.i.9.p.u.p.0.u.p.i.i.i.i.i.i.i.9.i.i.0.0.i.9.i.i.p.u.u.0.i.9.9.9.0.u.u.9.i.u.i.u.i.i.u.i.i.u.i.u.u.u.i.u.i.9.u.p.i.9.i.9.9.i.u.u.i.u.9.i.9.9.9.i.3.9.i.9.3.i.9.i.9.9.9.9.i.9.9.9.i.e.i.y.i.i.i.i.i.4.u.| K K B B B B L B Z Z Z G G Z l # # # # # @ @ @ - $ - - @ O $ X O . O O @ {.{.zXrXlXyXrXyXrXrXwX5X'.'..X.X.X.X.X.X.X.X.X*X.X*X.XXX.XXX.X_._.b.i.i.s.a.i.s.i.s.s.i.i.i.i.i.s.i.s.i.i.p.u.a.p.p.p.p.p.u.p.p.p.p.p.p.0.u.p.0.u.0.u.0.0.u.0.u.0.0.i.0.p.0.9.0.0.9.0.u.9.s.9.p.p.9.p.0.p.u.p.u.0.p.p.p.u.p.u.p.0.u.0.p.u.p.u.i.0.u.p.0.i.0.i.9.9.9.7.1.1.+.Q Q 9 @ X - - X 1 @ - X @ @ @ X X @ & O = x Y.Y.B.h.d.s.p.0.s.s.p.p.p.t.p.p.0.t.d.i.p.p.p.p.p.0.0.p.0.p.p.p.p.p.p.p.p.p.p.p.d.i.i.d.d.i.i.i.s.i.s.i.s.i.i.s.i.s.i.s.s.i.s.i.s.i.i.s.s.i.s.s.i.s.s.i.e.s.s.i.s.i.s.i.s.i.s.s.i.s.i.p.p.d.d.p.s.i.i.s.s.i.i.d.i.d.d.i.d.i.i.s.i.d.i.d.i.s.i.s.s.s.s.i.s.p.i.d.p.p.d.s.a.s.s.i.i.d.s.i.d.i.i.p.p.d.i.s.s.i.p.w.w.w.~ 6 4 & # & # & # & & & X {.].Y.%X%XNXaXaXW.9.y.s.f.d.l.",
"u.9.9.9.9.9.7.u.9.u.u.9.u.9.9.9.9.u.9.9.u.9.u.7.u.0.7.u.7.0.0.7.0.7.u.7.t.Q Q R R F b > > # : % : X : % & @ & # # = # + r @XOXCXSXqXqX).!.).!.(.).!.~.~.~.).).).~.~.[.~.oX~.oX~.~.[.oX~.~.~.[.~.[.~.~.[.~.~.~.oX[.~.].~.~.~.~.~.~.~.).~.~.!.~.~.~.~.H.oX~.~.[.~.~.].~.~.~.~.~.).).!.(.).!.(.].~.[.~.~.~.~.~.~.~.~.~.!.!.[.~.~.!.!.!.P.W.M.p.u.u.u.p.u.p.u.p.i.i.i.i.s.9.i.9.i.e.i.9.0.i.i.u.i.i.i.9.u.9.9.9.9.i.u.9.u.9.u.i.i.3.3.i.9.u.u.i.i.u.u.i.i.i.i.i.9.9.i.3.i.9.i.i.i.9.3.i.9.i.9.9.3.9.9.s.9.9.9.9.i.i.i.i.3.9.i.i.9.y.y.i.u.u.y.i.i.2.u.) K K K B B Z K B Z Z Z B Z Z h @ # # # O O # @ @ - $ @ O @ X . . O . . O {.{.aXrXlXyXyXyXyXrXrX5X'..X'..X'.*X.X.X.X*X*X.XXX.X.X.XXX.X.X_.).C.i.a.s.i.i.p.f.i.i.a.i.i.i.i.i.i.i.i.p.u.i.i.i.p.u.p.u.p.p.0.p.u.p.p.p.p.p.u.p.0.0.p.0.u.u.p.u.p.i.p.0.u.p.w.i.d.9.0.9.9.p.9.p.p.p.u.0.u.u.p.p.u.u.p.p.u.q.u.p.p.u.p.0.p.p.u.p.0.i.i.i.0.i.9.9.9.9.6.7.O.Q ~ 8 O O @ - - @ X @ : : X : X X & & = O g T.(.Z.d.d.e.p.p.p.p.p.p.p.H.p.p.p.p.p.d.p.p.p.p.p.p.p.p.0.p.p.p.p.p.p.p.p.p.d.i.i.s.d.i.i.s.s.i.s.s.s.i.i.s.i.s.i.s.s.i.i.s.s.i.s.i.s.s.s.i.i.s.i.i.i.y.s.s.s.s.s.s.s.i.s.s.s.i.s.s.s.s.i.d.s.p.s.p.d.i.p.s.d.i.p.s.i.d.i.d.p.s.d.i.p.i.i.d.d.s.i.s.s.s.p.s.f.d.d.d.i.s.s.i.s.i.d.i.i.d.p.s.d.i.d.i.s.i.i.d.d.p.0.0.E , 4 & @ & & @ & @ & : @ Y.{.T.$X%XNXgXgXW.9.9.i.d.f.l.",
"p.9.9.9.9.9.u.u.u.9.9.u.u.9.9.9.9.7.9.9.9.9.9.0.u.7.0.0.u.u.0.u.u.0.7.7.+.J F R R R k > : - % & @ & & & @ & @ # # @ O * 8 `.].CXSX7XqX(.!.!.[.~.(.(.~.~.~.~.).~.~.~.~.~.~.[.H.[.~.~.~.oX~.~.~.~.H.oX~.~.~.~.~.~.!.!.~.!.!.~.~.~.~.~.~.).].~.].~.~.~.].~.~.~.~.~.).~.).).~.~.).~.~.).(.!.).!.~.~.~.~.~.~.~.~.~.~.!.!.~.!.~.~.!.!.!.P.M.l.d.u.u.0.p.u.p.u.p.u.i.i.p.9.i.i.i.i.i.i.9.i.0.u.i.i.i.i.i.i.0.i.9.i.9.u.u.p.u.i.i.9.u.i.i.i.i.u.9.i.u.i.9.u.u.u.9.u.i.9.9.i.3.i.u.3.u.i.i.i.9.9.i.9.i.9.9.3.3.i.y.9.9.9.9.9.9.i.9.9.9.i.y.i.y.i.i.i.3.| | K K B B B B B Z Z B Z Z Z G Z h # # # O # @ @ @ X - $ @ X O X O . . O O *  X+XaXlXrXlXrXrXyXrXyX8X+X'.'..X.X.X.X.X.X.XoXXXoX*XXX.X.XXX.X'..X/.b.j.i.i.a.i.a.i.s.y.a.s.a.y.i.s.a.i.u.i.a.i.p.i.p.p.p.p.p.u.p.p.u.0.u.0.p.p.p.u.p.u.p.p.u.0.p.0.i.0.0.0.0.9.9.9.p.9.i.0.9.p.p.9.0.0.p.p.0.p.0.p.u.0.u.p.p.p.u.0.0.p.u.u.0.p.i.i.0.u.0.i.0.u.9.q.7.>.$.} ) ) 9 O $ @ X @ @ : - X X - @ @ @ @ @ O = g P.L.x.d.d.s.p.0.d.0.p.p.p.p.0.p.p.p.d.0.p.p.p.r.0.p.r.p.p.p.p.p.p.p.p.p.0.p.p.d.i.p.s.i.d.a.i.s.i.s.i.s.s.i.s.i.s.i.s.s.s.s.i.s.i.s.y.s.i.s.s.i.s.s.s.e.e.s.s.y.9.s.i.s.i.s.i.s.s.y.i.p.s.i.d.i.i.d.i.d.i.p.i.p.s.i.d.i.d.i.p.i.d.s.s.i.d.i.i.s.s.i.i.s.i.d.i.i.i.s.s.i.i.s.i.s.i.d.d.i.p.i.d.s.i.d.i.s.i.w.0.d.d.w.~ 6 6 & & @ # : # @ & & O v.V.T.}.}.AXvXgX^.9.s.s.h.f.f.",
"u.9.9.9.3.9.9.u.9.u.u.9.u.u.9.9.7.9.9.9.3.u.9.9.9.9.9.9.i.9.9.9.u.0.7.7.) R K R R R l ; > ; & 1 @ & @ % & @ & # # # # O 2 U.U.CXSXqXqX].~.!.].~.~.~.~.~.!.).~.~.).~.).).).~.).~.~.~.[.~.~.~.~.~.~.~.~.].).~.).!.].!.].!.].~.~.].~.~.~.].(.).(.).!.~.).!.).).~.~.~.~.~.~.[.!.~.[.!.~.].~.!.).(.~.).~.~.!.~.!.~.!.~.!.~.!.!.!.!.K.K.M.i.p.9.u.i.i.u.p.u.p.i.i.i.i.i.i.p.9.i.i.i.9.0.u.9.i.i.p.i.i.i.9.i.9.9.9.9.i.u.i.i.u.i.i.i.i.i.i.9.u.i.9.u.i.9.u.u.i.u.u.9.9.i.3.i.i.i.u.i.9.i.9.9.i.i.9.9.i.9.i.y.9.3.i.9.9.9.i.i.9.i.3.9.i.i.i.i.y.-.y.| H Z B Z Z B B Z B Z Z Z Z B Z S S h # # # # $ # @ @ @ @ - @ O X X $ . . . O * @XOXsXrXlXgXrXyXrXyXrX0X.XoX'..X.X'.'.'..X*XXXoX*X.X*XoX.X.XoXoXoX'.W.!.f.i.i.i.a.p.i.i.a.i.i.y.s.y.i.s.i.i.a.i.i.i.a.i.i.i.p.d.i.i.p.0.i.i.i.p.p.9.p.p.i.0.p.u.p.p.i.p.0.p.d.9.w.9.0.0.9.0.i.u.i.0.u.0.u.p.p.u.0.p.0.u.0.u.p.u.p.i.p.u.0.p.0.u.u.p.0.u.0.0.9.u.9.9.6.| | ^ ) ) y @ O - 1 @ @ 1 - X - @ & X @ @ @ @ O d h.z.h.w.d.e.i.s.s.s.s.d.0.p.p.p.p.p.p.p.p.p.p.p.0.p.p.r.p.p.u.p.p.p.p.t.p.p.p.d.i.p.p.p.p.i.p.i.s.i.s.s.i.s.s.i.s.i.a.s.s.i.s.s.s.i.i.s.i.i.i.s.i.s.s.e.s.e.s.i.s.s.s.i.s.s.s.s.i.s.i.i.d.i.d.i.s.s.p.i.s.p.s.p.s.p.p.i.d.i.s.d.i.i.d.i.d.s.s.s.i.s.s.i.d.i.d.s.i.d.s.i.i.s.s.s.i.s.d.i.d.d.9.d.s.p.i.i.d.0.i.d.w.w./ 9 8 * & & @ & & @ & @ X #._ +X`.(.AXgXvX).i.i.i.f.f.l.",
"i.u.9.9.9.9.9.9.u.u.9.u.9.9.3.9.u.9.9.9.9.9.9.9.9.9.9.9.0.9.9.9.u.7.7.t.{ F F R R R b w : - & @ % @ & & O & @ @ # & + + 2 P.U.ZXSX7X7X[.~.~.!.~.].~.~.(.~.~.~.~.~.).).).~.).~.[.~.[.~.~.~.~.~.~.~.~.~.~.~.~.~.~.~.~.~.).~.~.~.~.~.).~.~.Q.).!.(.!.).~.).).!.~.~.~.[.~.~.~.~.~.~.~.~.!.!.(.(.!.).~.~.~.[.~.~.~.).~.!.~.!.].!.!.K.K.l.p.p.u.u.i.u.i.i.p.u.i.i.i.i.i.i.i.9.p.9.i.s.i.u.i.9.i.i.i.i.u.i.9.i.i.i.9.u.i.9.u.i.u.9.y.y.y.i.i.u.u.i.i.u.u.i.y.i.i.9.9.i.9.9.i.3.9.i.u.u.9.i.9.9.9.9.i.3.3.9.9.9.9.9.9.9.9.9.9.9.9.i.9.u.9.y.i.9.2.2.| K K B B B Z B B B Z Z B B K L S G l # # # # # O @ @ - - $ @ $ @ $ o X O . . * OXOXaXlXrXyXyXrXyXwXrX0X*X'.'.'..X.X*X.X.X.X.X*X.XXX.XXX.X.XoX.X'.oX!.W.j.i.i.a.i.p.a.i.i.i.i.s.i.a.i.i.a.i.y.i.s.i.i.i.i.s.i.i.p.i.i.p.i.p.p.i.p.u.0.u.i.i.0.u.0.u.9.0.9.9.9.0.i.9.i.9.p.i.0.0.p.i.p.p.u.0.u.0.p.u.0.p.i.p.i.0.i.0.u.0.p.u.0.p.p.0.0.u.7.u.9.u.0.9.1.....! ) ) y $ @ @ @ @ @ @ @ : 1 @ @ - @ % & O = d z.h.h.d.s.d.s.s.i.e.s.s.p.p.p.p.a.p.p.p.p.p.p.p.p.0.p.p.0.p.p.p.p.p.p.H.p.p.p.i.p.s.p.p.p.p.s.s.i.s.i.s.s.i.i.s.i.s.i.s.i.s.y.s.i.s.s.i.s.s.s.i.s.s.i.s.y.s.s.s.i.i.i.s.i.i.s.i.s.i.s.s.i.d.i.d.p.p.i.d.i.d.i.p.i.d.i.d.p.s.i.d.i.d.i.d.9.d.i.i.s.i.i.s.i.p.9.i.d.i.i.s.s.i.i.s.i.p.i.d.i.s.d.i.i.d.s.s.i.d.w.d.w.w._ 8 8 & # @ & # # & @ : O _ _  X`.].GXjXvX_.9.i.p.f.d.f.",
"u.9.u.9.u.9.9.u.9.u.9.u.u.9.9.9.9.9.u.9.9.9.u.9.u.9.9.9.9.0.7.9.7.7.-.t.R F K R R F b ; > # X - @ @ % & & @ @ = O & & + * B.B.CXSX7XqX~.~.).~.~.~.).~.~.~.~.).).[.).).).~.~.~.~.~.~.~.~.[.~.~.~.~.~.~.~.~.~.~.~.~.!.~.!.~.~.~.~.~.~.~.~.).Q.~.~.).~.).~.~.).).~.~.~.~.~.~.!.~.~.~.~.~.~.~.~.Q.[.(.).~.!.!.~.!.!.!.~.!.!.P.W.n.f.f.p.u.u.9.i.9.p.i.9.i.i.u.i.9.i.i.i.i.i.i.p.9.i.i.0.0.i.i.i.i.9.i.9.9.9.9.9.9.i.u.i.9.u.i.9.i.9.i.9.9.i.9.u.u.i.9.i.9.9.i.9.i.i.9.i.i.9.i.i.3.i.3.i.u.i.9.i.9.i.i.9.9.u.i.9.i.9.9.i.i.y.i.y.i.i.y.3.4.<.{ { H B B B B B B B B B B B B B M B G S l # # # ; # @ - - X @ - @ X O   X X . . . t %X%XaXrXrXrXlXyXrXyXrX0X@X.X'..X'.@X.X.X.X.XXX.XXXoX*X*XoX.X.XoX.X.X}.'.!.m.b.a.u.p.i.i.i.i.y.a.s.i.y.s.y.s.i.s.s.y.i.a.i.y.y.i.i.i.p.i.u.p.i.i.0.0.0.p.i.i.u.p.0.u.p.9.i.0.9.p.9.p.0.i.0.0.i.i.i.i.0.p.p.p.0.p.u.0.u.0.u.u.0.p.p.u.p.p.u.0.p.p.u.p.u.0.i.0.9.0.2.2.+.) ^ ^ Q ) l # @ @ @ - 1 @ - X - : X X @ @ @ O = r O. .d.d.h.d.w.d.s.d.d.p.p.p.i.p.p.p.p.p.p.p.p.p.p.p.p.p.p.p.p.p.p.p.p.p.p.p.p.p.p.p.i.p.a.a.i.i.p.a.p.i.i.p.i.p.i.s.i.a.i.a.i.s.s.i.s.s.s.s.s.e.s.9.s.s.e.i.s.9.i.s.s.s.i.s.i.s.s.d.i.d.s.p.p.i.d.s.d.p.p.i.d.s.p.i.d.i.s.p.d.i.s.i.s.i.d.i.d.i.i.d.s.s.p.s.d.i.i.d.d.i.i.s.s.i.d.i.i.i.d.i.i.i.d.i.d.i.s.9.9.d.w.s...r r # O & @ & & @ & @ O d d {. X+XMXgXvX[.i.9.p.d.f.l.",
"9.u.u.9.u.u.u.9.9.u.u.9.u.9.u.9.7.9.9.u.u.9.u.9.9.9.7.u.u.9.u.7.7.u.;.;.R K R R G R k ; : & : % % @ & O X & @ & & O O O & z.k.MXSX8X7X~.).~.~.).~.).~.~.~.).~.).~.~.).).[.~.[.~.~.~.~.~.~.~.~.~.~.~.~.~.).~.~.~.~.].~.].!.!.~.~.~.~.~.~.Q.~.~.~.Q.~.~.~.~.~.~.~.~.~.~.~.~.[.~.~.~.~.~.~.Q.~.~.!.(.!.(.).(.!.!.!.!.!.!.K.x.l.p.p.i.i.0.i.9.p.9.i.i.i.i.e.0.i.i.9.9.i.9.p.9.9.i.i.i.i.u.i.9.i.p.9.i.9.i.9.3.i.9.i.u.9.i.u.i.9.9.i.9.i.9.u.i.u.i.9.i.9.9.i.9.9.i.y.u.y.i.u.9.9.i.9.i.9.i.u.u.y.i.9.9.i.9.i.9.9.9.9.9.9.i.3.i.i.y.i.1. .{ Y V V N B B B B B B B B B Z B Z C Z B K G h # # $ $ # # - @ @ - $ @ X @ X . O . O . r <X1XzXrXlXlXeXrXrXrXrX0X@X*X_..X.X'.'..X'.*XoX*X.X*XXXoX.XXX.X.X.X'.oX'.'._._.m.p.p.i.a.i.s.i.i.i.i.a.i.i.i.i.i.i.a.s.i.i.i.i.i.i.i.u.i.i.9.u.p.u.p.i.i.i.0.0.p.p.p.p.p.9.i.p.9.i.0.0.0.i.0.0.i.i.0.u.u.u.0.p.u.p.p.p.p.p.0.u.u.p.0.0.u.p.p.u.0.0.u.0.i.0.u.u.2.+...^ ^ ! Q ) ) y # @ @ @ - X & @ X @ X & @ @ % & O = t S I ..w.9.d.s.p.i.d.i.d.p.p.f.i.d.p.p.p.p.p.p.p.p.p.p.p.p.p.p.p.p.0.p.p.p.p.p.p.p.p.p.a.u.i.p.p.p.i.a.d.i.a.i.f.i.a.s.i.s.i.a.i.s.s.i.s.9.i.s.y.s.s.i.e.s.s.s.s.s.i.s.i.s.i.s.i.p.i.d.i.d.i.p.s.i.i.i.s.i.d.9.d.i.d.i.d.i.p.i.p.p.d.d.i.i.d.p.s.d.i.p.p.s.i.i.d.p.s.i.d.d.i.p.d.i.d.d.s.i.d.s.p.i.d.i.p.e.d.d.9.d.w.#.a a # & @ & # @ & # & & * * U T.T.nXnXgX_.i.i.p.f.d.l.",
"u.u.9.u.u.9.u.u.u.u.9.u.u.9.9.9.u.9.9.u.u.9.u.u.u.9.9.9.9.9.7.7.7.7.;.*.R F G R R F k ; > # X & @ & @ X & O & O O = @ O # z.k.MXCXiX7X(.~.~.).~.).!.~.~.~.).~.).~.~.~.~.~.~.[.~.~.~.~.~.~.~.~.~.~.~.).~.~.).~.].~.~.~.].~.~.~.).).~.~.~.~.~.~.~.~.].~.~.).~.].~.~.].~.~.).~.~.~.~.~.~.~.~.~.~.~.).(.(.).!.!.(.!.!.!.!.K.x.x.a.i.p.9.i.9.p.9.i.p.p.9.i.i.s.9.i.u.i.i.u.p.p.i.p.9.i.i.i.i.i.0.i.i.9.9.9.9.9.9.i.u.i.9.u.i.i.3.9.9.9.i.i.i.9.u.i.u.i.3.9.i.9.9.u.i.i.u.i.i.9.9.i.9.i.9.i.u.9.i.i.i.9.9.9.i.9.i.9.9.i.9.i.3.y.y.y.y.4.|  .U B V B B B B B L B B B B B Z B B B B S S h # # $ # ; # $ - @ $ - $ @ X X % . . . = t 2X<XlXrXrXrXrXrXrXrXrX9X@X@X).'.'.*X*X'.*X.X.X.XoXXX*X.XoXXX.XoX.XoX_.oX_.)._.m.i.a.i.i.i.i.s.i.y.s.i.i.i.a.y.s.i.i.i.i.s.y.i.y.s.i.i.u.i.p.i.i.u.0.i.p.p.u.0.p.0.u.9.0.u.p.p.i.9.0.i.u.0.p.0.u.i.i.p.0.u.p.0.u.0.u.0.p.p.u.p.p.p.0.p.0.u.u.i.i.p.i.u.0.u.0.u.6.+...! ^ Q ^ ) ! y $ @ $ ; - - @ X : X : & @ % X & O = t I S O.s.i.d.p.p.i.p.d.s.p.d.p.p.d.d.d.i.i.d.0.p.p.p.p.p.p.p.p.p.p.p.p.p.p.p.p.p.p.p.p.p.i.a.a.p.p.a.i.f.i.i.d.i.a.i.i.a.y.s.i.s.s.i.s.i.s.s.s.s.9.s.e.s.s.i.e.i.s.i.s.i.s.s.d.i.p.s.i.i.d.i.d.i.i.d.d.i.i.d.s.p.d.i.s.d.i.d.9.d.s.i.i.d.d.i.i.d.i.d.i.d.9.d.s.d.i.d.s.p.i.d.i.d.d.i.d.i.d.i.d.i.d.i.d.i.s.p.e.p.d.d.#.a a * * O & & # & # @ # * # U T.T.MXgXnX'.u.u.d.f.f.f.",
"u.9.9.u.u.9.9.u.9.u.9.u.9.9.9.3.9.9.9.u.9.u.9.u.9.9.9.9.9.9.9.u.u.7.*.| K K F J R G l ; ; - : @ @ X @ & @ @ O & & O O & @ w.w.nXCX-X-X~.).).~.~.!.).~.).~.~.).~.~.oX~.~.~.~.~.~.~.[.~.[.~.~.~.~.~.~.~.~.~.~.).~.!.~.~.~.!.~.~.~.~.).~.~.~.~.~.~.~.~.~.~.~.).~.~.~.~.~.~.~.~.~.~.~.~.~.~.~.~.~.!.!.!.!.!.!.!.!.!.P.n.n.a.i.p.u.i.i.i.p.9.p.i.p.i.9.p.p.9.9.i.9.0.i.i.0.9.i.9.p.i.i.0.0.i.i.i.i.0.9.i.9.i.i.9.3.i.u.i.i.u.i.9.i.9.9.3.9.u.u.i.u.i.i.i.9.9.9.i.i.u.u.9.9.u.i.i.3.9.u.i.u.i.i.u.3.i.9.i.9.9.9.9.i.i.i.s.i.i.y.;.:.Y V m B B B m m B B B B B B B B B Z M B Z S V G G l # + # # # - - - $ - - @ @ O X . . . = . g 1X<XaXaXaXrXrXrXyXrXrX0X*X*X_.'..X'.'..X.X.X.X*X*XXXXXXX*X.X.X.X.X.X.XoX_.Z.A.f.p.p.s.a.a.i.i.i.a.i.s.i.i.i.i.i.s.i.s.i.i.i.i.i.y.i.i.i.p.u.i.i.p.p.u.0.0.p.p.u.p.u.i.i.i.i.9.i.p.9.0.0.0.9.0.p.i.i.p.u.0.p.p.p.p.p.p.u.0.p.0.u.p.u.i.0.p.0.0.7.0.9.7.0.0.7.7.+.{ ! ) ^ ! ^ ! ) l @ $ @ - # X - - X - @ X X @ @ & O O i S I F { | a.f.f.p.p.i.d.d.i.f.i.i.i.i.p.s.i.p.p.p.p.0.p.u.p.p.p.t.H.p.p.p.p.p.p.p.p.p.p.p.a.i.p.i.p.p.i.a.p.i.a.p.i.s.i.s.a.s.i.s.i.i.s.i.e.e.s.s.e.y.s.s.e.i.s.s.s.i.s.i.s.i.d.i.i.s.p.i.d.i.d.d.i.i.p.s.i.p.s.i.d.p.i.d.9.d.i.i.d.p.s.i.d.d.i.s.i.d.i.d.i.p.i.d.i.i.d.d.i.d.i.i.d.p.s.i.p.i.d.i.p.i.d.d.i.d.9.w.w.&.g g # & * O & & @ & & O # + 2 #.#.eXaXaX`.i.p.p.d.f.l.",
"9.u.u.9.9.u.u.9.9.u.u.9.u.9.9.9.u.9.9.9.u.u.9.9.u.9.u.9.9.9.9.0.7.2.! { F K J R G G l ; ; @ @ & X & X & @ @ @ & = & O & @ 8.8.CXfXoX[.].).~.~.~.).~.~.~.~.[.).).~.~.~.oX~.~.[.~.~.~.).~.).~.~.~.~.~.~.).).~.~.!.].~.~.!.].~.~.~.).!.).~.!.~.~.~.~.~.~.).~.).~.~.~.~.~.~.).~.].~.~.~.).~.~.~.~.~.!.(.!.!.!.!.A.J.l.i.u.i.i.u.i.p.9.p.i.p.p.i.u.p.i.i.i.s.9.s.0.i.9.i.i.i.i.p.9.i.i.i.i.i.i.i.0.u.9.9.9.i.9.9.9.i.9.u.9.u.i.9.9.i.i.i.9.i.i.i.u.u.9.9.i.9.i.9.u.9.u.i.i.u.9.9.9.i.9.i.u.u.u.u.9.9.9.9.s.i.9.i.4.X.o.Y H H V B m B B m B B B B B B B B B B B B B B Z B B N Z V A G l # # # ; + # - - - $ $ $ X O X . % . . . I cX<XzXyXrXlXlXrXrXyXrXwX.X@XW._.'.'..X'.*X.X*X.X.XXX*XoX*XXX.X*X.X*XW.W.f.a.p.a.i.a.i.i.a.i.y.i.i.i.y.i.a.i.i.a.i.i.i.i.i.i.i.s.i.i.i.i.u.p.i.i.p.u.p.p.u.u.0.0.u.0.u.p.0.u.9.p.i.0.0.9.0.i.u.i.0.i.p.p.0.u.0.0.u.u.u.p.u.0.p.u.0.u.u.p.i.i.u.0.9.9.0.7.t.| | { ) ! Q ^ ^ ! ! ! y $ $ @ @ @ @ @ - X @ X @ & X & O = O t V P P K J ! 7.7.a.a.a.a.a.p.a.p.i.p.d.i.i.d.i.p.p.p.p.p.p.p.p.p.0.p.p.p.p.p.p.p.d.i.p.p.p.u.i.f.p.i.p.i.p.i.s.i.s.i.i.a.i.i.a.s.i.s.s.s.s.s.s.9.s.i.e.s.s.i.s.s.i.s.s.i.i.d.s.p.i.d.i.p.s.p.i.s.i.i.d.i.i.d.p.i.d.i.i.d.s.p.i.d.i.d.s.p.p.i.d.i.p.s.i.d.s.i.d.i.i.s.d.i.p.s.i.s.p.i.i.d.i.s.s.p.i.s.i.d.9.d.i.d.0.w.1.z z # O O & # # & @ @ # + # * N A +X9X0XP.i.i.d.f.f.l.",
"u.9.u.u.u.u.9.u.u.9.u.u.u.9.9.9.9.9.y.u.u.9.u.u.9.9.7.9.9.u.7.7.7.7.! ! F R G R G F a ; # ; : @ @ @ % O & O & O @ O # O # 8.8.nXiX[.oX).~.~.~.(.~.).~.~.~.~.Q.).~.oX~.~.~.oX~.~.~.[.~.).~.~.~.~.~.~.~.~.~.~.~.!.!.~.!.].~.~.~.~.~.).~.~.!.~.~.~.~.~.~.~.~.~.~.~.).~.~.~.).~.~.(.~.~.~.~.!.!.~.~.!.!.(.!.!.!.A.K.a.i.i.i.i.i.u.i.9.i.i.p.i.p.i.0.s.i.i.9.i.9.u.9.s.i.i.i.0.u.9.p.i.i.0.i.u.0.i.u.9.i.9.9.i.9.9.u.i.i.u.i.9.i.9.9.9.9.i.u.9.u.i.9.i.9.9.9.9.9.u.i.i.u.9.i.i.9.9.9.i.9.i.9.9.i.i.i.i.s.i.i.u.u.2.;.X.^ K H V m B B B B B m B B B B B B B B B B Z B B B B C Z C S S h ; # # + ; ; $ @ X - - @ @ X $ . . . = . v eXeXeXrXlXrXrXrXyXrXrXwX@X.XW._.).'.'..X'..X.X*X*X*XXX*XoX*XXX.X.X.XW.!.j.p.a.i.p.p.a.i.i.i.a.s.y.s.s.i.y.s.s.y.y.s.a.y.s.y.i.y.i.i.i.u.p.i.u.i.0.p.0.u.0.p.u.p.p.p.0.9.i.p.i.p.9.9.p.p.0.9.0.p.u.i.0.u.u.p.u.p.p.0.u.0.p.u.0.0.p.p.p.i.0.i.7.0.9.u.7.u.2.| | ) ) ) ^ ^ ! ^ ) ) y # $ @ @ - 1 @ @ @ @ : X & @ X & O = y U S P Y J ! 7.y.f.a.p.p.a.a.p.p.a.s.i.d.p.p.d.p.p.p.p.p.p.p.p.p.p.p.p.p.p.p.p.p.i.d.p.p.i.p.i.i.a.i.p.a.p.p.i.a.i.s.a.y.a.i.y.s.s.i.s.y.i.s.s.s.s.e.i.s.e.s.e.9.s.i.s.i.s.i.s.p.d.i.d.s.i.d.d.i.d.d.p.s.d.i.i.d.i.p.s.i.d.i.p.p.s.i.d.i.p.s.i.d.i.p.p.s.p.d.i.d.i.p.i.d.i.p.d.i.s.p.d.i.d.i.d.i.d.i.d.i.p.e.p.e.d.w.6.z k # + & & * & @ & # # # # # A N OXqXqXP.s.9.p.f.d.f.",
"u.9.9.9.9.9.9.y.9.u.u.9.u.u.u.9.u.9.y.9.9.9.9.9.9.7.3.u.9.9.9.9.9.1.U Q F F J F G D a # & @ @ & & X O % @ & @ @ @ # O O @ >.>.xXwX~.[.!.~.~.).~.).).!.~.^.).).).~.~.~.~.[.~.~.).).~.).).~.[.~.~.).~.~.~.~.~.~.~.~.~.~.~.~.~.~.~.~.~.H.[.H.].~.~.~.~.~.~.~.~.[.~.).~.).~.].!.~.!.).~.~.).).~.~.!.(.!.!.W.W.M.u.i.u.u.i.0.i.i.u.i.p.i.p.9.p.i.p.p.i.p.i.u.i.0.i.i.9.i.i.i.u.p.0.i.i.i.i.i.u.p.u.0.i.i.i.9.9.9.9.9.9.9.9.9.i.9.9.9.i.9.9.i.u.i.u.9.i.y.i.u.9.i.u.9.u.i.9.u.9.9.9.i.u.9.9.u.i.i.i.i.3.X.X.Y S V B m m m m m B m m N m B B m B B B B L B B B L L B Z B B Z Z Z C G G y ; w + # # # # @ - X @ @ X X X O X X O . T pXpXaXaXeXyXrXrXyXrXwXrX'.'.C./.^.'.'.@X.X*XXXXX@X*X*X*X*XXX.X'.oXb.p.a.u.i.a.p.a.i.i.i.y.a.i.i.i.s.y.a.i.y.i.a.i.i.s.i.i.i.i.i.i.i.p.9.i.u.p.9.9.u.u.0.i.0.i.p.p.9.p.p.0.i.i.p.i.9.i.i.0.i.i.0.0.p.0.i.u.0.i.i.0.i.p.0.p.0.u.p.0.0.0.u.0.9.q.7.9.6.;.-.| ! ! { ! ! ^ ! ^ ! Q ! d $ $ @ # - @ $ @ 1 1 1 - 1 - @ @ @ @ g P U Q Y Y H J Y ;.y.y.j.y.j.y.a.a.s.i.d.i.s.i.d.p.p.p.p.p.p.p.p.p.p.p.p.p.p.p.p.a.p.i.p.i.p.p.i.p.i.a.a.p.i.i.p.i.s.i.s.s.s.s.s.i.s.s.i.s.s.y.s.s.y.s.s.e.s.e.y.s.s.i.s.i.s.p.i.d.i.d.i.d.i.s.d.i.d.i.s.p.p.d.i.d.i.i.s.p.i.d.i.s.d.d.9.d.i.d.i.d.i.d.d.i.d.d.i.d.p.i.s.i.s.i.s.d.i.d.i.p.s.i.d.d.i.s.d.i.d.d.i.d.9.7.A D > * # # & & & & & & # # # d y L.}.oXb.i.i.d.d.d.l.",
"u.9.9.u.9.u.9.9.u.9.9.u.u.9.u.9.u.u.9.9.9.u.3.9.9.u.3.9.9.9.9.9.9.$.F K F F G R G C 8 & # @ & & & O & X & O & @ @ & @ # O ~ ~ sX>X!.!.!.~.~.~.).!.~.).~.!.).^.).~.[.~.[.~.~.).).!.].).).~.~.~.~.~.~.~.~.~.~.~.~.~.~.~.[.~.~.[.~.~.~.oX~.oX~.~.~.~.~.~.~.~.~.~.~.~.).!.~.~.~.~.].(.~.~.~.~.~.~.Q.!.!.K.a.a.9.7.6.0.i.i.i.i.i.0.p.i.p.i.p.i.i.i.p.p.i.p.i.i.i.i.i.i.i.i.i.p.i.u.i.0.i.i.0.p.p.u.p.i.u.i.3.9.i.9.i.i.9.i.9.i.9.i.9.9.9.i.u.9.u.i.i.u.i.u.i.i.u.u.i.i.i.u.i.u.9.u.9.9.3.9.2.1.+.Y Y B N B N m B N B N V V V N V N B V m B B B N B B B B B B Z B Z M B B L Z Z C A G f ; ; # # # @ @ @ @ - 1 X X O O X O O O = ' pXpXzXrXzXrXrXyXrXrXrX0X_._.f.b.C.^.'.'.'..X.X.X.X.XoXoX/.).A.a.f.i.i.p.i.p.p.i.i.i.i.s.i.i.i.s.y.a.s.i.i.i.y.y.i.s.y.i.i.i.i.i.i.i.i.9.p.9.u.p.p.i.i.i.i.i.0.u.0.p.i.9.i.i.p.9.i.i.i.i.u.i.i.i.u.p.i.i.i.i.0.i.i.i.p.u.p.0.0.u.0.0.9.9.9.9.9.6.7.$.) ! ) ! ! ) ! ) ! ^ Q ^ ! ^ d O $ @ @ @ - - 1 - 1 @ 1 @ X : @ @ @ j U I U Y U Y J Y K | Y ;.a.y.a.y.s.s.d.i.s.p.i.p.p.p.p.a.p.p.p.p.p.p.p.p.p.p.a.i.p.i.p.a.p.a.i.f.p.i.p.i.p.p.a.p.a.p.s.i.i.s.y.i.s.s.s.s.i.s.y.s.s.e.y.s.e.s.s.s.s.i.s.i.s.s.i.d.i.d.i.p.i.d.p.i.d.i.d.i.p.s.9.d.d.s.d.i.i.d.i.d.i.i.s.i.i.d.p.s.s.i.i.i.s.i.i.p.i.s.i.s.s.i.s.s.i.d.i.d.i.i.d.i.i.d.p.i.d.i.i.0.0.d.q.P F 4 # * # & & * & : & & # & 8 7 8.b.b.s.s.p.d.f.f.f.",
"u.i.9.3.9.9.9.u.u.u.u.u.u.9.u.u.9.u.9.9.9.9.9.9.7.9.3.9.3.9.9.9.9.$.J F Z K F F C C 0 * # # & X X = @ @ & O O & @ @ # O # ~ ~ xX>X!.W.(.~.~.~.~.~.~.!.!.~.).~.~.[.~.~.~.~.~.).~.].).!.].~.~.~.[.~.~.~.~.~.~.].~.~.~.].~.~.~.~.~.~.~.~.~.[.~.~.~.~.].~.~.~.[.~.~.~.~.~.~.].~.~.!.~.~.~.~.).~.~.Q.!.!.A.f.f.u.7.7.u.u.i.i.0.i.i.u.9.p.p.i.i.p.p.p.p.p.p.u.i.0.0.i.p.u.i.i.i.u.i.0.i.i.i.i.i.u.i.u.9.9.i.i.i.9.9.i.i.9.9.9.9.i.9.9.9.9.9.i.i.u.i.u.9.u.i.u.u.i.i.u.i.u.u.u.9.9.9.9.9.3.9.2.1.@.Y Y S m N m B m N N m N V m N V N V B m B B B m B B Z B B B B Z B M M Z Z C B Z G G l ; w # # # @ @ @ @ X @ X @ X X O X O . % ] eXeXaXaXaXrXrXyXrXyXyXrX_._.f.C.C.^.'.'.'.*X.XXX'.*X.XoX~.~.C.f.i.i.a.i.i.p.i.p.i.a.a.i.s.i.a.y.i.y.i.i.y.s.s.i.i.i.s.a.y.i.u.i.u.i.i.p.u.p.0.i.9.9.i.i.i.i.i.i.i.i.i.i.i.0.0.p.i.0.i.0.0.i.i.i.i.u.p.i.i.i.i.i.u.i.p.p.0.u.u.0.0.7.9.0.9.9.0.6.7.*.^ ) ! { ! ! ! ! ^ ^ ! ^ ! ) n # $ @ @ - @ @ @ X 1 @ - X 1 @ @ @ & g P U U Y Y Y K Y Y { { y.a.y.y.a.a.a.i.p.d.i.d.p.p.p.p.p.p.p.i.p.d.p.p.p.p.p.i.p.f.i.p.a.p.i.i.p.i.a.i.f.a.i.p.p.i.i.i.s.s.i.s.s.s.y.i.s.s.y.s.s.s.s.y.i.s.i.s.i.i.s.s.i.s.i.i.d.s.p.i.s.i.d.d.i.i.s.i.d.d.i.d.i.i.s.i.d.9.d.s.i.d.i.i.d.d.i.i.d.i.d.i.d.d.i.s.p.i.d.s.i.s.s.i.s.d.9.s.p.i.d.i.s.p.i.d.i.i.s.p.s.d.0.0.P P 4 & * # & * # & & & # # * 8 7 8.b.b.s.i.d.i.d.d.f.",
"9.9.9.9.9.9.9.u.9.u.9.9.9.u.u.9.9.u.u.9.u.7.9.9.u.9.u.9.9.9.9.3.7...S S F F F F C c , # & @ @ & & X X & & @ @ @ @ @ = & O s r 1X-X!.!.(.[.~.).~.).).~.~.~.~.~.~.~.~.[.~.[.~.).~.~.).).~.~.~.~.~.).~.~.].~.~.~.~.~.~.~.~.~.~.~.~.~.~.~.~.~.~.~.[.~.~.~.~.~.~.~.~.~.~.~.].!.~.~.~.~.).~.).!.!.~.m.l.l.7.-.-.-.7.u.u.i.i.i.i.p.p.0.i.i.p.9.0.i.i.u.u.i.i.i.i.i.i.i.0.i.i.i.i.i.i.i.i.i.0.i.i.p.u.0.u.i.9.9.9.9.i.3.9.9.i.9.9.9.9.i.9.i.9.i.u.i.u.i.i.i.9.i.p.u.9.9.9.u.9.u.9.=.=.X.{ { J Z Z B B M N N B m N N N m V z V V V m N N m V B N B B B N B B L Z B L Z Z Z Z L Z G C G G n w # # w $ # # @ @ @ @ X . @ X X O X O . >.pXcXzXaXaXyXyXrXrXrXrX0X^.^.s.y.y.s.a.s.a.a.a.a.a.a.a.u.i.i.i.i.i.i.i.i.p.i.i.a.i.p.i.i.i.i.i.s.i.s.i.s.i.i.i.s.i.i.i.i.s.i.i.u.a.i.i.i.0.9.i.p.i.p.0.i.i.0.i.i.i.0.i.0.i.p.i.i.i.i.i.i.i.i.i.0.p.0.i.0.i.0.i.i.0.i.0.u.u.p.i.i.0.i.0.9.9.9.6.-.;.) ! ! ! ! ! { ! ! ! ^ ^ ! ) ) f $ @ @ @ - @ - X - - 1 - 1 @ @ @ # & z U P U Y Y J Y Y K K Y Y ;.o.y.s.a.y.d.p.s.p.i.p.k.a.a.p.a.p.d.0.p.p.p.p.p.p.i.p.i.p.p.i.p.i.p.a.p.p.p.i.p.p.i.i.f.d.s.i.i.s.s.i.s.i.s.i.i.s.s.y.y.s.s.s.e.s.e.i.s.s.i.s.i.s.s.i.d.i.d.i.d.i.i.p.s.p.p.s.i.d.i.d.i.p.d.i.d.i.d.d.i.d.d.i.i.d.d.i.d.9.d.i.i.d.i.d.s.i.i.s.i.s.s.i.i.p.s.p.d.i.s.p.i.d.i.d.i.p.p.p.p.p.d.Q ~ 0 # * # : & : & & & * & # 6 2 / z.z.d.d.i.d.f.f.f.",
"3.9.u.9.3.9.7.u.u.9.u.u.u.u.9.u.u.u.9.9.9.9.9.u.9.9.y.9.9.9.3.9.9.^ Z Z F Z G F j j > @ @ # & @ & X X @ X @ @ @ & O & O O # * z.=X(.^.(.~.).).~.~.~.).~.).~.~.).~.~.~.~.[.~.~.[.~.).[.~.~.~.~.~.~.[.~.~.~.~.~.~.~.~.).~.~.~.~.~.~.~.~.~.~.~.~.~.~.~.~.~.~.~.[.~.~.~.~.~.!.).~.~.].~.!.!.H.M.M.u.u.-.;.u.y.-.u.u.u.p.i.p.u.p.p.u.i.9.0.i.i.i.i.i.u.p.p.0.u.i.i.i.i.u.p.u.p.u.i.i.0.u.u.p.i.u.u.p.u.i.u.i.i.9.i.9.i.9.u.u.u.0.i.u.i.9.u.i.u.u.u.9.u.7.u.7.1.2.;.X.:.{ K K K M B M M m N N M B B M B N V m N m N N V z V z I N N N V V B m V m V V N V N Z Z Z L Z C C Z C C C G L y ; ; ; # # # O @ @ - @ X X @ X X X = . . e.eXcXzXaXaXrXrXtXrXrXrX&XC.C.y.y.s.s.i.s.y.i.i.i.s.i.s.y.i.i.i.i.i.i.p.i.p.i.i.a.i.p.s.i.a.i.i.i.a.i.i.a.s.i.i.i.i.i.i.a.i.i.i.i.i.p.i.0.u.p.p.9.i.u.i.p.0.9.i.i.i.p.p.u.p.u.i.i.p.0.i.i.i.i.0.i.0.p.i.u.i.p.i.i.0.i.0.u.0.p.0.i.0.0.u.0.7.9.;.{ ) ! ! ! ! { Y { Y { Q ) ! ^ ! ) f O @ @ @ $ : @ @ 1 X - 1 @ - X @ & & z U P Q T Y Y Y Y K Y Y K Y Y o.y.2.y.i.i.i.d.0.H.p.a.a.u.p.p.i.a.p.p.p.i.p.a.a.a.p.i.a.p.i.a.i.p.a.p.i.i.p.p.i.a.p.p.s.a.i.s.s.i.s.i.s.s.i.s.i.s.y.s.s.s.s.i.s.i.s.i.s.i.i.i.p.p.p.p.p.i.s.p.d.i.p.p.p.i.i.p.p.i.p.p.p.i.s.p.i.i.i.s.p.i.i.s.i.d.i.d.i.i.d.i.i.s.p.d.s.i.s.s.i.i.s.i.d.i.s.d.d.s.i.d.d.s.i.d.p.p.p.p.p.[ } 9 * * # * * : & & : # ; # * * z q.0.h.d.p.p.f.f.f.",
"u.u.9.9.9.9.9.u.9.u.u.9.9.9.u.u.9.u.7.9.9.9.9.3.3.3.9.9.9.9.9.3.7.^ Z Z K F F F k k ; ; # # @ & O @ & @ @ = @ & @ @ O & # # * z.=X!.!.).).!.~.~.).~.~.~.~.).~.~.~.[.~.~.~.~.~.[.).).~.~.~.~.~.~.~.~.~.~.[.~.~.~.~.~.~.~.~.~.~.~.~.~.~.~.~.~.~.~.~.~.~.~.~.~.~.~.~.~.~.~.(.~.).~.~.~.!.!.H.M.M.u.;.y.-.-.-.u.u.u.i.p.p.i.p.i.p.i.i.p.p.u.i.i.i.i.p.u.u.i.0.p.0.i.i.i.u.p.u.p.i.i.i.i.0.p.i.p.p.u.i.9.i.u.9.i.9.u.9.p.0.i.9.i.9.9.9.i.9.u.i.i.u.u.7.y.7.7.1.-.;.X.:.{ K K V B B M m N m B B M N B m N N N B B N N m I z V z N N N V m m V V C N C N N Z N L B Z B C C L Z C G G G n w + w # # $ # @ @ - $ O X X O O . . = . e.pXeXpXaXaXeXyXrXrXrXrX&XC.b.e.y.y.y.y.y.i.y.i.y.y.s.i.a.i.i.i.a.i.i.i.p.i.a.i.i.p.i.i.i.i.i.i.i.i.i.i.y.s.y.i.i.i.s.u.i.i.i.i.i.i.i.i.i.p.9.9.i.0.0.0.u.p.u.0.i.0.i.0.0.p.0.0.i.i.u.i.0.0.i.u.p.u.i.p.0.u.0.i.0.i.i.i.0.i.u.i.0.u.7.0.u.7.q.$.) { ! ! ! ! ! { ! ! ! ^ ^ ^ ! ) ! l $ O @ - @ X X & : X 1 - 1 @ - # & & z E U U Y Y J Y K Y K K Y Y Y | <.<.y.i.i.f.i.u.p.a.p.H.q.a.p.p.p.p.p.p.a.p.i.a.i.p.a.i.p.a.p.a.a.i.p.a.p.i.a.p.p.i.p.s.i.s.s.i.s.s.s.i.s.s.y.y.s.s.i.e.s.y.s.s.s.i.s.i.s.s.d.p.i.i.p.i.d.p.s.i.d.i.d.p.p.p.p.i.d.i.p.i.d.i.d.i.d.d.i.i.d.d.i.s.i.d.i.s.d.d.i.d.i.p.i.i.s.i.i.s.s.i.d.p.s.p.i.i.i.d.i.9.d.d.i.p.p.p.p.p.} [ 9 # * * # # ; & : & : # # * * z 9.q.d.d.d.p.k.f.f.",
"9.3.3.9.3.9.y.u.9.u.y.9.9.y.y.9.9.y.u.u.u.9.9.u.u.9.3.9.9.9.7.1.1.U A Z S F S F a d # # @ & O & % @ O % O & @ @ & @ @ @ # # # g Z.Y.(.`.).).).).oXoX).).).[.).[.~.~.oX~.oX~.[.~.).~.].~.~.~.~.~.~.[.~.~.~.~.[.~.~.~.~.~.~.~.~.~.~.~.~.~.~.~.~.~.].H.~.~.~.~.~.~.!.!.!.!.!.~.!.!.!.E.M.M.a.-.-.u.u.-.-.u.-.7.u.u.p.i.p.i.i.i.i.i.p.0.i.i.i.i.i.i.p.u.p.i.i.i.0.i.i.i.u.u.p.9.i.i.i.u.p.u.u.u.u.u.i.i.i.i.u.u.i.i.u.u.u.u.i.9.u.9.3.7.3.1.=.=.;.;.} ! Y K B B M M M m m M m M B M B B M B B N N V V V C V N N N N N N V I V z V N V V V z N N N N V C Z Z N G L G Z Z Z L L L l b 5 w + ; # ; @ @ @ @ @ - @ X O X X O X . % q.pXpXaXaXaXrXrXrXrXrXeX*Xf.f.y.i.y.i.s.y.s.y.i.i.i.i.i.i.i.s.s.y.a.i.i.i.i.a.p.i.i.p.p.i.s.i.i.p.i.i.s.i.i.i.p.p.p.u.p.p.p.i.i.p.a.i.i.0.p.0.p.0.0.i.i.0.0.0.9.i.p.0.u.p.i.i.i.i.i.i.i.i.i.i.i.i.i.0.0.p.i.p.i.p.i.i.0.p.0.0.0.0.0.u.a.6.$.;.} ! { Y { ! { { J | ! { ! ^ ! { ^ ! h O O @ - @ @ - @ X - X : % 1 @ @ : * z ~ P Q ! Q Y Y Y Y Y Y K Y Y Y Y { | -.;.y.a.p.p.a.a.H.a.a.a.p.f.p.a.a.p.p.a.i.f.a.p.a.a.f.p.a.p.a.i.i.p.p.p.i.a.a.i.i.i.i.i.i.s.i.s.s.i.i.s.s.s.i.s.i.s.s.s.s.i.i.s.s.i.s.i.p.p.p.i.a.i.d.i.s.d.i.i.i.i.p.i.i.p.9.p.i.p.p.i.d.9.d.d.d.i.s.d.p.i.s.p.d.9.i.d.i.d.i.d.d.i.i.s.i.d.d.i.d.i.d.i.p.s.s.p.d.i.i.s.i.p.p.p.p.%.$.h # w * ; ; : ; : : : > ; * > 8 ....d.d.p.a.k.k.f.",
"9.3.9.3.u.3.9.9.u.u.7.u.7.u.9.u.y.9.u.u.u.9.u.u.u.3.9.9.u.9.7. .} S S Z Z G Z C 8 6 # # # # & & X & & X & @ & O O & @ @ & O O * Z 6.8.k.n.n.K.W.E.!.!.).).~.~.~.~.~.~.~.~.~.~.~.~.!.~.!.!.!.H.~.H.H.~.~.H.~.~.H.W.~.~.~.[.~.~.[.~.~.).).~.[.~.~.[.oX!.~.!.!.!.!.!.W.!.W.W.!.W.m.H.a.2.t.;.u.-.;.y.u.y.-.u.7.u.u.i.i.i.p.p.p.i.i.u.p.i.p.i.i.i.p.i.p.i.p.i.i.i.i.p.i.p.0.u.p.p.i.p.i.p.i.p.p.p.0.u.7.7.7.2.2.2.-.-.-.;.;.@.....{ Y Y J S H B N M M m M m M B M M B M M B M B M N M M N N N N C N N N V N N N A N N m i m i i h x g i x i h g g g g k k k M k M k k k l n y 7 w w + + ; + @ # # @ @ @ - X & X & @ X O = X X 8.pXcXpXaXaXaXrXrXrX9XrX^.y.y.e.y.s.i.i.i.i.i.i.y.s.a.y.s.y.a.i.s.i.i.p.i.p.i.i.p.i.p.i.p.i.i.p.i.p.p.i.i.i.a.u.p.p.0.p.i.i.i.p.i.p.i.p.p.0.d.0.p.0.i.0.0.i.0.p.0.u.p.0.i.i.i.0.i.i.0.i.u.0.i.0.p.i.i.u.i.u.0.i.0.i.i.9.0.i.0.i.u.0.6.-.@.! { ! Q Y ! ! Y { ! { { ! Y { ! ! ! ^ ! k O @ @ @ X : X - X X - X & @ @ - > * A ~ U Q Q U Y Y K K Y Y Y Y Y Y Y K Y Y Y { :.*.t.u.u.t.p.a.p.a.p.a.p.a.a.a.p.a.p.a.a.p.a.i.a.p.a.p.p.a.a.i.a.p.s.i.i.a.s.s.a.i.i.s.i.i.s.s.i.s.s.s.i.s.s.i.s.i.s.a.i.s.s.i.p.i.p.i.d.i.d.i.d.p.i.p.i.i.p.i.p.p.i.p.i.p.i.i.d.i.d.s.i.i.d.p.i.i.d.i.d.i.d.s.i.p.s.p.s.i.d.d.i.d.i.p.s.i.d.9.d.i.p.i.d.i.d.i.p.p.p.p.i.p.6.6.M 4 4 # : ; > : > : ; : > : : > N C 7.d.d.d.f.d.f.",
"3.3.3.7.7.u.9.9.u.9.u.u.7.u.9.u.y.u.2.u.u.7.u.u.u.7.3.u.u.9.9...} S S Z A G S Z 8 6 # # # @ @ @ @ & X % @ @ & @ & @ @ @ O # # * A 4.3.h.b.b.A.E.W.Q.).).).).)./.~.Q.~.~.~.~.~.~.!.!.!.W.W.Q.W.W.~.H.H.~.Q.Q.Q.E.!.!.!.Q.!.).~.~.).).).~.).).).(.(.~.Q.!.!.!.!.!.!.W.W.!.W.W.E.m.m.a.2.2.t.-.u.-.u.u.;.u.2.2.u.u.i.i.i.p.p.p.i.i.u.p.p.u.p.u.u.p.p.u.p.p.p.q.p.u.p.u.u.a.p.u.u.u.u.u.a.u.u.u.a.u.9.7.u.7.2.2.;.t.;.;.;.;.;.| | | Y Y J K K M B B m m m M B M M M B M B M B M Z B M B M Z M B L Z C N N N B N N N V M k k h h h h h g h h g h g h g z z k z k k b k M j q 9 7 4 w # # O # # # @ @ @ @ : - X & % @ @ X O X O 8.dXpXaXaXaXrXpXrXaXwXwX^.i.s.y.i.3.i.i.y.i.i.i.y.i.s.s.i.i.a.y.s.s.i.i.i.i.i.p.i.a.p.i.i.i.p.i.i.i.i.u.a.p.p.i.p.0.i.i.i.p.i.i.p.i.p.p.0.0.d.0.0.0.i.0.p.9.0.i.p.p.u.u.0.u.i.i.p.9.9.u.p.i.9.p.p.i.9.p.i.0.9.i.i.i.0.0.0.u.0.0.9.9.-.7.*.{ ! ! { Y Y { ! ! | Y Y ! ! { Y ! { ! ! k O O @ @ @ & X - @ % @ @ % @ X @ , > C E Q Q ! Y U K Y Y U Y J Y Y Y J Y K Y J { o.;.;.a.i.a.p.a.p.a.a.a.s.f.s.p.a.a.i.a.p.a.a.a.s.a.s.i.p.a.i.a.p.p.p.i.i.p.p.p.i.a.s.i.s.i.s.i.s.i.s.s.i.s.s.i.s.s.i.s.i.s.i.i.a.i.p.a.p.i.d.i.d.p.p.p.p.i.i.p.u.p.i.p.i.i.i.p.i.d.i.p.s.i.i.d.i.d.i.s.d.p.i.d.i.s.p.d.i.d.p.s.p.p.s.p.d.i.d.s.p.p.i.d.i.p.p.s.d.p.i.p.p.p.t.t.L w w # ; ; ; : : : ; > > ; > 4 N N 7.d.d.d.h.h.f.",
"9.3.7.3.3.3.3.u.u.7.7.u.u.u.u.9.u.u.u.u.u.u.u.u.9.9.9.9.7.7.@.H H Z Z Z C Z Z k 4 > # # @ # & @ X & O & @ @ O @ O & O & & @ O O y k z N Y U ..<.-.i.p.a.p.i.i.y.7.7.7.9.7.9.u.u.u.u.u.u.-.-.-.;.;.u.;.;.;.t.2.2.9.9.p.l.l.l.j.M.m.m.m.K.P.E.W.^.!.!.W.!.W.E.W.E.K.E.K.K.K.m.m.f.f.2.2.-.7.2.-.u.;.u.u.u.u.u.u.u.a.d.d.a.a.a.p.i.p.p.u.p.u.p.p.a.p.a.p.p.p.a.p.p.p.a.a.u.u.p.u.u.u.u.2.t.t.;.;.| } { { Y Y K K K K Z B Z L M m M M M M B m m M M m M B M M B B M B M M B M M M M M B L B L Z B L N C C L M k k g l r 6 7 3 * * * * * * * * * * > * 6 6 6 6 7 7 4 4 4 > # # O O @ O # # @ @ # # @ @ @ X @ X @ @ @ O @ @ O X ] sXdXdXaXaXrXrXrXrX&X&Xl.i.3.3.s.i.i.i.s.y.s.s.i.i.i.i.i.i.i.i.i.i.i.i.a.i.d.i.p.u.p.i.p.i.p.p.0.p.p.p.i.i.i.p.i.p.i.p.i.i.p.s.i.p.9.0.p.p.9.0.p.0.9.0.u.0.i.p.9.0.u.p.i.0.p.i.9.i.p.u.0.i.p.i.9.p.i.9.i.i.p.i.i.i.i.p.0.0.9.1.3.-.} | ! Y ! Y ^ ! ^ Y { ! ! ! | ! | ! ^ ^ ! ! ^ N O # @ @ - @ - X : : % 1 : - - @ < < D Q ~ Q U Q U Y U Y U Y Y U U Y Y J Y J Y J H K ) | | ;.7.2.u.y.y.s.a.y.a.a.s.i.f.a.a.a.f.a.a.i.a.f.s.a.p.p.a.a.i.a.p.i.a.i.p.p.i.i.s.s.s.s.i.i.s.a.i.s.i.s.i.s.i.i.s.s.s.s.i.a.p.i.p.i.i.d.i.s.p.i.i.p.p.p.p.9.p.i.i.d.p.i.d.i.d.i.i.d.d.i.d.i.d.i.i.p.s.i.d.s.p.i.p.i.s.s.0.s.i.p.i.s.i.p.s.i.d.p.s.p.i.p.9.s.p.p.p.p.0.0.R 0 0 w ; ; ; ; > : : ; : ; ; > 9 8 Q w.d.d.h.k.f.",
"7.7.3.7.3.u.7.9.9.u.7.7.7.7.3.2.u.u.-.u.7.7.-.2.2.1.2.=...} K Z Z N Z C Z C B l # # # # # # @ @ = X @ & & @ X & @ @ & X @ O O # z P P U F S S Y J Y H U U H U K K J J K K J J J J J J J K K J K K R K K G K K K F K K J J J ! { ! | { ..;.$.3.i.p.l.n.n.Z.K.H.K.K.K.E.K.H.K.n.M.l.a.a.u.i.a.a.a.a.a.M.l.l.M.M.M.M.n.M.n.M.M.v.l.H.q.p.a.p.p.a.u.p.p.u.p.p.p.u.7.t.;.;.*.| *.| Y ) R K K Z L B L M m M M M M M M M M M M m B m B M M M Z B M M B M B M M M M L M M M M B M C M L L B L N M C M M k k g y 9 9 6 2 2 * * O O @ O # + & = O & O = & @ O @ O O # O # # # O # # O O O @ # O O $ # @ @ # @ 1 @ & & @ @ @ @ O X @ c 1X2XxXsXaXiXaXsXrX^.^.e.i.e.s.i.i.s.i.s.i.i.i.s.a.i.s.i.s.i.s.s.i.i.a.p.p.i.p.p.p.p.p.i.p.i.i.0.p.p.p.0.0.p.p.0.i.i.0.d.p.0.s.0.0.p.p.0.p.d.0.p.p.0.0.0.0.p.0.p.0.p.i.u.i.i.i.p.p.9.p.w.i.9.0.i.9.i.9.p.p.0.0.i.0.u.9.1.3.@...} { ^ ! ! ! ! { Y Y ^ { ! Y ! Y | ! ! Y ! { T ^ ^ S # # @ @ 1 @ X X & X @ & X X : X 8 0 D Q E Q Q Q U Y U Y U Y Y Y T Y Y J Y Y Y H Y Y Y Y K K ! ) :.;.;.;.<.y.y.u.i.i.i.i.d.a.a.a.a.a.i.a.a.i.a.a.p.a.p.i.p.p.a.p.a.i.s.s.i.i.a.s.i.i.s.i.p.i.i.i.s.i.d.i.i.i.i.i.p.p.p.i.i.f.i.p.p.p.i.p.i.i.p.u.p.p.i.i.p.i.i.p.i.d.i.i.d.i.p.p.i.s.i.d.i.s.p.d.i.p.i.d.p.d.i.p.i.i.d.i.p.p.i.d.i.i.d.i.d.p.p.p.p.p.p.p.p.p.0.p.) n q w ; # : : : * : : : : : * * * r / ( 8.s.d.h.",
"9.3.7.y.7.3.9.u.3.2.2.u.7.y.7.2.-.u.u.u.7.2.u.7.2.2.4.=.| | J Z Z V C Z Z C Z l # # # # @ @ # @ @ @ @ O O & & O X & O & # & O # v P P I F S H P J J U J U J H V K F K J K J K J J K J K K J K S K K G K K K K K K K J J J J Y J ! { | | $.;.1.d.d.l.n.n.H.m.K.A.K.A.K.E.A.H.m.M.M.p.p.u.i.p.a.a.a.M.l.M.M.l.M.l.M.n.M.M.M.H.l.f.H.u.p.p.p.p.a.u.a.p.a.p.p.p.7.u.t.;.;.*.| | ) Y ) K K K Z Z B M M m M M M M M M M M B M M M M M M M M M M M M M M M M B B M M M L B M M M L M M B L L L L L M b k h h y 9 9 6 * 2 * O & # O # O & + * O O @ # O @ # O # # O # O $ $ # @ # + & & O # # # # # @ # @ @ @ @ @ X X @ X @ @ . X c 1X2XxXsXaXsXaXaXqX^.^.s.i.9.i.i.s.y.i.i.i.i.a.y.a.i.i.i.i.s.y.s.i.a.a.i.p.p.u.0.p.p.p.p.p.0.p.p.i.p.p.p.p.i.p.p.p.p.i.i.i.d.0.p.s.p.0.p.0.0.p.0.p.0.p.0.0.0.0.u.u.0.0.0.i.i.9.p.9.s.9.i.9.i.i.i.9.p.i.i.i.9.i.0.i.0.9.2.6.$.{ | ^ Q ! ! ! { Y Y { { Y { { ! Y ! Y | { ! ! { ^ ! A # # @ @ @ : X - @ @ 1 X 1 @ X & 0 8 D E Q Q Q Q U T T Y Y Y Y Y Y J Y Y Y J Y Y Y Y K K Y Y ! | | ;.o.y.y.2.y.u.i.i.a.i.p.y.a.a.y.s.a.s.i.f.p.p.a.i.p.a.p.p.i.p.i.a.s.i.s.s.i.s.i.s.i.i.s.d.s.i.i.i.s.a.i.i.s.a.s.a.i.f.i.p.i.i.p.p.p.p.i.p.i.a.p.i.p.p.i.p.i.i.d.d.s.d.i.d.i.p.p.p.d.i.d.i.d.i.p.i.d.i.s.i.d.i.d.d.i.d.s.i.d.i.d.s.i.d.i.p.p.p.p.p.p.p.p.p.p.0.) n n ; ; > # > : > : * : > : : 2 * r ` ^ 9.w.i.d.",
"<.=.=.;.o.@.X.| | | | | | | { { | ! | ! { ! { { Y Y Y J Z Z Z M N Z A Z C C C 9 # # ; @ : - @ @ @ & @ & O X X & & O & O & O O * D T P P P U U U U J U F T U U U J J J J J J J U Y J J J J J U J J J J J R J F K J J J K J S F H K K S K Z Z Z H K Q } ( +.-.-.2.-.7.7.7.2.2.1.=.;.*.;.;.;.t.;.2.2.-.2.2.7.2.2.u.7.2.7.2.2.7.2.-.*.;.*.;.| ;.| :.*.| | | | ) Y Y Z B L M M L f m m m m m m m l m m M m m L M m M M M M M M M B M M M M M M M M M B M M M B M M M M B M M C L M M N N k h j d 9 9 6 4 2 * & O = O O = O = @ O O & @ = & = & O % @ & @ @ O # O O & # O @ @ # @ @ O O @ @ # # # $ # @ & @ 1 : X X @ @ @ X O @ * w.r.cXxXMXMXeXaX}.g.g.9.s.9.i.i.i.9.i.i.i.p.i.i.a.i.p.i.i.9.s.p.p.p.i.p.0.d.p.d.p.p.p.0.p.p.p.p.p.0.p.0.p.0.p.0.p.0.d.p.p.0.d.p.p.0.0.0.0.0.0.0.0.0.0.0.i.0.0.9.i.e.0.i.u.p.9.0.9.9.9.9.e.9.9.i.9.e.i.9.s.9.9.3.=.1.+.} { T Y T T Q ! ^ T ^ T { T T ^ Y { ^ ! Y { Y T { T T ^ ^ I * # X X & % X & X X @ X : X : X , < j F D Q Q Q U U U T T U Y Y U Y Y Y Y Y Y T Y ! K Y Y Y Y K Y K Y Y Y T { X. .;.;.o.<.<.y.y.y.y.y.s.a.i.a.i.a.p.p.p.p.a.y.s.f.i.s.i.s.s.i.i.p.p.p.i.f.a.a.p.i.i.s.a.d.s.s.y.s.d.p.p.i.p.i.p.i.p.i.p.i.i.i.a.u.p.i.i.p.i.p.p.i.i.i.d.i.i.f.i.i.i.d.p.s.p.i.s.p.d.i.i.d.s.d.i.d.d.i.d.i.s.i.d.i.p.s.d.i.i.d.p.p.p.p.a.p.d.p.p.*.j j * * # : * : : * : & * : & * * * 9 7 C T Q X.",
"Y Y U J K H K Z K Z M Z M M B M M B m M M B M M M B M B M B C M N C N Z Z M M 0 # # # # # # @ # O @ @ @ & & @ X @ % O @ = O & * I P W U P T P P U U U U P T U P U U U J U J U F J R U J H Y J J J J F U J J J J F J F F F J H F F F F J H H H H S Z N N M N M N B N M B N N M m m m l m m M M M M B L M L L B M B M M B M M B M L f L f M M L L L L L L M f f f l M m m M m M M l L l m m m L m m M L m M L M M L M L M B L L L C M Z M L B L L M M M L Z L C L L L M k j l h d 9 n 0 4 4 4 # # # O # @ O @ @ & @ # % = % % % X & & X @ @ @ X & @ @ @ @ & # @ O @ # @ @ @ @ O & @ @ O @ @ @ @ $ X & @ @ @ @ & & X @ % @ % & a s q.].].Y.h.d.4.e.0.h.d.z.h.w.d.d.d.w.d.d.d.d.d.d.p.w.d.d.d.0.d.0.r.p.d.d.k.0.d.d.d.k.0.w.r.0.p.k.w.d.k.k.k.d.d.k.d.k.d.d.d.k.k.d.k.d.k.k.d.r.r.d.w.0.0.0.0.e.0.9.0.0.0.0.0.w.0.e.w.e.e.q.w.q.0.0.e.q.8.<.<.$.....{ { { { { .. . . .^ ` ^ ^ {  .` { { ^ ^ | { { { ` ` { ^ ^ / U & : @ : X 1 : 1 @ : - : @ @ : : : : < n a k G G U U T U U U T U Y Y Y Y Y P Y Y Y Y Y Y K Y K Y K Y K K K K H Y K K T Y Y Y Y {  .X.o.;.;.4.2.3.u.u.i.p.i.a.s.a.y.i.s.d.i.s.i.i.p.i.a.i.i.i.i.p.p.a.i.i.i.y.y.j.s.i.s.i.d.i.a.i.a.p.a.a.p.i.a.i.a.i.p.p.i.p.i.i.d.i.d.i.d.i.a.p.a.p.i.i.d.p.d.i.d.i.i.d.i.p.i.d.i.i.p.i.d.p.d.p.p.d.p.i.d.p.p.p.p.p.p.d.p.u.k.a.7.F F 4 # # # : * * : * : & : & # # 2 6 5 y u f k ",
"Q U U J F K S Z Z B B B B M B M M M M M M B M M B M B M B M Z Z N Z N N C M C 5 # # # # ; @ @ # # @ O & X & O & @ @ O @ & O @ * I W P P U P T P P U U I U P U U U F F U U J J U U J J R H P P Y F U J J R J F J J J J J J S H J J J J K H H F S S Z N N M N B N Z M M C B M N m m l M m m L L M M M M M M M M B M M B L B L L M M L M M m M M L M L M m L f f m f m m f f L L M L M L m M h M L M m L L M M M M M M M M M B B L M L L M B L L B M M B L L L L L M M M b h j h d n 9 9 4 4 > # # & # O @ # # @ @ @ O & X = @ % = O % @ @ X @ @ & & @ & O O @ O # @ @ @ @ - @ @ @ @ = # @ @ @ @ @ @ X X @ X : @ X & & O @ @ X r r q.{.Y.(.h.d.8.e.9.z.d.k.w.s.d.d.w.d.p.d.a.d.p.d.p.d.d.d.w.p.p.k.p.p.r.d.d.p.d.p.d.r.k.d.0.k.r.p.d.r.d.d.k.d.d.d.d.d.d.k.r.k.d.k.d.k.k.0.k.0.p.0.0.0.w.q.w.9.q.9.0.p.0.0.0.e.w.w.w.e.e.w.w.q.0.e.e.e.3.,.<.#. .O.{ { { { { {  .` ( ` ^  .^ ^ ` T ^ { { ^ ^ { ! { ` T ^ ^ ^ ~ P * * X : 1 & X 1 1 X : @ : 1 X X ; ; < a n k G G Q T Y U T U Y Y U U Y Y U Y Y Y Y Y Y Y Y ! K Y K V Y Y K Y K K K Y Y Y Y { Y {  .X.X.;.;.-.3.2.u.u.u.i.u.s.a.y.s.a.i.s.i.s.i.i.p.a.p.d.i.p.p.a.i.a.s.f.y.j.y.y.s.s.d.d.i.p.i.i.a.p.a.i.a.i.i.i.a.p.i.i.a.p.i.i.d.i.s.s.d.a.i.i.a.p.d.i.s.p.d.i.i.d.i.i.d.i.p.i.s.i.p.s.i.p.d.p.d.p.i.d.i.p.i.d.p.0.p.a.p.p.k.p.0.F F > # # & * : : * & & : * & * * * 6 6 y f f M ",
"Z V N N N N N M M M M M M M B B M M B M B M M Z M N M B M B B N N Z Z C C j h ; # # ; # & # - @ @ @ & @ % O % @ % @ & = O O O * I P P ~ P T P P P U P U P P P U I U U I P U P P F J F K P P S I U F F F J F J F I J F I F J I I F F F F F H H F F S Z S N k M m k m m h m h h h f f f f f f f l f f f f f f f l f f f f f f d f f f f f u f f f f m f f h h m l L L f L M L f f L f L M L L h M L L m L L L L L L L L L L L L L L L L G L L L L G L L L k k h y n n 9 7 4 4 > ; # # @ # # # # ; @ # & O & @ @ % % % % % % % X & % & % @ & & X @ X @ @ & X & X & - @ 1 @ X 1 & X @ % @ @ @ @ @ @ @ % : - @ X & X @ X % @ X & & @ , x x x e 7 d F F ' 5.6.8.7.q.8.9.q.q.0.0.q.7.7.7.8.6.8.6.6.6.8.8.q.t.-.t.*.[ [ ( ( ( ( / _ ( / ( _ ' ' ' +...+.[ +.+.[ +.( / _ ( / ( Q ~ ~ ~ ~ ~ ~ Q ~ U ~ ~ ~ Q W W ) / ) ~ ~ ~ ~ W ~ ~ E ~ ~ P P I A A A A A F I I P U I U P U I P P P T P P P U I U U I U J P P P S A A h & # @ % & % : & & : @ : X & & : - @ # ; ; , 9 9 k V I P Y U T U Y U T Y Y Y Y T P Y Y Y Y Y Y ! J Y Y K Y Y K Y K K K K U K Y Y K K Y Y Y ! { | | X.X.X.X.;.;.;.y.-.2.4.3.3.3.y.u.u.u.u.i.i.u.i.i.i.y.s.s.a.y.y.y.i.i.i.i.p.i.i.i.i.p.i.i.a.i.i.i.i.p.i.i.i.p.i.i.9.i.i.i.i.i.i.y.u.9.9.i.9.9.9.9.9.9.9.9.9.7.9.9.9.9.9.9.u.9.9.9.9.9.9.9.9.9.7.9.7.7.7.7.7.7.q.t.Q Q 6 # * # : * & & > > & : & * # 2 f g A V z N ",
"N L C L L B M C L Z M Z M N B N N N N M Z M N M B M N N N N N C N C C C C h f # # @ # @ ; - @ @ X @ & @ X & @ @ & X @ # @ O @ * D P E P E P P P P E U U P U P P U U P U I U F P F F F H I F S S F F F F F F F S F S I S I S S S D I D V S S V A G V N N z m z z k M k M k m m h m h k h k h h h h l m l h g f g f g f h f h l f f f l f h f f L l h h h h l M h L f m l L m M L k N k M b M k L M b M L b M k b L L b L C c M b k b k l k l l n n n 9 0 0 4 > # # # # # @ @ @ # # # @ ; @ ; @ @ @ - @ @ @ - @ - @ - 1 @ X @ X : @ @ @ & @ & X @ @ & @ @ @ & @ @ X & & @ @ & X & & X X O & X O & & X @ @ & X & @ & X X = O % O @ @ @ O # O # + * * 8 d l k k b b z z k z k L k c b z k b k b j j k k k g j a 9 r 9 9 9 8 9 9 9 r r 9 r 9 a 9 9 r r t r e 9 7 9 6 0 0 4 8 , 4 4 4 4 6 4 4 6 6 0 0 8 6 6 6 , 8 8 , < 6 , , 6 6 , , > , > * > , 6 6 6 6 6 6 6 8 6 6 6 e 6 6 8 8 8 8 t 8 6 e t 8 t t t t 6 6 6 6 * & @ @ X - : X @ 1 @ 1 : X : @ 1 & : - & @ - # ; > t t h A Z I Y Q U U Y T U Y Y Y Y Y Y Y Y J ! J Y Y J J J K Y Y K K Y K Y K K Y K Y H Y K K Y K K Y Y Y Y Y Y Y Y T  .Y { { { {  .{ X.|  .o. .X.X.| X.| o. .o.o.X.o.X.o.;.X.o.X.:.:.:.:.:.:.X...o.X.X.X.| X.| | | { |  .{ {  .{ { { { { ^ { { ^ { { { { { | {  .{ } { | { { { { } { { { { { { ^ { { ! ! { ! ! ( G G 4 : # # : : & : & & : * & # ; 4 k c F G G S ",
"Z C M C B L B L Z M L L L N N N N N N N Z M N M N N B N N N N N C C N C C g f # # # # # @ # @ @ & O O & = X % & @ @ @ @ @ O @ * F E E P P ~ P ~ P U P E P P U P U F P U U P P J U F I F I H U I S I F S F F F F S I S I S I S D S S S I S S I V S S A N z z z m M k m k m z k x k k h h h h k h m f h h h h f h f h f f h h h f l f h f l f h h h h k L m M L l L L L M L L f L z k k z k b b M k k c k k b k b b b L L b b c b b b b h l l d d n 7 9 0 0 4 > # * # O # # # O @ @ @ @ - # @ ; $ @ - @ - - @ @ - @ @ @ @ : - @ @ @ @ @ @ @ @ @ % @ X @ & X = @ @ @ @ X X X X = % % & & % @ & = % % @ & X & @ X & O @ & X & & & @ @ O O O O O # * 2 7 l d j b k k z z c k L k b M k b k b k k k b x k k j g a r 9 9 9 9 9 r 8 9 9 9 9 n r a r r 9 9 9 9 8 8 9 6 8 0 8 7 4 0 4 4 0 4 0 6 0 0 0 , 8 8 6 6 8 e 6 e , 8 , 6 , < , , 6 , , , * 3 * 4 , 6 6 6 6 7 8 6 8 6 6 t 6 t 8 t 8 6 t t 8 8 e 6 e 8 8 e 6 6 3 * @ O % : 1 % & 1 % @ & X : X : % : X & @ : # : # , t t g Z C F U Q T U U Y Y Y T T J Y Y Y Y Y J Y J Y Y Y Y J Y K K Y K K K K Y J Y K Y K Y H K Y Y Y K Y Y Y T K { Y Y  .Y  .Y  .X.| | X. . . .X.X.X.| o.o. .o.o.X.X.X.X.X.X.:.X.X.X.:.:.:.X.X...:.| X.X.| | | | | {  .| | { { { { { { { { { { ^ { { { { { { { { } { } } } { { { { { { { { { ! ^ ! ! ( ) ! ) ! ! G A 4 * # : * ; : : & : # : & ; * 4 z k F G A S ",
"N z C N L L M C L Z L B C N N N M N N M M M N N M C N N N N N A N C C z j 7 7 * # # # @ # & & & @ & = @ @ @ X O X & @ @ @ # O # r j z c A A A F I I U I P U I U I U P P P P P J P P P I I I I I I F F F F F I S S S S S S A A A A A N A A V A A A N z z z z N z N z z N m z m z M k z k M M z k M k L m k h k h h h k k h h h h L f L h l m h l k h h k l l L m f L L L L L L L k b b k L L b b L b b k k k k k h l l l d d n 9 9 0 0 4 0 ; w ; ; @ # # $ # # # # @ # @ X @ & O @ - @ @ @ - - @ @ @ : @ @ @ @ @ - @ @ : @ @ - @ @ @ @ 1 & @ & X % @ X & @ @ @ @ @ % @ & & @ O & O @ & & X & X @ % @ @ & X X @ O % @ X & X @ @ & # @ # # O # # # # # @ @ @ # # # # # # # # # # # # # : # # : & * ; : * * * # * # ; # & : * * : : : : ; # # # # # # # # # & # # @ # ; ; ; : # ; # ; # # ; ; - ; ; : & * & & & & # & & & & & @ & & @ & # - & # - # O # @ # = # @ @ & % @ @ @ @ @ @ & @ @ @ @ @ = & @ @ @ @ = & X X % & & % X : 1 & 1 1 & & : X & 1 X : & % - @ - # + # * 6 4 y k j A U I U U U Y Y ! J Y Y Q U U U U J Y J J J U J Y Y J Y K Y K J K K U U Y K Y K Y K Y V U Y V V K K K Y K K V H H H K U H T H T H K K K T H H H K K Y H K Y K K Y H Y H K H Y H K K K K H Y Y H H H H K K H V H H K H H K H H H V H H H S H H H J H J H H H F H K S K S K S S K K K K K K K K F Z V 4 # ; # ; & : # - : ; ; # # # 0 k c S S D F ",
"k z M M C L C L L M L L M L M C C N L C L C N C C M z N c z z h j d t 9 7 * * # @ @ @ & - @ % @ X & X X X & & X % O @ @ @ @ @ @ & > * 6 8 0 9 r r r y a g g f g g g g k j k z k z z N N V N C C A A A A A D S S I S S I S D D D S D I A I I A A A A V A I N A N z A N z v N A N C C c C C C C c C G L L A c N C C C c N C L G c L L L L L L L L M k L k L b k b L l l l f l l l l l s l l d d d n n n 0 0 0 0 > > > > > ; ; : # ; # @ @ # @ # @ @ @ @ @ @ @ @ @ @ @ @ O % & X % @ @ @ - # @ @ - - @ X @ X : 1 @ : X X : X - @ @ : 1 @ @ X @ % & & % & X @ & X & @ @ % O & X X & & X X O O @ X & O & X X @ & & X % @ & O X & @ @ @ @ # @ # # # # # @ ; # # @ @ ; @ # @ @ ; @ @ # # # ; # - # # # # # : # & # & # # @ # # # # & # # # & : # - - ; @ - @ ; @ # - # - ; ; ; ; - ; : ; : # - ; ; ; ; ; & & & & & - # & & # @ @ & & & - @ - - # ; - - @ # - # @ @ @ & & & & @ & % % - & % & & & & @ @ - @ # - @ @ & & & @ X % : X X : % @ X % X - % & & & 1 : & @ - # * # # # # # > 4 0 t t d f h z A Z G J G F P U U Q Q ! Y Q U Y U Y Y J J Y K J R Y U U K U U U Y V Y Y Y V Y Y Y T K H H Y K Y Y U U H H H H H H H K K K H V H H H H K K K V Y K H H V H K H H H K H H H H K K B H H H H H H H H H Z Z H H Z V H H H H V H F K H S K S J H J K S F K F K S K H H K G F K K F F J S G 7 # # ; @ ; - : @ : # : @ # # , c z F F F F ",
"k M N c C M C M L N N N C N C M M z C M N N z N M N k C z N z x k g t r 6 * 2 # @ # & @ @ X & % X & O & @ % X & @ @ & O O @ # @ * * * , 8 8 t t r i a i g f g g h g g x k k z k z N z z z V N A N A A A S D A G V I S I V A S I D I D I I I A I z I A v z N v N N N A N z N v N C C C C C N A C C C C C N c C z c C C C N c C z C c C b L b k L M L k b k b k b b h k j l l l l j d s d l l l n a n n 9 0 0 0 4 4 > > > : # ; # ; # # @ @ @ @ # # @ @ @ @ @ @ @ @ @ O # % & % & @ @ - @ - - @ @ - @ 1 - @ X @ - X - X @ X @ & - X @ X @ @ - X % X % @ & X & X @ X X & O O % & @ % & & @ & X & O & X & @ & @ @ @ @ X & O X & @ @ # @ # # @ # * O @ # # @ # ; # @ # @ @ # @ # # - # @ @ # @ ; & & ; @ & & # & @ & # & # & @ & # # # @ : @ @ ; @ - - # - @ @ ; @ - ; ; ; ; - ; ; # # : ; ; : ; ; ; ; & & : : # ; @ - # @ ; & X : @ - & - - - - - - # @ - @ @ # - & @ & & @ @ : X & - - - : X & @ - @ - # @ - - - : @ X & % % 1 @ X : X X & 1 & % : : % : % : @ : @ # # # # # # > > 6 9 9 y g h N A Z A F F F U U U Q Q U Q Q J Q Q U H Y H J U J U Y U H U U U U H V Y Y Y H T T H K T K H Y U V V H H V Y V Y H H H K H H H H H H V K H H K K V Y H H H H K S K S H H H H H K H H H B K K K V V H H H K Z S H H H H S H S H S H H H J S H F K H K K H F K V H K H J K F K F K F F S A 7 # # # : - : - @ - ; @ - # # 4 k b D R D F ",
"j j j k k k k C N N L L M L N L N N M c N z k z k j g d r r 8 > , * & * = = O & & & @ & & & % & @ @ % @ X & O @ & X @ & & @ @ @ O & & # & & * & + * * * * * * * * * * * * * * * 3 > 2 6 , , , 6 , t 8 7 t t t r t t r r t r r r r r t e t r t i r i r i i s s i g i d s d s d i a a a r r r r i a a a y r s y r a a a r r a r r 9 9 8 9 9 7 7 0 4 0 4 4 4 4 ; > ; ; ; ; ; w ; ; ; # ; # ; ; ; - ; ; ; - - - ; @ ; @ @ @ # # @ @ @ @ @ @ @ @ @ @ @ @ @ @ @ @ @ @ @ @ @ @ X & O % X X @ - @ @ - $ X @ @ X 1 - % % & % & 1 & % X % & 1 & % % % % % % % % % % X & % & @ @ % & X X @ @ O X % % @ @ % O X X = X X & X @ @ & % @ @ @ & # # # & & & = & # @ : # - @ ; @ - - - - - - : @ - - : @ & @ @ @ & & & & & - & @ @ @ & @ & @ @ & & @ @ & @ @ : : @ : @ - - : : @ - - : ; - : - & @ & & @ - ; ; : : ; : ; @ : : : : : : - : & % : % : - - - - - - - - - - 1 1 1 1 % 1 1 1 1 & : 1 1 : 1 1 : 1 : 1 - - : 1 - - - - : - : X & X % & X % : X & 1 & % % & X : % : @ - - - @ - ; ; # ; # & & & = * * * > 4 6 8 7 9 9 y l l j C C S F K U U T U Q J U U H P U U K U U U T Y T V T H H H H H H T V U Y U V U Y V H V H V H H V H V H V T H K K V U V K V H S S H F H H H H K H H H B H H H H K K V U K H V H H H H H S H H H H H H H S H H H K H K J H H K S S K H H K H J K F K K J J J F F 9 # # ; - @ @ : : @ - - # # @ > l h F F F D ",
": , 4 9 d y h j j g h h h h l l d d r 7 8 8 4 6 > * * # = # & O & O O O % O O @ @ @ & @ @ X @ % @ % % & & % O % % O @ @ O % @ % & O O * + & O * = # # = + O + * = = # O O O & + + O O O = = = O = = O # # = O = = O O O = O = = = + = = = O = = = = & = = = = * & & = * & = & + O * & & = & & = # # O = & = & & # O & O # @ O @ O O O @ O O O @ O @ @ O O @ O X $ @ @ $ @ $ @ $ X $ @ @ $ $ 1 $ - $ - @ @ $ @ @ @ - @ @ @ @ @ @ X @ @ @ - @ @ @ @ @ @ @ X & 1 @ - @ @ - & X @ & & @ @ @ @ - @ - X - @ @ & X X & X & X X % @ X X X @ % X X X & & = & X @ @ X @ @ & @ & X O & & % % @ % O = X % & % & & X % = % = % % X & % @ @ & - & - & & & & & ; # : - # @ : - - - ; - - - - : - @ : : @ & # : # & # @ & # : # : @ : # & # & @ # : : # : @ & X X : & @ & X X & @ - : : : - : & : & : : ; - ; @ - : # : : ; : ; ; - : ; - : @ : : @ - - - - - @ - : : : : : 1 : : : : : : 1 : 1 1 : - 1 1 : 1 - : 1 : 1 - - - 1 1 - X & % - & 1 : 1 1 - : X 1 1 : 1 @ 1 @ - 1 @ @ : : # # & @ - @ & @ = * & # @ & O # O # # @ & # * * 4 ; 4 6 4 r f f k C C S V V U P T U U U U T I I T T H H T H H H T U U U H Y U V Y Y H T H H H T H H H H H H H Y K V V U V H H F H H H H H H V H H K V H V V H V H Y V V H F H S K I H H P H P H J J H H H U H H H H J J K J H J J Y H H Y J J J K J F J R F F d * & @ & @ : @ @ & @ @ # # # * 9 9 C D D F ",
"> 6 4 9 a d l h j g j h g g h f d y r 8 7 7 6 6 > * * * & & O & O O & O @ = O @ & @ @ X & & % @ % = X % O % % & % % & X & X @ @ = & & O & + & O + * O + = + O * O = + O = & + O = O = = + = O O O = = = @ O & + O = + = = = # O # = O & * = = = = = : = = = * = + & & * = * * + + & = * & # = = # @ & & & & O * # @ O # # O # O @ @ O @ O O # $ $ @ $ O O $ $ O O $ $ @ $ $ @ $ X X $ $ $ - 1 $ @ @ - @ - $ @ - @ @ - @ @ % @ @ @ @ @ @ ; @ - @ X @ @ @ @ @ @ : X - X @ @ @ @ @ @ @ @ # @ # $ @ @ @ - @ % @ X % & % @ % X @ % & % X X & X & % @ @ % @ @ @ & & X X X & @ X & X X = % & X % % & X = X % % & X @ % @ = X % % @ & @ & & & & & & & & & & & & : : : @ @ - @ ; ; - ; @ & # @ # : @ & @ : @ # : @ & @ & @ & @ & @ : @ & & @ @ & @ & @ & & @ @ : @ & : @ : : & ; ; : ; & : - # : & ; - ; # ; : ; - : ; : - ; - ; - X : @ X : @ - - - : X : - : - : : : : : 1 : 1 1 & 1 : - 1 - 1 - - 1 - 1 : 1 : - 1 - 1 - : 1 % % & X @ - X @ 1 1 - 1 @ X 1 - - @ X @ @ & @ @ & @ - @ @ & @ & & # & @ = # # @ & # # & # * # * * ; 4 7 8 r l l k Z V S H P P P P T U U U H T T T H T H T H T H H K P P P V Y Y V V H V Y H H H H H H H H H H V K Y Y V U S F K H H H H H H H V H H H H H H H H H H V H H H H F H H H H S H H F H H J H J H H U F U H J K J J J H K K H V J J J F J J J J F P a # * @ # & @ # & - # & @ # # : 9 r c F F D ",
"O O O O # O * * = & * + + * + + * + # O & @ O O O O O O O O @ O O & O = X = O & @ @ @ @ @ @ @ @ % @ X & @ = X & & @ X @ & O & @ O & O * # O * = * O = + # = & + = O # = # O O = O O O = O O + O O O O + + O O O O O O O O O O O O O O O O . O O O . = . = . = . X O X O O O O O X O X O . O . O . O X @ O X . $ X O . $ O . O . . O X   $ . . X X $ O X . $ . X X X X X X X X X X $ X X X X X $ X @ X X 1 X X & @ X : : @ % % @ % O % & X % % @ % X & & % % % X & X X : @ & @ @ = @ @ & O & @ O @ @ @ @ X X X & X & X % % O % X % % @ % @ X @ @ @ % & O & @ X @ O & # @ @ @ @ @ @ @ X @ & X @ @ @ @ @ @ @ @ @ @ @ X @ @ @ @ @ @ ; ; ; @ : @ # - ; - - @ ; ; ; ; - - # ; ; - - - & & & & & @ & & @ & # : & & @ & & # & & @ & @ & & # : & # : @ 1 & @ & X & & X & & & & ; : # & & & : & & & & & & : & # : & & & ; ; - # ; - @ @ & - @ @ : X - @ : : : - : : - 1 : 1 : : : 1 : 1 : : 1 : : 1 : : 1 & 1 : X : 1 : 1 1 - X @ 1 % % 1 1 1 1 @ 1 - X - X - - @ - - X - & @ & & & # & & X & @ & @ & @ @ & @ @ O @ = O O # O O & # @ O O O # # # * * * 6 4 6 t 7 r g i h N A S I P P U U P U ~ U T U U U P T U U U U U H U P H F H H H J T H T V H P H F H U H J H H P H U V U H V U U I V V I U H P H V F H U I U Y U V U U V U U V V Y U U V Y I Y V Y Y H U U H U U U J J U U P U H P I P g * * # & & # @ & # & & # # # # > > 9 k k c ",
"@ O X O O . O O . = = O O O O X O O O @ O @ X & X O O X & O O = O O = O X O O @ # @ # @ @ @ @ % @ @ @ # @ @ @ @ O & O & O @ O # & O & O # O O + + + + & O O = O # O O + * O + + + O O + + O + + + + + O O O O + O O O O O o o + O O . O O O O O O O . . . O . = O . O O O . O O O O O . O X = X O X O O X O O @ O X O @ X O . X O X X O O X O O O X X X X X X X X X X X X X X X X X X X X X 1 1 X X X X X 1 % X @ 1 X X @ X & X @ % @ X @ @ X - @ & @ X @ @ @ & X - : X @ @ # @ @ @ # @ @ @ @ @ @ @ @ @ @ & = X @ X O X & X @ X O O X X X @ @ O & O @ & @ @ & @ & O O # # # & # & @ # - # & # & # O @ @ # @ @ # # # @ # @ # # ; @ # @ # # ; # # # # # # @ # @ - # ; # # @ # # # # O # O @ # @ @ @ @ @ @ # @ @ @ @ @ & O @ # @ @ @ & @ @ & @ & @ @ & & : @ : : @ @ : # * & * & & & & & & * * : & : # & : & ; & ; - ; : - : : - : : : # : : : : : # : : @ : : : : 1 : 1 : : 1 : 1 1 : 1 & : 1 X : % & : % 1 : 1 : : 1 & % X & : X - @ 1 - @ 1 - 1 X 1 X - X @ X @ # & @ @ @ @ @ X & X @ @ & @ @ @ O O & @ O O & & = @ = O O @ = O # @ O X = O @ O O O O = = = + # + * * * 3 2 6 8 t t d d g h j z z z z N z z Z A V A S S S F F F T H I T P U U U U I I H U F H P S U P I I U I P Y T T V P P P I P I I P V I I U P P U I U U U I U V U I U I V U H I V U U V H I I S I I V V V N C C d * * @ & O & @ @ @ @ @ @ @ @ @ # O # : * 6 ",
"@ @ . O O O . O = . . = O O . O & O X X & X O X O O O O O = O O = = O O % O O & @ O # @ @ O & O & @ @ @ O & @ @ @ @ # # & & # # O & O # O * + + # & O + = O # O + = = = O O + + + O + O O + O + O + O + O O O O O O O o O o O o O O O O O O O O O O . = = O . = X O @ O O O O O O O O % O O O X X O O . O X O X X O $ O O X X O $ @ O X @ $ $ X X X X X . X . . X X X X X X X X X X X X X X X X 1 X 1 1 X % X % X % % 1 X X @ @ X & X @ X @ : X @ X @ @ @ @ X X : : @ @ O & & @ @ @ # @ @ & @ @ @ @ @ @ @ @ @ X X @ @ X X & X X X @ X O @ O # @ O & & @ @ @ @ @ @ # # # # # # @ # # @ # & # & # # @ # @ @ # @ @ @ # # @ # # # # # # # # # - ; # # # # # # ; ; @ # $ # # # # @ # # @ O & @ @ @ @ @ @ & # @ @ @ @ @ O & @ # @ # @ # @ # & @ : @ : @ & @ % & X @ @ & & & & & ; & & & & & & & : & * & & * # * & # - ; ; - ; : ; & ; : ; : - ; : - : : ; # : - : : 1 : : : : 1 : 1 : : 1 : 1 1 : : 1 & : % - 1 : : % 1 : % : & @ % - - 1 - @ - 1 @ 1 - X - - 1 @ - @ # @ & @ @ @ @ & @ & X & & # O & & O O = & O O = @ O = @ = @ O & = O O O O @ X O O O O O O = + * * * * > 3 * 6 t t r d d g k g z z z N N N N A Z V S S S I F F J P P I U U I F U I U U H H U P H P P H H P P P U U T I V P P P I U I V P I P U V U P P P I P U P I P T P I U T I P U P P V U I I F S P V S S S C Z C l # * @ & @ O @ @ & @ @ @ @ @ @ O @ # * * > ",
"X X @ X . . . . = . . . = X . = O & X = X O X & X X X X X O % O X O & X O O X & @ @ @ @ @ @ @ & O & @ = & @ & O @ # O O O O O O = O & O O * O O O + + O # # O = + + + = + + O + O + O + + O + O O O + O O O + O O O O O O O o O O . O O O O O O O . = . . . = . O X O O O O O O O O O . X @ . O = . . O X O X O O X X O X O O X X X O O X O O O X O O . X X X X X X X X 1 X X X X X X X X X 1 1 X 1 X X % 1 1 X % X @ X X & X X O X @ X - X : @ @ @ X @ X & & @ @ X X - & @ @ @ & @ @ @ & O O & O @ O O @ @ & O @ O @ O O O O = O @ @ @ O & # # O O O # O @ # # O O # # # @ ; @ # # # # # @ @ # @ # @ @ O @ @ @ @ @ @ # # O @ @ # $ # $ O $ O O $ $ # O $ $ O O $ # $ o o o o $ o . X . O O @ X & @ - @ & O & # @ & # @ @ @ & @ @ : @ : & @ & X 1 @ : @ @ & & & & & & # & & & & & * * & : * & & & & & * & & & : & : : ; : : : : : : : : : : : @ ; : : : : @ : : : 1 : 1 : 1 : % % : % & @ % % & & % & % & : X : & : X X % 1 - X - @ - 1 X - 1 1 1 - - X @ @ 1 @ & & @ @ @ & @ @ X X @ @ O @ & @ @ & = % = & = X % & O % = % = % & & O & = O & = & = & = & O & O O # & @ O # O O O @ O O O # O # = = O = = * # # + * * * 2 * * 4 2 2 3 2 > 6 2 4 2 3 3 3 2 2 3 2 2 3 2 2 2 2 2 3 2 3 2 2 2 2 2 3 2 2 2 2 2 2 2 2 2 2 2 2 2 2 3 3 2 2 2 3 2 2 2 2 2 2 2 * 2 2 2 3 3 * = 2 * + * + 2 # # # & # @ @ & @ & O @ & O & @ @ @ @ # @ @ @ ",
". . . = % % . . . X % . % X X O O X = X O X X O @ O @ @ @ @ @ O O X & O = = X = @ @ # @ # @ # & & = @ @ * & * * * * * * + * * * * 8 6 6 t 8 e r r y r r r d d g x x x x x z x x i i y r t 8 6 > 3 * + * * + + + O + O O O O O O O o + o O O O X X O . O O O O O O O O O $ O $ $ O O O O O O O X X O . O O X O $ O X $ O O X O O O X . O X X O X X X X X X X X X 1 $ X X $ 1 X X X X X 1 X X X 1 X 1 X % X % X % & X % X & X & X % X 1 X X X % X @ X @ X X @ X @ @ X X @ O @ @ & @ @ @ & # @ O # # @ @ @ @ @ @ # @ @ # @ # O # @ # O # # # # # # * > 4 2 7 a y k P P %.r.r.U.{.{. XOXOXOX{.{.B.r.r.w.z.z.v.B.v.B.J.J.J.J.B.B.V.z.k.w.w.8.8.q.5.1.6.>.6.>.>.q.5.8.q.0.0.0.r.r.d.k.z.z.v.z.w.W W 8 & * @ & & @ & @ & @ O @ @ & O & X & & X @ # : @ & # # @ & & # & & : * : * : * : : * : > & & : & & & : * : * : : > - > > : * : & : * : ; : : : > : : : : : : : : : : : : & @ : : : & : & & & & & = % = % @ & @ X & % @ : @ % & & X @ X : @ 1 @ - 1 @ @ - @ @ - X X & & & X @ @ & & O & @ X & & X @ O & % X & O & O @ O % % & X & X @ & % @ X & O X & & @ & & @ % & @ & @ @ : @ & & & : # @ : @ & = @ & O @ # @ # & @ O O O @ # # + + # O # # @ @ O @ @ # + # # O # $ # $ # O O # = + @ # O O & O & O = O + = + + O O & = = O O O = O O @ = + = + O = O + + O # + O * = O O O O O O @ @ $ O @ @ @ - @ @ @ @ # @ @ @ - @ @ X @ - $ ",
"% X . . X . % . . = . % X O X X % @ X % X & O % @ @ @ O O @ O & = = O = O O @ O @ # @ # @ # # # # & O & & * * * > * * * * + 2 * * 6 6 6 8 8 e t r r r r r d g g x x i z x k k x g r s r t 8 6 4 2 # * + = + + = O O + O O + O O + O O + O O O X O O O O O X O O O O O O O $ # @ O X O O O O O @ O X @ X $ X X @ X O O X X O O X O . X X X O X X @ $ @ X X $ 1 1 $ 1 X 1 X X X 1 X X 1 X X 1 X 1 1 X % X % X % X X % X & X % X X @ @ % @ X & X : X - 1 @ & X @ X X - @ @ & @ & O @ # @ @ @ @ @ @ @ # O # # @ @ O # @ O # O # @ - # # # O # O # # * 2 4 4 6 a r k P P ,.r.r.U.{.{. X3XOXOX{.Y.B.V.z.r.z.r.v.c.B.J.J.J.J.D.R.B.V.V.k.w.w.8.6.q.6.5.6.>.>.5.>.q.6.6.9.0.q.r.r.r.r.v.k.v.v.v.r.E E 0 & # # & @ @ O & O @ & & & O @ & & @ @ & : & @ & @ & & & # & * & # : : * : & : * * : > & > : & , > : * & * : : > > : - : : : * & # : * > : : : ; : : : > : > : & : : * : & : : # & % & : & & & & & & % & & 1 @ : % % @ X @ & % & 1 @ @ @ - @ 1 : - - 1 - : X X : & @ @ X & & X X @ % X @ % O X & & X @ @ @ @ % @ & % & @ O & @ O % @ O X O & X @ O @ X % O & & @ & X X : & X & & & @ @ & & @ : @ # @ @ # @ # @ O # # @ # # # @ # + + # O O O @ @ # @ # # + # # O # @ # # @ # # O + = O = O = O O O O # O = = + + @ = O O O O & @ O & O O + + O = = O = = O O + # + + O O = O O = @ O @ # @ $ - - @ @ - - @ @ - @ @ - X - - - @ - ",
". . X X . % = . = . X X X O O X O O & = O O = @ & O # # & & * * * * * > > * > 6 6 4 8 9 8 9 r 9 t g g z C A S ~ ~ / #.#.4.p.w.z.Z.I.P.(.{.{.+XOXOXOX@XOXOX%X%X;X%X%X<X;X:X<X,X;X%XOXOX XY.].L.z.z.6.O.#.~ I S z g d 9 5 5 3 3 3 + 2 w * + * * # & O O O O O O O $ O O O @ O @ O @ O O O O @ O O O @ O O O @ O $ O O O O O O O O O O O O O O O X @ $ X - - X $ X $ X $ 1 1 $ @ X X 1 X 1 1 X X X 1 X X % X 1 1 X X @ X X X X X @ X 1 X % @ X X X X @ X @ X @ X @ - @ @ @ @ # @ @ @ @ @ @ @ @ @ @ # # # * : * : 4 > < 9 0 9 d l l z D D ~ _ ' &.r.r.J.].].=XuXuXcXZXZXZXZXZXZXZXZXZXZXMXMXMXMXMXMXMXMXZXZXAXZXZXZXZXCXZXZXZXZXZXDXAXZXAXZXAXAXAXZXAXZXZXZXAXAXZXAXAXAXZXDXSXSXZXCXCXsX3X,X X%.%.a > * & @ & & @ @ & @ & O @ @ @ & & & @ & X & & # & # & @ @ = * & : * * : ; ; : : * & > > : : : : : : : > : : > > > : : : > : & > : > : : : * ; : : * * & * * & & * : : : : : : : > > > > > : : , & * : , > , < , , > > > : > : : : : & & @ & & X @ @ @ @ @ @ @ : # & & @ @ @ X & & X @ @ @ @ @ O X & X & & % @ % X @ X @ & X @ X @ @ & & % & X & & % & O X & & @ @ : % @ @ & & @ @ @ & @ @ @ : @ @ & @ & @ @ @ @ @ @ @ @ @ @ # O O # O @ # # @ # # @ @ @ @ @ # @ @ @ @ @ @ @ @ % = & % O & X & = & = % @ X = % = % O % O & & X & & = X = % = = % % = X = = = @ @ & O O @ O O @ O O @ @ @ @ @ @ @ $ $ @ @ @ - @ @ - @ 1 @ @ 1 - @ ",
"= % O = = & = & * * > , 6 3 , t t e r r r s x x z C v A U P ~ ..O.>.6.4.e.h.w.z.B.B.L.Y.I. X|.OX#X,X:X2X1X1XuXeXiXiXpXeXpXeXpXpXeXpXeXpXeXaXuXpXpXpXpXpXpXeXuXeXeXcXeXeXeXeXuXeXeXeX1XeXuXeX1XuXeXeX<X9X:X%X%XOX{.`.P.x.v.h.9.q.1.=.$.O.O...~ A A 8 # @ O @ @ O # @ O $ @ # O O O O * : 0 8 8 9 0 0 8 0 0 0 4 0 > > : # # # O # O O O O O O O @ @ @ $ - $ $ X X X X X X $ X $ @ X X X X X X X 1 % X X % X X X X X @ @ @ @ @ @ X @ @ @ X @ X @ @ @ O @ @ @ @ @ = @ @ @ # * 4 * * 4 4 8 r 9 a j g k c G P ( / &.q.q.H.].].=X>X7XdXcXCXxXCXCXZXCXCXCXCXCXCXZXCXZXCXCXZXZXZXZXAXZXZXMXZXZXZXMXZXMXMXMXMXMXMXAXZXNXSXCXMXZXZXMXMXMXZXMXNXnXAXNXAXSXSXAXAXAXAXMXZXnXzXdXuXuX3X|.|.Y.J.H.k.0.0.8./ / a > > # & @ @ @ @ @ @ @ # @ & O % X & @ @ @ & & & & & & # & & & * * : * > , 4 4 , 4 6 6 6 0 8 8 6 8 8 8 9 r 8 9 9 9 a d a a y a a r a a a a a a r a s g g x x z z z z A N D S F I P W ~ ` _ _ O._ #.>.>.>.5.8.5.5.5.,.' ' _ ` / / P A A C x j g a a 8 , , > @ @ @ & @ @ & @ & @ & @ & & % @ % @ % O @ % O O X & O & @ % @ O X & & O % X @ @ @ O % @ @ X @ @ & X & & @ - & : X 1 @ & & % & & & % & & % & @ : @ & ; @ # ; # @ & & @ & = & @ @ # ; @ @ # @ # @ @ @ @ @ - @ @ # @ @ & = X @ & & & & X X & @ & & & X & @ & & & @ & & @ @ & & & @ X & & = & = & @ & @ @ # & @ & X @ @ @ @ $ @ O @ $ @ @ $ ; - @ @ @ @ - @ @ @ @ X @ X @ ",
". = % = @ @ # & & * , , , 6 6 e e e t r a s x j z v A D U P / +.O.,.6.6.9.w.w.z.B.B.L.Y.Y. XOXOX%X,X,X<XeX1XuXuXpXpXuXuXeXeXpXeXrXpXpXaXeXpXpXpXpXpXpXpXpXpXeXuXeXeXeXpXeXeXpXpXeXuXuX1XqXuXqXqX1XqX1X1X:X%X;XOX].].L.c.c.h.9.9.1.&.$.#...*.W v A e $ # o O @ O O O @ $ @ O $ # @ O ; > 0 0 0 n 8 0 0 0 0 : > < ; ; < - # # O O # o # $ o $ $ $ $ O O @ @ $ X X @ @ $ @ $ @ $ $ X @ @ $ X X @ @ X @ O X @ @ X @ X % @ X O O @ @ O O @ X % % X = & = @ @ & & & & @ @ # # * , * , 6 6 6 t 9 a j g k C C E W / %.w.q.J.].].3X>X7XdXxXCXCXZXZXZXZXCXZXCXCXCXCXCXCXCXZXMXMXZXnXAXNXZXZXZXMXAXMXMXMXNXNXnXAXMXNXZXAXNXNXZXAXAXZXNXNXNXNXMXNXAXAXSXNXSXnXAXAXZXSXnXnXnXsXqXeX=X|.+XW.J.H.k.q.9.q./ / a > * & & & @ @ @ & O @ @ @ @ @ & & X & & & @ % & & & & & & & * & & * & > , > , , , 4 0 6 , 8 0 8 8 8 8 e 8 p 9 8 a p r a a a a a a a a a a a a a s s s s g x z z z x A A A F D I E U ~ ` ` _ ' O.O.,.,.>.4.5.8.5.8.,.' #._ / _ ` P A D z j x g r a 8 , , > & & @ & & & # & @ & @ @ & X & & @ @ X & X O % @ @ @ X % @ @ X & X & X X & X @ @ % @ X X & % @ O X & & : @ & & @ : @ & @ & % & % & & & % & & @ & : # & & & # @ & @ & & @ & & O & # @ @ ; @ @ @ & @ @ & @ @ @ @ - @ @ % @ & & @ & @ X & & & X & : @ & : @ @ % @ @ & @ : & @ & X X : & X & % & & @ @ # @ @ @ @ @ X @ @ @ @ O @ @ @ @ @ @ ; @ @ @ - @ @ @ - @ @ $ X @ X @ ",
"= , 6 x D v P ~ / #.q.8.r.v.V.B.L.T.Y.OXOX=X2X<XeXuXpXpXsXcXzXnXzXsXzXzXsXsXsXaXaXaXaXsXaXzXaXsXaXzXaXaXaXaXaXaXaXaXaXaXaXaXaXaXpXpXrXeXpXpXrXrXeXrXrXpXeXrXrXeXeXpXeXeXeXeXeXeXeXeXuXeXeXeX1XeX1X>X<X<X:X;X-X&X-X-X=X#X#X@X.X|.}.[.[.[.I.I.v.' ' 8 # $ # O @ # @ O O # @ # # $ O 0 ' ' v.J.R.U.R.R.R.R.J.H.r.q.q.5.t.*.Q R l 4 4 w + # # # # # $ @ $ @ $ @ O @ $ @ O @ @ $ # $ $ O $ + O O $ $ @ @ & O O # O @ O O = O % % O = @ @ @ @ & & = & * , , 6 e e r g g z A A P _ _ ,.q.w.B.L.L.].|.OX;X,X,XdXCXCXCXZXSXAXSXZXDXSXSXSXZXSXSXZXCXCXCXCXMXCXMXZXMXZXZXZXZXZXAXMXZXZXAXAXZXZXAXZXAXAXAXZXZXNXAXCXAXAXAXSXAXAXAXZXAXNXAXAXMXNXnXSXnXCXnXsXvXaXqXqX-X}.}.P.l.p.9.7.1.6.6.6.t.7.7.6.q.) / d 6 , = O O O & @ @ & @ @ & @ @ & @ : < < e , , > , * , e e t g g x A A I ~ Q ) ' ..#.&.&.>.5.>.q.w.w.w.h.z.z.z.B.v.J.L.L.U.I.T.Y.Y.T.I.T.Y.Y.{.(.{.OX+X%X;X;X;X;X:X<X<X<X1XeXeXeXpXpXpXpXpXaXcXeXcXzXlXcXsXsXzXpXaXpXpXpXpXuXuX1X1X<X1X,X%X%XOX].Y.v.>.>.P g g , & * # & @ & @ & % & & @ X X & & X & & X @ % O & O @ & @ & O O & & O & & @ O & & & O @ @ & & & @ @ @ X & & X : X & % & : & : X % % & % : & X & @ X & & % % & % O % = % & % & @ & - @ @ & @ @ & O @ @ @ @ - @ & @ % & X & X & & & & @ @ & @ % @ % @ : @ : : X & X @ & & & & @ @ & & & % = @ @ @ @ @ @ @ @ O @ X O X X @ X X @ @ X - @ - $ @ @ - @ @ @ @ - @ @ - X ",
"6 %.#.T.3X4X,XuXpXxXxXxXCXCXMXMXCXMXZXMXnXCXMXCXMXnXnXnXnXxXxXnXnXnXxXnXnXsXsXjXsXsXzXaXaXaXaXaXsXcXsXaXzXaXaXzXaXsXaXaXaXaXrXaXrXpXrXaXrXpXpXrXpXeXwXqXrXeXeXqXeXeXqXeXeXeXqXeXeXeXeXeX1XeX<X&X:X%X%X#X#X%X@X#X#XOX#X#X#X@X@X#X+X(.`.L.k.z.5.R W > @ $ $ # # @ # @ # o # + o + O *.1X1XCXxXxXCXCXCXCXSXSXSXSXSXDXSXAXjX|.|.6.) ) Z f y 4 w # + O $ O O O O X $ @ O o # $ # $ + O # # o @ # # # # O # O # # # > * * , > , t e s j x c A A I / / ] 8.4.r.J.D.T. X+X;X1X1XpXnXxXCXZXZXCXZXZXZXZXZXZXZXZXAXZXDXZXAXZXDXAXZXDXSXAXAXAXAXAXZXAXAXZXZXAXNXAXAXZXZXAXNXNXAXAXAXAXAXNXAXZXAXAXAXAXNXAXAXAXAXAXAXAXAXAXAXZXZXMXnXMXnXaXaXwXqXqX:X#X#X[.W.W.V.f.d.9.1.9.8.6.6.6.7.7.7.6.9.q.7.7.7.6.( ( k t e * O @ # O & @ & @ & & @ @ & - : 5.5.v.,.5.' ` _ ] 4.4.V.T.Y.OX1X1XpXaXaXxXsXxXsXsXxXxXxXzXnXxXMXxXxXMXnXMXxXnXMXnXMXxXCXxXnXxXxXMXxXnXxXvXxXzXzXcXzXzXgXzXsXzXsXzXvXsXgXsXjXvXsXvXzXaXvXaXaXaXzXzXeXgXsXgXaXsXsXaXzXaXpXaXzXxXzXaXaXpXzXaXcXzXsXaXdX>XY.T.>.N v , & & @ & @ : & & % @ : @ @ & & @ @ O @ & @ @ & = @ & @ @ O O & & O & O & O @ & O @ @ # @ # @ : @ : & & @ & @ : & X @ & @ & @ & X @ @ % 1 @ & & % & & % = & & & & % & @ & & @ & @ @ X @ X & @ @ X & @ @ @ & @ @ @ @ @ : X @ @ @ X & & @ @ & 1 @ : X @ : & @ : @ - @ @ : & @ @ - @ : @ - - @ - @ @ @ @ $ @ @ @ @ X O X @ X - X @ $ - $ @ O @ @ @ $ @ X X $ @ ",
"6 &.%.Y.OXXX>XuXuXcXxXxXCXnXCXMXMXCXCXMXMXMXCXCXMXnXMXnXnXnXnXnXgXsXnXzXgXsXjXsXsXaXzXaXzXaXzXsXsXaXsXzXaXsXvXaXzXaXzXaXaXaXaXaXiXrXiXrXpXrXiXpXrXrXpXrXqXeXeXeXqXeXeXpXuXeXpXeXeXeXeXeXqXqX<X;X;X%X#X#XOXOX#XOXXX#X#X#X#X@X#X@X+X`.`.I.k.k.&.E E > # @ # $ # @ @ O O # $ # + $ # %.2X2XCXCXCXCXCXCXSXAXGXSXSXSXSXSXZXjX|.}.9.) ) G l d 5 + ; # @ # O O X $ X @ O O o o # $ + o + o + $ # @ O # # + # # # # # > * * , 6 e e e s j g v D I I / / #.>.4.r.B.D.T. X+X,X1XuXpXxXxXCXZXZXZXZXZXZXZXZXZXAXZXAXZXZXDXAXZXDXZXDXAXSXDXZXZXAXAXAXAXAXZXDXAXZXAXAXAXAXZXAXMXAXMXAXAXZXAXAXDXNXNXDXAXAXAXAXAXAXNXAXAXAXAXAXZXNXZXMXnXzXaXsXpXqX6X:X#X#X_.I.P.C.f.f.0.9.4.1.6.6.6.2.8.6.7.7.7.7.7.7.6.( ( b r t & & O @ & @ @ & & @ X & & X : : 5.5.v.,.5./ _ ` #.8.8.V.Y.T.OX2X2XpXdXaXsXxXgXsXxXnXxXnXnXxXxXxXxXxXxXCXxXMXCXxXnXMXMXxXMXMXCXCXnXnXnXnXxXxXzXzXzXzXzXzXsXvXsXnXzXzXsXnXgXsXaXsXvXsXgXzXaXvXaXaXaXzXsXgXsXaXiXxXaXpXzXpXaXaXaXzXsXaXcXaXzXzXcXzXsXaX2XT.T.1.v N , & # @ & # & X & 1 @ X 1 @ @ X X & % @ % @ @ # @ @ O & @ & @ @ @ @ @ & @ # O & & @ & @ # @ & @ & @ @ 1 & @ & X & @ : X : @ & @ & & : - @ : X = & & & & & % % = = & % & % & & % & X & @ % O % & O % @ X @ X & X % @ @ X & @ : 1 @ @ & X & @ @ & @ : & & X & X : X : - % @ & : - 1 - - - @ @ @ @ # O @ @ O O X X @ X @ X @ X - X @ @ @ @ @ $ $ @ X $ $ @ @ @ ",
"c ].].sXsXsXsXsXsXsXzXjXnXnXnXmXnXnXnXnXnXxXnXnXxXnXnXnXnXnXjXnXnXxXjXnXsXjXjXjXgXvXvXaXzXvXvXzXvXsXaXvXaXaXvXaXaXgXaXvXrXrXgXaXrXrXrXrXrXrXrXeXrXwXqXrXeXrXeXqXeXeXqXqXpXqXrXpXpXrXeXeXqX>X@X+X+X@X|.@XOX|.@X|.XX|.@X@X#X@X+X+XS.w.s.1.*.#.+.c L ; # $ # # # $ @ $ # $ o # O r 9 ].xXCXjXCXnXnXCXCXkXCXSXSXCXCXSXmXCX>Xc.n.6.-.$.#.} [ F k l 0 * # # O @ @ $ O O O # # * 4 y k h k k h g d d j C G D F E E / _ ..#.>.>.q.r.r.L.Y.Y.OX;X;X2XuXuXcXzXsXxXxXxXnXsXcXxXxXxXnXCXnXMXZXCXnXCXCXAXSXSXAXZXAXDXAXSXAXAXGXDXDXAXAXGXZXDXDXAXAXAXAXAXAXAXAXAXNXAXAXMXNXmXnXnXnXjXvXsXrXaXiXpXrXeXrXrXeXwXwXwXqXqXqX9X9X:X$X;X@X}.}.(.S.S.c.g.h.i.7.7.7.2.2.1.2.2.3.6.7.7.7.6.6.7.9.6.9.7.9.7.0.7.7.( / A s d , = @ @ @ @ X & & X & & & @ @ z ,X2XCXjXjXdXpXpXaXzXzXzXsXsXzXaXaXaXaXaXaXaXrXrXpXrXrXrXaXaXzXzXsXzXsXvXsXgXaXsXgXsXgXxXsXgXsXzXgXjXsXgXgXjXzXsXzXsXgXaXgXsXgXgXgXjXsXgXsXgXgXsXgXaXgXrXaXaXyXaXaXrXaXaXaXaXaXaXaXaXaXaXaXaXaXaXaXaXaXaXaXaXaXaXaXaXsXsXaXaX X}._ 8 8 # # & @ & X & X - @ @ @ & & X & & X O @ @ & @ O & @ @ @ & O & & O & @ @ @ @ @ @ # @ & @ & @ & X & @ : @ & @ : @ : @ & @ & @ & @ & @ & @ & O = = & & & @ = & O & O & & & = = X = % = % X = @ O @ = = O O = & X = X & @ X @ & @ & & & X @ @ & @ & & & # & & & @ & @ & & @ - - @ @ ; @ # @ @ @ @ $ @ @ @ @ X @ O % @ X @ X @ X - @ @ @ @ @ @ O @ $ O # O ",
") =X-XaXfXdXaXaXsXsXaXaXaXsXaXzXnXzXnXnXnXnXvXxXvXvXvXnXnXvXnXjXnXjXjXnXnXjXnXjXnXgXvXgXvXaXaXgXgXaXsXgXaXvXyXzXaXaXgXgXgXgXaXtXyXaXrXrXwXrXqXrXeXeXwXeXwXqXqXrXuXwXrXuXwXpXqXqXeXqXqXqX<X<X%X+X+X+X|.|.|.+X+X.XOX.X@XOXOX}.C.C.<.O. .#.*.+./ n n ; + # $ # @ # # @ $ # + O + ( ` qXCXxXCXnXCXnXnXmXCXSXSXCXSXSXCXuXqXn.$.$.*.$.#.$.*.@.*.+.+.Q C C p @ @ O @ @ O 2 # d U U &.9.9.9.7.7.1.0.0.J.}.#X=X;X:X,X2X1X1XpXdXpXcXxXcXzXcXcXxXcXcXcXzXsXaXzXaXpXaXpXpXsXzXxXCXnXMXCXSXSXSXZXSXAXSXAXAXAXAXDXAXAXSXAXSXCXCXCXjXjXxXsXsXaXpXwXrXqXeXqX6X6X6X:X$X$X#X@X.X}._.`.`.W.^.P.A.D.Z.C.C.C.x.b.b.z.z.g.g.g.h.s.s.e.9.e.9.3.3.1.4.8.3.1.1.3.7.7.2.3.2.3.2.3.7.7.7.7.9.7.9.9.7.9.9.u.7.7.7.q.6.( _ z g j * & # @ # @ @ @ & & & @ @ & # q.1X1XdXSXSXSXxXnXvXzXvXgXgXgXaXgXaXgXiXaXrXaXaXgXyXaXaXaXgXgXsXzXgXsXsXjXjXjXjXnXjXjXjXjXsXjXsXjXsXjXjXnXjXjXzXvXgXzXzXvXjXjXjXnXsXnXjXjXjXgXsXgXaXsXsXgXaXgXaXgXgXsXgXgXgXaXaXgXgXaXvXaXgXaXaXsXzXaXzXaXgXaXaXaXvXaXaXvXvXgXiXaX#X&.>.g 0 0 > ; & @ & X @ 1 X X @ @ X @ & & @ @ O & & @ # & O & # @ @ @ O & @ & @ @ @ @ @ # # : : @ : @ & @ : @ & @ & # & @ & # & @ & @ & # & # & & @ & = O O & @ = @ = = O O & O = % O = O = = O & O O & & & O = O & = @ @ @ @ O @ & O @ @ & @ @ # @ O = & @ @ # & @ @ O & - @ @ - @ @ @ @ @ @ @ # @ O @ O X @ X @ O X @ X X $ $ @ X $ X O X $ $ @ $ # $ O ",
"~ =X=XaXdXsXgXsXaXsXaXsXsXlXaXzXzXvXnXnXnXnXvXvXnXvXvXvXvXnXjXnXgXjXjXjXjXnXjXjXjXjXgXsXaXaXvXzXgXgXzXzXgXaXaXaXvXaXgXrXrXrXgXrXfXrXrXrXrXwXwXrXwXqXeXwXqXrXwXrXqXqXwXqXuXpXeXrXpXqXpXwX<X<X@X+X+X}.|.+X+X.X|.|.XXOXOX#X@X XC.Z.<.O.O.#.+.+.) n n # # # $ # # @ @ @ # $ O # # ( / qXMXxXCXnXnXnXCXmXmXCXSXkXSXSXSXqXqXn.&.$.$.%.@.$.*.$.@.+.+.P c c n O @ @ @ O O # # d U U $.q.7.9.7.8.6.0.q.J. X=XOX;X,X3X1X1XeXpXpXcXcXcXzXxXcXzXpXcXxXcXxXsXzXaXaXaXpXdXaXsXsXnXnXxXnXCXCXCXSXSXNXZXAXZXAXSXAXAXAXAXAXAXSXCXCXCXxXCXsXsXaXiXiXwXrXqXqXqXqX6X6X:X&X$X#X.X.X|._.`.^.W.W.S.D.A.Z.C.C.b.b.x.x.g.g.g.g.f.h.s.d.9.9.e.4.8.3.3.1.3.3.4.3.2.3.3.7.2.3.2.3.3.7.7.7.7.6.9.7.7.7.7.6.u.9.7.7.8.7._ _ C g g 6 = & # @ @ @ & & @ @ # & * # 5.1XuXsXCXSXCXnXnXzXgXgXgXgXfXgXaXaXrXaXiXaXaXrXiXrXrXaXvXgXsXgXsXaXjXjXsXgXjXsXjXjXjXsXsXgXsXnXsXjXjXgXjXjXsXzXsXgXsXzXsXgXjXjXjXjXgXjXsXgXsXgXgXsXgXaXsXaXsXsXsXgXaXzXaXaXaXaXvXaXsXaXaXgXgXzXaXaXgXaXgXgXaXaXzXvXaXsXgXaXgXaXaX#X&.>.s 0 0 > 1 # @ X - @ X & @ % @ & X O & O & @ @ @ @ & O @ @ @ @ @ @ @ @ # @ @ @ @ & # @ & @ @ & @ & @ & @ & # @ @ & # & @ & # & & @ @ & & # & = & O & O & = O & & O = = = @ & % % = % = & X @ = & = & O & O = @ & % & % & # @ & @ & O & @ & @ & & & & & @ & & & & & O & @ @ - @ @ @ @ @ @ @ @ O @ $ # @ @ @ X X % X @ @ - - $ X O X O X O O O O $ O $ # ",
"1.qXqXpXfXiXiXiXwX|.^.(.I.W.U.^.]._.+X&X%X9XeXqXrXaXaXvXzXvXnXgXnXjXnXjXjXjXjXhXhXvXsXvXvXgXaXgXzXgXgXgXgXvXgXgXyXaXgXgXgXgXrXgXyXiXtXwXwXrXqXqXrXqXwXqX9X9XqXqXqXqXeXqXqXqXqXqXrXrXqXeXeXeX<X&X%X@XXX.X|.}.|.@X+X|.@X@X+XZ.<.,.......O.+.#.F 0 4 ; $ # # # # $ # O O # + o 4 J.J.sXnXnXnXCXkXnXCXnXCXkXCXCXCXCXiXP.P.$.+.#.;.*.*.-.*.*.*.*.#.%.*.*.c @ O O $ @ 4 N N *.k.p.l.k.h.p.0.9.d.].(.aXxXsXxXsXsXaXaXaXpXaXpXpXcXeXpXpXpXcXpXzXsXaXsXsXsXsXsXnXnXnXxXCXnXCXMXnXCXjXnXnXsXaXpXwXqXqX7X>X,X=X=XXX|.|.|.[. X].I.I.I.K.K.m.Z.n.C.M.l.l.l.f.f.d.p.s.u.7.u.7.2.3.1.1.1.2.<.2.2.4.1.1.4.2.4.4.1.1.4.3.1.1.1.4.3.1.9.3.8.3.9.1.7.3.7.7.7.u.7.7.7.7.7.3.9.7.9.7.9.7.9.7.9.9.7.9.9.q.7.7.9./ ~ N z g 6 & & @ # @ @ & @ & & & O 6 < J.uXqXaXmXnXNXCXnXvXmXnXvXvXvXgXgXgXgXgXgXgXgXsXgXvXaXgXvXgXvXvXvXvXgXnXnXnXnXnXjXnXjXnXnXnXnXjXnXnXjXnXjXnXjXnXnXnXvXnXnXnXjXnXjXjXjXnXjXnXjXgXzXgXsXgXgXgXgXgXgXaXvXaXgXvXaXgXaXaXgXsXgXaXsXaXgXgXaXaXvXaXaXgXgXgXgXlXlXaXrXqXqXqXOX#Xz.q.q.5.' / c , < & & @ @ @ @ @ @ @ @ # @ @ # & O O & @ & O & @ # @ @ # @ # @ # @ # @ # @ : @ : @ & @ & @ & @ & @ @ @ @ @ & O & # & @ = & O & O & = = . O = O = O O O O X O = O O X O = O O O # = O = = = * & * * & : > , , 6 6 e 6 e 8 8 , , , * * > > * * * * * & * # @ @ O O @ O @ O # $ # @ @ @ $ O X @ O @ O X @ X @ X @ $ O $ O $ O # @ 2 4 5 9 ",
"k.qXwXpXpXpXpX`.`.q.1.1.1.>.1.>.<.4.3.s.s.h.C.C.C.G.S.^._.).}.@X@X#X&X$X6X9X6XwXwXwXrXwXwXrXrXtXaXiXiXtXwXrXwX9X0X5X5X5X$X$X$X*X.X_..X_.)./.`.!.^.^.W.W.^.^.T.W.!.W.W.W.T.W.`.^._.@X@X$X5X<X9X9X<X:X-X-X%X#X#X$X#X%X#X|.|.i... .O. .O.O.+.+.c : > # # $ # # $ # $ # # # o + F =X=XnXjXjXnXnXmXmXnXnXmXCXmXSXjXjX}.1.1.} +.+.*.$.&.&.*.*.%.*.*.*.#.+.r O @ O # # b t.*.k.k.k.H.q.0.p.0.p.l..XXXaXxXxXxXcXcXpXaXpXpXpXaXpXcXaXpXzXpXaXpXaXdXaXaXpXiXiXpXqX8XqX6X:X:X=XXXXX{.(.^.T.L.D.C.c.b.z.z.h.d.s.d.d.9.e.e.9.9.9.8.9.7.7.6.7.7.9.3.7.9.9.9.9.9.3.9.9.9.3.7.9.3.9.9.9.3.9.9.9.3.9.9.3.3.3.u.9.3.7.3.9.9.3.7.9.9.3.7.9.3.7.3.7.9.7.7.9.9.3.7.9.3.7.7.9.3.9.9.3.u.7.9.7.9.9.7.u.0.7.7.0.9.U ~ C j k 6 * * # # & & X & & @ # + g d `.eXqXvXnXnXvXqX7X%X*X#X*X@X@X$X$X#X$X:X5X6X9X9XqXqXrXqXrXrXwXqXrXwXrXqXqXqX9X9X9X:X>X:X&X&X&X&X$X$X%X$X#X#X@X@X*X%X*X#X*X*X%X&X&X&X&X:X:X:X6X7X6X7XqXqXqXqXwXqXwXqXrXwXwXeXrXrXrXiXrXiXrXiXrXwXwXqXqX0XqXqXwXqXwX0XqX9X&X&X*X}..X.X+XOXOX XOXY.J.v.%.j j : - @ X @ @ - @ - @ @ # @ @ @ @ @ @ @ # O @ @ @ # O # @ @ # @ # O # # @ @ @ # & @ # & @ @ O # # @ # @ # # @ @ @ @ @ @ @ O & > > 8 r r s z v v I I E E W P ~ W T / W ` ` _ ] ,.,.,.,.,.,.8.,.>.8.5.8.8.e.e.e.r.r.r.r.r.w.e.e.e.8.e.q.8.8.8.8.8.8.>.5.,.] ] ] / ` W W E W R D a @ - @ $ @ @ O @ @ @ @ @ O O O 4 6 k ~ / %.q.0.q.H.c.J.",
"J.uXiXpXiXwX-Xi.9.>.4.6.1.1.1.6.1.4.,.<.<.<.o.<.<.4.<.4.4.4.3.9.3.s.f.f.f.M.M.b.n.b.Z.C.C.C.b.C.b.b.C.C.n.C.b.M.b.g.f.f.a.s.i.i.i.i.i.3.3.y.4.3.3.7.3.2.1.4.1.4.y.4.4.3.3.3.3.3.3.s.s.g.C.C.S._._.}.XXXX@X=X#X-X%X-X#XW.Y.<... . .o...X._ +.d ; # $ # $ # # # # # # # $ # + 8.aXaXnXjXnXjXnXjXnXnXmXmXmXjXjX6X:Xl.....} ..+.@.@.*.*.&.$.$.*.%.$.F D # @ O # 4 > ) p.0.a.p.a.p.p.0.p.p.0.z.#X@XsXnXxXxXaXaXaXpXeXeXeX<X>X;X#X%XOX X}.].(.(.W.P.W.P.G.P.A.Z.n.n.x.x.l.k.h.d.s.0.9.9.9.9.8.9.9.9.9.9.i.q.9.9.9.9.i.9.i.9.0.0.i.p.9.i.9.i.9.9.i.9.9.u.9.9.i.9.9.9.u.i.3.9.9.u.9.i.9.9.9.u.9.u.y.u.y.y.u.9.9.9.9.u.9.7.9.u.9.9.7.u.7.3.7.7.3.9.7.u.9.7.9.9.3.7.u.9.7.7.7.7.9.7.7.7.9.7.7.7.7.1.I I N k k 8 * * & & & @ & & @ # @ & z A  XqX1XaXiXiX#Xx.x.s.9.9.3.3.9.3.9.i.s.f.f.j.V.x.C.C.C.C.C.Z.c.b.x.x.x.g.f.h.h.d.h.s.s.i.e.9.9.9.e.3.9.3.9.3.9.e.9.3.3.e.i.e.s.s.s.s.h.f.h.f.g.z.g.z.x.l.c.b.V.C.Z.Z.C.D.Z.D.D.A.A.P.J.J.J.A.Z.C.C.Z.C.V.C.C.b.b.C.g.g.a.i.s.3.3.3.9.6.8.6.5.5.] ] ] W c x : 1 X O O X $ @ @ # @ # # @ @ O @ @ # $ # $ O O $ # $ # O # $ # O # @ # # @ O O @ # # # * * * * * > 6 6 8 9 a d z z P _ ` ,.q.8.k.B.V.L.T.L.{.{.+XOXOXOX+X%X%XOX%X%X%X%X%X;X<X2X<XcXlX<XeXcXpXpXpXpXcXlXcXcXcXeXzXpXcXcXcXeXpXeXcXpXpXeXpXeX1XcX1XeX<X<X<X;X%X%X+X+X X3XY.].E - @ - @ @ @ @ $ @ O O O 4 0 ~ v.v. X1XuXxXCXCXSXDXDXDX",
"J.iXiXuXqXpX;Xe.e.1.6.4.4.6.1.1.1.<.=.<.<.<.,.,.<.4.<.2.4.3.3.9.9.s.f.a.l.M.f.b.n.b.C.Z.Z.b.C.b.C.b.C.C.b.Z.m.M.b.g.f.f.s.i.a.i.i.i.i.3.y.y.4.2.3.3.3.4.3.3.1.3.4.2.4.y.1.3.3.3.y.f.s.g.C.C.G./.`..X@X@XXX$X$X=X&X%X@XW.W.4. ...O...O.O.+._ d ; # # # # # # $ # $ # # o + # 7.iXaXnXnXjXjXnXjXnXnXkXCXCXmXnX:X-Xk.......+.} #.*.*.*.*.&.$.*.*.*.E P # @ O # 4 4 ) 0.t.H.p.p.p.p.d.p.i.0.l.#X@XaXsXzXzXaXaXpXpXqXeXqX>X<X;X%X%X@X|.}.`.(.(.I.P.E.E.P.S.A.n.m.b.x.x.l.f.h.d.9.9.e.9.9.9.9.9.9.9.9.9.e.i.i.e.i.9.w.e.9.9.9.9.0.0.9.9.9.i.9.i.9.i.9.9.9.9.9.9.9.u.9.9.i.9.9.9.9.9.9.9.i.9.9.y.9.u.3.u.3.9.9.9.9.9.9.9.u.3.9.9.3.7.7.3.9.7.u.7.9.3.9.9.u.9.9.9.7.7.u.7.9.u.7.7.u.7.7.u.7.6.7.6.U P N k k 8 * * # # & & @ & O @ # O A C |.1XqXrXiXfXXXx.x.p.9.9.3.4.9.y.i.i.i.f.h.l.g.x.C.c.C.C.C.C.C.V.b.x.g.g.g.h.d.d.s.s.s.s.9.s.9.9.e.9.3.3.9.3.9.9.3.3.e.i.3.i.s.e.s.s.s.s.f.h.h.f.l.x.x.l.c.C.b.Z.C.C.Z.Z.Z.A.S.D.P.A.P.K.A.A.D.C.C.b.C.C.g.b.b.b.C.g.M.d.9.s.3.3.3.8.4.6.8.5.>.] ] ] W x x & . O X $ O O @ @ ; # # ; X @ @ O @ O # O $ # O O @ # # O O @ O # @ # @ # @ O O # # # & * & * 4 > , , 4 8 9 r d z z P _ ` ,.9.8.r.V.V.B.R.T.Y.+X{.OXOXOXOXOXOXOX%X%X%X%X%X<X<X&X1X1XeX<XeXeXeX1XeXpXcXeXcXeXlX1XpXzXeXcXeXcXeXpXeXeXcXeXeXcXcXpXeX1X1X<X<X%X%X%X%X+XOXOXY.Y.E - - $ @ $ O @ # $ O O O 0 6 ~ v.v.}.1X>XsXCXSXSXGXFXFX",
"W.pXpXiXqXiXL.1.4.1.4.1.8.6.8.1.1.8.4.4.4.4.4.<.<.4.4.4.<.<.<.<.<.<.2.<.<.1.2.<.=.2.<.=.<.=.;.;.=.=.<.;.;.;.;.-.<.=.-.=.;.4.;.;.;.=.4.<.2.;.-.y.=.-.=.1.=.=.<.=.4.;.-.;.1.=.=.4.<.;.<.<.<.<.4.4.3.u.d.d.l.x.x.x.x.V.v.e.q.o.O.O.X.....#.) ( 8 # ; # # $ # + $ # # # # # q n U.nXjXnXjXnXnXjXnXnXnXnXmXjXjXwXK.J.#....._ +.+.+.*.$.%.*.*.#.%.%.[ 0 8 # @ & # 9 9 *.p.q.p.p.k.p.r.0.0.p.d.d.J.D.(.(.(.(.Y.W.I.P.P.J.Z.Z.b.c.x.l.h.d.h.d.e.d.p.e.s.i.i.s.9.i.i.s.i.i.0.e.i.e.e.s.e.e.e.s.9.9.9.s.i.p.i.i.i.e.i.9.0.9.d.p.u.p.u.i.i.p.i.i.i.0.u.p.9.i.9.i.9.i.9.i.9.9.i.9.i.9.u.i.9.9.9.9.u.9.y.u.y.u.9.9.u.u.9.3.9.9.9.7.9.7.9.u.9.7.7.3.9.3.9.9.u.3.7.9.7.9.3.9.9.9.9.9.7.7.7.7.7.0.7.7.q.7.I F z z k t > * * & & & @ % & # @ & U P OX:X:X6X>X6X}.x.b.7.@.#.O... . .X...X.o.;.=.<.<.$.<.$.$.<.#.$.$.o.$.o.@.@.o.X.X.o.o...o.o.o.o.o.o.o.o.o.o.$.o.o.,.<.o.;.,.=.,.$.$.$.=.=.$.$.$.=.<.=.=.=.=.$.<.<.$.<.$.=.1.=.<.<.$.1.=.=.1.<.<.=.=.=.$.;.=.o.$.$.$.Y Q V Z Z S S S I I P I D D v v v v 8 e O   $ X   . 0 [ / &.>.5.5.t.&.&.#.+._ / ) ^ ~ / ) ~ ) ) / / ( [ ( } _ +.' ..*.+.*.#.%.>.4.<.8.q.0.0.k.k.c.J.B.U.(.].|.;X=X2XeXeXeXeXeXeXeXcXzXaXzXeXpXzXzXpXzXzXpXaXzXeXzXeXcXlXlXcXcXlXcXcXaXzXpXaXeXlXeXlXeXcXeXpXlXeXeXlXcXcXlXeXlXcXeXeXzXcXaXpXlXcXeXzXeXcXaXpXdXdXR.J.l - @ @ @ @ O # $ # O + j v.c.>XAXNXDXAXDXAXAXDXSXSXSXAX",
" XuXqXpX:X:Xw.1.1.1.8.1.8.1.1.6.4.1.4.4.4.1.4.4.4.4.4.2.4.4.1.1.4.2.4.2.3.1.1.2.4.2.2.2.2.2.2.2.3.y.-.-.2.-.y.-.1.-.2.-.-.2.-.y.4.-.2.<.<.2.-.-.2.-.-.4.1.<.4.=.-.-.2.y.2.<.;.y.<.<.<.y.o.;.<.;.=.=.=.=.-.=.<.1.1.,.<.$.$.@.X.+.O.o.O.@.U U 4 ; ; $ # # $ $ # # # @ # # F D =XnXCXjXnXnXgXnXhXnXmXjXnXgXjX}.-.7...' #.+.+.+...*.#.@.*.#.&.%.*.j # ; # * * * g g t.H.q.p.t.H.p.p.p.p.p.i.0.p.w.d.d.d.d.s.i.i.e.9.9.9.e.i.e.i.9.s.i.9.s.e.s.e.s.s.s.i.s.i.s.9.e.e.9.s.e.9.i.s.e.3.i.s.9.e.9.s.9.e.i.s.i.9.i.e.i.s.i.i.i.i.i.i.i.u.i.i.i.i.i.0.p.9.9.s.9.i.9.9.i.9.i.9.9.9.9.i.i.9.i.9.9.9.9.u.i.9.9.9.9.9.9.9.3.9.9.9.9.u.7.9.u.7.3.7.3.7.3.7.7.7.7.7.7.3.3.7.7.u.7.9.9.9.7.7.u.7.7.7.7.7.6.R S N k k r t 8 * & & @ & @ @ @ # # / / #X:X:X:X:X>X-X#X#X}.^.^.C.h.h.3.;.=.o.X.X.X.X...o.,.=.1.<.1.<.<.=.1.=.<.<.$.<.=.<.$.$.=.<.$.$.$.<.$.$.=.=.=.<.<.<.$.<.=.=.<.$.<.<.=.1.$.<.$.<.=.=.=.1.=.<.$.=.$.$.<.<.<.$.=.,.$.=.=.=.=.<.$.o.=.=.$.=.=.$.=.=.;...V Z h f h f x u C A I v v v v v v e % : . .   . O . /  XOX2X1XuX1XuX1X>X<X1X:X;X;X=X;X;X;X;X=X;X;X;X-X:X:X;X;X<X<X>X>X<X<X<X1X1X1XqX1XeXpXuXpXpXdXaXcXzXsXxXxXsXaXaXaXzXzXaXzXzXzXrXzXlXzXaXrXzXrXrXeXrXaXaXeXaXeXlXzXrXeXaXlXlXzXeXaXaXaXaXeXpXaXeXaXrXaXaXeXzXeXaXaXeXrXzX1XeXcXrXaXaXpXaXeXpXaXpXaXrXaXzXpX{.E F - - @ @ @ @ @ $ O O 9 t I.MXnXGXFXAXAXFXAXAXFXSXAXAXFXAX",
"].qXuXwX-X-Xd.1.8.1.6.1.1.6.8.1.8.1.>.1.4.1.4.1.4.<.<.2.1.4.1.4.1.4.4.1.1.1.1.3.2.2.4.4.1.2.-.2.2.-.-.y.-.-.-.y.2.4.2.2.2.-.y.-.2.<.<.<.2.;.-.-.;.2.-.2.<.2.-.4.4.<.<.<.<.4.<.<.<.;.<.<.;.;.;.<.=.=.=.<.$.1.=.<.1.<.1.$.$.@.X.X.o...o.$.E U , # $ # # $ # # $ # # @ # $ I F 3XnXnXnXgXnXnXvXnXkXjXnXNXgXgX}.1.1.+...+.+.' ' #.+.#.*.#.%.#.*.*.k > # ; * & * g j q.p.0.p.p.p.p.u.0.p.i.p.0.d.s.d.d.w.p.w.w.s.s.i.i.9.9.i.y.e.e.i.9.s.e.i.y.e.e.i.s.e.s.y.s.3.s.e.w.9.e.s.e.i.i.s.e.i.s.i.i.e.s.9.s.9.9.d.s.9.p.i.w.i.p.9.0.i.i.0.p.9.i.0.i.i.i.9.i.9.i.9.i.i.i.9.9.9.i.9.9.9.9.9.i.9.i.9.9.9.9.u.u.u.3.9.9.9.u.9.9.u.3.7.9.3.9.9.7.7.9.7.7.7.7.3.7.3.9.7.3.7.7.9.9.7.7.7.9.7.7.7.7.7.7.0.t.G F k k x s e t * = & & & & @ # # # / / |.:X6X-X:X-X-X#X@X}.W.^.C.h.s.3.=.=.$.o.X.X.O.X.o.<.$.1.<.$.1.<.<.1.<.1.$.<.$.<.$.$.=.$.#.$.<.<.$.$.<.,.$.<.$.=.=.,.=.<.$.$.1.=.<.=.,.1.<.1.$.=.,.$.=.1.$.,.<.<.<.<.$.$.<.<.$.,.=.$.=.=.=.=.<.<.=.<.$.$.<.$.=.$...V B u h f f u x C I v v v v v v v i * : . . .   . O _ OX3X1X1XeX1X1X1X1X>X1X>X=X;X=X;X=X=X;X%X;X=X%X;X,X:X3X,X<X>X>X2X2X<X<X>X1X1XqX1XeXqXqXpXuXsXaXsXsXsXsXcXaXzXaXcXaXaXaXaXaXaXaXaXaXlXaXzXeXzXzXlXaXzXeXaXlXzXeXeXeXzXaXcXeXeXpXaXaXaXaXlXeXaXaXeXaXrXpXpXeXeXaXaXaXaXeXlXcXeXrXaXaXaXrXaXaXaXaXaXrXaXpXcX XR E - $ $ @ $ @ O O O O r 9 Y.CXCXGXAXAXDXNXAXAXAXFXFXAXNXAX",
" XuXpXqX`.`.4.6.1.8.6.1.8.1.1.6.6.6.4.4.4.4.1.4.4.1.4.4.1.4.4.<.1.4.4.1.3.1.1.3.2.2.-.2.2.2.3.3.u.-.y.-.2.2.2.-.2.2.-.y.2.2.2.2.;.2.<.;.<.<.4.4.2.2.2.-.-.4.4.-.;.4.4.;.<.2.<.;.<.<.;.;.<.<.;.;.<.;.<.$.=.<.$.<.$.1.<.$.=.o.o.o.O.o.O.#.S F * # ; ; # # + # # # O O # & >.1.uXnXnXnXvXzXhXnXhXnXmXkXnX6X6X0.....#.#.#.' #.+.#.%.*.*.*.*.*.F F 4 # # # * # > F D 0.p.0.p.p.H.q.0.d.i.i.p.p.9.0.d.w.i.9.i.i.i.i.e.e.y.s.e.y.s.s.9.s.9.s.i.i.s.e.s.e.s.e.s.s.s.s.e.s.s.i.e.s.e.i.e.e.9.9.s.3.s.s.9.e.i.s.e.9.d.i.p.i.p.i.9.i.i.i.i.i.i.9.u.i.p.i.i.p.9.p.i.i.i.9.9.i.9.9.9.i.9.i.9.9.i.9.9.3.9.9.3.9.9.9.9.9.9.9.9.9.7.3.9.3.7.3.7.9.7.3.u.9.7.y.9.9.3.7.7.3.7.7.u.9.9.7.7.7.7.7.7.7.7.7.7.7.Z Z h h h g i r t * * & @ & @ @ # # / ( |.>X-X>X:X:X6X:X7X6X<X6X:X#X$XXX[.}.^.S.P.Z.b.C.C.3.3.1.1.<.<.1.<.1.,.1.<.1.<.<.1.4.<.1.1.1.1.1.$.<.<.$.1.1.&.=.1.<.-.&.1.$.1.1.=.1.=.1.=.<.=.=.<.<.1.$.1.<.<.<.$.=.<.$.=.<.$.<.$.<.=.=.,.=.$.$.$.=.<.=.$.=.=.1...h m u u u f h g v v v v v v v p p & X . . .     @ @ v.dX1XCXxXxXnXxXnXxXxXxXjXxXsXzXzXcXzXzXsXzXsXsXnXcXxXxXxXMXMXxXnXzXMXzXzXxXsXsXaXsXsXsXsXsXsXxXzXzXzXsXzXaXzXaXaXzXaXzXzXzXyXzXzXrXlXrXrXlXrXrXeXeXrXrXlXeXeXlXrXlXeXlXeXeXlXlXeXaXrXeXaXeXeXlXeXrXrXrXrXeXeXaXrXeXrXrXeXrXlXeXeXaXpXrXaXaXaXaXsXaXuX}.|.( > > $ @ @ @ @ $ @ O O # r.r.ZXDXDXAXAXDXFXAXSXmXfXiX6X}.}.P.",
"OXwXpXuXZ.B.8.1.6.1.1.8.1.1.8.6.1.1.6.8.1.1.8.6.6.1.6.1.8.1.6.1.4.1.1.1.6.1.6.1.1.2.2.2.6.1.1.6.2.2.2.2.2.2.2.2.2.2.-.2.1.2.1.6.4.2.2.2.2.2.-.2.2.4.-.2.2.-.y.-.4.2.2.2.2.<.-.4.<.<.<.<.<.;.<.<.<.<.<.$.<.$.<.<.1.<.=.=.$.$.@.o.@.@.#.#.z z * & ; $ # # + ; $ + # # # a J.J.nXsXjXgXjXvXjXvXnXnXjXCXfXA.J...+...' +.#.#.#.#.' #.#.#.#.*./ a n ; ; w ; # > 4 [ } q.q.H.p.p.t.H.p.p.d.p.p.i.d.d.9.i.p.e.d.e.9.s.i.s.s.e.i.e.i.e.s.e.s.i.e.e.s.y.s.i.s.e.s.i.e.i.s.e.3.s.i.s.e.y.i.s.s.i.e.s.i.e.s.i.s.e.i.s.9.p.9.p.i.i.p.i.0.i.i.9.p.i.p.i.9.9.p.p.i.9.i.9.9.9.i.9.9.i.i.9.9.9.9.9.9.9.i.i.9.i.9.9.9.9.u.9.u.9.9.9.9.9.9.9.u.9.9.9.3.7.7.3.7.7.7.3.7.3.9.7.7.9.9.9.u.7.7.0.u.9.7.7.u.q.7.t.Z Z h h h x g g r , , & X @ X # @ # +.*.=X:X>X:X:X>X7X:X7X7XqX9X6XeX9XwXqX8X0X6X6X7X6X:X$Xs.h.<.1.-.1.1.1.1.=.1.1.$.1.1.<.1.1.1.<.1.<.1.1.<.1.-.1.<.<.1.=.1.1.<.1.1.-.1.1.=.1.$.1.-.>.1.$.1.=.<.1.$.$.<.<.<.$.<.<.$.<.=.<.$.<.<.$.<.<.<.<.<.$.<.<.1.,.=...h h q f u f g i N A I v x x < 1 % = . . . .   . , , Y.xXcXcXxXxXxXxXxXnXvXzXxXvXnXzXzXzXaXzXaXvXzXvXzXvXxXnXxXvXzXvXxXvXzXzXvXzXzXzXzXxXzXzXnXjXvXsXvXzXaXvXzXzXaXzXaXzXzXgXsXaXzXgXaXzXzXzXrXaXzXeXlXlXeXlXrXrXzXrXeXeXaXaXlXeXeXeXaXeXrXaXrXaXaXaXaXeXaXzXaXaXrXaXeXpXaXpXaXaXeXeXrXqXqXeX1X:X:X%X}.}.J.6.6.a @ O @ @ $ $ @ @ O O O y 1X1XDXMXDXxX6X>X`.b.n.d.9.9.4.=.<.$.",
"|.rXuXuXZ.Z.1.1.8.1.1.1.8.1.1.1.8.1.1.8.1.6.1.6.6.1.6.1.6.1.1.8.6.6.1.1.8.1.1.6.1.6.1.6.3.1.6.1.2.2.6.1.6.3.1.6.6.1.7.1.6.7.1.6.1.2.1.2.1.1.6.1.-.2.2.1.2.2.1.2.2.-.2.4.2.4.4.;.4.<.<.=.=.<.<.=.=.=.<.$.;.<.<.;.<.1.$.$.$.$.+.$.#.$.@.#.k k > # # # $ # # # # # # # O n J.J.xXnXnXgXvXnXhXvXvXBXmXkXaXK.A.o.....+.' %.#.#.#.#.#.#.#.*.*.[ n n ; # ; ; # w 4 [ [ 0.p.p.0.p.p.p.p.d.i.d.i.d.9.d.i.s.0.9.d.9.i.s.9.s.9.e.e.i.s.e.i.y.e.e.i.s.e.s.i.s.s.9.i.s.9.s.9.i.e.9.s.9.i.e.s.i.e.i.s.e.i.e.i.s.3.i.s.9.s.i.i.p.i.0.i.0.i.i.0.p.9.i.i.p.u.i.9.9.i.i.9.i.9.i.9.u.0.u.u.0.9.9.i.9.u.u.9.u.9.0.u.i.i.9.9.u.0.i.9.9.9.9.9.9.9.3.7.7.7.9.7.7.3.7.7.7.7.3.7.9.7.7.9.7.9.3.7.7.7.7.9.9.7.7.7.-.G Z h h h h j g r , , & X & O @ & # ' +.4X6X:X:X:X:X:X7X>X6XqX>X0XqXqXqXqX8X8X7X7X6X:X6X%Xs.d.1.<.$.1.=.1.-.1.1.=.1.1.-.1.1.1.1.1.<.1.<.>.=.1.1.=.1.1.,.1.=.=.1.1.1.<.,.=.=.1.$.-.<.&.$.1.1.<.&.1.=.1.$.<.$.<.<.<.=.1.=.=.<.=.<.$.$.<.$.<.=.<.$.<.=.=.1...m h q f u f f g N A A v x x 6 O O       .   .   2 , T.xXxXxXzXcXnXxXxXnXxXnXnXzXxXzXzXzXzXcXzXzXvXzXvXzXzXvXcXzXMXMXzXzXvXzXzXzXzXzXzXzXgXzXsXsXvXzXzXaXzXaXvXgXzXsXsXaXzXsXzXaXsXaXvXrXzXzXzXrXrXlXaXlXaXeXrXaXeXrXeXlXaXeXeXaXpXaXpXrXrXeXaXaXrXaXeXrXrXzXeXaXaXeXaXaXaXrXrXaXeXrXeXeXqXqXqX:X:X%X}.}.J.6.6.a # $ O $ @ $ @ @ $ O O y 1X1XDXDXDXMX&X<X`.C.C.s.9.9.4.$.=.;.",
"|.pXiX7Xd.d.1.6.1.6.6.6.8.1.8.1.8.1.6.6.6.6.6.6.6.6.6.6.6.6.6.6.6.6.6.6.1.8.1.8.8.1.6.1.6.6.1.6.7.t.1.6.1.8.6.1.1.6.1.6.6.1.3.6.1.1.1.-.2.1.2.-.1.2.1.2.1.1.2.=.2.2.2.;.-.-.;.4.=.=.<.<.4.=.2.=.<.<.<.<.<.;.<.<.1.<.<.$.;.$.$.@.$.#.@.+.d q > # w $ # # # $ # $ # O O Q =X=XnXjXnXvXsXvXnXnXvXyX8XuXA.$.;...+.+.*.#.+.#.%.#.#.#.*.*.#.*.L w w ; # w ; w 4 y t.2.q.H.H.t.H.p.p.p.p.d.i.s.9.d.i.d.p.s.d.p.9.w.i.e.s.i.i.s.e.9.i.s.s.s.i.s.9.s.e.s.e.s.s.e.s.e.e.9.s.y.s.e.e.s.s.9.e.s.s.9.y.e.i.e.e.s.s.s.s.9.i.p.i.p.i.i.i.i.i.i.u.i.i.0.9.9.p.p.9.p.9.i.9.9.i.9.0.9.9.9.9.u.9.9.9.9.9.0.0.9.u.i.9.9.i.9.u.7.9.9.9.9.u.9.9.9.7.9.u.3.9.3.7.9.7.3.9.u.u.7.3.7.7.9.9.9.7.9.9.7.7.7.6.9.q.7.-.M M h h h g z h s , , O & X & # @ # +.+.=X:X>X>X>X<X9X7X6XqX7X6XqXqX6X8X0XwXqXqX0XwXqXqX}.9.3.,.1.1.1.=.1.1.-.&.1.1.,.1.-.1.-.1.<.1.1.1.-.1.1.,.1.1.=.1.1.1.1.1.=.&.1.<.1.1.&.1.<.=.1.1.=.$.1.1.=.<.,.<.=.<.=.&.=.1.$.1.=.$.<.<.<.<.=.1.$.1.$.1.$.1.1.=...f f u f u d l h N c z s * * O O O   . .   .   . N A %XxXxXxXBXzXvXzXzXcXvXzXzXvXzXzXzXzXlXlXlXvXzXzXzXvXvXxXlXBXlXzXzXBXzXzXzXlXzXzXzXzXzXsXsXvXzXgXvXsXvXzXzXzXzXvXvXsXzXgXvXgXzXsXzXzXgXaXlXzXrXaXaXeXrXzXlXeXzXrXaXeXaXeXaXqXqXeXqX9XeX9X<X<X<X$X%X#X@X+X@X}._.}.`.^.Y.S.x.x.9.3.9.4.4.4.1.-.1.#.$.#.+.S G # $ $ @ @ @ @ $ X O o O A sXaX2XT.S.h.e.e.<.X.X.X.o.X.o.o.$.$.",
"#XaXiXXX9.9.4.6.8.1.6.1.1.8.1.7.1.6.1.6.6.6.6.1.1.6.6.7.6.1.6.1.6.6.6.6.1.6.1.8.1.6.6.1.1.8.1.6.6.1.6.5.6.4.6.1.6.1.1.6.1.1.6.1.2.2.1.7.2.2.2.2.2.2.2.-.1.2.2.2.4.2.<.2.y.2.;.-.2.2.2.=.<.1.<.<.<.<.<.<.-.2.2.-.1.&.1.=.-.;.-.;.=.$.$.+.7 9 > ; ; $ # $ # # # + + * & 8.pXpXjXjXgXgXnXgXvXfXyX+Xf.f.$.......+.+.+.#.%.#.#.#.#.%.%.%.) / 9 ; ; w ; w ; 5 0 L p.i.p.p.p.p.t.a.p.p.p.p.d.i.s.i.i.i.i.i.p.i.i.p.p.i.i.i.i.p.i.s.i.a.i.i.i.i.p.s.i.i.p.i.i.p.i.i.s.d.s.9.s.i.s.9.i.i.d.9.i.i.s.i.i.i.i.i.s.i.9.i.9.p.u.i.i.i.i.i.i.u.p.i.i.i.p.i.p.9.i.u.p.i.s.9.9.i.0.u.p.u.p.0.i.i.p.9.0.u.i.0.0.7.0.i.9.9.i.0.0.u.0.u.9.9.u.9.9.9.9.9.7.u.u.9.7.9.3.7.9.7.3.9.9.3.3.7.3.9.7.9.7.7.9.7.7.7.#.h h k h h h k k g 8 6 & @ & @ @ # # +.+.4X6X:X&X<X<X:X:X:X7X7XqX6XqXqXqXqXqXqXwXwXqX].`.d.<.1.1.=.1.=.1.-.1.1.-.1.-.1.6.-.-.-.1.1.&.-.-.-.-.-.1.-.-.1.1.=.$.1.,.=.1.<.-.=.1.<.=.-.-.=.=.1.<.$.$.1.=.<.$.$.<.<.1.$.$.<.1.,.<.=.$.$.1.&.$.1.-.1.,.=.1.=.<.O.h m q u d f h k j 7 e & . O O O O .   .     . = e.e.1XzXxXvXlXBXvXzXBXlXBXzXvXzXzXlXzXzXlXBXzXzXvXlXzXzXnXBXzXzXvXzXMXzXxXzXvXzXzXvXvXvXzXnXnXzXvXzXzXvXzXvXvXxXvXsXgXzXnXzXzXnXvXnXvXvXvXaXeXqX:X#X@X_.P.S.C.V.V.g.s.w.3.3.3.4.1.4.<.,.<.$.,.<.$.$.$.$.$.$.;.$.o.$.o. ...^ T Y T ^ T ^ / ^ ! ^ ! ! { ^ J 9 9 + $ # @ $ $ @ $ @ O O O P pXpXV.3.8.4.9.4.4.o.o.$.$.;.=.;.-.$.",
"OXiXpX=X9.q.1.1.1.6.1.8.6.1.6.1.6.1.8.1.1.6.1.8.6.3.6.6.7.6.7.6.1.6.1.8.8.1.6.1.6.6.1.6.6.1.4.6.1.6.6.4.8.6.1.6.6.1.7.1.6.3.3.6.2.2.7.2.2.6.2.-.-.2.1.2.2.1.2.1.;.2.2.2.-.2.2.4.2.=.<.2.1.<.1.2.<.=.1.1.2.-.-.-.-.1.1.=.-.-.*.-.$.$.#.+.9 0 : ; ; # # # $ # # + O # * 6.pXaXnXhXnXvXgXhXvXgXyX+Xh.f.:...| X.+.+.+.#.%.#.#.#.#.#.#.&.) ) 9 ; + w w ; ; w w G p.0.p.k.p.p.p.p.p.p.d.i.i.d.i.p.a.i.i.p.i.p.p.i.i.p.p.i.p.p.i.i.i.i.i.i.i.s.i.i.i.i.i.9.d.i.i.s.i.i.i.s.i.p.i.s.i.s.i.9.d.p.s.i.i.d.i.i.i.i.p.p.9.i.0.i.i.0.0.i.i.0.p.i.p.u.p.9.u.p.i.0.9.0.9.i.9.i.p.9.0.0.0.u.i.9.9.i.i.0.p.u.i.0.9.9.9.i.9.0.i.9.u.9.9.u.9.9.9.9.7.3.9.7.9.3.3.9.7.9.9.3.7.9.7.7.7.7.7.7.7.7.9.3.9.7.7.7.*.m M h h h z h k g 6 6 O & X @ # @ # ' *.OX>X6X;X:X:X9X>X7X7XqX6XqXqX6XqXqXqXqXqXqXqX[.`.d.1.<.1.1.-.1.,.1.1.-.1.-.1.-.-.-.6.6.&.>.1.>.1.>.1.&.-.&.1.&.&.<.1.=.=.1.=.1.-.1.$.1.-.-.=.-.-.<.&.1.<.$.1.$.<.<.<.$.=.-.<.&.$.1.$.<.<.<.=.<.<.=.=.-.<.-.=.,.-. .h h y f d f m k h 5 t O O O O . O   O o O   . & e.e.cXzXBXzXzXzXzXBXzXzXlXzXvXlXzXBXzXlXzXvXzXvXvXvXBXBXzXzXBXMXzXBXzXBXBXzXvXvXvXzXvXzXvXxXsXnXzXvXvXzXvXzXzXvXzXvXxXzXvXnXsXnXxXnXvXsXvXaXqXqX:X@X@X_.S.P.D.g.g.h.s.h.e.3.9.1.<.4.<.<.<.,.=.$.,.$.$.o.$.$.o.$.$.o.X. .} ^ T T T Q T T ^ ^ } ^ ^ { ^ ^ U q 9 # $ $ $ - $ @ @ O O o o U pXeXB.3.8.3.4.4.3.o.$.#.;.$.$.-.$.-.",
"#XaXaX(.9.8.1.1.1.6.1.1.1.7.1.3.8.1.1.6.8.1.6.1.3.1.6.1.1.3.6.1.1.8.8.1.>.8.1.1.1.6.3.1.1.7.6.7.6.1.6.1.1.1.6.1.7.1.7.6.t.7.t.2.2.2.7.1.2.2.-.2.2.2.-.7.-.-.7.-.y.-.2.<.2.<.4.2.2.<.2.1.t.-.-.-.1.1.=.1.-.2.4.-.1.1.-.&.-.-.-.*.$.$.&._ 0 0 4 ; ; $ # $ # $ # # # 9 r Z.nXxXnXvXgXnXgXgX'.g.g.<. .X.X.X. .X.O.+.%.%.#.#.%.#.%.#.*.#.c C w ; ; ; ; w w w w R p.p.p.p.p.k.d.d.i.d.i.d.i.s.p.i.i.p.i.p.p.i.i.i.p.i.i.a.u.u.p.u.p.i.p.i.p.i.i.a.i.p.i.p.i.p.9.p.i.i.9.p.i.i.i.i.p.9.i.p.9.i.p.i.i.p.p.i.i.p.u.9.i.9.i.0.i.i.i.u.i.p.9.i.i.i.p.i.9.9.u.p.p.i.p.i.9.i.0.u.p.i.u.0.p.u.p.9.p.u.i.0.i.0.u.0.0.u.0.0.0.9.9.9.9.9.i.9.9.9.9.9.3.7.9.9.3.9.9.7.3.9.9.3.7.9.3.6.9.3.7.3.7.7.7.7.7.7.! M h h k h h z h g 6 8 & & @ @ & # # +.+.=X:X:X<X:X<X:X>X>X7XqXqXqXqXqXqXqXqXqX6X6XJ.3.3.-.1.-.1.,.1.<.-.-.-.6.1.&.6.-.-.6.-.-.1.>.-.>.&.1.-.6.-.-.1.-.<.>.=.1.&.<.1.=.=.1.<.=.-.-.-.-.=.1.$.=.&.<.=.1.-.<.&.<.1.$.<.&.<.&.-.$.<.$.1.<.&.$.1.$.=.1.$.<.-.| f M y f d h M m 5 # + o O o O O . o   o o o . x +X+XcXxXzXvXzXBXzXBXzXzXzXzXzXlXzXzXzXBXlXzXzXlXvXzXzXzXBXzXnXnXvXnXnXvXnXvXzXvXzXvXzXvXzXgXvXnXnXsXvXzXvXvXvXnXvXnXnXxXzXeXqX%X`.^.C.s.s.4.o.<.o.X.@.....o....... .O. . .O.O.O. ...O...............................{ ^ Y T H P U Q Y ^ ^ T ! ! ^ ( ) ! Z 5 4 @ $ @ @ $ - $ X @ $ O O / pXpXV.w.h.P.<X;X&Xs.s.@.$.;.-.-.;.-.",
"|.pXuXA.1.4.1.6.8.1.8.1.6.1.6.6.3.1.8.1.1.6.1.8.6.6.1.7.6.8.1.6.6.1.1.6.6.1.1.8.6.1.6.2.7.1.2.-.3.6.2.6.6.3.1.7.7.7.-.7.7.2.2.7.6.2.-.7.2.2.2.2.2.-.7.-.7.2.7.7.-.2.<.2.<.2.-.;.=.2.2.-.7.;.2.t.1.1.2.2.2.-.-.2.-.1.1.-.-.-.$.-.=.$.=./ 4 4 0 # ; # # # # # # # O A A  XsXjXjXhXgXgXgXhXg.;.o.o. ..... . ...#.+.+.#.%.#.&.$.&.%.&.W 7 8 + w w ; ; ; w 0 0 +.p.p.d.d.p.p.i.i.d.i.d.i.i.p.i.i.p.i.p.i.i.a.p.i.i.p.a.i.p.p.p.a.i.a.i.a.i.i.p.i.i.i.p.9.p.9.p.i.p.p.p.i.p.p.p.i.i.d.i.p.p.p.i.p.i.i.i.p.i.i.p.p.p.p.i.i.i.i.i.0.p.0.u.p.i.i.u.0.p.i.0.i.9.9.9.p.9.p.p.i.0.i.p.p.9.p.i.i.9.p.i.9.i.i.i.p.i.0.i.i.p.u.u.p.i.9.i.9.i.9.9.7.9.u.7.9.7.u.7.9.7.9.7.9.7.3.9.6.1.9.7.3.9.7.7.7.7.7.Z h h m h M h N k j 8 6 & X @ @ @ @ # ' ' #X6X>X:X:X:X9X6X9X>X6XqX6XqX7XqX0X9X.Xg.g.1.<.-.-.1.1.1.=.=.1.1.6.-.-.-.1.-.1.-.6.6.-.-.&.1.1.>.-.-.-.1.&.1.-.1.$.1.=.1.1.$.1.1.-.<.1.-.-.;.-.=.1.1.=.=.$.1.$.=.$.1.$.$.1.-.<.$.1.=.1.-.1.$.$.=.1.1.<.&.<.1.=.1.| f f f f h h 7 q + o + O O + O O o O O . O O O >.pX1XxXzXnXzXzXzXzXBXBXlXlXBXBXzXBXzXzXzXzXzXBXzXvXvXzXBXBXxXvXxXnXxXnXnXxXsXnXxXnXxXnXzXnXsXgXsXnXzXgXsXpXpX<X|.@XT.l.z.3.o.o.......O. ...X.o.X...o.O.o...X.O.o.o.O.o...o.o.O...O.O............... ... . .....} } ..{ Q ^ U U U U T Q { ^ ^ ( ! ( ! ^ ! S ; ; $ @ $ X @ $ @ @ $ O o O ` aXzXeXaXaXNXnXnXrXV.b.X.=.=.;.-.$.$.",
"XXiXpXA.1.1.1.8.1.6.1.1.1.6.7.1.1.6.1.8.1.8.6.1.6.1.1.6.1.7.7.1.1.8.6.1.6.1.6.1.1.6.-.7.6.2.1.7.1.6.7.1.7.1.7.1.7.-.7.-.2.t.2.2.7.-.7.7.2.2.2.2.-.2.-.7.2.7.-.7.4.-.2.2.2.<.2.2.2.2.4.-.2.2.t.2.1.1.1.-.4.2.-.-.6.6.-.6.6.-.-.-.=.=.$./ w 0 0 ; ; $ # # # # $ # O A A |.CXjXgXjXhXvXgXvXg.<.o.o.X. . . . .X.O.X.#.%.#.&.*.%.#.&.&.Q 9 9 + ; w ; w ; ; w 0 *.k.p.d.d.d.p.i.d.i.d.s.i.d.i.i.a.i.p.i.p.p.i.i.p.p.i.i.p.p.i.i.p.i.i.i.p.i.p.i.i.p.i.i.p.i.p.p.u.p.i.i.p.9.p.i.p.i.p.p.i.i.p.p.i.i.p.p.i.p.p.p.i.i.9.0.i.u.0.0.i.p.u.i.i.u.i.i.i.i.p.i.i.u.p.9.p.i.p.0.i.i.0.0.i.i.9.0.p.p.9.i.p.i.i.i.i.0.i.i.p.9.0.p.u.0.p.i.9.9.9.7.3.9.3.3.7.7.3.9.3.3.7.9.7.9.7.3.7.7.3.7.7.9.3.7.7.8.7.S h h k k h k h k j 6 8 = @ & & # & # +.+.=X-X7X<X6X:X>XqX>X9XqXqX8XqXqXqXqXqX@Xz.g.1.,.1.<.=.1.1.1.=.1.1.-.6.-.6.-.6.-.-.-.6.-.1.&.>.-.1.>.&.-.-.-.&.1.=.1.=.>.=.1.<.&.=.1.=.=.;.y.-.-.-.=.<.$.1.$.<.-.1.$.=.1.$.1.=.-.1.=.&.<.=.1.$.1.1.$.$.<.1.=.-.-.-...l h y f h h q 7 + + o + + o o O O o O O O O O 5.eXeXxXzXvXvXBXBXlXzXzXBXlXzXlXzXlXzXBXlXlXzXzXzXlXvXzXvXzXnXnXvXvXnXxXnXnXnXnXvXzXnXzXnXzXvXnXxXnXvXnXaXrXaX6X@X@XY.x.g.3.o.o. . .O. ... .X.X. . .o.X.O.X.X. .o.o.O. .O. .O. .O.X. .O...O... ...O...O. .O....... ...{ ^ T U Y H Y T Y T ^ ^ ! ( ^ ^ ! ^ G # w $ X - $ @ @ $ O @ O o O / aXdXeXrXaXMXnXnXpXb.b.$.-.*.-.$.-.-.",
"|.uXqXB.9.3.1.1.6.1.8.8.1.6.6.1.7.1.6.1.6.1.1.8.1.3.6.3.6.1.1.6.6.1.1.8.1.8.1.6.7.6.7.1.7.1.7.2.2.6.6.7.-.7.1.7.7.-.6.7.2.7.t.7.7.7.7.-.2.2.2.-.2.2.7.-.2.-.7.-.2.2.<.4.;.y.-.2.-.-.2.-.-.t.2.;.1.-.1.1.-.-.2.2.1.-.1.-.-.-.$.-.&.,.$.) 0 0 0 ; w + $ # # $ # # & +.%.1XnXjXjXjXgXgXgXjXC.o.;.o...X. .X.....+.+.#.*.%.#.&.#.&.' +.j ; > w ; ; ; ; w w n 0 t.p.r.p.p.p.p.d.i.p.s.p.d.i.d.p.i.p.i.a.i.i.i.p.i.i.a.i.p.i.p.i.i.p.i.p.i.p.i.a.p.i.p.p.i.p.9.p.p.i.p.p.i.p.i.p.9.p.i.p.u.p.i.p.i.p.i.p.i.u.p.i.p.i.p.i.i.i.i.i.i.u.0.i.i.i.i.i.p.9.9.i.i.0.p.u.i.i.9.p.i.i.i.i.i.i.i.i.u.9.p.i.0.i.0.0.i.i.i.i.i.i.i.9.p.i.i.p.9.9.u.9.9.9.7.9.9.u.9.7.9.9.7.9.9.7.3.9.7.7.7.3.9.7.7.7.9.t.6.Z h m h k m k k k h 8 8 # X X @ @ # # ' [ =X:X7X:X:X9X9X>X6X>XqX7XqXqX6X:X(.^.i.<.=.<.1.=.1.=.1.=.1.1.1.-.1.-.1.-.-.6.-.6.-.-.1.>.1.1.&.1.-.6.-.-.6.-.&.1.=.1.<.1.$.1.$.1.=.=.4.;.-.;.-.<.$.1.1.$.1.&.<.$.1.-.-.<.=.=.>.$.-.<.$.1.$.1.=.$.1.=.&.$.1.=.-.-. .f f f h f f w + + o + O o + + O o O O O . a s Y.xXMXMXvXMXzXzXzXzXzXzXzXzXzXBXvXzXzXzXzXzXBXzXlXzXzXBXvXzXMXnXvXnXnXxXvXxXvXzXsXaXsXaXaXaX9X@X@X(.B.C.w.4.<.@.O... ... .O.O.o...o.O.o. .o...X.o.X.o.X.o.o. .O.o.....O.o.o.O.o...O.o............... ............. .O.^ Y T U H Y Y Y ! ^ ^ { { ! ( ^ Q ) C # # @ $ @ @ @ $ - @ O O O O O.aXzXnXvXxXnXnXvXaXW.E.@.-.-.;.-.=.=.",
"].>X7Xc.-.7.6.6.2.6.7.1.6.6.2.6.2.t.7.2.2.2.2.2.7.7.7.6.1.6.1.6.1.8.1.1.7.2.2.7.2.2.t.7.2.t.7.2.t.2.2.2.2.2.2.2.2.7.t.2.2.2.2.2.2.t.7.7.2.t.7.-.2.2.2.u.2.t.-.u.-.2.u.-.2.2.-.2.-.y.-.u.-.2.-.u.t.2.;.2.u.-.2.-.2.;.2.;.-.t.t.;.-.&.&./ 4 0 9 > # # @ # $ $ w + 9 k.r.xXvXsXgXgXgXjXjXgXC.o.$.o.X. . ... . .o.+.#.#.#.%.%.*.*.D D 0 w ; ; # > w ; ; w h l p.p.p.p.p.p.p.p.p.p.p.p.p.s.i.i.p.i.p.i.i.p.i.i.p.i.i.a.u.p.i.a.p.i.p.i.a.i.p.p.u.p.i.i.p.i.p.i.p.i.i.i.p.i.i.p.i.p.i.i.p.i.p.i.p.i.a.i.i.i.p.i.i.u.p.p.i.u.p.u.p.u.p.i.i.p.u.p.u.p.u.u.p.u.u.H.t.0.u.p.u.0.u.u.p.u.p.i.i.i.0.0.i.0.i.0.u.u.0.i.0.9.p.i.0.i.i.p.9.u.7.7.9.3.7.9.7.9.u.9.9.7.9.9.9.7.u.7.u.9.7.9.9.9.3.7.9.-.-.M m k M N h N h z g 0 6 O % X @ @ = & ' _ =X7X7X>X7X>X6XqX>X7XqX7XqX&X-XZ.3.3.>.1.=.1.1.1.>.=.=.1.1.<.-.1.1.-.1.6.-.-.&.5.-.1.&.-.1.-.-.-.1.&.-.1.&.&.1.&.-.-.1.-.1.&.1.$.-.1.$.$.<.-.$.1.$.-.-.-.-.-.;.1.$.<.1.=.1.=.1.$.1.$.<.$.<.1.&.1.$.$.1.&.<.&.1.-...h l u f f 4 + + + o + + o + o + o + O + # #.] eXMXMXzXzXzXnXnXvXnXvXvXzXzXzXzXzXBXlXlXvXvXzXlXvXvXvXzXvXnXvXnXsXsXiXwXrX6X$X&X}.P.S.C.3.9.$.X.......| +.X.X.X.X.X.....X...X.O.O.O.X...X...O...O...O...+.X.O.O...X.O.O.O...+...................+...+.................( T Q U P P Y T Y ^ ( ! } ( ! ( ! ! M # # @ @ $ @ $ - @ @ - # $ $ $.iXsXnXnXsXzXvXnXsX}.}.$.=.=.$.<.$.1.",
"}.7X7Xl.7.7.-.7.2.2.6.1.3.1.1.3.2.t.2.2.2.6.2.t.2.t.7.1.3.6.7.1.6.1.1.9.7.-.2.t.2.2.7.2.2.2.2.2.2.u.2.2.2.2.t.7.2.7.2.2.2.t.2.2.2.7.-.7.2.2.-.7.t.2.t.-.u.-.t.2.-.2.-.-.-.2.y.-.-.y.-.-.-.2.t.2.-.t.u.-.;.t.2.2.;.t.2.t.2.t.;.t.-.&.-.( 4 0 0 : ; # # # ; ; $ ; 9 r.d.cXsXgXvXgXvXhXjXjXg.$.o.o.| .. . . ...#.o.#.*.%.&.&.&.*.D G , # ; ; w # ; w ; ; h b u.0.p.p.p.p.p.p.p.p.p.i.p.p.p.p.i.i.p.i.p.p.i.p.i.a.i.p.p.i.p.u.p.i.i.p.i.a.u.p.p.i.p.p.i.i.i.p.i.p.i.p.i.i.p.i.i.i.p.p.i.i.p.p.i.p.u.d.i.p.i.i.p.p.p.i.p.p.u.p.u.p.u.i.i.u.p.0.u.u.p.p.u.0.p.0.7.p.u.p.0.p.u.p.q.u.p.i.9.0.i.i.0.0.i.0.0.p.p.i.i.i.p.i.i.i.0.p.u.9.9.u.9.7.9.7.9.3.7.7.3.3.9.3.7.3.9.3.9.9.3.9.7.9.7.u.9.1.-.C m m k h N h k k g 6 0 & X & % & & = _ _ =X>X7X6X>XqX6X7X7XqX7XqX7X-X$XZ.1.1.$.-.1.1.=.<.1.1.1.&.<.,.1.-.&.-.&.-.-.-.1.&.1.>.1.1.&.6.-.-.1.-.5.>.1.1.>.1.-.1.&.-.-.1.=.1.<.1.<.1.&.=.1.-.<.-.=.-.-.=.4.&.<.-.$.<.$.-.<.1.$.$.1.1.$.$.<.1.<.<.1.-.-.&.-.-.} f f y f u 5 + + + + + o + o + o + o # $ & #.] 1XzXzXBXzXBXvXvXnXvXvXmXzXvXzXzXlXzXlXzXlXlXvXvXzXzXvXnXnXvXnXvXvXgXrXwXqX0X$X%X[.P.P.V.y.9.=...X.........X.X.O.+...X.X...X.O.X.O...O.O.O.+...X.O.X.O.O.X.+...O.X...O...X.X.O.O.....O...X.....+...+...+..._ ...._  ...( ^ T U U U Y Y Y { ^ ^ ! ! ( ! Q Q k # $ # @ @ - $ @ @ @ $ + $ + *.sXsXxXzXvXnXnXzXgX}._.$.=.$.$.1.<.$.",
"I.7X>Xl.6.-.1.7.6.7.1.7.1.7.6.1.2.7.7.2.2.2.2.7.7.1.1.6.7.1.1.2.7.6.6.1.7.7.-.7.2.7.2.2.7.2.2.2.2.t.2.t.7.2.2.2.2.2.2.7.t.u.2.u.2.-.7.7.2.2.7.-.2.2.-.t.-.2.2.2.u.2.-.u.2.2.-.-.-.-.-.-.2.-.2.2.u.;.u.t.2.t.;.t.t.u.2.2.2.;.-.-.&.&.&.#.9 9 9 # ; O # @ ; + ; + c (.Y.nXgXgXvXhXhXgXhXjXx.o.o.X.{  .|  . ...O.+.$.&.%.%.%.%.Q n n ; ; ; ; w w ; ; w w R R 0.k.p.p.p.p.p.p.p.p.p.p.p.p.p.i.i.p.i.p.i.i.a.p.i.p.i.i.p.i.i.p.i.p.i.p.i.i.a.i.p.i.i.p.u.p.i.p.p.p.i.i.p.p.i.p.p.p.u.i.i.a.i.i.p.p.u.i.i.u.p.p.i.p.p.i.p.u.p.u.p.u.p.i.u.p.u.u.u.p.u.u.p.p.u.u.0.u.0.u.u.p.p.u.0.p.0.i.p.p.0.0.9.0.0.i.i.i.i.i.p.0.u.p.0.p.i.0.9.7.9.3.9.9.3.9.3.7.3.9.7.9.9.u.3.9.7.9.7.9.9.3.9.9.9.9.7.$.$.N h k M N k h z k g 6 6 @ @ X = O & # ~ / =X7X7X6X>X>X6X>XqXqX7X:X|.z.l.-.=.1.1.=.1.1.,.$.1.-.1.1.-.1.1.1.-.1.&.6.&.-.6.1.1.&.&.-.t.&.-.t.-.-.>.1.&.>.1.t.-.&.-.&.1.=.1.1.1.$.<.$.<.1.$.=.=.-.-.-.-.=.=.1.$.<.$.&.=.1.$.=.&.<.&.$.1.=.&.$.<.&.$.-.&.-.-.-.( u d f i u w o + + + + + o + + + o O o o y J.D.MXzXMXzXzXvXnXvXnXvXnXvXzXvXvXvXzXzXlXlXvXlXvXlXvXvXlXzXeXlX<X&X}.}.S.z.l.7.=.<.X... .............X.X.+.X.@.X.+.X.X...X.....+.O.X.O.X.O.O.X.O.+.O...O.O.O...O.O.O...X.O.X.O...O.......+...O...+.....+.+..... . . .....` T ~ U P P U ^ ^ ^ ^ { ! ( ! { Q Q j + O @ @ - - @ @ @ @ @ @ $ O #.aXdXxXnXvXzXvXnXgX%X#X4.$.=.<.$.=.-.",
"I.>X-Xk.6.-.1.6.2.1.6.1.6.6.1.7.2.2.t.2.7.t.2.2.2.2.6.2.6.1.7.6.1.1.3.6.-.7.7.7.2.t.2.2.t.2.6.2.2.2.2.u.t.2.2.2.2.2.2.t.2.2.2.t.2.7.7.-.2.2.2.7.2.-.u.2.2.2.t.2.-.2.2.-.2.-.2.2.-.y.-.u.2.t.2.-.t.2.;.t.2.2.u.-.;.t.;.t.2.t.-.t.&.t.&.&.j k n ; > # # ; ; ; $ w Q ,X;XxXvXaXaXgXgXjXgXgXx.o.o... . . . . ...@.+.#.#.#.*.+.*.b 4 > # ; # # ; w ; ; w ; [ [ u.p.p.p.p.a.p.a.p.p.p.p.p.p.p.p.i.i.p.i.i.p.i.i.a.i.i.p.i.p.i.i.p.i.p.i.p.i.i.p.i.i.p.p.p.i.p.u.p.i.i.p.i.i.p.p.u.p.a.p.i.i.p.p.i.p.p.i.i.p.i.i.p.p.i.p.p.i.u.u.0.p.u.u.p.u.p.p.p.u.p.p.u.0.0.u.p.p.p.p.0.0.u.p.p.p.u.0.p.u.u.0.p.0.i.0.0.0.i.i.0.i.i.i.i.u.0.p.u.u.7.7.9.u.7.u.7.9.9.9.3.7.u.9.9.7.9.7.3.9.u.7.u.3.7.7.9.( } m M m k z m z h z d 6 > O @ & O & = # ~ ) =X7X7X7X7X1X6XqX7X-X(.!.p.=.<.1.1.<.1.1.1.=.1.1.-.1.1.<.1.$.1.1.t.-.1.-.-.-.-.>.-.>.1.1.-.1.-.-.1.&.1.&.1.1.&.-.-.-.6.1.&.1.-.$.$.<.1.1.=.=.1.1.=.-.=.-.-.=.-.=.-.-.1.<.&.$.1.1.<.=.1.1.=.1.<.1.=.1.=.-.1.&.1.-.) y i g 6 6 + + + + o o o + o o O + + + # ( :X%XMXzXzXzXBXzXvXnXvXvXvXvXvXgXvXvXlXvXvXvXlXvXbXvXzXcXrX*XZ.C.3.<.@.@.X.X.O...O...X...X...X.X.....X.X.+.X.+...@.+.X.X.O.X.X.X.X...O...O...X...O...X.O.X.X...X.O...X.+.O...O.........O.....+...+...+..._ _ +.....O..._  .^ Y T I F U T ^ ^ ^ ^ ( } ! ( ! Q Y d o $ $ @ $ $ @ @ - - $ @ $ O *.sXsXnXzXnXnXzXzXxX6X6Xs.$.o.$.=.=.$.",
"I.-X-Xl.t.2.-.7.1.6.1.7.3.1.7.1.t.7.2.2.2.2.2.t.6.2.1.7.6.1.-.7.6.3.1.7.1.7.7.-.7.2.t.7.2.2.7.t.u.2.2.t.2.-.u.t.7.t.2.2.2.2.2.2.2.2.2.t.2.2.2.2.2.2.t.2.2.2.2.2.2.-.2.-.2.2.-.2.;.-.2.-.t.2.2.;.2.u.t.-.2.t.;.-.2.t.2.2.2.-.t.-.-.t.&.&.j j n > ; # ; ; + + # ; Q :X:XnXzXgXvXgXgXjXgXjXj.+.o.X. . ... . ...O.X.#.#.%.&.+.' b > 4 # ; ; ; w ; # w ; w [ [ p.p.p.t.H.a.p.u.H.t.u.p.p.p.p.i.a.i.p.p.i.i.a.i.p.i.p.i.a.p.i.i.a.u.p.i.p.i.p.p.i.p.p.i.p.i.p.i.p.i.p.i.p.i.p.i.i.i.i.i.p.a.i.i.i.p.i.i.p.i.p.p.i.i.p.i.p.u.p.u.p.u.p.p.u.u.p.p.u.p.u.p.u.0.p.u.0.u.u.u.p.u.q.0.7.p.p.i.p.u.0.u.0.0.0.i.i.i.i.i.0.i.i.i.p.u.0.i.0.9.7.9.9.7.7.u.9.7.9.9.7.3.9.7.9.7.9.3.9.7.7.3.9.7.9.7.9.} ^ M m h M m m k z z d > > @ @ @ = O & = ~ ) 4X7X7X>X>X6X6X8XqX-X^.(.9.,.1.1.&.1.-.1.&.1.<.>.-.1.-.1.-.&.1.-.-.1.-.-.-.-.>.>.1.>.1.&.-.6.-.1.&.-.-.&.6.1.>.1.-.-.6.&.-.1.&.1.<.<.-.=.1.=.=.=.=.-.=.-.;.4.-.<.&.<.=.1.=.$.1.$.1.,.=.1.=.$.1.-.,.$.1.-.-.1.&.-.^ y i u 7 5 + + + + + + + o + + o + o & O ` <X2XMXzXMXvXnXxXnXvXvXnXvXnXhXgXhXvXlXvXlXvXlXlXlXlXlXcXlX@XC.C.9.<.o.$.X...X...X...X.X.X.....X.X.+...X...X.+.| @.X.+.@.X.+.o.X.....O...O.X.X...O...O.X.O.O.X.O.X.O.+.X.O.+.O.........O.....+...O.+...+...+.( .......... .` T T I Y P Y T ! ^ ( ! ! ^ ^ ^ T U l O $ @ @ $ X - $ @ @ @ O O $ #.sXsXxXnXnXvXzXzXvX>X6X9.$.;.$.<.=.=.",
"I.-X-Xv.t.2.1.2.6.3.6.1.1.6.7.6.7.7.7.t.7.2.2.7.7.1.2.2.1.7.7.6.6.1.2.6.7.1.7.7.2.2.2.2.2.2.2.2.t.2.2.2.2.u.t.2.2.2.u.t.t.2.t.2.7.2.7.2.7.t.t.2.2.t.2.2.t.2.t.2.2.2.2.2.-.2.-.2.u.-.-.2.;.2.t.u.;.t.;.u.2.2.u.t.2.;.t.;.-.2.-.-.&.&.t.t.F F n ; ; # # $ ; ; $ w %.pXpXxXgXaXgXgXgXgXgXgXl.$.o..... .| X.| ..O.+.#.&.%.%./ / y ; # ; # ; ; # ; w ; ; 0 t.t.r.0.p.u.u.p.p.p.p.p.p.i.p.p.i.i.i.p.i.i.p.p.i.i.i.p.i.p.i.i.p.a.i.u.p.i.p.p.i.i.p.i.u.p.i.p.i.i.i.p.i.i.i.a.i.i.p.a.i.p.i.i.p.i.p.i.p.i.p.p.i.i.p.i.i.p.i.i.p.p.u.i.i.u.p.p.u.0.u.u.p.u.p.p.u.p.p.p.7.p.u.p.p.u.p.p.u.0.i.0.p.0.0.i.u.0.0.i.0.i.i.p.0.0.i.u.p.u.0.9.9.9.7.9.7.7.9.3.9.9.9.7.9.9.3.7.3.9.u.9.3.9.7.9.7.9.1.S G h m M k k k z f g 7 * * @ % & X & = = ~ W 4XuX7X7XqX7X>X%X$XJ.7.9.1.4.1.1.1.1.1.<.1.-.1.1.-.-.1.&.1.1.-.&.1.-.-.-.6.1.-.-.-.-.&.>.-.-.-.&.1.6.&.-.-.&.-.1.-.-.1.6.-.-.-.1.&.<.=.1.$.>.<.1.1.=.=.-.-.;.-.$.1.&.-.$.&.<.=.<.$.1.<.<.1.1.<.<.<.1.=.1.-.-.>.-.U g i u 2 2 + + + + o + o + o O O O + r t V.cXzXzXzXzXvXvXvXbXnXvXvXnXvXvXvXvXvXvXvXvXlXvXlXlXlXlX_.+Xs...O. . . ...| .... .............X...X.X.X...+.+...+.+.+.| +.X.| X.+.X.X.X.+.X.O.+.X.+.+.X...+...+...+.X.......X.O...........+.+.....X................... . . .^ Y U Y H P Y ^ ^ { ) } ^ ) ^ ^ U U n O $ O X - X @ @ - @ @ # O # $.sXsXnXgXvXnXvXvXnXwXeXC.=.=.$.=.-.;.",
"P. XoXd.7.7.2.6.2.1.6.2.-.7.1.7.2.2.7.2.t.2.2.2.1.7.7.7.7.7.1.7.2.2.7.1.1.2.7.-.2.2.2.2.2.2.2.7.u.2.2.u.2.2.2.2.2.t.2.2.2.t.2.2.t.2.2.2.2.2.2.2.2.2.u.-.2.2.-.2.2.2.u.-.-.-.-.2.u.t.t.u.2.2.t.-.u.;.2.t.2.-.-.-.u.-.-.u.-.-.-.-.t.t.-.%.[ / n ; ; # # $ # # + 0 w.zXsXzXaXvXyXgXgXgXiXiXd.o.o..... . .....X.@.$.#.&.&.#.F D 5 # # ; # w ; > ; ; ; w n q.q.p.p.p.p.p.t.u.p.a.p.a.p.p.p.i.p.p.p.p.a.i.p.i.p.i.p.i.i.p.p.i.i.p.p.p.a.i.i.p.i.p.p.p.i.i.p.i.p.i.p.p.p.i.p.p.p.i.a.p.i.i.p.i.i.p.i.p.p.i.i.p.p.u.i.p.i.i.i.u.i.i.0.i.p.0.u.p.u.p.p.u.p.u.0.p.u.p.H.t.u.0.p.u.p.u.q.p.i.i.i.0.i.0.i.0.0.i.0.0.9.9.0.u.i.0.p.0.i.9.0.i.u.9.9.9.9.7.9.9.3.7.7.u.7.3.u.9.9.7.9.7.7.9.7.3.7.} h m M k M M k k k i d , # = X = X = O & & P E |.:X=X-X%X%X(.z.z.<.1.1.1.1.<.1.-.6.-.1.1.1.-.1.1.1.-.1.&.-.1.1.1.>.>.&.-.-.-.-.t.-.1.&.1.1.&.1.&.6.-.1.&.1.-.&.t.-.-.-.-.1.1.=.1.<.1.$.=.1.$.=.=.$.1.1.=.=.<.1.=.$.1.1.$.$.1.-.$.1.$.$.=.1.&.=.-.=.1.-.-.-.-.>.U g f q + + + o + + + + + + + O + = + U U +XxXMXzXBXMXmXvXvXnXnXhXnXnXhXjXhXnXvXvXvXlXtXrXrX0X0X%XG.G.s.<.o. . .{ {  .|  .|  .......X.X.X...O.O.....+.+.+.+...+.X...+.+.+.+...X.X.X.X.@...+.X.+.X.X.+.+.+.+.....X.O.X.X...+.....+...+.X.....| ...... ........... .` ` Y U P U H U Y ^ ^ } ( ! ( ) ) ^ F Q 8 $ O @ @ X - X @ $ @ $ O O + ,.sXsXxXnXnXgXnXvXvXiXrX^.-.-.=.-.-.-.",
"P. XXXd.2.t.7.1.1.7.2.6.7.1.7.1.2.2.t.2.2.2.2.2.7.-.2.t.-.7.7.-.6.2.1.7.7.t.2.2.2.t.t.7.2.7.2.2.t.u.;.u.t.2.2.u.7.7.t.2.2.2.2.2.t.2.2.2.2.-.t.2.2.2.-.t.2.2.u.-.2.-.-.-.u.-.y.-.;.t.2.;.t.2.u.t.t.t.2.2.-.-.u.-.-.-.-.;.-.-.2.2.t.-.t.&./ / n - ; ; # # # ; $ 5 q.sXnXzXzXaXgXgXgXgXfXiXs.o.O.O.........X.+.#.#.%.%.%.*.F F 0 # # w ; ; # # ; w w ; l q.t.p.p.p.a.p.H.p.p.u.p.p.p.i.a.a.i.a.p.p.p.i.i.p.i.p.i.a.i.i.i.i.p.i.p.i.i.p.i.i.p.i.u.a.i.p.i.p.i.p.i.i.i.p.i.i.i.p.i.i.i.p.i.p.i.i.p.i.i.p.i.i.p.a.a.i.i.p.i.i.i.i.i.i.u.u.u.0.p.p.u.p.u.p.u.u.p.u.u.p.u.p.u.p.7.p.p.u.0.p.i.i.u.9.9.0.7.0.i.7.0.9.0.0.i.p.i.u.i.i.9.9.9.9.9.9.9.3.7.u.9.u.3.9.9.9.7.9.7.3.9.9.7.3.9.3.7.( M M k M k M m h k f y 6 O = O % & O & @ & E E |.3X-X-X=X=X(.x.v.1.1.>.1.<.<.1.1.1.&.6.1.-.1.&.1.-.1.-.1.1.&.1.&.&.1.1.>.6.&.1.-.t.&.1.-.>.1.&.1.&.-.-.1.t.-.1.-.1.&.-.-.&.-.1.$.,.=.<.-.$.1.$.1.1.=.=.=.1.=.$.-.<.<.$.1.-.<.=.1.$.1.1.=.$.<.=.-.&.-.-.-.-.>.>.U f f y + + + + + + + o + + o + + O = T P %XnXzXMXMXlXnXvXvXhXnXmXnXhXnXnXvXvXvXlXlXyXwXyX0X0X0X&XG.G.s.o.o. . .|  . .| X.X...X.| .. ...............X.X.+...+...+.+.| +.| X.X.X.O.X.@.| :.+.+.+.X.+.+.X.+...+.......X...X...+.+...+...X...X....................... .T T K U U U J U ^ ^ ^ ^ { ^ ! ) / Q F 7 O O @ @ @ X @ X - @ @ O O O #.sXaXnXjXnXnXnXgXvXiXaX^.-.-.-.-.-.-.",
"H.P.U.0.6.6.6.7.6.7.3.1.6.1.7.1.2.2.2.t.2.2.t.2.t.7.2.2.7.2.t.7.7.2.t.7.2.t.2.2.7.2.2.7.2.2.2.2.u.;.u.u.t.2.2.t.2.2.-.7.2.2.2.2.2.2.t.-.2.t.-.2.2.t.2.2.t.2.2.t.2.2.t.-.u.;.t.-.2.t.u.t.u.;.2.;.-.2.2.;.t.2.t.-.-.y.;.-.2.-.-.-.t.&.-.5.*.*.d ; # # # $ # # # 7 k.sXsXsXrXrXaXgXgXhX$X$X;.X.@.....X.......+.$.$.%.%.%.*.c b > # # # ; w ; w ; ; w w k p.q.r.p.p.p.u.H.t.p.a.u.p.a.p.p.p.p.i.p.p.p.p.i.p.i.p.i.p.p.i.a.u.p.p.p.p.i.i.p.i.p.i.a.i.a.i.i.a.a.i.i.p.i.i.p.i.p.p.i.a.a.i.i.p.i.p.i.i.p.p.u.p.i.p.p.i.p.i.0.i.i.i.u.p.p.p.u.p.u.p.u.u.H.u.u.u.p.u.p.u.p.p.0.u.i.i.i.p.i.p.p.0.u.0.0.u.i.i.9.0.9.9.0.u.0.i.i.9.p.9.i.0.9.u.9.9.9.9.3.9.9.3.9.7.9.u.9.9.9.7.9.9.u.9.4.X.+.Z M h k m M h k M k t r * O O @ O & O & O & c c v.v.c.n.c.l.9.6.1.1.1.1.1.1.>.1.-.1.1.6.-.1.-.-.1.-.6.-.-.1.1.1.&.1.&.&.1.-.1.-.-.-.6.&.&.1.>.>.-.-.-.1.&.-.-.-.&.-.1.1.&.<.1.<.1.=.1.$.<.1.&.1.,.<.$.1.=.=.1.$.<.-.=.1.$.<.&.,.-.1.$.<.-.$.1.1.=.<.$.=.1.$.>.&.S g i 5 + + + + + + o + o + + o + + 5 d.d.cXMXMXMXzXBXzXzXBXzXbXnXkXhXnXhXnXhXvXwX0X5X*X*X'._._.^.^.^.S.g.h.<.$.o.o.o.X...X. . .............O...X...O.....+.........X.X.| +.X.X.X.X.X...+.+.+.+.+.+.+.+.+...+.+.X...O...X...O.O.O.........................X....._ ^ ~ Y P Y H U H Y T T { ( ^ / ^ ) ) F F 4 O $ @ @ @ X @ X @ @ @ O O O &.aXsXnXjXnXnXgXvXgXsXgX|.7.6.;.-.-.-.",
"q.l.l.7.2.7.1.7.6.1.6.1.1.7.1.7.2.t.2.7.7.2.7.u.2.2.2.2.t.2.2.2.7.2.2.2.2.7.7.2.7.2.2.2.t.2.u.t.t.2.t.u.u.;.t.2.2.7.7.-.2.7.-.2.2.2.2.2.2.2.2.2.2.2.2.2.2.2.2.2.2.-.2.2.t.2.u.t.2.;.u.-.-.t.t.2.u.;.t.2.u.;.;.2.-.-.-.2.-.-.2.-.t.t.t.t.%.%.b ; ; # # @ # # # 0 5.1XqXsXrXaXyXgXfXrXl.j.X.X.X...X.....| X.+.#.@.&.%.t.[ j j w # ; ; ; ; # ; ; # w ; G 0.t.H.p.p.p.p.a.u.p.p.p.p.p.p.u.a.p.p.p.p.i.i.p.i.i.i.p.i.i.p.i.i.p.u.i.i.p.i.i.p.i.p.i.p.i.p.i.i.i.p.i.i.p.p.i.p.u.u.a.i.u.a.i.p.p.i.i.p.p.i.p.p.p.i.i.p.i.p.u.i.i.i.0.i.u.p.p.u.p.u.p.u.t.u.u.p.u.u.u.p.0.u.p.p.i.0.0.u.0.u.u.0.9.0.u.0.0.0.0.9.9.0.9.p.u.p.i.i.u.0.9.0.0.9.9.7.3.u.7.9.9.7.3.9.3.7.7.3.9.7.3.7.2.1...F H N M N N k N M M z j t 9 # O = = X X = = & @ d l [ | +.#.$.%.1.1.6.6.1.1.1.1.1.>.1.1.1.-.6.-.6.6.-.-.-.1.&.&.1.-.1.>.1.1.>.-.-.&.1.-.1.&.1.1.-.1.&.1.-.&.1.-.6.1.1.-.&.&.1.-.$.&.$.1.=.1.-.&.1.1.=.1.$.<.>.<.$.1.$.$.1.&.<.$.1.=.<.$.1.&.&.<.=.$.1.$.1.-.-.&.$.$.A r r # + + + o + + + + + + + + + w G OX+XMXnXMXlXBXzXBXBXBXMXnXkXjXmXmXjXhXjX0X*X*X'././././.^.^.^.G.^.G.G.D.b.l.l.f.a.s.u.4.3.1.=.=.@.@.@.X.+.X.X.....X.O...X.....X.X.+.X.X...+.O.X.X.X.X.X.X.X.X.X...........X...X.X...............} ........| .......... . .` Q T U P H U U H U Y ^ ^ ^ ^ ^ ^ ^ ~ A C * O O - X X X 1 @ @ @ $ O O + &.aXsXnXgXsXhXzXvXnXgXjX-Xu.i.-.-.2.-.",
"q.k.l.7.6.7.7.-.3.1.7.7.7.-.7.6.2.7.2.t.t.2.2.t.2.2.7.t.2.2.2.2.t.2.2.2.2.2.t.2.t.2.2.2.2.2.2.2.;.u.2.2.t.t.u.2.2.2.-.7.t.-.-.2.2.2.2.2.t.2.t.2.2.t.t.-.-.2.2.2.2.-.t.-.t.;.t.;.;.2.;.2.t.u.-.u.t.-.u.2.2.;.2.t.y.-.-.y.y.-.-.-.-.t.t.5.%.5.b ; ; $ ; # $ # # 4 >.qX1XaXrXrXaXyXgXrXM.x.O...:.:.X.X...X.X.+.$.$.%.&.&.[ j j # # # ; # > # ; # ; ; w G k.0.p.p.p.u.p.H.t.p.p.p.p.p.p.p.p.p.i.p.i.a.i.p.i.p.i.p.i.a.p.i.a.i.i.p.i.i.p.p.i.i.p.i.i.i.a.i.p.p.i.i.p.i.a.i.i.p.p.i.p.p.p.p.i.i.p.a.i.i.p.p.i.i.p.p.p.p.i.i.i.0.i.0.u.u.u.u.p.u.p.p.u.u.p.p.p.u.p.a.u.p.u.0.u.u.p.p.u.p.u.p.0.0.i.u.0.u.0.7.0.0.0.0.u.i.9.p.9.p.p.9.u.9.9.9.9.7.9.9.7.7.u.9.7.9.3.9.7.9.3.7.3.1.2...H H N m M k N h N k h k 7 7 * & O @ = O = O & = s d [ [ +.+.$.#.4.4.1.6.1.4.1.>.1.6.-.1.t.6.-.-.-.6.-.6.-.&.1.&.1.6.&.&.>.>.-.>.-.1.-.6.-.-.>.>.-.>.1.-.-.-.-.6.-.-.-.-.1.-.1.-.1.1.=.=.1.1.$.-.-.=.1.=.1.,.1.-.=.=.1.1.&.<.-.=.=.1.=.-.=.=.1.$.1.=.-.1.$.,.=.1.#.,.N t y w + + + + + + + o + + $ # # + K +XOXMXnXMXBXzXMXMXvXvXvXhXnXkXmXkXhXhXgX0X*X*X/././././.^././.^.^.^.G.D.b.l.l.f.s.s.u.3.3.-.=.1.;.+.o.X.X.X.O.O.....X...X.X.X.:.X.X...X.X.X.X.X.X.X.O.X.+.X.| +.O.....O.X.X.X.....o......._ .... ..... ..... .......X. ..._ T T Y H P U P U U T T ^ ^ ^ ^ ^ ) ~ A Z # @ O @ - X X - X - @ @ $ o + >.cXsXxXnXvXvXvXvXvXvXgX-Xi.i.-.-.-.-.",
"#.0.9.7.7.1.7.t.1.6.1.6.7.7.7.-.7.2.2.7.2.2.7.2.2.2.u.t.7.2.7.2.2.2.2.2.t.7.7.2.2.2.7.t.2.2.u.t.u.u.t.u.u.2.2.2.2.2.7.7.-.7.2.2.2.t.2.2.2.2.2.2.2.7.2.2.u.-.t.2.t.2.2.2.2.2.2.u.t.-.2.t.;.2.2.t.2.t.;.-.t.u.-.-.-.-.-.-.-.-.y.-.t.t.t.t.%.t.D < w @ # # # # # > U }.{.aXaXaXaXgXtX}.=.;.X.......X.O...+.X.@.%.$.&.%.&.[ h l w # # > w # > ; w > w ; R p.0.r.p.p.a.p.p.u.a.p.p.p.u.p.a.p.p.i.p.a.p.p.i.p.i.p.i.p.i.i.p.i.p.p.i.p.p.i.i.p.p.i.p.i.p.u.p.i.p.i.p.i.p.i.p.i.p.i.i.p.p.u.i.p.p.i.i.p.i.p.i.p.p.u.p.u.p.p.0.i.i.i.p.u.p.0.p.u.q.p.u.p.p.u.p.u.p.p.u.t.i.0.i.i.0.p.u.0.u.0.p.u.9.i.9.0.0.u.i.i.u.u.0.0.p.i.9.i.9.9.9.0.9.9.u.3.9.7.7.3.9.7.3.9.7.9.9.u.9.1.1.X.Y ^ H B Z N N N k m N M M N h 8 8 O = = = O & & @ O O r a [ ) | (  ...@.>.>.1.1.1.1.1.1.-.1.1.1.-.1.6.6.-.-.6.-.1.=.1.1.1.-.1.&.1.-.-.-.-.-.&.-.1.&.1.-.&.1.-.1.1.-.&.-.&.1.&.1.-.-.=.1.$.1.>.1.=.1.-.1.1.=.-.-.-.=.&.1.-.-.&.-.&.-.1.&.1.=.<.$.1.$.-.<.-.-.=.1.$.1.$.@.#.M 6 6 w + + + o + + o + + + + o 7 4 q.sXzXnXnXzXBXBXzXvXBXvXvXmXjXmXmXmXfX8X8X.X/.)./././.Q./././././.^./.^.^.`.(.^.^.W.^.W.S.P.A.C.Z.b.l.z.f.p.p.u.9.9.3.2.1.2.-.-.;.;.$.$.@.@.+.X.......X...| ..X.........O.........X...............X.....X.| X.X... . . . . .^ T T U Y H U H Y P Y Y ^ ^ ^ ) ~ / Q z j @ O @ @ @ X X @ @ @ @ @ @ O O >.aXsXgXnXhXgXvXgXvXsXjX-Xp.a.;.2.-.-.",
"( q.7.7.7.2.t.7.6.2.7.1.-.-.7.7.7.t.2.2.2.2.7.2.2.2.2.2.2.2.7.2.2.7.t.2.7.t.2.2.u.t.2.u.2.2.2.2.2.2.2.t.7.2.2.2.2.2.2.2.2.2.2.2.-.2.-.7.-.u.2.2.t.2.2.2.2.2.t.2.-.u.u.t.-.2.2.t.u.2.u.;.2.t.t.;.u.-.-.-.-.;.-.-.-.-.-.-.7.-.1.-.2.1.t.1.t.t./ 0 0 O # @ # # # * A V.Z.qXsXiXgXqX0Xd.+.X.:.:...:.:.+.*.| +.@.;.&.&.&.&.( d d w # > ; 4 # ; 4 # # w ; ) r.p.p.r.p.p.p.p.p.p.p.p.p.a.p.a.p.p.p.p.p.i.p.i.i.i.p.i.p.i.i.p.i.i.p.u.p.p.p.u.i.i.p.i.i.p.u.p.p.p.i.p.i.i.i.p.i.i.i.p.i.i.p.p.i.i.a.i.i.i.p.u.i.p.i.i.p.p.p.u.i.p.u.p.0.p.u.H.t.7.u.p.u.q.u.u.p.u.u.H.t.0.i.i.0.i.i.u.p.p.0.p.0.0.u.9.u.9.9.9.i.9.0.9.u.i.i.9.i.9.9.9.9.9.9.9.7.9.3.7.9.7.9.9.9.9.3.9.1.o.{ { Y Z Z K V S Z N N k N M M z N f 6 6 = = O = O % O O @ @ 6 0 ~ ) / Q ! ^ ^ _ } O.$.-.-.1.1.6.1.1.1.&.6.1.-.1.1.1.>.1.-.$.1.-.&.1.-.-.-.1.1.<.1.=.1.-.1.&.1.-.1.-.&.1.-.-.&.-.1.-.-.-.1.&.-.1.-.1.&.-.-.-.-.-.-.-.-.-.-.-.-.-.-.-.t.1.-.&.-.&.-.=.1.1.$.1.&.-.-.-.t.-.&.&.#.O.i 2 * # + + # + + + + + + + + + G A +XMXnXnXnXnXnXnXvXBXvXbXbXkXbXhXwXtX5X.X'./.'./.)././.Q././././././././.^.^.(.(.^.^.).).^./.^.^.Q.^.!.^.^.I.^.P.K.A.D.D.D.m.M.m.M.M.M.M.M.f.f.s.f.i.u.i.3.3.3.2.=.4.;.=.$.;.;.;.;.;.<.o.=.$.+.X.o.| .. ... . .X.|  .|  .{  .T Y Y U U U U U J U Y U U U T U I U F r r # @ X @ X @ : X X X X @ O O + <.zXzXsXvXgXvXvXvXvXvXgX6Xf.d.1.9.u.f.",
"( 7.6.7.2.2.2.2.2.6.1.2.7.7.2.2.2.2.2.2.2.2.t.2.7.t.2.2.2.2.t.2.2.2.2.2.2.2.2.2.-.u.t.t.2.2.u.t.t.7.2.2.2.2.6.2.7.t.t.2.-.2.2.-.2.2.u.-.7.-.2.7.2.2.t.2.2.t.2.2.2.-.t.;.;.2.;.2.;.t.-.2.;.2.2.u.;.-.y.-.-.u.u.-.2.-.y.-.-.t.-.1.-.t.1.t.t.t.E 0 0 O @ # # O # * A Z.B.9XiXpXjX8X8Xf.X.....:.:.+.| :.:.+...@.;.*.$.&.%.( d d > > # 4 ; > ; # 4 # w w ) p.p.0.p.p.p.p.p.u.p.p.p.p.p.p.p.u.p.p.p.p.a.i.i.p.p.i.p.u.p.p.i.p.p.i.i.p.9.p.p.p.p.i.a.p.i.p.p.i.p.u.i.p.i.p.i.p.p.i.i.p.p.i.i.p.p.i.u.p.p.i.p.i.i.p.i.i.p.u.u.i.u.p.u.p.p.p.u.p.H.u.u.p.p.u.u.t.t.H.u.p.i.i.i.i.i.i.0.p.0.p.u.0.i.7.u.0.9.i.9.9.9.u.9.i.p.9.9.9.i.i.9.9.9.9.7.u.7.9.u.9.u.7.3.7.7.9.7.3.$.{ ^ U S V V S S V N N N M N k N z h 6 6 O O = % = O @ # O # 6 6 / / ) Q Q Q /  .( #.$.$.1.1.4.6.-.1.1.t.1.>.1.-.1.&.6.-.1.1.1.-.1.1.-.1.&.&.-.-.$.1.-.-.-.1.=.-.-.-.1.&.-.1.1.1.&.$.1.-.1.-.&.&.1.1.-.-.-.-.&.-.-.t.-.-.-.-.-.-.&.-.-.&.-.-.-.-.-.1.$.=.-.$.<.-.-.-.-.-.-.$.O.O.g 2 * # + + # o + o + + o + $ # S A +XMXnXnXnXmXvXmXmXvXBXhXbXkXbXhXwXtX5X'..X/././.Q././././././.Q././.^.).^.(.^.^.).).!.^.!.!.).^.).).^.^.!.^.^.E.S.P.A.Z.Z.m.m.M.M.M.M.M.H.f.f.a.s.i.i.i.u.2.2.2.-.<.=.=.=.=.;.=.;.;.o.;.=.;.o.o.o.X...X. .X. . . . .{  .| { Y T Y U K U K U Y U U U T T U U I F D r r O @ @ X X @ X X X - @ X # O O >.aXaXvXhXvXvXgXgXvXgXvX:Xd.l.1.9.9.d.",
"[ 7.7.7.2.2.7.6.1.7.2.6.7.7.2.t.2.2.7.2.7.t.2.2.7.2.2.7.7.t.2.t.7.2.7.t.2.2.7.2.2.2.2.2.u.t.t.u.2.2.7.2.2.7.2.7.2.7.2.-.4.-.1.2.-.2.-.-.-.2.-.-.t.2.2.2.2.2.2.2.t.-.-.2.t.-.u.t.t.;.t.-.t.2.-.t.2.-.y.-.y.-.-.-.-.2.2.-.-.7.-.1.1.-.&.&.%.%.Q 0 0 @ # @ # O # * z 9.q.@XiXaXqXK.K.$.....:.+.:.+.*.:.+.:...;.&.*.%.$.&.) y n ; * ; 4 # w 4 2 ; > ; w +.k.r.p.p.0.p.p.p.p.p.p.p.u.p.u.p.p.p.p.p.p.p.p.p.i.p.i.p.i.i.p.p.i.i.p.p.i.u.p.a.i.i.i.p.i.p.i.i.p.p.p.a.i.i.p.a.i.p.p.p.i.i.p.p.i.i.p.p.p.p.i.p.i.i.p.i.p.p.p.p.u.p.u.p.u.u.0.u.u.t.u.p.u.p.u.p.H.q.u.H.u.i.i.i.i.0.i.i.i.u.p.0.p.u.u.9.0.i.9.i.9.i.9.9.i.p.i.9.i.9.i.9.p.i.9.u.9.9.9.9.7.9.9.9.3.2.;.$.^ U S S B S V V S S A A Z N z h N h N f 6 6 & & O % O & O O @ @ * & I E Q R Q E Q ) Q ) _ ( ..#.#.%.-.-.1.1.2.1.1.6.>.1.-.1.$.1.<.-.-.&.&.-.1.-.1.1.&.1.&.-.1.&.-.&.-.-.&.1.-.1.&.1.&.1.1.&.-.-.-.-.&.&.1.-.t.-.-.-.-.-.-.-.&.-.-.-.-.-.-.-.-.-.-.-.&.$.1.-.-.1.$.-.-.-.-.&.-.&.) ^ t * * + + + + + + o + + o + + 9 d.d.xXxXnXvXnXmXvXbXvXbXvXhXhXtXtX8X*XXX'./././.'./././././.Q.Q.).Q.).Q.).).^.^.Q.^.).!.^.^.).^.).).!.).!.).!.^.^.!.^.!.^.Q./.Q.Q.'.H.H.~.N.H.Q.W.E.!.W.S.E.A.A.A.A.Z.Z.b.b.b.b.j.b.b.C.j.C.b.b.j.l.g.a.a.a.s.u.3.y.4.4.2.4.;.<.;.X.:.| ! T Y J J J Y U Y J J M h h j 6 > O @ @ X @ X X @ @ X X @ @ O @ 4.aXaXvXvXvXvXlXvXvXsXgX7Xn.n.l.n.Z.U.",
") 7.6.2.7.7.-.1.7.1.7.7.-.-.7.7.2.t.7.2.2.2.2.t.7.2.2.t.2.2.2.7.2.2.2.2.2.2.t.2.2.2.2.2.t.u.;.t.2.2.t.2.2.t.2.2.2.7.-.2.2.-.4.2.-.2.-.u.2.2.7.2.2.2.-.2.-.2.-.2.-.u.2.2.u.t.;.2.u.2.u.t.u.t.2.;.2.2.-.-.-.-.y.-.-.2.2.-.-.;.} } T G F D C G k > > @ @ # # # # # z &.$.z.D.A.d.;.;.X...X.:.| :.:.+.:.:.+.:.*.;.*.%.&.%.) n q w # # ; ; ; # ; 2 # w 0 *.p.k.0.0.p.p.p.p.p.p.p.p.p.p.a.p.a.a.u.a.p.p.i.i.p.i.p.i.i.p.i.i.i.p.i.p.i.a.i.i.p.i.p.i.p.i.i.p.i.u.a.i.p.i.i.p.i.u.a.i.a.i.i.i.p.i.i.p.i.i.p.i.i.p.i.p.i.p.p.u.p.u.p.u.u.p.p.p.p.7.u.u.p.u.p.u.u.u.u.t.u.0.u.i.0.i.i.0.i.p.u.u.0.0.9.9.u.i.9.9.9.9.9.9.i.9.i.p.9.i.i.u.p.9.9.u.9.9.u.7.2.3.=.X.X.Y U U S S Z S K V H S V S Z S A Z N V M M k g 6 * O = = & O = @ O # O @ # j E F E Q J Q ~ Q ~ U ~ ) ) ^ } ....+.#.$.&.-.&.1.>.1.-.1.1.$.-.1.-.-.&.1.-.-.&.1.&.1.-.-.&.1.6.-.-.6.-.-.-.-.-.1.-.&.1.&.1.-.1.1.-.-.-.-.1.-.&.6.&.1.-.1.-.1.-.1.t.-.1.-.-.1.-.1.-.&.-.-.&.1.-.-.&.-.-.>.#.A N * + + + + + + + + + + + + w w / >X:XxXnXnXnXmXmXbXnXbXhXgXgX6XXXXX'././.Q.Q.)././././.)././.Q.).Q.Q.).Q.).Q.Q.).^.Q.^.!.)./.!.).Q.).Q.Q.).Q.).^.Q.!.).Q.Q.Q.Q.Q.Q.Q.oXH.~.Q.Q.Q.Q./.Q.Q.Q./.Q.Q.Q.Q.Q.Q.Q.Q.Q.W.Q.Q.Q.Q.Q.W.W.!.W.!.W.W.G.E.W.A.G.G.F.F.F.F.F.C.C.b.b.j.g.a.y.2.-.;...X.{ ! ! k l d d 4 > @ @ @ @ X @ X @ X X @ X @ O O 8.aXzXgXvXgXvXlXyXvXgXvXqX(.(.P.W.!.!.",
"[ 7.7.7.t.7.t.2.2.2.7.t.u.2.t.t.u.2.t.u.6.2.2.2.6.-.1.7.1.6.7.-.1.6.2.6.2.2.2.6.2.1.7.-.1.7.1.1.6.2.1.6.3.7.2.1.7.1.1.1.4.1.2.<.2.<.2.<.4.2.1.2.2.1.1.2.2.1.3.1.2.-.-.-.2.-.7.-.t.2.2.-.-.-.-.1.2.t.-.2.-.y.-.-.4.2.2.-.4.:. . .Y F S A G G k w < @ # @ # # # # k &.&.l.D.D.a.$.;.X...X.:.+.:.:.+.:.:.*.| ;.*.;.$.&.&.) r r ; ; ; # ; ; # > > * 4 4 *.d.d.0.w.p.w.i.p.p.i.d.i.p.a.i.p.i.p.i.a.i.i.i.i.p.i.i.p.i.p.i.p.p.i.p.i.p.i.i.p.i.p.p.i.p.i.i.i.i.p.i.a.i.i.p.i.p.u.a.p.i.p.i.i.p.i.a.i.p.i.p.i.p.i.p.i.p.i.p.u.p.u.p.p.0.0.p.u.p.p.i.i.i.p.u.p.u.i.p.u.a.0.i.i.i.i.0.i.i.i.p.i.0.u.u.u.u.9.9.9.i.9.9.9.i.i.i.9.i.i.i.u.i.u.9.9.9.u.9.9.2.3.;.+.X.{ J J K V V H V Z S S S V S S Z V N N N k h g 4 6 O = @ % O = O @ O @ # - j E R F Q P ~ Q ~ Q ~ U ~ ^ ~ (  .O.X.$.$.$.1.&.1.1.1.<.1.1.1.-.1.-.-.-.-.1.&.1.-.1.&.1.-.&.-.-.-.-.-.-.-.1.-.-.-.&.-.1.-.-.-.-.-.-.-.-.6.-.t.-.-.-.-.-.-.-.-.-.1.-.-.-.t.-.1.-.-.-.-.-.-.-.&.&.-.&.&.>.1.,.N N 3 # + + + + # + + o + O + 4 4 ( ,X,XnXnXnXmXmXmXhXbXbXhXgXyX8X*X*X'.~.Q.~.Q.Q.Q.Q.Q.Q.Q.Q.Q.'.Q.Q.Q.Q.Q.~.Q.~.Q.~.~.Q.Q.Q.Q.Q.~.Q.Q.Q.Q.~.~.Q.Q.Q.~.Q.~.Q.~.Q.Q.Q.Q.Q.Q.Q.~.Q.~.~.~.~.~.~.~.~.E.Q.Q.~.~.~.~.~.H.Q.Q.Q.Q.Q.oXH.Q.H.Q.Q.Q.H.H.H.E.E.A.A.F.A.A.A.m.m.m.m.j.a.f.u.-.2.;...| { ! R L f d d 4 4 @ @ & X X @ X X X X & @ O O O 8.aXaXvXvXvXvXyXgXvXvXjXwX!.!.K.W.I.!.",
"*.7.7.7.7.7.7.7.7.t.t.7.u.t.2.u.2.2.2.2.2.2.6.2.7.7.7.1.7.1.7.7.3.6.7.1.-.6.2.6.1.7.6.7.6.1.6.7.7.1.7.1.6.1.1.7.1.1.3.1.1.4.1.2.4.2.4.4.4.<.2.2.2.2.2.2.1.1.1.1.2.2.7.2.2.7.-.1.-.2.2.-.2.1.2.2.2.;.-.-.-.-.;.;. . .Y P H B m h f g y f l l y ; w @ O # # O # # k @.#.$.#.@.X.....+.X.+.| :.:.+.:.| +.:.@.*.;.*.*.-.%.) y 9 w # ; # 4 > > > # * 0 0 6.r.r.d.i.i.i.d.i.s.d.i.d.p.p.p.p.p.p.p.p.p.p.p.p.i.i.p.i.p.i.p.i.i.a.i.p.i.i.p.i.p.u.p.p.i.i.p.p.i.i.p.p.i.p.i.p.i.0.p.i.i.i.p.p.i.i.p.i.i.p.u.i.i.i.i.i.i.i.i.i.i.0.i.i.i.p.u.p.u.i.i.i.i.i.i.i.i.i.i.u.i.i.i.i.i.i.i.i.u.u.i.i.i.i.u.u.u.i.i.9.i.9.i.9.i.u.u.9.9.9.9.3.3.7.1.2.-.;.;.X.{ ^ U J K K Z S Z B H V K S Z S B S B Z Z Z S G B k N g 4 4 O @ = @ = @ @ # & O # @ 0 R D E P P E E P ~ U ~ U ~ ~ ~ ) ^ / ^ ( ( ( ( ( ..+.+.$.$.=.&.1.6.1.6.-.1.6.1.1.1.1.1.6.1.1.6.6.6.6.t.6.-.7.1.t.1.-.6.-.1.6.2.-.6.-.t.-.-.t.2.t.t.2.-.6.7.t.6.-.1.1.1.-.t.-.-.-.1.&.&.1.1.$.&.-.&.1.&.$.I t 7 w + + # # + + + + + + + # k z ].nXjXxXjXnXjXjXjXmXhXgXwX6X5X'.oXQ.Q.Q.'.Q.'.Q.'.Q.'.~.Q.Q.Q.~.~.Q.oX~.Q.Q.~.~.Q.Q.~.'.Q.Q.Q.Q.~.'.~.Q.Q.Q.~.'.).Q.Q.~.Q.~.~.~.Q.oX~.Q.Q.~.~.Q.~.~.~.~.~.E.~.~.~.~.Q.Q.~.~.~.~.~.Q.Q.Q.Q.Q.Q.Q.'.Q.Q.H.Q.Q.oXQ.Q.Q.Q.Q.!.W.Q.Q.Q.m.F.Q.E.Q.W.E.E.A.A.m.H.M.a.l.) b k l 4 > O @ O @ O % X @ @ X @ X @ O O 8.zXaXaXvXgXbXlXlXgXgXgXuX[.[.W.!.!.!.",
"+.6.7.t.t.7.t.7.t.7.7.7.t.t.u.;.u.;.t.2.1.6.1.6.1.6.7.2.1.2.-.7.7.1.1.6.7.7.1.1.1.7.7.1.1.7.2.6.1.1.6.6.3.6.1.1.1.3.4.4.4.4.2.4.2.<.2.1.2.<.<.4.<.2.1.4.3.1.4.1.2.2.-.2.-.7.1.1.-.-.-.$.X.X...| | { J Y H K K B m k h h f u y u y f f g l l l > ; - # @ * O O # k #.+.+.O.....| :.| ....*.;.:.*.*.| :.+.+.@.*.$.*.$.%.Q 9 9 ; ; ; # > # ; * * * 7 9 q.p.p.p.p.w.s.i.d.i.i.s.d.i.s.p.i.s.i.d.i.s.p.d.i.p.i.p.p.i.u.p.a.i.u.i.p.p.i.p.i.p.u.p.i.a.p.i.i.p.a.i.i.p.a.i.p.i.i.p.i.p.p.i.i.p.p.i.u.a.u.i.i.i.u.p.i.i.i.i.i.i.i.i.0.i.u.p.p.u.0.u.u.i.0.i.0.i.i.i.u.i.i.i.i.i.u.i.i.a.p.i.u.p.a.u.y.u.i.i.9.9.7.2.3.-.;.$.X.{ ^ ^ Y Y Y Y Y J J J H Z K K Z Z K S Z S H B H Z V B Z S S V N A S F H S V N g 4 6 O O & & @ @ @ @ @ O @ @ : b j R P P P P E E ~ P ~ ~ Q Q Q Q ) ! ) ) ^ ) ) ^ Q ^ ^ ^ ^ ( _ .._ ....+.+.+.@.+.+.+.+.........[ | } [ } ..+.| +...+.+.#.+.@.@.$.#.$.$.&.&.*.$.-.*.$.*.#.$.@.+.$.@.+.+.#.+.+.+.+.+.*.+.+.#.%.%.#.+.A S 8 + * + + # + # # + + # + # + 4 q.q.pXsXjXnXgXnXjXhXhXfX8X6X.X'.'.Q.oXQ.Q.oXQ.'.Q.Q.Q.Q.Q.Q.~.oXQ.Q.~.Q.Q.Q.Q.~.'.Q.oXQ.Q.Q.~.~.~.'.Q.Q.Q.~.Q.Q.Q.Q.Q.~.~.~.Q.Q.~.~.Q.~.Q.'.Q.Q.Q.Q.E.~.~.~.~.~.~.~.~.Q.Q.~.~.~.~.~.Q.~.Q.~.Q.Q.Q.Q.Q.Q.Q.'.Q.'.Q.Q.Q.W.Q.W.Q.W.G.Q.Q.Q.Q.Q.Q.Q.E.W.W.W.Q.Q.~.~.I.I.+.G C k 6 4 @ @ X X % X @ @ X @ @ @ O O # 8.aXaXvXvXgXgXlXvXvXgXjX8X].).W.!.!.!.",
"*.7.6.7.7.2.2.t.7.7.t.7.u.2.2.u.t.u.2.2.7.1.7.3.7.1.1.6.7.6.2.6.1.6.7.6.7.1.6.7.6.1.2.6.2.6.2.1.6.7.3.1.1.1.1.3.1.1.1.4.2.1.4.1.2.4.4.1.2.2.4.4.2.2.1.3.1.4.3.4.1.2.2.2.2.-.1.-.2.-.-.$.X.X.X. .| { ! ! H V H M z m u h m u u y i l d d h l n w w - O # O # + + h +.+.+.X...X.X...:...:.| :.:.| +.:.+.:.+.@.$.$.$.$.$.Q 9 9 ; ; # > ; > # > > * 9 7 q.p.r.p.i.w.i.d.i.d.i.p.i.s.d.i.d.i.d.i.d.i.i.i.i.i.p.i.p.i.a.i.i.p.p.p.i.i.i.i.p.i.a.i.p.i.i.p.a.i.i.i.p.i.i.p.i.i.i.i.p.i.i.p.i.i.i.p.i.i.p.9.i.i.p.u.p.u.i.i.0.i.i.i.u.i.p.u.i.i.i.i.0.i.i.i.i.i.i.i.i.i.i.i.i.i.i.i.i.u.i.i.i.i.i.u.y.y.i.u.9.9.9.2.3.=.o.;.| {  .^ ! ^ Y U Y U J J H H S Z F Z Z Z Z K Z H B Z V K V Z V V V C S H I F N N f > 3 O & O O @ @ @ # @ # @ # * x x D P P P E U P ~ E Q ~ U Q Q Q ~ ) ) ) Q ) ) Q ) Q ^ / ^ ...._ ..' ..+.+.X.+.@.O.+...+.....} +.+.+.[ +._ ..+...+.@.+.@.+.+.$.%.#.$.&.*.$.;.-.*.$.$.$.$.$.#.+.+.@.+.*.+.+.+.+.+.O.+.+.#.+.@.#.#.+.A D t * * * # + # + + # + + + # # 5 q.7.dXjXxXjXzXjXjXgXjXfX6X6XXX)._.).~.~.Q.~.~.~.'.Q.oXQ.'.~.Q.Q.Q.'.Q.oXQ.Q.oX~.Q.Q.~.Q.Q.Q.~.~.~.~.Q.Q.oX~.oX~.Q.Q.).Q.~.~.Q.'.~.Q.Q.Q.Q.~.Q.oX~.Q.~.~.oXH.N.~.~.~.Q.Q.~.~.~.E.~.H.~.~.Q.~.Q.~.~.Q.Q.Q.Q.Q.Q.Q.oXH.!.Q.!.!.W.Q.E.Q.Q.Q.H.Q.Q.G.Q.E.W.W.Q.Q.~.~.!.I.*.Z C h 6 0 O @ = X O % X @ O % O @ O # @ q.aXaXvXvXvXvXyXyXvXgXjX8X).).W.!.W.!.",
"*.t.t.7.7.7.t.7.6.6.6.7.7.7.7.7.u.2.7.7.t.7.1.6.3.6.6.7.6.7.7.7.7.7.7.7.7.7.7.7.7.7.7.7.1.6.2.7.6.t.6.-.1.1.1.1.<.4.1.<.4.4.<.4.<.4.1.<.<.<.<.<.=.<.<.o.,.<.o.o.@.$.X.| { ^ J J K B L M k M m h h h h f h f h u u h i u u u i u f g g g k j d > > # O * * + + + h +.+.@.+.@.+.+.@.:.@.:.:.*.*.:.+.:...@.@.@.$.$.$.$.$.Q 7 7 # ; > ; > ; # > * * n n 0.d.w.p.p.p.s.s.i.d.s.p.p.d.i.s.p.i.s.p.i.d.p.i.p.i.i.i.p.i.i.i.p.i.i.p.i.i.a.i.p.i.p.i.p.i.p.i.a.i.a.p.u.p.p.i.i.p.i.p.i.0.p.i.p.i.p.i.i.i.p.u.p.u.u.p.u.p.i.i.0.9.i.i.i.p.u.p.u.p.i.i.i.i.0.i.i.p.i.i.i.i.u.p.u.p.i.i.i.i.i.u.a.u.y.y.y.y.;.X.{ { U U J H K H B H K Z V K H S V Z K V Z Z K Z Z K Z Z H V H B Z B B K B V V S N A S G S U C A r * * O & O @ @ @ @ # @ @ @ # @ > : j D I I P I E E W ~ U W ~ ~ Q / Q / / ) ~ / ^ / ) ~ ~ ~ / ^ ^ ^ ) ^ ~ ^ / / ) ~ ) ~ ^ ~ ~ Q Q ~ Q E ~ U Q E Q Q Q Q Q ~ ~ ~ ~ ~ ~ ~ ~ ` ( ) / ) ~ / / / _ / ( ( } / ..+.+._ _ _ / T T I G k h r 3 6 * + + * + + + # + + # + + + # I ,X>XsXjXgXdXiXgXiX6X8X*X'.'././.'.Q.'.Q.Q.~.H.oXoXoXQ.Q.Q.Q.Q.~.Q.~.~.Q.Q.Q.Q.Q.Q.~.Q.Q.Q.oXQ.oXQ.Q.~.~.Q.~.oXQ.oXQ.Q.Q.~.Q.~.'.Q.Q.oXQ.Q.Q.~.Q.'.Q.~.N.~.~.~.~.N.~.Q.Q.~.Q.~.~.~.oXQ.Q.Q.~.Q.Q.Q.~.Q.Q.Q.Q.Q.~.Q.Q.Q.Q.Q.Q.W.W.Q.Q.Q.Q.Q.Q.Q.Q.Q.Q.W.W.Q.Q.Q.~.!.!.#.F D C 0 8 & @ @ X % X X @ X @ X & # O O q.aXzXgXvXvXhXvXyXvXgXgX8X).).W.!.!.!.",
"*.0.t.q.7.7.t.7.8.7.9.6.7.q.7.7.7.7.7.7.6.7.7.6.6.6.3.1.1.-.-.$.;.$.....} ^ ^ Q Q Q U J U J F S Z Z S Z Z N N V B B M B N m m m N m B B B B V V N B m B m M M m h h u y i d i u d f f f f u i u u u u h f u u i i u i u i i i g f g g g h j n > * & * O = O = * j +.+.$.$.$.$.$.;.*.@.@.;.:.:.:.:.+.:.@.+.@.$.$.$.$.@.F 0 5 ; ; ; # # > > * : * l d 0.0.0.d.0.p.s.i.d.i.i.d.i.i.i.d.i.d.i.d.d.i.p.p.i.i.i.a.i.p.p.i.i.p.p.i.p.p.u.a.i.p.p.i.i.p.i.p.i.i.u.p.i.p.i.p.a.i.p.i.i.p.p.i.i.p.i.a.i.a.u.p.u.p.p.u.u.0.i.i.u.p.i.i.0.u.p.u.u.0.i.0.0.i.u.i.u.0.i.i.i.i.p.u.p.u.i.i.u.7.t.;.@.+.Y Y K K K B M B B B B V K Z B Z B K V Z S Z K Z Z B K Z Z Z Z Z Z Z Z Z B B Z H Z Z Z V V V Z V V S G I z z 6 # # # @ = # @ @ @ @ @ @ # @ O @ # # , , e a a s s g x z z c D A R Q E Q / ~ ~ ~ ^ ~ ~ ~ ) ^ T ~ ~ ~ ^ ~ ~ ~ ~ ~ ^ ~ ~ Q ~ W ~ ~ E Q P E U P P P P U E P E P E P P P P I P P I P F I I I I I S D D G Z c z z g d s 8 > 4 * * * * * * + + * * + + * # = & + + # # 7 6 J.sXsXsXdXiXfXqX6X$X_.)./.Q./././././.Q.Q.Q.~.'.~.Q.N.~.Q.'.Q.Q.oXQ.Q.oXQ.Q.oXQ.Q.Q.oXQ.oXQ.~.Q.~.Q.Q.'.~.Q.Q.Q.Q.Q.Q.~.Q.'.Q.~.~.Q.Q.~.Q.Q.Q.~.Q.Q.Q.~.~.~.~.~.~.~.~.Q.~.~.Q.Q.~.~.N.Q.Q.Q.Q.Q.Q.Q.Q.Q.Q.Q.Q.~.Q.Q.Q.Q.Q.!.!.Q.Q.W.Q.Q.Q.Q.H.H.Q.Q.Q.W.W.Q.~.).).!.~.+.R F G 8 9 * @ @ O X = O % O % X O O # + q.aXaXvXvXgXlXlXvXvXgXgX7X).).W.!.E.!.",
"[ 7.7.t.7.q.q.7.6.7.q.7.q.9.9.7.7.u.7.6.7.7.7.3.7.6.1.6.1.-.&.&.#.#. .} ( ^ ) Q Q Q U F J S S S Z Z S S N N V N V N B N m m M m m B B B V B V V V B m V m h m h h h u u u y u u i f f f u i g u i u g u g u u i i i i u g i i i d g g g l l y ; > # = * + = + + j +.#.%.$.$.$.$.*.*.;.;.:.:.:.*.| *.:...X.*.$.@.*.$.+.F 4 4 # > > # > ; > * : ; l n 0.r.0.p.i.i.s.d.i.d.d.i.s.i.i.p.d.i.s.i.i.s.p.i.i.p.p.i.i.p.i.a.p.i.i.i.p.p.p.p.p.i.i.p.i.i.i.p.i.p.i.i.p.i.p.i.i.p.i.p.p.i.i.p.p.p.i.p.u.u.p.u.u.u.u.p.u.p.u.p.i.i.0.u.u.p.p.u.p.u.i.i.i.i.i.i.i.i.i.i.y.a.i.u.u.p.i.i.u.7.-.;.;.| Y Y K K Z B B M B B B Z B Z Z Z Z V B Z Z Z K Z K V K Z Z Z Z Z Z Z K V Z K Z Z Z V V V V V Z Z S S G S h z 6 # & O O & O @ @ @ @ O @ @ @ @ # @ & , , e r r s g g x z z C A D D ~ ~ ~ ~ / ~ ~ ~ ~ ~ ~ ~ ~ ^ ^ ~ ~ ~ ^ Q ~ ~ ~ ~ ~ ~ ~ ~ Q ~ Q Q E P E P P P P P P E P E P P E P P P I I P P P F F D P I I S A F A A C z z g i r 7 6 2 * * * * * * * & + * + O * * + O & + + + 7 0 J.sXsXdXaXsXiX8XqXXX_.'.~././.'.Q./.).'.Q.'.Q.'.Q.Q.'.oX'.Q.Q.Q.Q.~.Q.Q.Q.~.Q.Q.'.Q.Q.~.Q.Q.Q.Q.Q.oXQ.Q.Q.Q.Q.Q.'.Q.Q.Q.~.Q.Q.Q.~.Q.'.Q.Q.~.~.'.Q.'.Q.~.~.~.~.~.~.~.~.~.oX~.~.~.~.~.~.Q.~.~.Q.oXQ.Q.Q.Q.Q.Q.Q.~.Q.oXH.Q.Q.Q.Q.Q.W.Q.Q.Q.H.Q.Q.Q.Q.H.~.W.W.Q.Q.~.).~.!.[ J F D 9 9 > @ @ X X % % @ X O @ X @ O = e.aXaXgXvXvXhXlXgXyXgXjX7X].~.W.W.!.!.",
"[ q.q.q.q.q.7.t.t.@.( } ( ) ! ) ) R ! J J S G S Z N N m h h g f y f u y u u y u f u u u u y u q q u q y u y y u y u t t y i q y t y y t y u t y t y i i u u i u u u i i u i f i u f u f g f u g h h f f u f g f g u i i x u u i d g g d n n 0 ; : # & * * + + * j #.+.$.-.$.$.=.;.-.;.@.*.:.:.| :.:...@.+.@.-.*.$.+.+.G ; 4 * : # : # > ; ; > ; y l 0.0.w.p.w.w.e.9.d.9.9.d.p.i.d.s.i.d.s.i.a.i.i.a.a.i.p.p.a.i.p.i.i.p.i.p.u.p.p.u.i.p.p.i.a.i.p.i.p.i.p.p.i.p.i.p.i.p.i.u.i.p.i.i.9.u.i.i.p.0.p.0.0.p.p.u.p.u.p.u.i.i.p.i.i.i.u.u.0.p.i.i.0.u.0.0.i.i.a.y.a.y.2.2.-.| | Y K K K B B Z B B B B B B B B B B B B B B Z Z V Z K V K V V Z Z Z Z Z Z S Z Z K Z Z Z Z Z Z Z Z V Z V B Z V V V A S N t e & O # @ @ O @ @ O @ @ @ O @ # @ @ @ @ O # X % X & % O = & & & : * , 8 8 a j g j k z x g z g g d g d d s g d g d d s d d a s a a a a a r r a a a a r r t e 8 t e 6 6 8 8 6 6 6 , , , 6 6 6 6 , 6 , , * > * & * # & * O & # & & # * # + & * # & & # # O # * O # # ; G F uXsXsXsXwXiX$X_.[.Q.Q.~.~.~.Q.Q.).~./.Q.Q.Q.'.Q.Q.Q.'.Q.Q.Q.Q.Q.Q.oXQ.Q.Q.~.Q.Q.~.Q.Q.Q.Q.Q.oX~.Q.Q.~.Q.Q.'.Q.Q.~.Q.Q.~.~.Q.oXQ.Q.Q.Q.Q.Q.oXQ.Q.Q.H.'.~.~.~.H.~.~.H.~.~.N.~.~.~.E.~.~.~.Q.Q.~.H.oXQ.Q.Q.Q.Q.Q.Q.Q.Q.Q.!.Q.W.Q.Q.Q.Q.W.Q.Q.Q.Q.Q.Q.Q.Q.Q.Q.E.Q.~.).W.W.( R P A 8 8 > @ & O X O % X X & @ @ # O O q.vXlXvXvXlXhXvXlXvXgXfX7X~.~.!.I.!.!.",
"*.q.5.t.#.#.Q L L d d d y d q q y y y y y q y y y y y y y t u y y y y y u y u u y u y u u y u q f y f f f y d f d d f y y i i i u i i i u u y i u y y y y i y i i i i f u i u u i u u u f i u f g f h g d h f d f i f g f f d g g r a 7 ; ; ; * # # # # * + + * x #.+.,.#.,.$.>.;.-.&.;.;.;.@.@.+.| :.*.| *.-.;.&.+.[ h # w * * : : * : : > * > 6 7 &.w.0.0.9.w.9.9.9.9.9.9.s.i.i.p.p.p.i.a.y.s.i.i.a.p.p.p.i.p.i.i.a.i.a.i.i.p.i.p.i.i.p.i.i.p.i.a.p.u.p.i.i.p.i.p.i.p.i.i.p.u.u.p.p.i.i.i.i.i.u.u.p.0.i.i.u.p.0.u.i.i.i.i.i.i.p.0.i.0.i.u.0.u.u.9.3.-.;.| { K Z Z B m B B B B B B B B B K B B B B B B B B K B B B B H V K B Z Z Z Z K Z G K Z K Z Z Z K Z Z K A Z Z B V B V V B S C V A N A z > > = = X O @ O @ @ O O @ @ $ @ @ @ & @ # @ @ & & O & = @ & @ @ # # O & * & * & & = & # O = = O = O = = O = @ = @ & O = & O X O O X X & % = @ % X @ & @ & & & = & & = = * * & * * & * & * & & & & & & # & @ & # = @ # # # & # * + & & & * * # # # * O # # # # # # # w d.r.sXsXjX7X[.[.~.!.Q.Q.).~./.~.~.~.Q.'.Q.'.Q.Q.Q.Q.Q.'.Q.Q.Q.Q.Q.Q.Q.~.~.Q.~.~.~.oXQ.Q.Q.Q.Q.~.'.Q.'.Q.~.Q.Q.Q.'.Q.Q.'.Q.'.Q.Q.Q.Q.Q.~.'.Q.Q.~.~.Q.Q.~.Q.~.~.Q.Q.Q.Q.Q.~.~.~.~.~.~.~.~.~.Q.Q.N.oX~.~.~.~.oXH.oXQ.Q.~.~.Q.Q.Q.Q.Q.Q.H.~.Q.Q.Q.Q.Q.H.~.~.Q.Q.Q.Q.~.Q.).b.C.U P P z 6 6 3 # @ O % X % O % X X @ O O O q.aXzXvXvXlXbXyXvXvXvXgXqX`.[.~.).].).",
"*.t.q.6.*.*.Q L C f y f y d d d y y y y y y y q y t y y y y u y y q y y y u q u u y u u u u u u u d f y f d f y f y u d y d u y i i i i u i y u i y i u y i u u i u u i g u i i i f i f f u g f f h f u f f d f i f i f h g g g g d r 4 w 4 # ; : # * # # + + * g #.#.&.#.>.&.&.&.;.*.&.:.*.:...:.+.+.:.+.;.;.*.*.[ [ l * # # * * * > : * > : * 6 9 &.q.q.0.0.7.q.9.3.i.e.i.9.s.i.i.i.p.i.i.a.i.a.s.d.i.p.i.p.i.p.i.i.p.i.p.a.u.p.i.p.p.i.p.i.i.i.i.p.u.p.p.p.i.i.i.a.i.p.u.u.p.p.i.9.i.i.i.0.i.p.0.p.u.p.u.p.u.u.p.i.i.u.a.i.i.p.u.i.u.i.0.0.i.u.u.2.2.;.| { Y K Z B B B m B m B B B B B B K B B B B B B B B B B B B B B V Z Z Z G Z Z Z Z Z Z Z Z Z G Z Z Z Z Z C Z B V V B B V B V V A A A z , > O & @ @ @ @ @ O @ @ @ O @ @ @ @ @ @ O & & O @ @ @ O = O = O # @ # # * * * & & & # = = @ O O = O X @ @ @ = O = O = O O # O = = = O % @ X & @ & & % & & = * & & & * & * * * & * * & & & * & & * & & # # & @ & @ & & O & # # & * & & & + & # & & # # # # @ # # # # ; r.0.sXjXdX7XoXoX!.!.!.!.Q.Q.~./.~.~.Q.Q.Q.Q.'.Q.'.'.Q.Q.Q.'.Q.'.Q.Q.Q.'.Q.'.~.Q.Q.Q.Q.oX~.Q.Q.'.H.'.H.Q.Q.Q.Q.Q.Q.Q.Q.Q.Q.Q.Q.'.Q.Q.'.~.Q.Q.~.Q.'.Q.Q.Q.Q.Q.Q.H.Q.Q.~.~.Q.H.oX~.~.~.~.~.~.Q.~.Q.Q.~.~.Q.~.oXH.Q.Q.oXH.Q.~.!.Q.W.Q.Q.Q.~.~.Q.Q.~.Q.Q.Q.~.Q.Q.Q.Q.~.Q.).C.b.U U P A 8 6 * @ @ @ X @ X % O % @ @ # # O e.lXlXlXgXbXyXvXlXyXgXgX0X[.).~.[.~.~.",
"[ [ [ v j k d d y d d d d d d d i u f d u u d i u i u i u y y u u i i g u u u f u y u f u u u d f f f f d f d f f f d f d f f f u g u f d f f f i f y d u d f d f f u f i u h u f h f f f f g h f g h g f h f h l h g g h d a r 4 * * * ; w ; # : # # # * * * * j #.%.&.>.,.$.$.&.-.;.;.*.;.@...:.+.:.| :.*.*.&.%.) ( y w # * * * : : : : * > * * * x P U ~ F U F S P V H J Q  .{ ;.-.=.u.i.i.a.a.a.i.i.d.p.p.p.a.p.p.i.p.i.i.p.i.i.9.p.p.i.i.p.p.i.a.a.p.i.i.p.a.i.i.i.u.u.i.u.i.i.p.9.9.0.i.9.u.0.i.0.i.p.0.p.i.i.i.i.u.i.u.a.0.u.7.7.-.-.+.{ { K V K B m B B B B B B B B B B B B B B B B B B B B B K B B K V B B B H Z K K V K Z K Z Z K Z K K Z Z K Z Z G Z Z Z Z Z Z B S Z V Z S A A A A g * * = % @ O O @ @ X O @ @ @ O @ @ # @ @ @ & @ @ & @ & O @ = # & @ @ & & & * & & & = & & & = & = & @ & & & & & & & & & & & & : : & & & & & & & & % & & & & & & & & & & & % & & & & & @ & = & & & @ & & & @ @ : @ @ % & & @ : & & & & & & & # & = O * & # & # # & # + l oXoXuX4X-X[.!.~.~.Q.Q.!.).).Q.~.).~.~.Q.'.Q.Q.Q.Q.Q.Q.Q.Q.Q.Q.oXQ.Q.oXQ.Q.Q.~.~.Q.Q.~.Q.Q.~.'.Q.'.'.Q.Q.'.'.Q.Q.Q.'.N.Q.Q.'.Q.Q.Q.Q.~.Q.Q.'.~.Q.Q.Q.'.'.Q.~.Q.Q.Q.Q.Q.Q.Q.~.N.~.~.~.N.oX~.~.Q.Q.~.Q.Q.Q.Q.Q.N.Q.Q.Q.Q.Q.Q.~.E.~.Q.Q.Q.Q.~.~.E.Q.Q.Q.Q.~.H.E.Q.Q.Q.).).4.3.S I S m 6 6 * # @ X X % = X % X - $ O O & e.zXaXvXhXyXbXvXyXvXgXgXwX'.oX!.H.H.H.",
"j l l n a d n d y d d d d d d g g i f f i i f i i u i u i i u y i u i y u u i f f d u d u d f f f y f f f f f f f d f f f f f f u f g u g f f d d f f f f i u d f i g f h h f h f h l h g f f f f h f f h l d l l l d 7 9 4 # * * * * # w ; ; # # > > # + + * = j +.#.,.&.&.1.&.&.;.;.*.;.:.@.X.+.:.:.*...;.*.;.#.R F 0 * # # : * : * * : > : : * * 3 z c S F S S H V U F H S B V B Z V H T Y { :.-.-.3.u.u.u.u.u.i.i.i.i.i.p.i.i.p.p.i.p.i.p.i.i.p.i.i.i.p.i.i.p.i.p.p.p.0.i.p.9.i.e.9.9.i.i.i.i.i.i.i.9.i.i.u.0.u.9.9.u.-.y.-.*.{ | J K K Z M M B B B B B B B B B B B B B B B B B B B B B B B K B B B K B B B B H B B B Z B Z Z Z Z Z Z Z Z Z S Z Z Z Z Z Z Z Z Z Z Z Z Z Z V Z Z A N z r s 8 & & @ @ X @ @ @ @ O @ @ $ @ @ @ @ @ @ @ @ O & @ O & @ & @ & & @ & & @ & & & & & & # = @ @ & @ & & # & @ @ # : - : : : & : & & # & & & & & & & & & & & & & & & & & & % & % & % % & % & % & & = % % % = % % & % % & & @ # & & & : & & & & & & & * * & # # & + # O o o +.:X>XXX).~.~.~.~.~.Q.Q.).Q.Q.Q.).Q.~.Q.Q.Q.'.'.Q.Q.Q.'.Q.'.Q.Q.Q.Q.Q.Q.Q.Q.Q.Q.'.Q.oXQ.Q.Q.Q.~.Q.Q.Q.Q.Q.~.Q.Q.Q.Q.'.oXQ.Q.Q.Q.Q.Q.Q.~.~.'.Q.~.Q.Q.Q.'.H.Q.Q.Q.Q.Q.Q.~.Q.~.~.~.~.~.~.~.H.~.Q.~.~.Q.Q.Q.Q.Q.Q.Q.Q.Q.Q.Q.Q.~.~.Q.Q.Q.~.~.H.Q.~.Q.Q.Q.Q.Q.~.Q.Q.Q.Q.~.Q.Q.| | S S I z 6 6 # @ @ O @ O X % O % @ @ @ # + e.lXzXvXlXvXlXgXlXgXgXjX8XW.!.l.p.p.u.",
"j s l a a s d a d d d a d d d d i i i f i g i i i i u i i y u i i i u y f d f i d f u f u f f f f f f f f f f f d f f f d h h d f d f f i f f f i f f d i i f f g f u f f f h g f h h h f h f h h g h f l h h f f l d 9 9 4 : * * * & * ; ; # > * * * * * + * * j #.#.,.&.&.&.&.&.-.*.;.;.$.@.X.| *.:.*.:.;.&.*.$.F R 0 # # # * : : : * * : : > * , , v v S S S P S S F H F S B B N V B H Y Y { :.-.-.3.u.7.u.u.i.i.i.i.i.a.u.p.p.i.p.i.p.i.p.i.i.i.p.p.p.p.i.p.i.p.i.i.i.i.i.i.i.i.9.0.9.w.i.e.i.i.u.u.p.i.u.9.u.0.7.u.7.2.2.-.+.{ { J Z S B B B B B M B B B B K B B B B B B B B B B K B B B Z B B B B B B B B V B B B K V Z Z Z Z K Z Z Z Z Z Z Z Z S Z Z G Z S Z Z A A Z Z Z Z Z c C h s a 6 = & & X = @ O X @ $ @ @ O @ @ @ @ & @ @ O & O & @ & @ O @ & & # & @ @ & & & & & & & # & & & & @ @ & # & @ : ; : : : ; : # & & & > & & & & & : : @ : & : & & & & & % & & & % @ % % & % & & % & & = % & & % & % & % & X : & & : & & & & & & & & * & # * & # # # # o $ [ ,X>X|.~.(.~.~.~.~.~.~.~./.).Q.Q.Q.Q.~.Q.Q.Q.Q.'.Q.Q.Q.Q.Q.'.Q.'.Q.Q.Q.Q.oXoX~.Q.Q.Q.Q.Q.~.Q.Q.'.Q.~.Q.Q.Q.Q.Q.Q.Q.Q.Q.Q.Q.Q.Q.Q.Q.Q.Q.Q.Q.Q.Q.~.~.~.~.oXQ.Q.Q.H.Q.Q.~.Q.Q.~.~.~.~.~.E.~.~.H.N.~.Q.Q.Q.Q.Q.Q.Q.Q.Q.Q.Q.~.Q.~.Q.H.~.~.Q.Q.Q.Q.Q.Q.!.Q.Q.Q.Q.E.W.Q.Q.~.Q.{ { V I I N 6 6 * O O @ X % % @ @ X X - @ O O e.zXeXvXyXgXlXbXyXvXgXgX7XW.I.f.u.p.u.",
"p s a a d d a d l a s l g d d d g g d f g i f g f f g d u i g u f i f f f f f l f f d f d f f f f l l f l f l f f f d f f f f f f f f f f f d f f i f f f g d f f f g l g h h g l l l l l h l g h g l h d d d n 8 7 4 w ; ; # # # * * ; * ; > # & * & * * * * * j #.#.&.&.t.&.-.-.&.-.;.*.$.;.*.*.:.| *.| *.&.;.+.k k w # > : & * = * * * * * & * : * i d S S P S F H H H H H H H H H H V H Z H Z K K H Y Y { ..X.$.=.-.-.3.3.9.u.9.9.i.i.i.i.p.p.p.i.u.i.i.p.i.i.i.i.p.p.i.p.u.i.9.e.9.9.9.9.i.0.7.7.7.3.7.1.;.;.+.{ { Y K H V B B B B B B V B B B B Z B B B Z B B B B B K B B B B B B B B Z V K B H B B H H B V H V V B H Z K K Z Z G K Z K G Z G Z S Z Z Z Z A N N N k k g d r r > > # O O # @ O O X X X @ % X @ X O @ @ O @ @ O # & & @ @ # @ O @ # @ @ @ : & # : & & * & & & & & & @ @ # & & @ & @ @ # # & # * & & & & & : & & # & & @ # @ & & @ # & & & % @ & & % & & = & & & % & & @ @ @ # & & @ & @ & @ X & & @ & @ X & & X & & O & # = # & # # # @ # # w ; v.oXoX(.~.~.~.~.).~.~./.~./.Q.).'.Q.Q.~.'.Q.Q.Q.Q.Q.'.Q.Q.'.Q.Q.Q.Q.Q.oX~.~.Q.Q.Q.Q.Q.Q.Q.'.Q.Q.Q.Q.~.~.~.'.Q.'.Q.Q.Q.'.'.Q.Q.Q.'.Q.Q.Q.Q.Q.Q.Q.Q.Q.Q.~.H.~.Q.Q.oXQ.Q.Q.Q.~.~.H.~.~.~.~.~.~.oX~.Q.Q.Q.Q.Q.Q.Q.Q.Q.Q.Q.Q.Q.Q.Q.Q.Q.Q.~.Q.Q.Q.Q.!.Q.Q.~.H.Q.Q.Q.Q.W.Q.~.j.K K P V P N 6 6 @ @ @ @ % X X X X X - $ @ O = e.rXlXlXvXlXbXhXlXgXgXgX6Xl.l.7.7.7.u.",
"s l a l a l d l a a d d d l d d i g d d d g f g f d u f f i i g u g g d f f d f f f f f f f f f l l f f f f l l l d h h d h d f d g i f d f g g f g g i f f i f g g f h g f g g l j j d d d a d d d r 9 7 4 4 4 # # # # # # # * # & * & * & * : * & * * * * * * x #.%.%.,.,.&.&.-.*.*.-.;.$.;.*.:.:.*.+.*.*.*.*.R 8 0 > ; ; * * * * : : * : & * & * & 6 , z I S P H F P F J H J H Y Y H K H H J K K K V Z B B Z B Z K S J J Y ! } { X.$.;.1.1.1.2.1.2.2.2.2.2.3.3.2.3.1.1.3.2.2.1.1.1.1.<.>.o.o...{ { ! J U H B B M m M M B N B Z B N B B B B Z B Z V B B V B B B B K B B B B B B B B K Z Z H V B B B B Z Z Z K B B B H Z Z Z Z Z Z Z G Z G K Z Z K Z C Z L L L k d d 9 4 > ; # # O O O O @ O @ O @ O & O O & O O @ @ O O @ $ @ @ @ & O & O @ @ @ @ @ @ @ # @ @ @ # # @ & # & & : & & & & # & @ # & # & : # @ & & & & & & @ : @ @ & @ & @ : & @ # & @ & @ & & & & @ @ & % = = % & @ & & & & & & @ @ & & & & & & & & X & X @ & @ & % & X O & @ & & & & # - # # O q n ].].].!.~.~.~.).)./.Q.~.~.Q.Q.).Q.).'.~.~.~.Q.Q.Q.Q.Q.'.Q.Q.Q.Q.Q.Q.Q.~.Q.'.Q.Q.~.oXQ.Q.Q.Q.Q.Q.Q.~.Q.'.~.Q.Q.Q.~.~.'.H.Q.Q.'.Q.Q.Q.Q.Q.Q.Q.Q.Q.Q.Q.Q.~.Q.Q.Q.Q.Q.~.~.~.~.N.N.oX~.Q.~.Q.~.~.~.~.Q.~.~.Q.E.~.Q.Q.~.~.Q.Q.Q.Q.Q.E.~.Q.Q.Q.Q.Q.Q.H.Q.Q.~.Q.Q.Q.Q.Q.Q.H.G.} V V H V S A e t O & X X X % @ 1 X - @ @ O # + 3.zXeXvXgXvXyXlXgXbXgXgX$XM.M.a.p.p.u.",
"s l l a l n n l l l l d s d d j d g d g d d d d f g g g g g g u g i g d f d f f f d f f f f l f f f d l l f f f h d d f f d f d f f g f g f f i g f i g g d g f g g l l h l j g d j d l d j d d d a 9 a 7 0 4 ; # * * ; ; # ; # * * # * : * : * : & * = * = * = j #.%.%.5.,.&.$.-.-.$.-.$.$.$.*.*.+.+.+.*.*.@.*.E 0 8 : ; * > # : = = * * * : * * * & 4 , z S S P S H F H H J H H H H H J J J J H H K S B Z Z B B Z S S H Y Y Y { { X.=.;.-.-.1.1.3.2.3.2.2.2.2.2.2.1.7.2.1.4.1.1.1.1.1.<.<.o.o.+.| } ) J J Z B B M m h M N M B B Z Z B B B Z B V B B B B Z Z B B B B B B B B K Z Z B B Z B V V K B B H H B V Z H V B K H B K V Z Z Z Z G Z G G G G Z G Z C G C h d d 9 2 4 # # O O O # # O @ # @ @ @ X @ X X X X @ @ @ @ @ @ @ @ @ @ @ @ & O & # @ @ @ @ @ # @ & @ @ # : * & & & @ & & & @ # & & @ & @ @ & : & & # * # & @ @ & & @ : @ # : @ # : @ & # & @ & % @ % & % = & & & = & & & & & # & & & # @ @ & & X & @ : @ : & X : & @ @ & & # & = & & # # & @ # O n q I.].~.~.~.~.~.).).~.~./.~.~.).Q.).Q.Q.Q.Q.~.'.Q.'.Q.Q.Q.Q.Q.Q.Q.Q.oXQ.Q.Q.~.Q.Q.Q.Q.Q.'.Q.Q.'.Q.Q.~.Q.Q.~.~.~.Q.Q.'.Q.Q.'.Q.Q.Q.Q.Q.Q.Q.Q.Q.Q.Q.Q.Q.Q.Q.Q.~.Q.Q.~.Q.~.oXH.oX~.~.~.Q.Q.Q.~.~.~.~.~.Q.Q.~.Q.~.Q.Q.Q.~.H.Q.Q.Q.Q.Q.Q.Q.Q.H.Q.Q.Q.Q.Q.Q.Q.Q.Q.H.E.Q.Q.E.G.X.H H V H S A 7 t @ O @ X & X & X X @ @ @ O O = e.eXlXvXlXlXbXgXlXgXgXaX4XM.M.l.p.a.p.",
"s s s s s l s s s l s s s d g d g g d g g g d f g l h l h h l h l g f l f g h l f l f f f f h g f l l h g h g h h l h g g g g g g g g g g g g g g g g g g g g g i d s y s y i r r r r 8 8 8 6 6 6 > * > * * # # * : : * * & & * : # > # * : * * : & * = : * * * x ] ] ,.,.,.,.t.%.&.&.&.&.$.$.$.#.@.+.+.@.*./ [ b ; 0 ; ; - ; ; : , * = * * = = 3 : : , * t A A I P H H H H H P H H H H H U H H J H H H S S S Z Z Z V B Z Z B B Z B S S S S H F H U P Y P T P Y T P U T T T P P P P I V I N V z m N N N N N V N N V V V V V V V B V N Z N N V V V V V V V V N V V C V C V V B Z S Z Z Z V S C V V C V S V V V V V S V V V C V C Z Z M G Z N c z z k j j d r r 0 * * # # @ @ @ # @ @ # @ O & O O & @ @ & X & @ % & O @ & @ @ O @ @ @ @ @ O & @ & @ & @ @ @ O & @ @ @ @ & # # & & & & @ & @ & @ & & # @ # & @ & & & & & & @ & & & @ & @ & & @ & # & @ & # & @ & @ @ & & & & = & & * & & & & & & & # & & # & & & & & X & @ & @ & X @ & @ & @ & O & = & @ # # @ # . R )  XH. X[.[.H.oXoX[.[.~.~.Q.Q.'.H.Q.Q.~.Q.Q.'.~.~.Q.Q.Q.Q.Q.Q.oXQ.Q.Q.oXQ.Q.Q.~.oXQ.oXQ.Q.Q.Q.'.Q.Q.Q.'.Q.'.Q.Q.~.~.oXQ.Q.Q.Q.Q.Q.~.Q.Q.Q.Q.Q.Q.~.Q.Q.oXH.~.Q.Q.~.Q.~.Q.Q.~.Q.~.~.Q.Q.Q.~.Q.~.Q.Q.Q.Q.Q.Q.H.~.Q.Q.Q.Q.Q.Q.H.Q.~.~.Q.Q.Q.Q.Q.Q.Q.Q.Q.Q.Q.G.Q.Q.Q.Q.E.y.2.K S S H S V V r r = & X X & X & X X % @ X @ O = 9.lXeXgXvXvXgXgXhXhXiXqX(.K.K.K.m.m.n.",
"l l s j s s j l j l d l l g s g g g g g d g j l l g g l l l l f g g g h g g g g g g f g g g g g g l h g g g g g g g g g l d g d d d d d d d s a s y r d r r r t t 6 6 , 6 , > 6 > * * & * & O * # # * # * * : * * & * * & > * * * : * : : & & : * : * * : = = * x ] ] 5.%.5.,.,.,.&.&.&.$.$.$.%.%.#.#.' +.W k k 0 ; - ; ; 0 - - : = : = , = : : = : = * * , i i C F F P H P H H H Y U U J J J J J J J J K K H S K K Z H Z Z Z Z B Z B V S B V V N V V C B V B B V V B m V N V V B B B V N N N V C V V V C N V V V C V N N V V N Z V V V V V V N N V C C V C V V V V V N V V A V V Z Z V C N C N V N N N N M z M z m h h h h g g l d d y r r 9 6 6 > > * * @ @ & @ & @ @ @ @ @ @ @ @ @ @ & O & @ O @ @ O O @ @ & % @ @ O @ @ @ @ @ = @ & & @ @ O & O @ # @ & # & # & & & @ & @ & & & & @ & @ # @ @ & @ @ @ # @ & # O # @ & @ & O & @ & @ # @ @ & @ & @ & @ & @ & & @ @ & & & & & & & & & & & * & & & & * & & & @ & & @ % % & @ & % @ X & & = & O = O # @ @ O O O r.r.].].oXH.oXH.[.H.oXH.Q.~.~.~.Q.'.~.Q.'.~.Q.Q.'.Q.Q.'.Q.Q.'.Q.Q.Q.'.Q.Q.Q.Q.Q.Q.Q.Q.Q.Q.Q.Q.'.Q.Q.Q.Q.Q.Q.~.Q.Q.Q.Q.Q.Q.Q.Q.'.Q.~.~.Q.Q.Q.Q.Q.Q.Q.~.Q.H.oXN.Q.Q.Q.~.Q.Q.Q.Q.~.~.~.Q.Q.Q.Q.Q.Q.Q.Q.Q.Q.Q.Q.Q.Q.Q.Q.~.Q.Q.Q.Q.Q.Q.N.Q.Q.Q.Q.H.Q.Q.Q.F.Q.Q.Q.Q.G.E.E.u.H H H S S S F I S g i @ O O @ X % X % @ % - @ O # = 8.eXlXvXlXvXvXvXhXgXXX$Xm.A.m.K.H.K.H.",
"s s s s s l s l s l d l g s g g g g g g g l g g g l f j l j l f g f g f h g j h g g g h g g g g g h g g g g g g g g g g g f g s d d g d y a d a a r y r r r r e 6 8 6 > > 3 , * * & * & & O # # & # * * * * * * * & * & > & * & & * * : * : & : : & & : : : * * x ] ] 5.,.%.,.5.&.&.&.&.&.%.&.%.#.$.%.+.+.W k j 0 - ; ; - ; - - : : : * % * = : , * : , * 3 d d V F I I H F H P P H H P H J J J J H J H H H K F S S S Z Z Z Z Z B Z B V B V C B V N V C V N m V x V V z V N V V V m B V N N V N V N C V C V V N V N V V V V V V V V N Z V N V B V V V V Z C V V V N V I N V C V Z Z C Z C V N A N N N z k M N k k h h x x h x i d i y a r r 8 6 6 > * * & # @ @ & O @ @ # @ @ # & @ @ @ O & & @ & @ @ & & @ @ O @ @ @ & @ @ @ & X & @ O & @ & O O & O & # & @ & # & & & & & # & & @ @ & @ # = & @ # # @ # @ & O @ @ # @ O & & & & @ @ @ & & & @ & @ & @ @ & & @ & & & & & & & & & & & & & & & & & & & & & % & & @ & & & O & = & % & & @ & @ = & O @ @ @ # O O O H.r. XoX~.~.].].H.[.~.~.~.~.~.~.'.H.Q.Q.Q.Q.~.~.Q.Q.Q.~.Q.Q.'.Q.Q.Q.Q.Q.Q.Q.Q.Q.Q.Q.Q.Q.Q.Q.Q.Q.Q.Q.Q.'.Q.oXQ.Q.Q.'.Q.Q.Q.'.Q.Q.~.~.~.Q.Q.Q.Q.Q.Q.Q.Q.Q.oX~.~.Q.Q.Q.Q.Q.Q.Q.Q.~.Q.Q.Q.Q.Q.Q.Q.Q.Q.Q.Q.Q.Q.Q.Q.Q.Q.Q.Q.Q.Q.Q.~.H.Q.Q.Q.Q.F.Q.Q.F.N.!.F.Q.Q.F./.Q.E.G.i.J H S S S S U V S d d O % @ X @ X & X % X @ X O # O 4.zXrXvXlXvXhXvXvXgXXXXXK.A.K.m.K.K.K.",
"l p a s p s a a a a s a s s d a g s d s s g g d l g g d d d f g f l f l d l l l g g d d d d d d d a a d a d r r a r r a 8 8 8 8 8 0 6 6 , 6 6 > 6 > > * * * * * & & = & = & & # & # # # # & @ & & & * & * * * * * * & * * * * & * & * : : * : * * : * & = = = = x ] ] %.,.5.,.,.&.&.&.&.&.$.$.%.%.%.+.E E l : > ; - ; - 1 0 - 1 : = : = , = : 3 * % * = * = > > r z h N S S S S V H P V F J J F F J J J F J H F J J F H F K S S S S S Z V S V C V Z Z N N I N V V V V V V V V x V I x V V V C C C V V C V V Z V Z Z C V Z N V C V A N N V V N I A N N A N N N N N N x z z k k h x h g g g g i t r r 7 t 6 6 6 6 6 3 3 > , * * * * & * * @ # # @ # @ & # @ @ @ @ @ @ @ & @ @ @ @ O @ @ # @ @ # = = O @ = O & @ & & @ @ @ @ @ O % O @ @ & O & O & & O = @ O @ @ O @ & @ % @ O @ @ @ @ @ O O @ O & @ @ O @ @ @ & & @ O @ O @ O O & O O @ @ O # O & @ & @ & & & # @ @ # O # @ @ O & & * & & * & & & # * & & @ @ @ & & @ O % = O X & X = X & @ = X O @ O O @ O O o 4 H.].H.H.~.~.~.~.oX~.~.~.~.~.~.~.Q.'.'.~.~.Q.~.Q.Q.Q.~.Q.Q.'.Q.Q.Q.oXQ.Q.Q.Q.oXQ.Q.Q.'.Q.'.Q.Q.Q.Q.Q.'.H.~.~.Q.Q.Q.Q.Q.Q.Q.Q.Q.'.~.~.Q.Q.Q.~.~.~.Q.~.Q.~.~.~.Q.Q.Q.Q.Q.Q.Q.Q.Q.Q.~.Q.Q.Q.Q.Q.Q.Q.Q.Q.Q.Q.Q.Q.Q.Q.Q.Q.Q.Q.Q.Q.~.oXH.Q.m.Q.Q.Q.Q.Q.Q.!.Q.Q.Q.Q./.G.i.a.Y K K H S H I V P V s d O @ @ & % % X & % @ @ @ # # * 4.eXaXvXbXvXhXhXbXwXQ.!.m.m.A.H.m.m.E.",
"< < > > > < , > > < > < , , > , , 6 6 8 , 8 8 8 8 8 8 8 8 8 8 6 6 7 8 6 8 8 8 8 6 8 6 , 6 4 , 4 4 , 4 < , > > , > > * * * & & # & # @ @ @ # # @ @ @ & @ @ # @ # @ & @ & @ & # # * & & # & @ & & & & * * * # : * # : * # * & * & & & * & : * & : : * : = , * = : j ] ] %.,.,.>.%.,.&.&.&.&.&.&.&.%.#.Q a a : : # ; ; ; - - ; 1 p , : = : = : = : : : : = & & * * * 6 6 7 t r i i u u h z k m N N V N C C C N Z C V Z A Z G S G G G S S S Z S S S V S S V V I V V A N I V N A A V I m V V A C V V C V V C A V V C N V N N N N N z z z m z x h x i h i i i s r i r r r t t t t t , 6 , t , , , , , > > * > & & * & & & & & & & & & & & @ & @ O # @ @ @ @ @ @ @ @ @ # O & O @ & & O & @ & @ @ @ @ O & @ O & & # @ O O & O & O & O & & = & O O O @ O # & > 6 6 a s s x c c c c c x x g g g g s s s r a r a r e i e e r 8 0 8 , > 6 2 * * # O # # O # O = O = X O O O O & O & O # + = + & = = & = = & & @ & = # # @ @ @ # @ O @ O @ O = O & O & = O = X % . . $     r ]. XH.4XH.].~.~.~.~.H.oX~.~.~.~.'.Q.Q.Q.~.'.Q.~.Q.Q.Q.Q.Q.'.Q.Q.Q.Q.Q.Q.Q.oXQ.Q.Q.Q.Q.Q.Q.Q.Q.~.Q.Q.~.oX'.~.Q.Q.Q.Q.Q.Q.Q.Q.Q.Q.Q.Q.'.Q.Q.~.Q.Q.Q.Q.Q.Q.Q.Q.~.Q.Q.Q.Q.Q.N.oXQ.~.Q.Q.~.~.Q.~.~.~.Q.Q.Q.Q.H.Q.Q.Q.H.~.Q.Q.H.Q.oXH.Q.Q.Q.H.Q.Q.Q.Q.E.Q.E.Q.G.G.G.a.{ T Z H K V V S V I I A g g = X @ X & % X - % : @ 1 @ # O 1.pXiXnXhXnXkXjXjX6Xm.A.m.A.H.K.m.m.m.",
"< : > < , > , : > > > < , , 6 6 6 , 6 6 6 8 6 6 8 8 8 0 8 8 8 9 8 8 8 7 6 6 8 0 8 6 6 6 , 0 6 , 6 , < 4 , > > > > > > > : & * # # @ # @ @ @ @ @ # @ # @ # @ # @ & @ & O X & & : # # # # @ & @ # & # * # ; * # : : # # > & : & * & * * : * : * : = : * * * = = * v ] ] 5.,.,.>.&.&.&.&.&.&.%.%.&.#.%.E a s : ; : ; ; < ; p - - - : : : : * : % , , = : : : * & * * 6 , 7 y t i i i i h x k N z V C N N N Z Z C C Z C A A S G S S S G S G V A S G A V C C V N V V V V V V I V N C m I V V V V C S V C V V N Z N V N A N N N N N v N k z k h z x g x i x x i r r y r t t t , t , t 6 6 , t 3 * 3 : > * * * & & & & * & & & & & & & & # @ @ @ @ @ @ @ @ - @ # @ @ @ @ @ @ & @ O @ & @ @ @ @ & @ @ & O = = @ O @ @ & & O & O O & & O @ @ O & O @ = O # & * 6 6 e s d x z b c c c z x x g s s s s s i a r r a s e r a r 8 0 8 , , > * * > * & # @ @ & O X = O O O O # = = O + # O # * & = = = O # & * & & & & & & & # @ @ O # O # O # X = O = = X O X = . . . X   . a  X]. XH.oX~.~.~.~.[.oX~.~.~.~.~.Q.Q.H.'.~.~.Q.~.oXQ.~.Q.Q.Q.Q.Q.Q.Q.Q.Q.Q.Q.oXQ.Q.Q.Q.Q.Q.Q.'.Q.Q.Q.Q.~.Q.~.Q.Q.Q.'.Q.Q.Q.Q.Q.Q.Q.Q.Q.Q.Q.~.Q.Q.Q.Q.Q.~.~.Q.Q.Q.Q.Q.Q.Q.oXH.Q.~.Q.~.Q.~.N.~.Q.~.Q.Q.H.'.~.Q.Q.Q.~.~.Q.~.Q.Q.H.N.Q.Q.Q.Q.Q.Q.Q.H.Q.Q.E.Q.G.G.G.j.! ^ H H K K H S H I V I g s @ = @ % X & % % @ X @ @ O # # >.aXaXnXnXmXjXkXjX6Xn.Z.A.m.A.m.F.K.H.",
"; @ 1 : @ # @ & @ & & & & # & # @ O # O & @ # & & O O # # O # O O # # O # # # # # # @ @ @ & - ; @ ; - @ @ - @ @ & & & & @ @ & @ & @ & & @ & @ & & @ & @ @ & & & & & @ @ & & # # & # # # & : # & & : * & ; & * : * : : > > : * : : * : & ; & : * : : = , : = * = x ] ] %.5.%.5.%.&.%.>.&.&.&.%.%._ _ g > > : : ; - ; - - ; - - ; : : : : , : : % % : : : : & * & * * * > * 2 , , 3 3 3 3 6 6 6 7 8 7 8 9 9 n 9 9 9 a r r y d n l d d g g g g h g h g h g g h i i h u i x i i g h i x x z x h h h h h h z f h f i g y d i y r a y r r t 7 t t 3 t 3 , , 3 3 3 * , % 3 = , = = % 3 & : * : * , * , : > : : , & & : > & * & : : : : @ & & & @ X @ @ @ @ @ @ @ @ @ # @ & @ @ & O @ @ & @ & @ O & @ = = O O & & @ O & @ & O = # O * > * t j g D ~ / #.>.>.q.z.v.Z.U.U.T.{.`.{.{.{.T.T.Y.U.U.T.S.L.L.B.B.B.J.J.D.D.D.B.B.V.z.z.V.e.w.e.8.8.1.#.#.O.~ ` P I I v x x g g g i r t t 8 t 3 3 6 > * * * = = * = O O O O O # @ O O @ O + # O = & O & O & X O . X . .       z ]. XoXH.[.~.~.oX~.oX~.~.~.~.~.~.Q.Q.oXQ.~.~.Q.Q.~.Q.~.'.Q.Q.Q.Q.'.Q.Q.Q.Q.'.Q.Q.Q.'.Q.'.'.~.Q.Q.'.Q.H.oXQ.Q.'.'.Q.Q.Q.Q.'.Q.Q.'.Q.Q.Q.Q.~.~.oXH.Q.~.Q.~.Q.~.~.Q.Q.Q.Q.Q.~.~.Q.Q.Q.Q.oX~.N.Q.H.~.'.Q.Q.oX~.~.Q.Q.Q.oX~.Q.Q.Q.Q.Q.Q.Q.Q.Q.Q.H.W.Q.Q.Q.~.Q.G.j.a.Y K H V H Z Z S S V P S A g s @ O @ @ % @ : X : % X @ @ O O #.aXaXnXkXjXkXjXfX[.m.m.K.A.A.A.m.m.A.",
"@ : @ 1 : @ : @ : X : @ @ & @ @ @ @ @ & @ = @ O @ # @ @ @ @ # # @ @ # # # @ @ # # @ @ @ # @ @ @ - - @ - & @ & & @ @ & & : @ & : X & & @ & @ & @ & & @ : @ & & & & & & & & & ; & & * : & & & & : # # * : * : * * : & : # = * : * * : * : & : * : : : % : * * : : x %.%.%.5.,.,.%.,.t.] %.[ W ~ P j x , & > : : ; - 1 0 - - 1 p - > : : : % : : : : : : : : > * : : & , : > * : , > > * , * * * * > > > > ; > 4 > 4 4 > > 0 > 4 > > 4 , > > 4 4 4 6 6 6 6 6 6 6 6 6 6 6 , 3 t 0 4 3 t 3 3 6 6 8 8 6 6 6 6 6 6 6 6 6 6 , , 4 > 4 > 2 * * , * , * * 3 * % 3 % * * = 3 % 3 = 3 = , = * > : : = : % : : : : > : : : : : : > & , : % : & X @ X @ & @ @ @ ; - @ # @ @ @ @ @ = @ # @ # # O # O = @ O @ O # & @ O = O @ @ * t t v T ~ #.e.e.V.T.Y.+X%X&X9XeXrXzXvXzXnXMXnXMXMXMXMXMXxXMXMXnXnXnXnXxXnXxXMXMXMXxXxXcXMXMXnXMXxXMXzXzXzXzXzXaXzXcXeXeX<X&X;X%X+X+X`.`.^.T.T.U.D.D.C.V.x.z.z.h.h.e.3.3.>.,.o.` T ~ U A A z g h y 9 8 6 * * # O O O O O O O . . . . . . . . P oX X X[.~.~.~.~.[.H.~.~.[.~.~.~.'.Q.Q.'.~.Q.Q.'.~.Q.Q.Q.Q.'.Q.Q.Q.Q.Q.'.Q.Q.Q.Q.Q.Q.Q.'.H.Q.Q.Q.Q.Q.'.~.Q.~.H.'.Q.Q.'.Q.Q.Q.Q.Q.Q.Q.'.Q.oXH.oXN.~.~.~.~.Q.~.Q.Q.Q.Q.Q.Q.~.~.Q.Q.Q.Q.H.oXH.Q.Q.~.H.'.H.H.Q.Q.Q.H.N.H.H.oXQ.H.Q.Q.H.Q.Q.H.W.W.W.Q.E.Q.E.H.a. . .Y V H H V Z H H S I V S D g g # X @ X & 1 % & X : - @ @ $ O _ aXpXCXjXCXjX7X8XZ.K.A.m.K.m.H.m.K.m.",
": @ @ : @ : @ & : & @ : @ & @ & @ @ @ & & @ @ @ & @ @ @ @ @ @ @ # @ @ @ @ # # - # @ @ @ @ @ @ @ @ - : @ & @ & X & X : X : & & X & @ X : & & X & X & @ & X & & & & & & & & & : & & : & ; : # # & : & : & : : * : : = : : = : * : * * , = = : = , * : 3 : % = , * x ,.%.5.%.%.,.5.>.%.*.] / ~ ~ P x x , & & : : : 1 1 ; 1 < 1 1 - 1 < : : : 1 1 : : : 1 : : : : : : , : , % , , = * : * , * > * * # > * > > * 4 > ; < ; < > > > < < 0 < > ; < 0 < 6 6 , 6 6 6 6 6 0 0 0 < 0 4 p < 0 8 0 0 0 7 0 0 8 6 0 0 0 6 4 4 0 4 4 4 4 , 4 , , > > > , * : & = 3 = , = , % 3 % 3 = = 3 % 3 : % , , % % % , % : : , 1 : : : , : % , : : : : % @ : & @ @ X @ @ @ - # - @ @ @ @ & # @ # O @ & O O O & = @ O @ # O & O O & + O O > t r v T ~ #.9.q.B.T.T.}.;X&X9XeXrXaXvXvXMXMXMXMXNXMXMXMXvXMXzXMXnXxXMXvXxXMXvXzXMXMXMXBXzXMXMXMXMXzXMXzXzXzXzXcXzXcX1XeX<X&X%XOX+X{.`.`.T.T.P.S.D.B.D.V.x.x.z.w.w.e.4.3.,.O.o. .` ~ U A A N g k y 8 8 6 * * # = O O O = O O . . . . . . . . I [.].].oX[.H.~.~.Q.oXQ.oXoX~.Q.Q.Q.Q.Q.~.oXQ.Q.Q./.'.Q.Q.Q.'.'.Q.Q.'.Q.'.Q.'.Q.Q.Q.Q.Q.Q.Q.oXQ.Q.Q.Q.'.Q.Q.Q.'.Q.Q.Q.Q.'.Q.Q.Q.Q.Q.Q.'.Q.Q.Q.Q.'.~.Q.Q.~.Q.Q.Q.Q.Q.Q.~.Q.Q.Q.Q.~.~.Q.Q.Q.Q.Q.H.Q.Q.H.~.Q.H.~.Q.Q.Q.Q.Q.Q.Q.Q.Q.Q.Q.Q.H.Q.Q.~.Q.Q.G.G.G.G.j.| { V H V V H H S H V V P V S g g & @ @ X : X 1 & % X @ @ O # O / dXiXCXjXjXjXiX7XH.H.J.m.A.m.K.m.H.F.",
"& - : @ : X : @ X & & X & @ & 1 & & @ @ @ @ # # @ # # - ; ; @ # : @ # @ - - - @ - - # : & & & @ # @ @ & X : & : @ & @ & & @ @ & X & & @ X @ & & & @ & @ : & & & # & : # : # # & & # & & & & : & # & * : * * : & : , : : , : : * : : : : : : , : : * : : : : : = p W W W I I I I D D z c s 8 8 , : , * * * : : : < ; < 1 1 < p - < 1 1 < 1 < 1 < , : < : : : % , : : : : : : : : , > > * > > > , > > > > : > > : < > ; > > ; < ; ; ; ; < < > ; > > > > > > > > : ; < > < > > > > > > w > > > > > > > > : , , , , ; < > > > , ; < > , > > > > , , : , : , , % , % 3 % % , % , : : , % , , p , % % : : 1 , , % : % : : : : : % = : & @ % @ @ @ # @ @ @ @ @ # @ # @ O & O & O O O # = = = = O O O O + * , s r I O.#.w.J.J.{.%X%XqXpXeXzXnXvXvXvXvXvXzXvXvXvXvXzXvXvXvXvXvXlXvXvXvXvXlXvXlXlXlXvXvXlXvXlXzXlXlXzXlXzXvXvXlXzXzXlXzXlXlXlXlXlXlXlXzXzXzXlXlXzXzXzXvXzXzXvXzXzXzXlXlXeXlXlXeX0X0X9X<X<X&X%X%X+X}.}.`.`.^.I.J.D.x.w.w.1.#.~ ^ S g g 3 & = . . . . . . W  X[.].H.oXoX~.~.oXH.oXH.H.~.~.oXoXQ.Q.Q.Q.Q.oXQ.Q./.Q.Q.G.Q.Q.Q.Q.Q.Q.Q.Q.Q.Q.Q.Q.'.Q.'.Q.Q.Q.Q.Q.Q.Q.Q.Q.'.H.'.Q.Q.'.H.'.Q.Q.Q.Q.Q.Q.Q.Q.Q.Q.Q.Q.Q.~.Q.Q.~.Q.Q.~.Q.Q.Q.~.Q.~.Q.~.Q.~.~.Q.Q.Q.~.Q.Q.~.Q.~.~.Q.Q.Q.Q.H.Q.N.Q.H.Q.H.Q.Q.Q.Q.N.E.Q.G.F.a.a.| K Y V V V H V V H V H H V P V g g @ @ @ - X & X % : X - @ O O O Q pXdXCXjXCXkXoX[.m.m.m.K.m.K.K.m.m.K.",
"X : @ - 1 & X : & @ & @ @ 1 - - - : @ - # @ - @ # @ ; # ; @ - @ # & @ # # - # ; @ - & @ # @ @ & - - @ @ @ & @ & X & @ & X & @ : : @ & & & @ & @ % @ & & X & & & : & ; & & : & & # : : & & # & & : : : * * : * : : = : = = : * : * : : % : : : = * : : = = : : : > < 8 < : < < < < < > > : # & & : & : & : > > : ; ; < 1 ; p 1 - 1 1 1 1 < 1 1 1 : 1 : : 1 : : : : , : , : : : : : : : : : * * : * * : > > > > > : ; : < ; > > : ; > > : ; ; < : : > > > > > > > < ; < : > > > > > > > > < ; < > > > > < > ; > > ; < < ; > < ; > , , > < , > > < , > : : , % , % : , : , , 3 % : % , , % % % % % : % : 1 1 : : 1 : : : : * % : : X & @ @ & @ @ @ @ @ # # # O $ # O + = + # + * 2 2 t m z ~ ,.#.e.z.z.Z.(.(.OX<X9XaXnXjXnXvXnXvXvXbXnXvXvXvXvXvXlXvXvXvXvXvXvXvXvXvXlXbXvXbXbXlXlXlXvXlXvXvXlXlXvXlXlXlXlXlXzXlXBXbXlXvXlXlXlXlXzXlXlXlXlXlXlXlXlXlXzXlXzXlXlXlXlXlXzXvXyXlXeXlXlXlXzXvXzXzXvXvXzXzXvXvXvXjXvXvXvXnXgXgXsXsXiXaXqX6X$X$X|.P.T.h.' O.v & : . . X v  X X].).H.[.H.oXQ.oXoXoXoXoX~.~.Q.~.Q.Q.'.Q.Q.Q./.Q.Q.Q.'.Q.'.Q.Q.Q.Q.Q.Q.Q.Q.'.Q.'.Q.Q.Q.Q.Q.Q.'.Q.Q.~.Q.Q.Q.Q.'.H.Q.'.H.'.Q.'.Q.Q.'.Q.Q.Q.Q.Q.Q.Q.oXH.~.~.Q.Q.Q.~.Q.Q.H.~.~.Q.Q.Q.Q.H.Q.Q.H.~.~.!.~.E.H.Q.H.H.H.Q.H.Q.~.Q.m.Q.Q.Q.Q.Q.W.Q.Q.H.F.y.Y { K K B K S S V H H V H V V H V V g g @ @ @ X X : : 1 & & @ @ # O O G uX1XsXkXCXfXE.J.m.K.A.m.K.m.m.m.K.m.",
": @ 1 & @ @ : @ @ : X : : - : @ @ - : - # - @ - @ - @ - @ - # & & @ : & - @ - @ - # # & @ : & @ @ @ @ : : @ : X & @ & % : @ & X X & X : @ & @ & @ : @ 1 & & & & # & & & & # # : # & # & & : # * & # & : ; * : * : : 3 : : : : * : * * : * : : : : = : : , * : % > e < 8 < < > < < , > > : # ; & : : : : : : : : : : 1 1 ; 1 - - 1 < 1 < 1 : < 1 : 1 : : 1 : : : : : : < : , : , : : > & : > & , : > > * : > : > < > > : < ; ; < > > > > > > > > > > > > > : > < ; < - < > > > > > > 0 > > > ; < > > > > < < > 4 ; < > < < > < > > > > , > > : < > , , > , , , , : , : % % , 3 , , % % , % , p 1 : , , % , 1 , 1 : % , % , = = % & X & @ @ @ @ @ # @ # $ O # o + + = + O O + + 2 > t z z ^ #.&.9.h.z.Z.T.Y.@X<XeXaXgXnXjXnXnXvXkXvXvXvXvXvXvXvXvXvXgXlXvXvXvXvXvXbXvXlXlXvXlXvXvXlXvXbXlXvXvXbXlXvXlXlXBXlXlXlXlXlXvXlXvXBXlXzXlXlXzXlXlXlXlXyXlXlXlXlXlXlXzXlXlXlXzXlXlXlXlXlXzXzXlXlXzXzXlXvXzXvXvXzXnXnXjXvXvXnXgXnXnXiXrXrXqX9X-X&X.XT.S.w.O.' v : : . = . v  X X].[.oXoXoX~.oXH.H.oX~.~.~.Q.Q.Q.oXQ.Q.Q.Q.Q.Q.Q.Q.Q.Q.Q.Q.Q.'.Q.Q.Q.Q.'.Q.Q.Q.Q.Q.Q.Q.Q.Q.'.Q.Q.Q.Q.~.'.Q.Q.Q.oX'.H.'.Q.Q.Q.Q.Q.Q.Q.Q.Q.'.Q.Q.Q.Q.oXQ.Q.Q.Q.~.Q.~.~.~.~.Q.~.~.Q.Q.Q.Q.H.Q.Q.H.Q.!.Q.~.~.Q.Q.H.Q.Q.Q.H.Q.Q.Q.Q.F.m.Q.W.Q.~.m.F.y.{ { K B K V H V H V B H V H H V V P g g @ @ @ - % X % @ X % @ X O O O G uX1XCXCXkXdXK.P.m.m.A.A.m.A.H.A.m.A.",
"@ : X : : & X : X : & X @ 1 : @ : - - @ - - ; - : @ & : - - & @ @ @ : @ - @ ; @ @ ; @ & @ & @ & X & @ % X & X & & & X @ & @ @ & : & @ & & & @ @ & @ @ @ @ @ : & : # ; ; # @ # & : & & # & & & & & & & * & * & : = : : : : : : = = : : * : = : = : , * : : : : , & : & & : : : - - - : - ; : - : : : : : : : : < 1 : : p : : : 1 1 < 1 1 1 1 < 1 1 : 1 : , , 1 : : , : : : : : : : = : : : : & & > : : & > > > : : < : > < > > : : > > > > : > : : < 1 < > > < > < : < < < > > > > < : > < : > ; : < < ; ; > > > ; > < > > < : < > < > < : < : : : , : , % , , % % , % , : : : , % % , % , % , % p % p 1 1 % 1 , , : : , & & = % & O % @ & = @ & @ # O # # * 2 r k I I ` 1.-.d.L.P.}.-X;X7XqXwXiXgXiXgXnXvXnXjXmXjXmXhXmXhXvXbXvXbXvXhXvXbXgXvXgXgXvXvXbXvXvXvXbXbXvXlXbXlXbXlXbXlXlXvXlXlXlXvXlXlXlXlXlXlXlXlXlXlXlXlXlXlXlXlXlXlXlXlXlXlXlXlXlXlXvXrXlXzXlXzXyXlXgXvXlXlXvXgXlXlXlXvXlXlXzXvXvXvXvXmXvXhXvXvXvXvXvXvXvXvXvXvXvXvXgXhXgXrXrX>X X{.V.a a . = & e H.v.].).~.~.~.~.oXoXH.oXQ.oX~.oXoXQ.Q.Q.Q.'.Q.Q.Q.Q.Q.Q.~.~.Q.Q.Q.Q.Q.~.Q.'.Q.Q.Q.Q.Q.oX'.Q.Q.Q.Q.Q.Q.Q.Q.Q.Q.oX'.Q.Q.Q.'.Q.Q.Q.Q.Q.Q.Q.Q.Q.Q.Q.Q.Q.Q.Q.oXN.~.Q.H.Q.Q.Q.!.Q.~.~.Q.~.Q.Q.Q.Q.H.'.Q.Q.E.Q.Q.Q.Q.H.Q.N.!.E.F.G.Q.G.W.N.G.F.m.m.M.y.<.Y K K B H H V V H V V V H V V V S S A g d @ @ X @ : & 1 % : X @ @ @ $ O h >X>XCXCXCXXXm.m.Z.A.m.A.m.H.K.m.A.m.",
"- @ : @ @ - : @ : @ @ : : - - 1 1 - - - - - - - - & @ X @ & @ : : @ @ : @ : @ : : @ : @ & & & & & & & = & & % & O & & & X # & & # @ # @ & O & # # @ # # # # # # O O # O @ # # # # # # # * & + & # # # & & & # * * , = : * : = * : * = : : : : , % = : : : = = % : & : & @ @ - : ; : : & & : : @ : : : : : : : : < 1 : : : 1 < 1 : : : : < 1 1 : 1 1 < 1 1 1 , 1 : : : : , : , : : , : , > & > > & * > > : > > > > > : > : > : > > : > > > ; > > ; : < < < : > > ; < ; ; > > > > > > < > > ; < : > > : < < ; > > < > : < > : < : > > : : < : > < , : , : , % , , , , , : , : , 1 , , 1 , 1 % % , % % % , 1 , 1 % % % % % & & & & @ @ & O O & O O O O 6 7 U d.d.P.}.;X&X0XqXpXpXgXvXnXmXNXmXmXnXjXmXvXkXjXvXmXjXhXjXhXjXhXnXkXhXvXhXhXvXhXlXgXhXvXvXvXgXlXgXvXyXvXyXbXbXlXbXlXbXlXlXvXbXlXBXlXlXbXlXBXlXlXBXlXBXlXbXlXlXbXlXvXlXvXlXzXvXvXzXlXvXlXzXvXvXvXvXvXvXvXzXvXvXzXvXzXvXvXvXzXzXvXlXvXvXvXvXvXvXvXvXvXlXvXvXvXhXgXhXhXbXhXgXgXgXtXrXtX6X}.{.r.s s X & & t R R ].).oXoX~.~.H.oXoX~.Q.Q.~.Q.Q.Q.Q.oX~.~.Q.Q.Q.Q.Q.'.~.Q.Q.Q.Q.Q.Q.'.Q.Q.Q.Q.Q.Q.Q.~.Q.Q.H.oX~.~.'.Q.~.Q.Q.Q.Q.Q.Q.Q.Q.Q.Q.Q.Q.Q.oXQ.'.Q.Q.Q.Q.Q.Q.Q.H.Q.Q.Q.oXQ.Q.'.Q.Q.H.~.Q.~.E.W.H.Q.Q.H.E.Q.Q.E.W.m.Q.Q.Q.Q.~.~.Q.F.F.m.u.y.y.| | | Y K Y K B K K B H H H V V H H V V H V S A A g g # X @ @ X % @ & X % - X @ O @ 9 OX=XCXfXdXP.m.Z.m.J.J.m.K.m.m.K.m.H.",
"# - - & : @ X : @ - & - - - - - - - - - - - - - - @ @ : @ & @ : @ : : - - & : @ : @ - @ & O & & & = % & = & & & = % & @ & & & @ # & @ @ # & # & & @ # O # # # # # # # # # # # # # # # # & O + & & # * & & & & & = = : = = : : , : = : : = : : : : , : : , = , : * : : & - : - : : - ; : : - : - - : : : 1 < 1 > < 1 < 1 : : 1 p 1 1 < 1 < 1 1 1 < : 1 , 1 , 1 1 : : , : % : : : : , : , : > & > : , > & > : : > > : > : : : > : > : > > < ; ; < < : ; ; : < > > < : > > > > < > > > ; > > < : < > > < : : < < ; < : : < < : > < < : < : : < , : : , : , : , % , , % % , : , 1 , 1 , , 1 % , 1 % % , % 1 1 1 , % % , % : = : & = O @ O = & O @ O O O 6 6 Q h.d.T.|.&X=XqXpXrXaXnXvXnXnXNXmXnXnXmXhXjXnXhXmXkXkXhXhXmXkXbXkXhXhXhXhXhXhXvXbXhXbXgXvXyXyXbXbXyXbXlXbXlXbXlXlXlXlXlXbXlXlXlXlXlXlXlXlXvXBXlXlXlXlXlXbXlXlXlXvXlXlXlXzXlXlXvXlXvXvXlXvXvXzXvXlXzXzXvXlXvXvXzXzXvXvXzXzXlXlXvXlXvXvXvXvXvXvXvXlXvXbXvXvXhXvXgXvXhXvXgXgXgXgXyXtXwXqX{. Xw.s s O & & t R R  X~.~.~.oX~.~.Q.Q.~.Q.oXoXQ.Q.Q.Q.Q.Q.'.oXQ.Q.Q.Q.Q.Q.'.Q.oXQ.'.Q.Q.Q.Q.Q.~.'.Q.Q.Q.Q.Q.'.Q.Q.Q.~.~.~.~.Q.Q.Q.Q.'.Q.Q.Q.'.Q.Q.Q.Q.Q.Q.Q.Q.oXQ.~.Q.~.oXQ.Q.Q.Q.~.Q.Q.~.Q.E.Q.Q.!.E.Q.Q.~.Q.Q.E.Q.W.W.H.Q.Q.Q.Q.Q.Q.Q.F.F.m.m.a.-.y.| | | Y Y Y B B B H V H B H V V H H V S V S S S Z g g @ @ @ % @ % % & X : @ 1 @ O O r 4X4XCXiXsXI.m.m.m.J.m.K.H.A.m.K.m.K.",
"# @ & @ @ & ; @ ; @ - @ - @ ; - - - - - - - - : X & & X : @ : @ : @ @ @ : @ @ 1 @ : @ & @ & % = & % = & % % & O & & @ & @ # # * O O # # * * 8 k k F E P Q E Q Q F F Z j k a 8 7 * # * # * + O O O O = & + O # * * * * * * * = : = , = = , = * : = = = : : : % : : & & : : @ : # : & & & & : & : : : : : : 1 > 1 : 1 1 1 < : 1 1 < < 1 1 1 1 < < 1 1 1 < 1 1 1 , : : : : : , : , : : : : > & > : * & : & > * > > : > > > > > > > : < : : ; < ; ; ; < < ; < : < > > > > > > > > > > > > > ; < ; : < > ; ; < > ; < ; < > > : < < : > > > < < : > , : , , : , 3 : , % , , % , % , 1 , , 1 , , : p , , % , 1 , 1 , % % % 3 % : = & & & = O & O # O O # d w.w.:XpXqXpXiXaXsXhXnXnXmXnXnXBXnXnXbXvXhXvXvXhXhXhXhXvXvXvXvXvXhXhXvXvXbXvXvXbXhXgXgXhXgXvXvXbXvXvXlXbXlXvXlXbXyXlXbXlXbXlXlXlXlXbXlXbXlXlXlXvXlXzXlXlXBXlXlXlXvXlXlXvXvXlXvXlXvXlXvXvXlXlXzXvXvXvXvXvXvXvXzXvXvXlXvXgXlXvXvXvXvXvXvXzXvXvXvXvXvXvXvXvXvXvXvXvXvXvXvXgXhXbXgXgXvXtX:X$XZ.6.6.' a a O * & e l n k.[.[.~.oXH.oXoX~.~.oXQ.Q.Q.Q.'.Q.'.Q.Q.oXH.Q.'.Q.Q.Q.Q.Q.Q.Q.~.Q.Q.Q.Q.'.Q.Q.Q.Q.Q.'.Q.Q.'.'.Q.~.~.~.~.Q.Q.'.Q.Q.Q.Q.Q.Q.'.H.oXQ.Q.oXQ.Q.Q.Q.Q.Q.Q.Q.Q.Q.~.Q.Q.Q.Q.Q.~.~.Q.Q.Q.Q.Q.Q.N.Q.Q.Q.Q.E.Q.E.Q.~.H.H.a.2.2.;.| | Y Y K K K K K K K K K K K V K V H V H V V V H V H V V A Z g l @ @ @ @ % & 1 X @ 1 @ @ # O @ : ].].CX-X-XZ.J.m.J.H.J.A.A.m.K.m.m.K.",
": # & # & & & & * # * # : # # # * * & & & & # @ @ : @ & : & @ : @ : : @ : @ : @ : X : @ % & & & & & & X @ & @ # & O O + & + * * ; d h ( l.k.}.,X>XuXuXuXuXuXuXuXuXuXuX>X7X-X4X#X].U.P.c.q.e.#.~ P z r r , + * = * + * * + + * = * * & * * * * * & & & : * : * * : & : : > : : : : : * * : & : * * : % = & 1 : : : : 1 1 1 1 < 1 1 < 1 1 1 > : < 1 < 1 1 : : : : < 1 1 < : : : > > : , , : > * * , , & , : > * : > > > : > > : > > * : > > * * > > > > ; < ; > > 4 > > > > > 4 > > > > > > > > > > > > > : > < < : > ; > < < ; < ; 4 > > > > < ; ; < ; < > > > > > > > > > > , : > > > , & > : , : : : , : = , : , * : = : = : = @ O & O @ O O t 9 w.iXuXjXfXjXjXjXfXjXjXjXjXCXSXmXmXCXkXnXmXmXhXvXgXbXvXvXvXvXvXbXvXbXlXbXlXbXhXhXhXgXgXbXyXgXhXyXhXyXlXyXlXbXvXyXvXyXvXlXyXlXlXlXlXlXlXlXhXvXyXbXlXvXlXvXvXlXvXlXvXvXlXvXlXvXlXvXlXvXvXlXvXlXvXvXvXvXlXvXvXgXvXvXgXvXvXvXvXgXvXvXzXvXvXvXzXvXvXvXvXvXnXvXvXvXvXvXgXvXvXvXbXbXhXtX*X5XG.y.y...( ( / 8 0 # * : 9 l l Q (.(.).[.!.).~.[.).).).Q.~.oX~.'.Q.Q.'.Q.Q.~.Q./././.Q.'.Q.~.~.~.~.Q.Q.Q.~.Q.Q.~.Q.Q.~.~.~.Q.Q.~.~.).Q.Q.).Q.Q./.Q./.~./.~.~.Q.).Q.~.).~.Q.~.Q.Q.Q.G././.Q.W.Q.Q.Q.Q.Q.W.Q.'.G.G./.G./.Q.G.Q.Q.Q.A.y.y.o.Y Y K H H H H H H K K K K K K B H B B K B V K V V K V V H V V V H H V S V g g @ @ @ & X % % : X 1 & @ @ O O * J.J.dX!.(.J.J.J.J.H.J.m.A.m.m.Z.m.m.",
"w.#.%.P d d 7 6 6 6 * 2 * * * # * = & & * & & # & @ : X X & : X : X X : @ 1 X : @ : @ : @ & X & % = & = # & & & * * * + + r r  .I.7X7XdXaXsXiXjXjXjXjXgXkXjXfXjXkXfXjXjXjXdXsXjXsXsXvXxXnXnXnXsXxXpX<X<X+XP.S.e.` ` z 9 t * = + + + + * * = & * + * & * : * : & * : & & : : : : : * : & > & * : = : : : & , : : 1 : < 1 < 1 < 1 1 > 1 < : 1 : : 1 1 1 < : : < 1 1 < > > : < > : : > : : : > , * : * > & > > > > , * > > * > * > > > > > > > > > > > > 4 > > > > > > > > > > > > > > > > > > > > < > > > < > > > : < < ; : ; < ; < ; > > 0 > ; 0 0 ; < ; > 4 > > > > > > > > , > * , , & * * * , * * % * % , % = = % = : = % % : = @ O = O X * #.%.1XnXnXjXjXjXfXjXdXfXsXjXfXfXjXgXnXkXnXmXjXvXbXvXbXbXvXbXvXlXvXvXlXlXbXlXbXyXhXlXbXhXgXgXhXhXgXbXgXyXvXvXyXyXlXlXlXvXlXyXbXlXbXbXlXlXBXlXlXvXlXlXvXlXvXlXvXvXyXvXlXvXlXlXbXlXvXlXvXvXlXvXlXvXlXvXvXvXvXvXvXvXnXvXvXvXnXnXnXnXnXmXMXmXvXnXnXnXvXnXvXzXvXgXaXrXqXwX6X#X$X).A.A.f.y.X.X.|  .X.} ..} E , 4 # * * 9 d f j &.%.[.).[.).[.~.).).).Q.oXQ.Q.~.~.Q.'.~.Q.'.Q.Q.Q.Q.'.Q.Q.).~.~.~.Q.Q.Q.Q.'.Q.~.~.~.~./.~.'.Q.~.Q.Q.!.).Q.Q.)./.Q.Q././.~.Q.).Q.).Q.Q.~.Q.~./.Q./.^./.Q.Q.W.Q.W.G.E.W.W.W.G.G.'.G././.G.Q.b.-.;.Y K K Y K K Y H H H H H K K Y V K K K K K K H K K K V K B K V H V V K V V V S S C g g @ @ @ @ % & X & & X : X @ O O # r.r.].B.J.n.K.m.m.J.m.J.m.Z.J.m.Z.J.",
"w.%.%.D g s 8 6 6 6 * * * * * # = = % % & & & & @ @ @ & & @ : @ @ & 1 @ : X : @ & @ @ & & & % & % & @ = # @ @ # & # # * # r t _ I.7X7XiXsXgXsXjXjXjXjXjXjXfXkXjXjXjXjXfXsXjXjXsXsXnXsXvXxXxXnXxXxXrX>X<X+XL.P.9.` ` N t t * + + = * * * * = * * * & > & : : : & : * : > : ; : : : : : : & & & & = % * = & : 1 , : : : 1 < 1 1 1 : : : > : 1 > : : : 1 < : : : , : : > 1 : > : > > : > : , , : : : , > > > > * > & > : * > * > : > : > > > > > > > 4 > > > > > > > > > ; > > > > > > > > > > > > ; < < : > > > > < > > < < > ; < > < > > ; > 0 > < ; ; < > > > > > > > > > > & , , * > > * * , : , = = , : = = : : 3 % = : = = = O = & O O O * #.*.uXjXnXjXjXjXgXfXfXgXaXfXsXjXjXjXkXCXnXmXnXvXvXlXbXvXlXvXlXvXvXvXbXlXlXlXbXlXbXbXyXvXgXhXvXhXvXgXhXbXyXlXvXyXvXhXvXyXvXyXlXlXlXlXlXlXlXbXhXyXvXgXvXvXlXvXlXlXlXyXgXvXyXvXvXvXlXvXlXlXbXlXlXvXvXvXvXzXvXvXvXbXbXxXvXnXvXvXmXnXnXmXvXnXBXnXmXvXvXvXvXvXnXvXvXrX0XwX6X$X$X_.A.A.f.4.;.:... . .X. ...R 4 , # : > 9 g l j $.%.[.).].~.).[.~.~.~.).~.'.Q.~.'.'.Q.).~.Q.Q.Q.Q.Q.~.Q.Q.~.~.~.~.~.Q.Q.Q.Q.Q.Q.~.~.~.~.~.Q.'.~.~.Q.).).~.).).Q./.Q.).~.~.).Q.Q.).).Q.).)./.Q.^.!.G./././.Q.Q.W.Q.Q.G.W.W.G.G.G.G.G.Q.G.Q.M.;.;.{ K Y V K K H H H H K H K K V H K B V H H B H H B K V K V V V V V V V K V V S V C g g & # O X X & & % X & @ @ @ X O # r.d.(.H.m.J.H.J.H.Z.J.Z.J.m.m.Z.m.m.",
"xXnXxXnXaXxXqX1X1X>X%X;X+X}.}.U.z.e.I , 3 & O & & : % @ @ : X & : @ @ & @ : @ : X & & & @ & # @ # # # # # ; # ; * f / ( J.qXqXnXjXCXjXjXjXjXjXkXjXjXjXkXjXjXjXjXsXjXjXjXgXgXsXjXjXgXsXsXnXjXsXjXsXsXvXaXzXzXzXzXzXsXeX%X;XL.4.4.T z h r 6 7 3 2 * * * * * * # ; * : * : # > * * * ; * # * * * & = * , : & : : : < 1 : < 1 1 < : : ; : : < 1 1 > : : : 1 > : : : < : > > > > : > > * > > : = , * * * * * * > * > > > > > > > > > * > > : > # 4 ; > > ; < > > 4 > 0 > 4 < 4 > 4 > 4 > , > , > > > < ; : < > > > > ; > > > ; > > ; > > > > > > ; ; ; ; < ; > > > > > > > > > > > > > * , > , * * * * , : = * : : = = : = : = : = * = X O @ # O A OX|.sXCXjXjXjXjXsXuXoX[.n.d.a.a.p.d.z.m.H.[.-X:XfXBXvXvXbXvXvXlXlXlXlXbXlXlXlXvXyXlXvXyXgXyXlXyXgXgXlXgXlXlXyXvXlXyXlXlXyXvXyXbXbXlXbXbXlXhXlXbXlXbXvXbXbXnXBXBXBXBXBXbXbXbXvXvXbXlXvXlXlXvXgXyXgXwXwXqX0X9X8X$X5X&X$X#X*X@X.X*X.X.X'._.G.W.S.C.b.g.s.h.i.3.3.4.<.<.o.o.X.X.X.X.o.X.o.;.X.X. .|  .( C > > # * : p d d j k M 9.~.~.[.[.~.).).).~.).Q.Q.'.Q.~.~.~.).Q.'.Q.Q.'.Q.Q.'.~.~.~.~.oXQ.'.Q.Q.Q.Q.'.Q.~.~.~.Q././.Q.).Q.Q.~.Q.Q./.Q.Q././.Q.Q.Q.).Q.Q.).Q././.^././././.G.y.i.o.|  .X.:.:.2.y.j.C.C.m.a.;.;.Y K K K K K Y Y V H H H H K K K K H H H K K K B K K B H B K V B V K K B H H V H V S S A x h & @ & & @ % 1 X & 1 X - & O @ # _ / v.v.c.c.n.n.H.H.H.H.m.J.Z.H.J.J.",
"vXzXvXgXnXnXvXvXvXrXrXrXrXeXaXeXeXeX%Xe.e.s : = @ & @ & @ : X & @ & @ & : & - @ & # & O & @ # # # * w 7 C G 5.].Y.7XCXsXnXCXjXCXCXjXjXCXjXkXjXkXkXjXjXjXjXjXjXjXsXjXgXgXgXsXnXgXjXjXjXjXjXgXjXsXgXgXsXgXgXzXsXsXsXjXnXxXxXMXxXxXsXpXaX>X=X=XY.1.<.z 6 6 4 2 2 * 2 > * * > # > # * # * 2 * # * * , * * * * & & * : > > : : 1 1 ; ; : : : : : : > < 1 > > > : > * > > > > > > > : > > > : * : * * * , * > * > * , 4 > 4 , , 4 , 4 0 < 0 8 0 8 9 8 0 0 8 0 8 0 , 4 4 6 6 0 0 0 , 4 , 6 , < < 4 , , 0 < 6 , , 0 , 4 0 4 , , < > > 0 4 > > > > > > > 4 > > > > > > > > > > , > : > > > > > > * , , * , * 3 : % = : : & & & & : & % = @ O O O 8 8 k.sXsXnXjXCXjXjXjXwXW.d.d.p.p.p.9.p.p.0.0.9.0.0.0.l.A.A..X&X:XwXgXgXvXvXvXvXbXgXvXgXvXgXyXvXgXlXyXlXyXvXyXlXyXvXvXyXlXvXvXlXlXbXyXyXlXyXwXrXrXrXwX0X9X5X9X&X*X*X_._.'.G.S.S.C.C.j.j.s.g.s.y.y.i.4.3.4.1.4.4.;.4.<.<.<.<.;.=.<.<.;.4.;.4.;.<.<.<.;.;.=.o.;.o.;.o.o.o.o.o.;.o.o.o.:.o.o.X.o.X... ..._ _ l ; * # @ # 0 d g g g h N 7.7.!.!.!.~.).).).~.~.~.).~.).~.~.~.).).~.).Q.~.~.).oXoX~.[.~.~.~.~.'.Q.~.~.~.~.!.!.Q.).(.!.).(.(.~.).^.^.!./.).~.).).!.(.!.^.).!.Q.^.!.W.A.y.y.{ B Y B H H K K K K K K Y Y Y K K B K K B K K K K V H H H H K K K K H V U H V H B K B K K K B B V K B U B U B H V H V S S A z k : X X & & % @ % & % % & @ X @ # c c ( 7.q.p.d.k.k.l.l.c.c.n.n.c.B.m.",
"xXgXgXgXnXgXvXvXvXlXrXrXrXaXzXeXlXcX%Xe.e.s = = & @ % @ % @ & @ & X & & @ 1 @ : = & @ & # # # # # * # 0 C C 6.I.].uXjXCXCXjXCXjXkXjXkXjXjXjXjXjXjXkXkXjXCXkXjXjXnXgXnXsXjXgXjXsXjXjXjXjXjXjXjXjXsXjXgXsXgXsXgXsXgXsXsXxXxXxXxXMXsXpXpX>X;X=X(.&.>.x 4 6 2 * 4 : > # 4 * # 2 > # * * * # * * * * * & & * * & > & : ; : : < 1 1 < > : : : > : : : > 1 : > > > > > > > > > : > > > * & * > * , * * : * > > * > * , > > , , , , , 0 < < 0 8 8 9 0 8 8 9 0 8 6 0 0 4 0 0 4 4 0 , , 0 0 6 < 4 > < 4 , > 0 0 , , , , 6 , > , > < > , > > > 4 , 4 4 > > > > > > > 4 > > > > > * > > > > > * > > * * * * = * : = % , = = = * & & = & = = O O & O 8 0 k.sXsXjXCXjXCXjXjXuXY.h.d.0.p.0.w.9.u.0.9.9.9.p.u.p.S.D.}.;X5XwXrXgXyXvXvXvXbXvXvXvXlXlXvXyXgXgXvXyXvXyXvXlXyXlXlXgXgXlXyXgXgXlXlXyXyXrXyXrX0XwXwXqX0X5X5X&X*X@X'.)._.G.S.F.C.C.C.g.f.a.y.s.s.y.3.4.4.<.=.4.4.;.<.;.<.<.<.;.=.<.;.<.4.;.<.<.<.;.<.;.;.;.o.;.o.o.o.o.o.o.o.o.o.o.;.:.o.@.o.X......._ _ g * : @ # # 0 g g g g l C 7.7.P.~.).[.).[.).~.oX~.~.~.~.~.~.~.~.).).).Q.'.).).H.oX~.~.~.[.~.~.~.Q.~.~.~.~.~.~.).Q.~.!.).!.!.!.!.!.).)././.).~.(.!.(.).(.!.Q.Q.!.!.Q.F.i.i.{ H B K B H B K K K K K Y K V K Y H K K K K K K V Y H H H H K K K K H H H V K K K Z B K B K K K K V V V V V V V V V V S S S z k > @ X O X % X & X - - X @ @ X O c c / 8.7.r.k.d.k.l.v.n.n.n.n.n.n.n.",
"gXvXgXvXaXgXgXyXrXrXyXrXrXrXrXrXlX<XlX<X<XB.I I , @ & & & & @ & & @ & @ & @ & @ = & = = & * t r D 6.8.}.dXdXCXCXCXsXjXCXCXnXjXjXCXjXCXjXjXCXkXjXjXkXjXjXjXfXkXkXjXjXvXjXjXgXjXnXsXjXjXjXnXjXnXjXnXgXjXnXvXsXvXsXsXjXsXnXnXxXnXvXnXnXnXnXMXnXAXNXAXuXI.I.d.&.-.' ) I U G z k h f g y d y y 7 9 8 6 3 6 3 3 * 6 > < ; > - ; - ; ; : : : : : ; : : > : : > > > > > ; ; > # * * < ; , 6 6 6 e 6 6 8 t s r g N z I U Q / _ _ %.6.>.q.k.z.J.I.I. X X]. X].].I.J.J.z.k.r.0.0.w.q.q.q.0.q.q.q.8.7.q.5.8.t.&.&.%.&.#.%.' +./ ~ ~ E F F F D A A C N C N z k j h h d d y 9 t t e 8 7 7 t 9 7 8 6 6 6 6 6 * , : * * * = * * * & & = O & X = @ @ O # F F -XjXjXCXjXsXjXiXdX!.h.d.d.p.d.p.d.p.p.r.p.0.d.d.q.q.9.0.p.p.h.f.x.b.S.).).*X5X&X0XwXrXrXrXwXrXrXrXrXwXrXrXwXrXwXwX0X5X$X*X_.!.!.S.C.C.g.a.h.s.s.a.u.9.3.i.3.4.3.3.3.3.3.3.2.4.2.4.4.2.2.4.4.4.2.2.1.2.1.2.2.-.-.-.-.<.4.2.2.2.2.4.1.2.2.2.=.<.<.4.=.<.<.-.=.<.<.#.$.o.$.$.$.$.@.o.o.o.X.o...X.X.../ ) 9 # # # # @ , a s g g g g k k ~ 1.7.A.!.W.W.!.Q.~.~.).~.).).~.).).).).~.~.).).H.oXoXH.[.~.~.[.~.).).).~.).).~.).).~.~.~.~.~.[.).!.~.(.(.Q.Q.~.!.~.~.Q.Q.Q.Q.Q.G.g.a.;.Y Y B H K K B K K B K H Y B K B Y V H H H H H K K H V K H H H H H H K K H H K V H V Z K K B K B B H B V V V V V V K H V H S S G c z , O @ X & & & & % % X & X & @ & C v D ~ Q %.t.-.1.6.-.6.0.0.0.w.d.k.",
"gXvXvXgXgXgXyXrXyXrX0XrXrXrXwX9X<XeX<X9XcX1X{.{.I & @ % & % & @ @ & @ & @ & # & , , r A I 1.].].pXSXCXCXCXCXjXjXCXsXjXjXjXjXjXjXkXjXkXjXjXkXjXjXkXjXiXfX-X4X4X4XqXqXaXjXnXnXjXjXnXjXjXjXnXjXjXjXjXjXjXgXgXvXgXnXjXnXjXnXgXnXnXnXnXjXjXnXjXnXjXjXvXnXMXnXnXCXnXCXjXsXdXpXqX1X:X=X=X|.{.}.`.U.P.B.z.z.8.,.#.` I S c l l l 0 p < 1 # : * : : : : : 1 < > ; ; ; * * 4 8 6 y g l C Q T ` ,.,.4.w.w.z.D.Y.(.OXqX<XeXeXpXsXnXxXxXnXnXnXnXnXnXnXnXnXMXnXnXnXsXnXMXMXCXnXCXnXCXnXMXMXZXnXxXMXnXCXnXnXMXMXnXCXxXMXnXMXxXvXnXzXaXaXuXuXqXqX1X<X:X<X:X<X<X:X>X-X%X%X#X|.|.}.{.{.(.T.(.T.P.U.L.B.V.z.5.4.#.W T v g s r t , , * * & & & @ O O O O @ 4 w.0.sXjXjXjXjXCXfX4XXXx.p.p.p.p.r.d.p.d.p.p.k.p.k.p.H.p.d.d.d.d.d.i.d.d.d.i.i.d.s.s.f.j.j.C.S.S.S.^.^.^./.^.G.S.A.g.h.d.i.3.9.3.3.3.3.3.3.9.3.3.9.y.7.9.3.9.3.9.3.3.9.7.4.3.2.3.y.2.y.4.2.2.-.1.1.2.2.2.2.2.<.2.2.4.2.2.-.4.-.4.2.=.2.1.=.2.2.1.<.<.-.-.<.=.-.=.<.$.=.o.;.$.$.@.@.o.$.+.@.O.o.o.X. ...) ~ 8 # @ @ @ @ ; 8 8 g i g d y i d h h Z ( ^ $.7.u.a.m.M.H.Q.Q.~.].~.).].).[.[.oX[. XoX].].].].!.).).).~.).).[.~.Q.).[.~.!.).(.!.).^.^.).^.^.!.!.).~.~.W.!.W.j.M.;.Y Y K K K K K K V H H H H H H V Y V Y V U P P H V H V H H K V V H V H V H H H H H K H K V Z H B K B K H B H K B Y B Y V V H V V V S G c z , @ @ & % X % X X & 1 % % @ & % a a c D D ) *.*.#.%.%.$.%.$.&.&.%.&.",
"gXlXvXvXyXvXlXrXlXrXtXrXrXrX0XrXlX<XlXlX<X<X{.Y.I & O % = % & = & & & & & & = & 3 6 t D D 6.].].iXCXCXCXjXCXjXjXjXjXjXCXjXjXmXjXnXjXCXjXCXkXkXkXhXbXtXyX6X.XoX5X0XqXfXnXvXmXvXnXjXnXjXjXnXvXnXgXgXjXjXgXjXgXgXjXgXjXjXjXjXnXjXjXnXjXjXnXjXnXhXnXjXnXnXnXCXnXnXsXxXsXsXpXqX>X,X-X=XXX}. X(.U.U.Z.z.z.q.%.#.~ I S c j j a 8 8 : : & : : : : : : : : > : * > * 2 * 4 8 6 r g g A U P _ ,.,.6.w.w.k.J.(.T.OX1X9XqXpXiXnXjXnXsXnXnXnXMXxXMXnXnXnXnXxXxXnXnXnXMXMXMXMXnXnXCXnXMXMXMXnXMXMXMXnXMXMXMXMXxXMXMXMXMXMXzXMXnXsXaXpXeXeXeX<X9X<X<X;X<X>X:X;X-X%X%X%X#XOX+X}.`._.(.T.^.U.P.I.S.B.B.d.>.8.#.P I v i s e , , , * * % = % = & = O O O 6 w.0.sXjXjXCXjXjXsX#XXXg.w.p.d.p.p.k.d.p.p.p.p.k.p.k.a.p.k.p.p.p.p.d.p.p.p.i.p.p.d.s.f.g.x.n.A.A.G.^.^.^.!.!.H.H.H.H.a.p.s.9.3.3.7.7.7.7.7.9.7.7.7.u.7.7.7.9.u.7.u.7.7.9.3.3.7.3.6.1.7.3.7.7.-.2.-.2.2.1.1.2.-.7.1.1.1.-.-.2.2.1.1.-.2.-.2.-.-.2.-.-.-.1.-.-.-.;.$.=.$.$.o.$.$.$.$.o.@.o.o.O.@.X.......Q ) 7 @ # @ @ O ; 8 e g d g i r g g h h S ^ { $.3.6.a.n.n.K.W.!.!.~.!.~.[.].].).].).].).].].].[.].].~.~.).~.].).).).~.[.).!.).(.(.^.~.^.(.).^.!.Q.!.).Q.Q.!.E.j.M.;.K Y K K K H H K K K V H H S H H H S H V P H V S H H H S H H S H H H V H B V Y H V H H V H Z Z H Z V H K V S V V V V H V S S S V S S A z c , @ @ @ % & % - : % % X % @ X @ a s v D D / #.#.%.&.&.#.&.,.,.$.#.,.",
"bXvXlXlXyXyXyXyXyXyXwXtXwXrXrX0X9XeX<X1XeX2XV.V.x O & % X % = % O O # = * t t A ,.>.T.1X7XjXnXCXCXCXkXCXCXCXkXCXCXjXmXjXjXjXmXjXjXkXkXjXCXjXgXiXiX$XC.A.:.K Y { 7.3.^.:X5XyXrXpXaXgXaXnXnXnXjXnXnXjXnXjXjXjXnXgXjXjXjXhXjXnXjXmXjXnXnXjXnXjXjXnXjXjXnXjXjXjXnXnXjXsXsXgXaXgXgXjXjXsXsXsXgXsXsXsXaXaXaXpXaXeX;X;X|.].].U.,.,.a ; & & * & * : > : 4 ; > 6 6 g N C ^ <.4.c.T.(.%XeXeXzXaXzXzXnXvXnXMXnXnXMXnXnXnXnXnXnXnXmXnXnXnXnXnXnXvXvXnXvXnXvXvXnXzXzXzXvXzXnXnXnXnXnXnXzXzXzXvXzXvXxXvXxXzXvXMXvXxXvXzXzXBXzXvXzXvXzXzXvXgXzXgXaXaXvXvXgXaXvXzXvXgXvXzXgXzXzXsXaXzXxXzXzXzXzXzXzXzXcXzXzXcXeXeX2X{.+XV.,.,.T x x , % = = . = + O O d |.OXjXjXjXsXjXjXqXA.J.d.s.d.d.d.d.d.p.k.k.p.p.p.k.p.k.a.p.p.k.p.k.d.0.p.w.d.d.0.0.0.9.s.0.0.9.9.3.9.9.9.9.9.u.0.t.0.p.0.i.i.u.9.0.i.u.9.u.9.9.u.0.7.9.9.u.9.9.7.9.7.9.6.9.9.3.9.7.3.3.6.6.7.7.2.1.3.6.7.2.1.7.6.2.7.7.7.u.u.3.3.7.7.7.7.3.7.u.2.7.6.7.7.7.3.6.2.3.6.1.&.4.$.,.#.o.#.$.#.#.@.#.O...X.+.R R 4 $ # # # @ @ * > s g g i i r i i y y y y i f l M M B K ( } -.k.0.c.n.m.J.I.K.I.!.I.!.!.!.I.].~.].].].].).].].].].!.(.(.^.(.^.(.^.^.^.^.!.^.!.W.W.A.l.j.=.Y { K K Y B B H K H V K K K K H H H H H V U H U H H S H V S S S S S V V V T V T V V H S H S H S S S Z Z K G Z S S S V H H V A S S S S A S D c j > @ @ @ 1 X @ % X & 1 - @ X - X & X : t t c / / %.%.%.&.%.,.#.,.#.#.",
"$X$X$X*X$X#X$X$X$X:X:X:X<X9X9X9X1XeX<X<X<XT.v I & O O = O = + t , i C V O.V.v.&XnXxXnXnXnXCXjXnXkXjXCXjXkXjXjXnXkXjXjXjXhXnXjXmXjXjXgXwX6X-X[.l.g...B K B V V B B B H X. .s.C.C.D.(.W.|.&X#X>XrXqXsXgXnXnXnXnXjXnXnXjXnXjXbXnXjXnXhXvXjXjXjXnXjXnXnXnXnXnXjXnXjXnXxXgXsXgXsXsXgXgXaXaXaXzXaXaXaXaXaXaXsXaXzXzXaXsXcXzXcXY.Y.b % X & & & & * & : # # d #.#.T.<X;XeXMXmXvXnXzXvXvXvXzXvXzXgXnXnXvXxXvXnXvXvXmXvXnXnXjXmXjXnXvXvXvXbXvXnXvXvXvXnXmXnXvXvXMXnXvXnXnXnXnXnXnXnXvXvXvXnXvXvXvXBXzXvXMXvXnXvXnXvXBXBXzXvXzXvXvXvXaXzXgXaXvXvXrXrXvXrXrXaXgXaXaXsXiXaXaXlXrXaXrXrXzXrXzXrXzXeXlXlXeXeXlXlXcXzXcXcXzXcXeX`.{.x % = O O O O O # A eX1XsXsXjXjXiXaX[.h.f.d.d.d.p.d.k.p.d.d.k.p.k.p.k.p.k.k.k.p.p.k.p.p.d.d.p.w.p.p.p.e.d.9.0.d.0.p.s.i.d.p.i.i.p.p.u.u.u.p.0.i.0.9.i.0.u.0.u.0.i.0.7.u.7.0.0.9.i.0.7.9.7.0.9.7.6.6.7.6.6.6.7.6.6.7.9.9.i.0.p.k.d.l.x.x.c.n.n.n.n.n.n.J.c.H.H.m.A.Z.J.H.H.R.Z.J.K.J.Z.J.n.l.z.i.1.6.$.$.$.@.@.#.@.+.o.O...F F > $ # @ @ @ # O # , r r g d y d r r i r y i y q q f q d q u 9 y l m Z C F ) ) [ $.#.6.0.0.0.p.k.k.v.c.H.H.m.J.I.I.W.I.I.(.W.I.I.I.A.A.J.Z.n.x.i.0.@.Y Y J Y J K T H U Y K H H U K U V H I H P P P P U P H H F P H S I S S S F H H V V P V U V F S F S B Z Z Z Z Z G Z Z S S A S S V V A S A A N I A z e r : @ - X : % 1 & - X - 1 X : % X & @ @ O = & 8 e z D I E W P ~ P I I ",
"&X*X$X$X*X$X$X$X&X&X6X:X<X<X<X9X<XqX1X<X<XT.I v & = O = + = = 3 3 i A A  .V.V.;XxXnXxXMXnXCXmXjXkXCXkXjXkXCXkXnXjXkXkXjXjXhXmXjXjXaXjXwX6X6X[.l.f...H B B K B B B B V  .X.s.C.C.A.^.^.}.$X#X6XqXwXiXzXjXgXjXnXvXhXjXjXjXjXjXjXnXnXjXnXnXjXnXjXnXnXjXjXnXnXnXnXnXnXgXxXgXgXsXgXaXsXaXaXaXaXaXaXsXsXaXzXpXaXaXeXzXaXaXaXcXY.Y.z X & & & & : & & * # # r #.#.I.;X;XzXxXnXnXnXxXvXvXvXMXzXvXnXvXnXvXnXnXvXnXvXvXmXvXnXnXjXmXmXvXmXnXnXbXvXnXnXvXmXvXnXvXnXzXvXnXnXnXnXvXnXxXzXzXBXzXzXvXvXxXvXzXvXzXvXvXnXzXBXzXzXzXvXvXvXzXzXzXvXzXgXvXaXvXgXaXrXvXgXrXaXgXaXaXaXaXeXzXeXaXeXaXlXeXlXeXeXzXcXeXlXcXlXcXcXzXcXcXcX1X`.Y.x % @ O O O O O O A qXqXjXnXsXjXaXaX[.d.d.w.i.p.w.d.p.k.d.d.p.k.p.k.p.p.a.p.p.k.p.k.p.r.0.d.d.p.p.p.i.p.i.w.p.0.u.0.9.s.9.p.i.i.u.q.p.p.0.p.i.9.0.i.u.7.0.u.0.9.u.9.0.i.7.u.9.9.7.0.u.7.9.9.9.7.9.7.7.7.6.7.7.6.9.9.9.0.0.i.a.d.k.k.M.M.n.c.c.n.n.n.n.n.n.m.J.J.m.A.H.J.H.H.J.m.Z.J.A.J.n.c.l.i.6.1.<.$.#.@.@.@.@.X...o.O.F F 4 @ @ # @ @ # # # 6 r s r d d i d y y y y y y q f y y y y q y y l h L C F Q ) +.$.$.6.q.0.p.k.k.k.k.v.v.H.Z.J.K.W.I.I.W.I.W.I.W.U.P.P.K.n.n.l.i.u.@.Q Y J J Y Y Y U Y H P I H V K V Y H H Y P H H U H H P J J P S H F S S S F H V H V H H V U F S S G S A A Z Z G A Z G Z A S A V I V S A S S I N I z a e * @ - @ X & % X % X X - : X @ & X & & O O & r 8 z I I E ~ W P P P I ",
"3.4.1.3.3.1.3.9.9.i.d.d.f.g.V.V.D.B.D.V.z.U * * O O O = t t I >.4.T.;X;XzXMXnXnXnXnXnXvXnXmXjXmXjXmXjXmXkXnXjXjXjXjXnXhXjXfXgX8XXXW.W.l.2.-.{ J U Y U Y Y Y Y T Y Y Y Y Y Y T T T T T  .o.$.9.C.c.W.}.}.#X&X&X6XqX0XwXwXwXiXgXsXgXjXgXjXjXjXjXnXjXnXnXmXnXnXnXnXxXgXsXgXgXxXgXsXaXaXzXaXaXzXaXzXsXaXrXaXaXrXaXaXaXaXzXpXv.V.e X O @ & & & @ # # 4 4 p.sXaXnXvXvXvXvXbXvXvXvXvXvXvXnXvXvXvXvXgXbXmXbXvXbXbXbXbXvXBXvXvXbXvXbXbXvXbXvXbXBXvXbXBXvXvXvXvXbXvXvXvXzXvXgXzXvXvXvXvXvXvXvXvXvXlXvXvXvXvXvXBXzXBXzXBXBXvXlXlXvXlXvXlXaXlXyXlXrXrXvXrXgXyXvXrXvXaXaXrXaXgXrXrXyXrXzXrXlXeXzXrXlXeXvXrXlXeXlXeXlXcXlXeXeX%X3Xz @ & O O O O O O ~ sXaXsXgXgXsX-X-Xc.d.p.d.d.d.d.d.d.d.k.d.k.a.k.k.a.p.k.p.H.p.p.p.d.d.r.d.p.k.p.k.d.d.p.0.p.0.p.p.r.p.p.p.p.p.i.i.0.u.p.p.i.9.0.u.0.9.0.0.u.0.0.u.0.7.0.7.0.0.7.i.7.7.9.6.6.9.7.6.9.0.9.p.k.d.M.c.c.J.P.P.I.U.I.W.I.I.!.!.!.!.].!.!.!.!.].!.!.!.].!.!.I.!.!.I.!.Y.I.!.!.I.W.I.n.c.0.1.$.$.$.@.#.+.X...+.c L ; @ @ # @ @ @ @ # & 4 6 t a d a d d d q y y r u y y y y q d y r y 9 r q 9 q r r y 9 d d d h j l M L C Z F F ) [ *.$.6.6.6.6.1.1.&._ ..) U F S V N C Z A S S S V P V H S S C S V H S S S S S S V H S S S A G S V C C V V N z z N z z N m z N v N z k h h g g h l h j h h x g z z z k z k z x k i i i t & & @ @ @ 1 @ % & % X : X 1 & X % @ & % & X O O = O O & # > * , > , * , ",
"@.$.$.#.$.$.#.#.#.$.#.#.O........._ _ x z + O . O + = N s.w.+XlXzXxXnXzXnXvXnXnXnXvXjXnXnXjXmXjXkXnXjXCXjXmXCXkXmXaX7XqX}.Z.Z.9.X.! Y U Y Y {  .| o.o.X.o.$.X.o.o.X.o.;.o.o.o.o.$.@.o.$.o.o.@.o.o.o.$.$.<.9.9.p.f.l.b.Z.A.P.T.W.(.`.`.].(.(.`.|.XX-XqX7XiXnXjXnXnXsXnXgXsXgXaXgXsXgXgXsXzXgXgXzXaXzXaXzXaXsXgXaXaXaXaX;X] ] * X X @ X @ O # O + J F qXnXvXvXvXvXvXlXlXbXbXlXbXbXvXmXbXvXvXbXvXbXvXvXvXbXlXbXvXbXvXbXbXvXbXvXvXbXbXbXvXlXBXvXvXvXvXnXvXvXBXvXvXBXvXvXBXvXvXvXzXBXvXmXbXbXvXbXBXlXBXlXlXBXlXBXlXlXvXlXvXvXlXyXlXlXvXyXyXvXlXyXlXlXlXrXrXrXlXaXaXlXrXzXzXrXgXrXzXrXzXrXzXrXzXrXzXrXlXcXcXeXcXpXcXcX{.+Xg @ X O . O O O # @.sXxXjXjXjX7XJ.P.p.d.d.d.d.d.d.d.d.d.d.d.p.k.k.a.p.k.k.p.q.p.q.H.d.d.p.d.p.0.p.0.p.0.w.p.r.p.p.0.p.p.p.p.p.0.0.d.p.p.0.u.u.0.0.i.0.i.i.i.i.9.u.0.0.u.0.u.u.7.0.7.9.7.u.d.a.k.M.x.n.Z.K.L.E.I.I.!.!.!.I.Y.W.!.].!.!.!.(.!.].!.!.!.!.I.(.I.!.!.!.!.!.!.!.!.!.!.!.!.!.I.!.I.I.(.I.(.J.d.h.1.$.$.$.+...+.+.k k ; @ # @ @ # O @ O # O * * 6 6 8 r 9 a r r y r r a n a n d 9 r r r r r 9 9 9 9 9 9 9 r 9 9 a 9 n n 9 9 r r r r 9 n a q q d d 9 r 9 r 9 8 9 9 6 9 8 9 9 t t r r t t t t s r r y u t d r 9 d a y i t d r r r q 9 7 8 8 6 7 8 6 6 6 , 6 * 3 6 6 3 6 > * , > 2 > > * * > > > * > 3 , * 6 6 3 3 3 > * = & & O & @ @ @ @ X : 1 X & % : - X & @ % & X X & = X X X & O X & = & & * * , ",
"$.$.$.$.$.$.$.$.@.#.$.#.@.O.O. ._ O.` z z * O O + = * V s.s.@XsXlXMXvXMXvXnXvXnXnXmXnXnXmXjXmXmXjXmXkXnXnXnXnXnXjXjX6X9XoXZ.Z.9.+.Q Q U Y Y ^ | | o.o.$.o.o.o.@.o.o.o.o.o.;.o.;.o.o.@.o.o.o.@.@.@.X.=.$.<.3.3.d.l.z.b.Z.Z.P.P.^.^.[.`.`.(.(.(.+X@X-X7XqXpXjXhXnXnXvXgXsXgXsXgXsXgXaXgXaXaXsXaXaXaXaXaXaXaXaXiXsXsXaXzX,X#.#.& = O % @ @ @ @ O O I J qXnXvXgXlXlXlXlXbXbXbXlXbXlXvXlXbXbXbXbXbXbXbXbXbXbXbXbXbXvXvXbXvXbXbXbXbXvXbXlXvXzXlXvXBXlXvXbXvXvXvXvXbXvXvXnXvXvXlXBXlXlXvXvXvXlXvXBXvXvXzXlXvXlXvXlXBXlXlXlXvXlXlXrXaXlXyXlXrXlXrXlXlXyXyXlXlXaXyXlXzXrXgXgXrXgXrXgXlXzXrXaXlXzXrXlXaXzXcXlXlXeXlXeXcXcX{.{.g @ O O O O o # # %.xXsXsXgXgXqXP.P.d.d.p.d.d.d.d.d.d.r.p.d.k.k.p.p.k.k.p.p.H.p.0.0.p.d.p.k.p.r.d.d.p.0.p.p.0.p.p.r.0.p.p.p.0.p.p.p.0.p.0.p.p.u.0.i.u.u.0.7.0.0.7.0.9.0.7.7.u.7.7.u.9.9.0.0.p.k.v.x.n.J.J.P.I.I.!.I.!.Y.I.!.I.!.!.I.].!.(.!.!.!.!.].].!.W.!.Y.!.].!.!.!.I.!.!.I.!.I.!.!.!.!.W.(.I.W.A.h.d.1.$.#.$.+.+...+.k k # @ # @ @ # # # O # & # * 6 6 9 r 9 r r r r a a a d a a r a r r r r t t 9 r 9 a 9 r 9 9 a a 9 9 a 9 9 r r r t q 9 q a d 9 d r 9 r 9 9 7 9 7 8 8 9 8 r 9 r t r r r i t r y r a t i y y d d d d y y y r r 9 9 9 8 8 t 6 8 6 6 6 6 , > 6 6 , , 6 6 4 * 6 * 4 2 > > * * > * , * , , , 3 6 6 6 3 3 * = * = @ O & & @ @ % - X : 1 % X - % % @ % % @ % O X & = X O & = & & & & * * > ",
"$.$.$.>.$.$.#.%.&.#.#.#.#.#.#.#.O.#.T 6 8 + O O = S I T.iXsXnXnXnXzXnXvXnXnXnXnXnXnXnXnXnXnXjXnXnXjXjXaXqX7X-X[.].H.9.9. .U U J Y ! ! } ..X.o.$.$.$.+.X.@.@.@.o.o.o.o.o.;.o.O.o.@.@.@.@.@.@.@.o.@.o.o.o.$.+.o.+.X.X.X.......O. ...X.+.O.^ / ) ....$.7.7.x.W.I.$XqXiXsXgXvXjXsXgXvXsXaXvXgXvXgXzXzXvXsXzXsXsXvXnXxXaXcXL.g g O X X O X O X @ # * c.v.jXnXvXbXbXbXbXbXbXlXbXbXbXbXvXbXbXbXbXgXgXbXyXbXbXlXbXbXlXbXvXbXbXbXvXlXbXbXbXBXlXBXlXBXlXBXvXvXvXMXbXnXlXbXvXvXbXvXBXzXBXzXvXlXBXvXbXlXlXbXlXBXlXBXBXlXvXvXbXvXvXlXvXvXlXvXzXvXvXvXrXgXrXyXzXrXaXlXzXrXzXaXrXaXzXrXzXrXaXeXlXaXaXeXzXrXaXeXlXeXlXcXcXcXcXcXz.V.8 X O   X . O # O 6.CXnXnXiXpX[.f.f.0.d.d.d.d.d.d.p.d.d.d.d.p.p.p.k.p.p.a.k.q.p.k.p.k.p.0.p.p.p.0.d.p.d.p.0.p.p.0.p.p.p.p.p.p.p.u.p.p.p.u.u.0.i.p.9.0.0.u.0.9.i.i.i.7.i.i.0.0.0.6.d.k.k.l.m.H.I.!.I.!.Y.!.!.!.].Y.!.!.].!.].(.(.I.!.I.(.I.!.I.!.I.!.!.I.!.!.!.!.W.W.I.].!.!.!.!.!.!.!.I.!.I.!.!.^.I.W.J.J.d.-.&.$.$.+.+.} l d # # $ @ @ @ O @ @ @ # # # & # * > > 6 8 8 r 8 9 8 n 9 e a 8 t t r e 8 8 9 8 9 8 8 8 n 8 9 n 8 9 8 9 9 8 e 8 8 9 8 7 0 8 5 8 6 8 8 8 8 8 8 8 8 8 8 8 6 8 , 6 6 6 , 6 6 , 0 0 4 6 6 6 6 4 4 4 4 6 * , * > # # ; # # & # @ @ O O O O O O @ @ # O # O & O O & O O & # O # O & O O O O O O O O O O = = = = O & @ X X & X @ & % @ & X @ O & X & X @ & X = O % = % = % = & & & & & * ",
",.$.$.$.$.$.$.&.#.%.#.,.#.#.#.#.O...N = * O + O z I.U.vXnXnXnXmXmXjXmXjXnXnXnXnXnXnXmXsXnXwX6X:XoXI.W.Z.s.d.4...X.Q U T Y ^ ^ { ..+.+.$.@.@.$.o.$.$.o.@.o.o.@.@.$.o.$.@.@.@.o.@.@.+.o.@.@.@.@.@.@.@.o.@.o.@.o.o.o.@.o.@.X.+.O.O....... .U U G S S S S V H Y ! o.9.Z.n.(.XXXX:XqX8XuXuXqXwXiXwXrXaXaXpXwXqX>X=X=XXX}.}.5.8 8 O @ @ X @ X O @ # 9 ;X;XvXnXvXmXvXbXhXbXlXhXbXhXlXbXbXhXlXbXbXbXbXbXbXbXbXbXhXbXbXbXbXgXbXbXbXbXhXvXbXlXlXbXvXbXvXBXvXmXvXmXvXvXvXbXlXBXbXlXlXbXBXlXbXlXlXbXbXlXBXlXBXlXlXBXlXlXBXBXlXvXlXvXlXlXvXvXlXvXvXlXzXlXlXgXrXlXaXyXaXrXvXlXaXgXaXgXyXaXrXvXrXaXrXzXrXaXaXgXeXlXzXeXzXzXcX2X' ' > O O @ $ @ $ # + k.nXsXsX-X=Xn.i.p.d.d.k.p.k.p.k.p.k.p.p.p.p.k.d.d.d.d.k.p.q.p.k.p.k.p.0.k.0.p.p.k.p.p.p.0.p.r.p.p.0.p.t.0.p.0.p.p.p.p.0.p.p.u.u.0.u.0.p.u.0.i.u.0.0.i.u.7.i.k.p.M.I.R.W.!.!.I.].].!.!.].!.I.].].!.!.!.!.].!.I.].!.].I.!.I.I.!.!.!.!.I.I.!.!.!.H.~.!.!.H.!.!.I.!.W.~.].!.!.!.!.I.!.W.W.I.n.q.1.>.$.+.@.( r d # @ @ O # @ @ @ @ @ # @ # # O O # @ # : : : > > , > , , , > , , , 6 6 , 6 8 6 6 8 6 8 8 8 8 8 8 8 8 e 6 8 6 e 0 8 6 6 6 6 6 , , , 8 e , , , < e , < , < , , , , , , > < > , , 4 > 3 > > * * * # # # # # @ # @ @ @ @ @ @ @ O @ O = O = @ @ @ @ @ = O = @ = O = @ O = & = O @ X O X O = = O O = X = O = = X X @ & @ X @ & & % @ @ & X X @ & & X & O & @ % % = % % @ & & & & & & ",
"&.$.&.$.#.$.#.%.#.%.%.#.#.#.#.#.O.' z O O + O O z L.U.vXNXnXnXkXnXmXnXnXmXnXnXnXnXnXvXvXgXrX:X:XXXW.I.C.h.d.1.X.X.^ U Y Y ^ ^ { | +.+.$.@.$.X.$.X.o.o.$.$.o.$.o.o.+.X.@.o.@.+.@.o.@.@.@.o.@.o.@.@.o.#.@.@.@.@.@.+.o.+.o.@.X.X.X.........~ U S S G Z V S H ^ Y o.9.b.c.^.#XXX:XqXuX7XwXwXiXpXiXwXiXsXpXuXuX>X=X=XXX X X5.8 8 O X @ X X @ @ @ O r ;X#XnXvXvXvXvXlXlXbXbXbXlXbXbXbXbXbXbXbXhXbXhXbXbXbXbXbXbXlXlXhXbXbXbXlXbXlXbXbXbXbXbXbXbXlXvXlXvXvXvXvXBXvXbXlXvXvXvXBXBXvXvXbXbXbXbXbXbXBXlXBXlXBXBXlXbXlXvXlXvXvXbXlXbXlXlXlXvXbXlXvXaXgXaXlXvXrXrXzXzXrXaXaXgXrXgXrXrXaXaXrXaXlXrXrXzXaXrXeXeXlXzXlXpXzXxX1X[ [ > $ X $ $ - $ # # r.nXCXaX-X-Xn.p.0.d.p.0.d.p.a.p.p.p.p.k.k.p.p.d.d.d.d.p.p.a.a.p.k.p.p.p.p.k.p.0.p.p.0.0.p.p.0.0.p.p.p.H.p.p.p.p.p.p.p.p.0.q.0.p.p.0.u.0.0.u.u.0.0.7.7.0.7.u.k.k.c.K.K.I.!.!.].!.!.].I.(.I.!.!.I.!.I.].!.I.I.!.!.I.!.!.I.!.!.I.!.!.!.!.!.!.!.~.[.[.!.!.].!.!.!.W.W.H.!.H.~.!.!.!.I.W.I.I.H.9.&.-.&.#.+.( r r # # O @ # @ @ # # @ O @ O @ # @ @ # # > : > > > > , > > > > , , * 6 , 6 6 6 6 6 8 8 8 8 8 8 p e 6 8 , 8 8 6 e 8 8 6 , , 6 6 < 6 , , , 6 , 6 , < , , , , , , , , , , < < < , > > , * * > * > & * ; # @ @ # @ # # @ O @ @ @ = O O X @ = @ & & @ & O & O O @ & = O & & O X O O = = = O O O X = O O O @ O O O & & & X & @ % X % 1 X & @ & O X X & @ % X @ O = % O = X & & & & & & ",
"$.$.&.#.$.#.$.,.#.,.,.%.,.#.#.#.~ ~ t O O O 3 * >.uXuXCXNXCXkXmXmXkXmXmXjXiXrXeX:X:X}.W.I.x.i.s.<.o.o. .| {  .{ {  .X...X.o.@.$.;.$.$.@.$.@.$.;.@.o.@.$.$.+.$.$.@.@.@.o.@.@.o.@.@.@.o.@.@.@.@.@.@.@.o.@.@.@.@.o.@.@.X.@.@.+.o.+.X.O.O.X.^ ^ F S S S S S S Z S V V F F Y } ^ } ..X.+.X.@.@.$.;.;.1.-.1.1.1.>.#.#.+.+.+.~ n 9 @ @ @ X @ X X O O D uXuXsXvXvXvXlXvXbXbXbXbXbXbXbXbXlXbXbXhXbXhXbXhXbXhXbXhXhXbXBXhXbXlXlXbXbXlXbXlXbXbXbXvXBXvXBXvXvXmXvXvXvXmXvXvXbXvXvXvXvXvXlXvXvXvXbXlXlXbXlXlXlXlXlXlXlXbXbXlXlXbXlXlXlXlXvXvXlXlXlXlXvXlXyXyXyXlXgXzXaXaXzXaXrXaXrXaXaXyXeXrXeXrXeXrXrXrXrXrXlXcXlXcXdXuXpXJ.l k - $ @ $ X $ O # # c.CXCXqXP.I.a.p.k.d.d.d.d.p.k.p.k.p.k.p.p.k.p.d.d.d.d.p.k.p.p.p.k.p.r.p.k.p.k.p.k.p.k.k.p.r.p.p.0.r.p.p.p.p.p.p.0.p.0.p.p.p.p.0.u.p.u.0.p.i.0.0.u.i.7.9.0.M.I.H.!.Y.!.].!.].Y.(.].!.].!.].Y.].I.].I.].].I.~.!.I.!.I.I.].I.!.Y.I.I.I.I.I.!.I.].].H.!.!.!.!.!.I.!.I.!.!.I.!.!.!.!.!.W.I.W.J.k.1.6.&.@.$.) 9 8 # @ # O @ @ @ @ @ & @ @ @ @ @ @ @ @ @ # @ @ @ - @ # & & @ # # # & & * & & * & > & * > > > , > * , , > , , , * > , * , , * , , , * * , , , : , , , , , > > , , : > > : 1 : : & * & & & & & # O # @ # @ @ @ @ $ X O @ @ @ & X O = X O O = @ O & O & & O % X = O = X O = O = & O X O O % X O % O = X = X X O % X X @ % X & 1 & X & X @ @ & X & O @ & X % % = = % = & & @ & & & & ",
"&.$.$.&.#.&.#.#.#.%.%.&.%.#.#.#.N v * O O + r y H.nXnXmXmXmXnXnXnX7X`.^.C.d.h.3.2.4.=.o.X. . .{  .X.....o.+.+.+.+.$.$.o.$.$.$.o.@.$.@.$.@.@.@.@.@.$.@.o.o.$.X.X.@.o.@.@.o.@.@.@.o.@.@.@.@.@.@.@.@.@.@.@.@.@.@.@.@.@.@.@.@.@.+.@.+.@.+.+. ._ U S S S K S S S S S S B Z N M M u 7 5 w 2 w 2 w w 2 2 4 6 d y Z F F F F D b , < @ X @ X @ @ O O X +.cXaXvXvXbXvXbXbXbXlXbXlXhXbXgXbXhXbXbXbXhXbXhXbXhXbXhXbXbXhXhXbXhXbXbXbXvXbXbXbXvXlXbXvXvXvXBXvXmXmXBXNXNXBXvXvXlXlXrXlXyXlXlXyXrXlXyXyXyXtXyXrXlXrXeXlXrXrXrXrXrXrXwX0XwX9X9X5X5X&X&X*X*X@X+X_._.^.P.S.D.C.C.g.g.g.h.d.h.s.e.9.e.s.9.e.h.s.h.d.e.z.e.r.r.5.5.c 0 ; $ $ $ - - X $ # ; P.sXsX}.d.a.k.p.p.d.d.d.p.p.p.p.k.a.p.k.p.p.d.d.d.d.d.d.d.k.k.p.p.p.k.p.p.0.p.0.p.0.p.0.p.p.p.p.p.p.p.p.p.0.p.p.p.p.0.p.0.u.p.p.p.0.p.p.u.p.u.i.0.i.p.p.n.I.).].~.].!.].!.!.(.!.I.!.!.!.!.!.!.!.!.!.!.!.!.I.!.!.!.!.!.!.!.!.!.!.!.!.~.!.!.H.!.!.].H.!.!.!.!.W.!.!.].H.!.!.H.].H.!.W.W.W.P.l.1.6.-.#.$.~ 6 8 O @ O # @ @ # @ @ @ O @ # O & @ # @ - @ @ & X @ X X @ @ @ X @ @ @ # @ & # & # & @ & & @ @ @ # # & & & & & & & & & & & & & & & & & & & & & & & & & & & & & = & & # & @ & @ : # # & @ # # O @ = @ @ O @ @ @ @ @ @ @ X @ X = & X X & = X @ X = X & O % % @ = @ X O & O X % O X O X = O % O % O X O X O X @ % O @ @ @ @ @ X @ % @ O % @ % X & O % = X O = O X = O % O @ & @ & & & ",
"$.$.&.$.&.#.$.&.%.#.&.#.#.#.#.+.A N + O O O y r J.CXjXCXmXNXnXnXjXqX^.`.C.s.s.9.3.3.$.X.X. . . . .O...X.X.X.X.o.@.o.o.$.$.$.o.$.$.@.$.@.o.;.$.@.$.@.$.o.@.$.;.$.@.+.@.@.+.$.o.@.@.o.o.+.@.@.@.+.@.@.@.+.@.#.$.@.@.@.@.@.@.@.+.*.#.@.@.+. ...F G S F Z Z S Z S Z S Z Z N z m i 5 5 5 w w 2 w w 2 4 2 5 i y N I F F F F b , 4 @ @ X @ @ @ @ O X ' zXaXvXnXvXvXbXlXlXbXbXbXbXlXbXbXbXhXbXbXbXhXbXhXBXhXBXhXhXhXBXhXvXbXbXvXbXvXbXbXvXbXvXbXvXvXvXmXBXBXmXmXBXBXbXvXvXyXlXyXlXyXrXyXyXlXyXyXtXyXrXyXlXwXtXrXrX0XtXwXwXwX0X0X0X0X9X5X5X&X&X*X*X*X.X_._.^.W.S.D.C.C.x.g.f.h.d.p.p.9.9.9.e.i.e.d.d.h.h.h.h.d.h.w.5.5.c 0 ; $ - - 1 $ $ $ ; ; J.xXsX|.l.a.k.p.a.p.p.0.q.l.k.p.p.p.k.p.p.k.d.p.d.d.d.d.d.p.a.p.H.q.0.0.p.k.0.k.0.p.p.0.p.r.p.p.p.p.q.p.p.p.p.p.0.p.0.p.p.p.q.p.p.u.0.p.0.0.u.0.u.9.p.p.n.E.].].].].].!.!.].!.!.(.I.!.!.!.!.I.!.!.!.!.!.!.I.!.!.I.!.!.!.I.I.!.I.!.].!.!.!.~.!.!.!.].!.!.~.W.W.!.W.!.!.!.!.W.I.W.I.I.W.P.P.v.t.2.&.&.$.U 7 8 O @ @ @ @ @ @ @ @ & O @ O & @ @ @ @ @ X & @ @ @ @ @ @ @ @ X @ @ @ @ @ @ @ @ @ @ @ @ @ & @ @ & # & & & & & # ; & & & & & & & & & & & & & & & & & & & & & & & & & @ & # @ # @ @ # & # @ # O & @ O & O @ @ @ $ O @ X X @ & X @ = & X & O X O = % = % O O = X = @ X O O & X O O % @ X O X X O X = % X O X & X O X @ % X & X X & X X & O @ O & = O = X = % & = = X = % @ @ & & & & ",
"&.&.$.%.#.&.#.*.#.%.#.%.%.&.%.( t q + O O O N V ].SXCXCXCXNXiX^.W.0.o.$.o. . .^ ^ {  . . .......X.+.@.@.@.@.$.X.@.$.@.$.o.$.@.o.@.o.o.@.@.@.o.$.o.$.@.o.@.o.@.@.@.o.@.o.o.@.@.o.@.$.@.@.+.$.$.$.$.@.$.$.@.@.@.@.*.$.@.$.$.@.+.#.O.@.@.#.+.+.) H Z F K F K S F S Z Z Z S Z Z N h m 7 w 2 + + w + + # 3 3 6 r N N P D F a @ - X @ @ X @ X @ O & w.zXcXzXvXvXvXlXlXlXbXlXbXbXbXbXbXbXbXhXbXkXbXhXbXhXkXhXhXbXbXhXhXbXhXhXbXbXbXvXvXbXvXbXnXBXmXmXmXyX&X&X@X)._.W.S.S.D.D.D.D.A.D.D.C.D.C.C.C.C.C.C.C.C.C.b.C.C.b.b.C.C.M.j.h.s.s.s.3.<.<.<.o.=.o.o.o... .X. .^ ^ Y U F S S Z G S S S S V S G S S F S F G G C r 9 : $ # ; ; - - 1 - @ # # U.pXuXn.i.p.k.k.k.k.k.p.H.p.p.p.k.d.d.p.k.p.d.d.d.p.k.d.p.p.k.p.k.p.p.k.p.p.p.p.p.p.k.p.k.p.p.p.r.p.q.H.p.p.0.p.p.p.p.0.p.p.p.p.p.p.u.u.p.p.0.0.0.l.J.J.!.).~.].!.I.!.!.!.I.!.!.!.~.!.!.!.!.!.!.!.!.!.I.!.!.E.!.W.E.W.!.W.I.!.!.!.H.!.!.!.~.!.!.!.H.!.!.H.!.W.W.W.!.H.H.!.W.W.W.!.W.P.!.P.M.6.7.-.>.-.G 4 4 O @ @ @ @ @ @ O & @ & & O # @ @ @ @ @ @ & X & % @ % X X & @ & @ # @ @ # @ @ # O @ @ @ @ # @ @ @ @ @ @ # @ @ @ @ @ O @ # O @ # @ & O # O & @ O # @ @ @ & % & & @ % @ @ @ @ @ # O @ # @ & O O = & O @ @ @ $ # $ & O @ X X O @ % O = X % O % O X X O X = X @ X O @ = O & O = O & O & X = % O = . O & X = O X & O O O O O @ @ O X @ % % @ % X % % X = . O X . = X X O O = O & O @ ",
"&.&.&.$.#.&.&.#.#.&.#.&.#.&.#.E * * O o O + ~ ~ >XSXSXAXwX8Xn.$.;.......X. .......X.X.X.X.o.o.+.@.o.@.o.$.$.o.$.$.o.@.@.o.$.$.@.@.$.o.$.$.@.o.@.@.@.$.$.@.$.o.o.@.@.@.@.@.@.@.@.@.@.o.@.@.@.@.$.+.$.@.@.@.@.@.@.@.@.$.+.@.+.#.@.+.@.#.@.#.@. .Q Q F S F F Z K S S S G S Z A Z C V N u u 7 w 2 + + 2 + = & * 7 6 d g l , @ $ O @ X @ X @ O & & Z.xXnXvXvXvXvXvXvXvXbXbXbXbXlXbXhXbXhXbXlXmXhXkXhXkXhXBXhXBXhXbXhXkXnXmXjXbXvXnXbXbXnXkXnXjXmXrXrX_.f.h.i.9.i.9.3.3.3.y.3.9.3.3.y.3.y.y.3.3.3.3.4.4.4.4.2.3.4.y.4.4.4.4.y.4.<.<.<.o.;.;.o. . .^ Y T T ^ Q T U U U K J S S S Z Z Z S G S G S G S G S Z k k 9 0 4 ; ; ; - $ 1 1 1 1 @ @ # U.-X=Xk.d.p.k.a.k.p.k.p.p.p.p.p.k.d.p.d.d.d.p.p.d.p.p.d.d.p.p.p.p.k.k.p.p.p.p.k.p.k.p.0.p.r.p.p.r.0.p.p.r.H.p.p.0.0.p.p.0.p.p.u.p.p.0.u.0.p.0.a.a.K.!.].!.].!.!.I.!.!.I.~.!.!.!.!.!.!.!.!.!.!.W.!.!.W.W.!.W.!.W.!.!.I.!.W.!.!.!.W.!.!.~.H.~.H.H.].!.!.E.!.W.E.!.!.!.!.H.!.W.W.W.P.P.!.W.P.M.6.6.8.&.6.L # # O # @ # @ # @ O & @ # @ & O & @ @ # @ @ X & @ & @ @ & & @ & @ @ @ @ @ @ @ @ @ O @ O @ @ @ @ @ @ @ @ O @ @ @ O @ @ @ @ @ @ @ @ @ @ & @ & # @ & @ @ @ & @ % X & O & O & & @ & @ @ # O @ @ O O & O @ O # @ @ @ @ @ @ @ O & @ @ O & X @ @ O O O % O % X = O O @ O O O O O @ @ O O O O O . = X O O O O O O # O = O O & O % % O = X O & & X @ @ % O O % = X X = X O X = = O = & # & ",
"%.&.#.&.%.#.&.%.&.#.%.#.%.#.#.Q * 2 O O O = ` ~ >XSXSXFXuXuXn.=.=..... .o. .o.X.o.X.O.o.X.X.o.X.@.@.@.@.o.@.$.@.$.@.o.$.@.@.o.$.$.@.@.@.o.$.$.@.$.o.@.@.$.@.@.$.o.@.o.@.o.@.@.o.@.o.@.@.$.+.$.@.@.@.$.@.#.$.#.@.@.@.@.$.@.$.@.#.+.#.@.#.@.#...Q Q K K S K F F S Z Z S S S S A C Z N f f 7 2 2 + * + + * = * 6 6 s d d > @ @ @ X O X O X O * & J.sXsXvXvXvXvXlXvXlXlXbXbXvXbXbXbXbXbXbXbXhXkXbXmXBXkXkXkXkXhXhXBXhXmXhXhXbXbXhXnXhXbXmXjXmXmXrXrX/.g.g.s.i.9.3.3.3.3.y.3.3.y.3.4.3.3.3.3.y.4.3.3.4.4.4.y.4.4.4.y.y.4.4.y.<.4.4.<.<.;.o.o... .^ Q T T Y Q Q U U J F F K Z S S A S S S S S S G Z S A C h k y 4 4 # $ ; - - - 1 - - @ @ ; U.=X=Xk.k.p.l.p.k.k.p.k.p.k.k.p.p.k.d.d.d.d.d.p.p.d.p.d.d.k.p.k.p.a.p.p.k.k.0.0.p.p.0.p.k.k.p.p.p.p.p.p.p.t.0.r.p.p.r.0.p.0.0.p.p.0.p.p.p.u.u.a.k.K.].!.].!.!.!.!.I.!.~.I.!.I.!.!.W.W.I.!.W.I.!.W.I.!.!.W.W.!.W.W.W.!.W.W.I.E.!.W.!.!.~.!.].!.!.!.!.!.!.W.W.!.!.I.!.!.!.!.E.W.W.P.!.P.W.P.x.9.6.8.>.&.L ; ; # O # @ @ @ @ & O & @ @ @ & @ @ & @ @ & X @ % @ & & @ % & @ @ # O # @ @ @ @ @ @ @ @ @ @ @ @ @ @ X @ @ @ @ @ @ @ @ @ @ @ O @ @ O & O @ @ @ @ # # @ & O @ & O X @ @ & @ @ @ @ O @ @ O # # & O O # O # @ # @ @ @ X @ @ @ O X @ & O & @ = % X = O O % O O X & O O O @ @ O O O O @ @ O = = O X = & O & O O O O @ O = O O = . X = X @ % O @ @ % O % = . . X = . O % O % @ & O # = @ ",
"$.&.*.&.$.%.$.#.*.#.&.#.#.#.%.k + + o + O O #.,.aXAXDXsXA.A.-.X.X.X.X.X.X.X.o.X.o.o.O.o.o.o.o.X.o.@.o.@.o.$.$.@.@.@.o.@.$.@.@.@.@.$.@.$.@.@.o.@.@.$.$.X.X.$.X.$.@.@.+.@.@.@.@.@.@.o.@.X.$.+.@.@.$.+.@.$.@.$.+.@.@.$.*.@.@.@.*.@.$.#.@.@.@.@.@.....Q F K S S K S S Z Z S S S S S S S G Z N h h y 3 3 + & * O # & : : ; # $ @ O @ X @ $ X @ 4 6 {.xXnXMXvXvXlXvXzXvXbXbXvXbXbXvXbXvXbXbXbXhXkXhXkXhXBXkXhXhXkXmXjXmXmXkXjXnXmXhXnXnXnXgXwXwX$XS.S.d.u.9.3.9.3.3.3.9.9.u.3.9.9.3.9.3.y.3.3.3.3.3.3.3.3.9.3.3.9.7.3.3.y.3.7.3.3.3.7.9.3.3.3.4.2.;.O...{ Q ! Y U U J J J J J F R F F F J F F F K F J F G k h 7 ; w ; $ ; $ ; - 1 1 ; $ # @ U.].].k.p.p.p.k.p.p.p.k.p.k.a.p.p.k.p.k.p.p.p.p.a.p.d.d.d.p.p.p.p.k.p.p.p.p.p.p.p.p.0.p.p.q.p.p.p.p.r.r.p.0.p.H.p.0.p.p.0.p.p.0.p.p.q.u.p.0.u.H.c.].!.].!.!.!.!.!.W.!.!.!.!.I.(.!.!.W.W.W.W.W.W.!.I.!.!.W.W.E.!.!.!.!.E.!.!.W.!.I.!.!.!.H.!.!.!.!.!.!.!.!.!.W.W.W.E.!.!.I.I.!.E.W.W.W.I.K.H.t.7.t.*.*.f # # O @ @ @ # & O @ @ @ # @ @ @ @ @ @ @ @ X @ @ & & & @ & X & @ @ @ @ @ @ @ @ @ @ O @ $ @ @ O @ @ @ @ O @ @ O @ @ O @ O O @ @ $ O @ @ @ # & O & & O O & @ @ X & @ % & @ @ & # @ # @ # # # # # O O O # @ # # @ - # @ # @ # @ # # # & # & # O O O & # + O + O O O # + # O + O + + + O O O # O O # O + O # O & O & + O O = O = O & = O & @ & # @ O X X X . = % O % O = X = O O & & & ",
"$.&.*.&.%.$.&.&.&.%.,.%.&.[ ( 8 # o o o . * 1.>.xXZXSX[.2.2.$.$.$.+.X.@.o.+.o.@.o.@.+.@.o.+.@.o.@.@.@.@.+.X.o.@.@.o.$.@.o.o.@.@.+.o.o.@.@.o.$.@.$.X.$.$.$.o.$.;.X.$.o.@.@.o.@.o.o.$.@.@.$.@.@.@.@.@.@.@.$.@.$.@.@.@.@.@.@.@.@.#.+.@.@.@.@.@.#.@.#.} ^ ^ U H F S F S S Z S S S S S S Z S F G S C N N r > * * O @ # # # @ @ @ - $ X @ O $ O s s ;XnXxXzXvXBXvXvXlXvXbXvXBXvXbXbXgXkXhXkXnXjXmXmXkXkXkXbXhXmXjXhXkXkXjXjXmXgXwXwX$X).).A.l.g.f.i.3.3.u.y.i.y.9.9.i.9.3.3.9.3.u.i.3.9.y.i.y.y.i.i.3.9.u.3.3.3.3.u.u.y.9.3.9.u.9.3.u.3.9.u.9.7.3.3.2.2.-.X.X.^ J Y J J J J J K J R J R J J R J R R F F S k M 9 ; ; ; ; ; - - 1 - 1 1 @ - - H.H.I.l.k.l.k.k.a.0.H.p.k.k.p.a.k.a.p.k.k.p.k.k.k.r.d.0.d.p.q.H.p.a.p.k.k.p.k.r.k.p.k.k.p.q.H.a.p.p.p.p.p.p.0.t.p.H.p.u.0.0.p.p.p.p.p.p.u.p.u.H.n.].!.!.!.!.I.!.I.W.I.I.W.W.!.!.W.W.!.W.W.W.!.W.W.W.W.W.W.!.!.!.I.!.!.I.!.W.W.!.E.!.!.!.~.!.!.E.!.!.!.W.!.W.W.!.!.!.W.W.W.!.I.!.!.I.W.W.K.l.7.7.q.[ [ n # O O @ @ & @ @ & @ # @ @ @ # # @ @ @ # & & : - @ X & & X : @ : @ ; @ - @ @ @ @ @ @ @ @ O @ O $ O X $ @ O $ @ @ $ @ O @ O O @ @ @ @ @ @ @ @ @ @ O & & @ @ # @ O & @ O O & @ @ @ @ @ @ * * c E W C l j d 9 n 7 w 4 * # # # # # * # * # # + # # # + + # * * 2 * 2 4 4 4 6 6 7 6 6 3 6 6 6 4 6 * * * + # + + + + O O O & # = O # O * & + + O & + = # + = X = O = O = = @ & & & & = # ",
"*.-.*.-.%.%.%.&.%.&.&.%.&._ ( 5 + o + o O * 5.>.xXCXCX[.3.7.@.;.$.X.X.X.o.o.X.@.o.o.o.o.@.@.o.o.@.$.o.@.@.@.@.@.@.@.@.@.+.@.$.o.@.@.+.X.@.@.$.$.X.$.$.o.$.X.@.@.o.o.@.@.$.@.@.@.X.+.@.@.o.o.+.o.@.+.$.@.@.@.$.@.@.@.@.$.@.*.#.@.#.@.#.@.+.#.@.@.+...( { J S F S S S S F S S Z G S S S S S S S A k N t > 2 & & # O @ @ @ $ @ @ @ X X X $ $ a g ;XvXxXnXvXzXvXlXBXvXbXbXvXhXmXbXbXjXmXhXmXmXmXhXjXkXbXkXbXmXkXvXmXkXmXkXkXgXwXwX$X^.).A.x.g.s.i.9.3.u.9.i.i.u.9.3.9.9.3.u.9.u.3.3.i.3.i.3.i.u.3.u.9.3.y.9.u.9.9.3.9.3.9.y.3.9.9.3.9.3.3.i.3.9.3.2.2.=.X.X.{ J J J J J J J J R J J R J J R J J J J J F M k 7 ; ; # ; ; ; - 1 1 1 - - ; ; J.I.I.a.k.p.l.k.a.a.p.k.p.k.k.k.k.a.k.a.k.k.p.k.p.p.p.d.d.k.p.p.k.p.k.p.p.p.p.p.p.k.p.0.p.p.p.u.q.p.p.p.p.H.q.0.p.t.p.H.t.p.p.0.p.p.u.p.q.9.9.H.H.!.].!.].!.~.I.I.W.!.W.!.W.!.I.W.I.!.W.W.!.W.!.!.W.W.W.!.!.~.!.!.!.E.W.W.W.W.!.!.!.I.!.!.!.I.!.!.H.I.~.W.W.!.!.W.!.!.I.!.W.W.E.I.W.I.W.K.l.q.q.7.[ [ q @ # @ @ # O & @ @ & @ O # @ # @ & @ # # - @ : @ : & - & - - - - @ - @ @ # $ - $ - @ @ $ @ @ $ X $ O $ $ @ $ O @ $ @ O O @ @ $ @ O @ # @ @ & @ @ @ @ @ & O O & @ @ & O & @ @ O @ # # @ * > c ~ Q c l d a n n 9 4 4 # # & # # # * # + # O & # * # + + * # # * * 2 4 2 4 5 6 6 6 5 6 3 3 5 2 4 4 * * + + + + + = # O O # + O & = # # # # * = O = O # = = O = = O O = O = & O # O & & ",
"$.*.&.$.&.&.#.&.&.%.#.&.*.R F # o O O o . * 1.6.sXaXaXb.;.;.;.o.o.o.@.X.X.+.X.@.@.@.@.@.@.o.@.@.+.X.@.@.@.o.@.o.o.@.o.@.$.@.@.X.o.$.o.$.o.@.o.@.$.o.X.$.@.$.o.$.+.$.o.@.X.@.@.o.$.@.X.@.@.@.@.@.@.@.@.@.@.@.+.@.$.@.@.@.@.@.@.#.@.#.@.#.#.@.#.+.+.X.X.X...^ ^ U F S S Z S K Z Z Z K Z Z S S S A Z A C g d 6 @ # # O @ @ - - @ $ @ @ $ @ O C A 2XnXnXvXvXvXvXvXvXvXvXvXbXvXvXvXhXhXnXkXhXkXjXkXmXmXkXbXhXvXkXwX5X-X}.W.W.C.h.f.i.i.9.9.i.i.9.3.3.9.u.y.3.y.u.3.i.3.y.9.3.3.3.3.i.3.9.y.u.3.y.i.3.3.u.9.3.9.y.y.9.y.u.3.9.i.3.9.u.u.3.9.3.u.9.9.9.u.9.3.u.-.@.o.{ ! Y J J J K J J J U J J J R J F J F k N 9 w ; ; - $ - - 1 1 1 - @ $ ; c.I.I.k.a.l.p.k.k.k.a.k.a.a.p.a.p.k.k.p.a.p.k.d.k.d.r.d.d.k.p.p.k.p.p.k.p.k.p.k.p.p.p.k.p.p.p.p.H.p.k.p.r.p.q.p.p.p.p.p.p.p.p.u.p.p.t.H.u.0.7.n.H.I.!.!.I.I.I.W.!.I.!.P.!.W.!.W.W.W.W.W.W.W.W.!.I.W.W.W.W.!.H.!.!.!.!.W.!.!.W.W.W.!.!.!.E.!.E.!.E.!.!.W.W.~.H.W.!.!.E.!.E.W.W.!.E.W.!.!.H.k.7.7.q.R R 4 # # # @ @ @ O @ @ # # & # # # @ # - # @ # - @ - @ @ @ - @ @ ; @ ; # ; @ - - @ @ @ $ $ @ $ O O $ $ $ @ O $ @ @ $ @ $ @ O $ O O O @ O @ O # O & @ # & @ @ & @ & @ @ @ & @ @ @ @ # # O # _ ' OX3X3X=X=XOX4X4X|.|.]. XI.D.Z.c.d.d.0.w.w.d.d.d.w.d.h.l.v.c.n.B.Z.Z.J.L.P.L.I.T.I.T.I.U.T.I.(.U.U.L.D.D.V.z.h.q.<.1.#.` ` Q J I N h h d y i t 6 7 6 6 4 3 * * * * * * + + + & + * + + O ",
"*.-.$.&.%.$.%.#.#.#.&.%.#.g l O O o . o o + &.>.pXiXiXc.;.;.$.o.;.@.;.@.@.+.@.@.@.@.@.@.X.$.o.@.o.o.@.o.@.o.+.@.@.@.@.@.o.@.@.o.@.@.@.@.@.o.o.$.+.$.o.@.@.$.o.@.o.@.o.@.o.o.@.o.$.X.+.o.@.@.o.@.@.@.@.@.o.+.o.@.*.@.@.@.$.*.@.@.#.*.$.+.$.+.+.o.+.@.@.X.O.O...} ) F J S S Z K S S Z S Z S S S S A S A A C j 0 8 # - - @ @ @ $ @ @ X @ $ X _ _ uXvXvXzXvXvXvXvXvXmXvXvXmXmXmXmXkXbXgXyXgXtXwXwX0X5XXX.X).b.b.a.y.u.u.9.i.3.3.3.9.3.9.9.3.y.9.9.i.u.y.y.u.3.u.9.3.9.y.3.i.9.3.3.i.i.3.u.y.i.y.9.y.9.3.3.u.3.i.y.y.y.u.3.3.3.3.9.3.u.3.9.3.9.9.9.9.9.9.9.7.9.3.7.u.2.1.;.X.:.! Y ! U Y U J U J J U U F z N 7 > 4 ; ; $ - - - 1 1 1 $ ; ; k.I.!.v.k.k.k.k.k.p.k.a.k.p.k.k.k.a.k.a.p.p.k.p.p.p.k.k.p.a.p.k.p.p.k.p.p.k.p.p.p.p.p.0.p.k.p.p.p.p.r.p.r.p.p.p.p.H.t.u.p.p.u.p.p.p.u.p.u.0.7.M.c.!.I.I.!.!.I.W.I.!.I.W.W.!.W.!.W.I.W.!.W.!.W.W.W.!.W.!.!.!.!.!.!.!.I.I.!.!.I.!.E.W.W.W.!.!.W.!.!.W.!.W.W.~.!.W.H.!.W.W.W.W.W.W.W.W.W.K.H.p.q.7.*.L l w # # @ @ @ @ # @ # > 4 ' D D a 4 > # ; # # # ; ; - ; # # ; # : ; # ; # 4 0 0 n l n a d a a l n n l a l a n a n n n n 0 0 8 ; 2 # O # @ @ @ # @ & @ # & @ & # @ # & & # # @ # @ # O # A {.`.|.OX|.>X1XuX7X1XuXqXuXqXqXqXqXqXeXeXqXqXqXqXuXqXqXqXuXqXqXqXuXuXuXqXqXeXqXqXuXuXqXqXeXeXqXqXqXeXqXqXqXqX9XqXqXeX9XqXqX1XqX9X<X>X&X%X%X#X|..X`.(.Y.P.D.L.D.V.V.g.9.8.,.X.O.` ~ U F A S N ",
"*.$.$.$.&.&.&.$.%.,.%.&.#.g d O o O O o O * >.>.pXaXaXb.-.;.@.;.X.@.X.X.@.@.@.o.o.@.o.@.X.@.@.@.@.$.@.+.@.@.$.o.o.@.o.+.o.@.@.@.o.@.o.@.@.@.@.@.$.o.$.@.@.o.@.$.@.@.@.@.+.$.@.@.@.X.$.o.o.@.@.@.@.o.@.@.@.@.@.@.@.@.@.@.@.@.@.@.@.+.+.@.@.@.+.+.@.+.X.o.X...O.} ) U J S Z G Z Z Z S Z H S D S S G S A C C j 0 0 ; # @ @ @ - @ $ @ X $ @ O / _ uXvXMXxXvXvXvXvXvXvXvXvXBXmXBXmXjXbXlXgXtXtX0XwX9X5XXX*XQ.C.b.i.9.9.u.u.u.u.9.9.3.9.3.3.i.3.i.9.y.i.9.u.3.3.i.3.9.3.3.9.3.3.i.3.3.3.u.y.9.3.u.3.9.3.i.3.9.9.y.9.y.9.y.9.i.3.u.3.i.3.9.3.i.3.u.3.9.9.9.9.u.9.9.7.7.1.1.;.| | { U Q Q U Q J J U J H U F N N 9 ; ; ; ; ; - - 1 - 1 - - $ $ d.!.I.M.a.l.k.k.p.H.p.a.k.l.a.p.a.p.k.p.l.k.k.k.k.k.p.k.k.k.p.p.k.k.p.a.k.p.p.k.k.p.k.p.k.p.p.p.p.p.p.p.p.0.p.p.p.p.p.p.p.p.t.H.0.q.p.t.H.i.0.c.M.I.!.].I.I.!.!.I.W.W.I.W.!.W.W.W.W.W.!.!.!.W.W.W.W.W.!.I.!.!.!.!.H.!.W.!.W.W.!.!.W.W.!.W.W.W.W.W.W.W.!.!.W.W.~.~.E.!.W.W.W.K.W.I.K.W.P.H.p.0.7.t.l l # # @ # @ # & # # @ 4 > ' G A a 4 4 ; - # ; ; # ; - # @ ; : ; # # ; @ ; < 0 0 0 n a n l l a a l l a l n a n a n n n 9 8 0 8 ; # # # # @ # # @ @ @ @ & O & # & & & @ O & & @ O & & & # A {.`.|.|.OX>X7XuXuXqXqXuXqXuXuXqXqXuXqXqXqXqXqXuXqXuXeXuXuXqXuXqXqXqXqXqXqXqXqXqXuXqXeXeXqXqXpXqXqXqXqXqXqXuXeX9X1X9XqX>XqXqXqX1X:X>X-X%X;X@X.X+X`.(.^.L.P.L.C.c.v.h.e.q.,.O.O.` ~ Q F A A V ",
"-.-.*.-.*.$.&.%.#.%.#.#._ > > O O O   . O 2 8.8.aXsXjXP.-.-.;.o.@.;.o.@.o.@.@.@.@.@.@.@.@.@.o.@.@.o.@.o.@.o.@.@.@.@.o.o.o.@.@.o.@.@.@.o.@.o.@.$.@.o.@.$.@.$.$.o.@.$.o.@.o.@.@.o.@.@.@.@.+.$.o.@.@.o.o.o.o.o.o.@.@.@.@.$.@.$.*.@.@.@.#.+.@.#.+.X.+.o.X.X.X...+.+.../ ( J S F K G S S S G S S S V A S D G G c j j 0 - - - - $ X $ O X @ @ O >.5.zXnXnXvXvXvXvXbXbXvXwXrX&X/.).Z.j.j.f.s.s.i.y.y.3.y.y.y.3.y.3.y.y.9.u.u.y.3.3.9.9.3.3.i.3.3.9.9.9.3.u.y.i.y.u.9.3.9.3.3.9.9.3.i.3.i.3.u.y.u.y.3.y.i.3.9.y.i.3.9.y.y.u.9.3.3.9.9.3.9.3.9.u.u.9.9.9.3.9.9.9.9.9.9.9.9.9.9.7.u.2.-.-.X.} } ! Q T U U J J C N 9 ; 4 ; ; ; # - - - 1 - - ; ; t.].].H.k.l.l.l.p.p.p.k.k.k.p.k.p.p.k.k.k.a.p.k.p.p.k.k.p.q.H.k.p.p.p.p.k.p.k.p.a.p.k.p.p.p.p.p.p.p.p.p.p.p.p.H.q.p.p.p.p.p.p.p.p.p.p.q.u.u.9.l.l.I.!.!.W.!.W.W.W.!.I.W.!.I.!.P.W.W.W.W.I.P.W.!.W.W.I.W.W.!.~.!.!.~.!.!.!.W.W.!.!.W.!.E.!.I.!.!.!.!.W.W.W.~.H.~.W.W.E.E.!.W.W.W.W.W.P.W.x.p.7.7.) 9 7 ; ; # # @ ; & & # # r r 0.].].Y.c.c.0.%.%./ E E D G v c z j k k j k k k k b b b k j b b b b b b b b b b G C G D G G D D R E U P C 8 8 > # : @ @ # # & @ & & @ @ & # & & # # & # # r r J.L.T.f.z.z.#XqX1XqXqXqXuXuXqXuXqXqXqXqXqXqXwXrXqXqXeXqXqXwXqXqXeXqXwXwXqXwXqXeXqXwXeXqXrXeXrXeXqXrXqXeXqXqXqXqXrXwXqXeX0XrXqXqXwXqXwXqX0XqX9XqXqXqXwXqXqXqX0XqXwXqXwXwXwXwXwXqXqXwXqXwXqXqXqX",
"$.*.-.*.%.*.%.%.&.#.,.%.I @ # .   . . . . 8 z.h.sXgXsXoX7.u.@.@.@.X.;.@.@.@.@.o.o.@.@.o.@.@.@.@.@.@.@.@.@.@.o.@.o.@.$.@.@.@.@.+.o.@.@.@.@.@.o.$.@.$.@.o.$.@.o.$.+.X.@.@.@.@.@.+.@.o.@.o.@.o.@.@.@.o.@.@.@.o.@.@.$.+.@.@.@.+.@.+.@.#.*.+.#.+.+.$.o.+.X.@.X.+.X.+.O.....^ Y Y J S H S F S S I F G S S G A D D G C b n n ; @ @ - X X O @ O & r.w.zXvXnXnXvXvXvXrXrX'.b.b.y.3.3.3.y.e.y.y.3.i.9.i.3.y.i.3.y.3.y.3.9.9.3.3.9.i.y.y.u.i.y.3.9.9.i.i.9.u.3.9.3.9.3.y.u.u.u.y.i.3.u.3.9.3.9.3.9.3.9.i.3.3.9.3.9.3.u.3.9.3.9.u.3.u.y.y.i.y.9.3.3.9.3.9.9.u.9.9.9.u.7.9.9.9.u.9.9.9.9.9.7.7.3.3.-.$.+...}  .( G F 9 4 w ; ; ; ; - - - - - - $ $ ) ].].H.d.a.k.l.H.H.r.k.k.v.l.l.k.k.l.p.k.k.k.k.k.p.p.p.a.p.a.a.k.q.H.p.p.p.p.k.p.p.p.a.k.p.a.p.p.q.H.p.p.p.p.p.q.p.p.0.p.p.0.p.p.0.0.p.u.0.9.p.a.H.I.I.I.I.W.I.W.P.W.W.W.!.!.!.W.W.W.W.W.!.W.W.W.W.W.W.W.H.I.!.E.!.!.!.H.W.!.E.!.!.!.I.!.!.!.E.E.!.W.W.!.~.W.!.W.W.W.!.!.I.E.W.W.W.H.H.a.i.*.*.h ; w $ # ; ; ; @ & & & # j j 9.].].=XOX X|. X|. X].].Y.Y.I.U.J.J.B.c.c.v.k.v.k.k.k.d.0.0.6.t.&.&.*.*.*.*.*.+.' +.] [ ] *.t.6.5.q.d.r.k.k.k.0.%.%.D e p > & # # @ # & & & & & & & O * * <.<.z.9.q.4.d.s.'.qX1XqXqXqXqXqXqXwXwXqXiXrXwXpXqXwXpXwXwXpXrXqXrXwXqXrXpXqXiXeXwXwXwXwXqXwXeXqXqXqXrXqXqXwXwXqXwXwXqXqXqXqXqXqXqXqXqXqXqXqXqX9XeXqXqXqXqXqXwXqXqX9XqX9XeX9XeX9XeXwXqXqXwXqX9XqX9X",
"%.&.*.&.$.%.#.&.#.%.%.,.I O = . . . . O O 8 k.k.dXjXjXoXu.2.:.:.@.:.@.@.@.@.@.@.o.@.@.@.@.@.X.+.$.+.@.@.$.o.@.@.@.@.$.o.X.@.o.+.o.$.o.o.+.@.$.o.@.o.@.$.$.o.@.$.o.o.@.@.@.@.@.o.o.+.@.@.@.o.o.@.@.o.@.@.o.@.o.@.o.$.@.o.@.+.#.+.@.#.@.@.#.o.+.o.X.o.X.o.X.X...+.O.....^ Y T J S F S S S F S F S S S A S S A v G c p p ; @ @ $ @ X @ $ @ # w.r.zXnXnXvXvXvXvXrXrX_.C.V.y.3.3.y.e.y.s.3.3.s.3.i.9.3.9.9.3.9.3.y.3.i.3.y.3.y.u.9.y.u.y.9.9.9.i.i.9.3.i.3.u.9.3.9.y.y.i.i.3.9.3.i.3.3.3.i.3.u.3.u.3.9.3.9.3.3.3.i.9.3.i.9.y.9.9.y.9.9.3.9.3.9.3.9.3.u.9.9.9.3.u.9.9.9.9.9.9.9.u.9.3.3.3.2.1.@.$... . .^ F S 9 4 > ; ; ; ; : - - - - - ; ; E [.].H.p.k.l.l.c.v.x.x.l.l.l.l.k.k.d.k.k.d.l.d.k.a.k.a.k.d.f.p.l.p.k.d.d.d.p.d.p.f.p.p.d.p.p.d.d.d.p.a.d.p.d.p.p.p.p.i.p.p.p.0.p.0.p.i.i.i.0.p.p.H.I.W.W.I.P.W.W.W.E.!.E.W.!.!.!.W.W.W.W.W.!.W.!.!.!.W.W.!.I.W.!.W.W.I.W.E.!.W.W.I.!.!.!.I.!.!.W.W.W.!.W.W.I.!.!.W.W.W.W.W.E.W.W.I.H.K.k.i.*.*.l w ; ; # ; w ; ; & & & @ g j q.].].#XOX X X X X X].].Y.U.I.U.J.J.n.v.c.v.k.k.v.k.k.k.9.q.8.t.t.&.%.%.#.*.*.+.+.+.+.+.+.#.&.q.q.q.r.r.k.k.k.w.%.%.F p p > # @ # # # = & & & # & & # * * 1.1.z.q.9.4.d.s.}.qXqXqXqXqXqXqXqXrXwXqXpXiXqXwXqXwXuXqXpXwXiXqXrXuXwXqXwXeXwXqXrXqXqXeXwXeXwXqXeXwXuXqXwXqX9XrX9XqXwXqXqXqXwXqXwXwXqX9XeXeX9XeX0XqXqXqXqXqXqXwX9XeX9XeX0XeX9X9XrX9XqXrXqX9XrX9XwX",
"$.$.$.&.%.#.%.#.,.%.%.,.d O O . . . . . O a B.J.jXsXjXuXl.M.;.:.X.;.X.;.@.X.o.@.@.@.@.o.@.o.$.@.o.o.@.o.o.+.@.o.+.o.@.@.@.@.o.$.+.X.@.@.@.@.@.$.@.$.$.@.@.@.$.@.@.+.o.@.o.@.@.+.$.+.o.@.@.@.@.@.@.#.o.@.@.@.@.@.o.@.@.@.@.$.+.#.#.@.#.@.X.#.o.@.+.@.+.X...X.+.X.+...+...^ } ^ U U U I U U U U U U U U I P E E E E b G 0 @ - $ - @ $ @ $ & B.V.aXnXnXvXvXzX&XC.C.y.3.4.y.y.y.3.3.3.y.3.3.3.9.9.3.i.3.u.3.9.9.9.9.3.9.9.9.9.3.u.9.9.9.y.9.9.9.9.9.i.3.9.3.3.9.y.u.u.3.y.3.3.u.9.3.i.3.3.9.3.9.3.3.3.i.3.i.i.3.3.3.9.3.u.y.y.y.u.3.y.9.3.i.9.u.9.9.9.9.3.9.9.9.9.9.3.9.u.3.9.7.9.9.9.7.7.7.7.3.8.1.9.9./ ^ q ; 4 # & ; ; @ : - - : $ # - k I.I.I.0.p.-.-.-.-.-.1.-.*.;.*.@.$.$.$.$.#.$.-.-.-.-.-.7.7.7.7.7.7.7.p.u.0.0.0.i.a.u.i.i.i.0.p.u.i.i.0.i.0.p.i.i.i.i.0.i.i.i.0.0.9.0.9.u.7.0.u.i.k.n.M.n.n.n.n.n.H.n.m.m.H.H.H.H.K.W.K.W.P.W.P.!.!.I.W.~.!.E.W.!.W.W.W.W.E.!.W.!.!.!.~.H.W.~.!.W.W.W.W.!.W.W.W.W.W.!.E.W.W.!.W.E.H.a.p.7.@.k M w # ; ; ; # $ ; ; & & : & c C 7.].[.;X;X;X=X=X=X=X4X3X4X3X3X=XOX#XOX#X#X=X3X=X=X=X4X=X4X=X4X|.=XXXXX|.4X#X4X#X=X-X=X;X;X=X=X#XOXXX4X=XOXXX X XI.U.v.5.q./ j j > & # # & # & & & # * * I e.w.4.4.9.8.s.e._.qXwX7XqXqXwXwXuXqXiXwXwXwXwXwXiXwXwXwXiXwXwXwXwXwXwXwXiXiXwXwXwXwXwXwX0XqXrXrXqXeXwXqXwX0XrXwXwXwXqXwXwXqXiX0XqXwX0XrX9X0XrX9X9XwXqXwXwXwXwX0XwX0XwX0X9X0XwXwX0XrXwX0X9XwX9XwX9X",
"*.$.$.$.$.%.$.&.#.#.' O.> O O . O . X O @ z Y.I.fXjXfXfX~.~.-.;.@.X.;.@.@.@.@.@.+.@.@.o.@.@.@.@.o.@.@.@.@.@.$.@.@.o.@.o.o.@.@.o.@.$.@.@.o.@.$.o.$.@.o.o.$.o.o.$.o.@.o.@.o.@.@.$.@.o.o.#.$.+.@.@.o.@.@.o.@.@.o.@.+.@.@.@.$.o.@.@.+.#.+.@.#.o.X.+.+.o.X.+.+.X.+.+.+.+...} } ..} { ^ ^ Q Q ~ ^ Q T Q ~ Q Q ~ ~ ~ Q / D D n - $ X $ X $ $ O > B.Z.xXnXnXgX)./.s.y.3.3.s.e.y.e.3.s.s.s.y.s.3.3.i.9.9.9.9.9.i.i.3.i.3.9.i.i.3.i.i.i.y.i.y.y.9.9.9.9.i.3.9.3.9.i.3.i.3.y.u.i.i.3.i.3.i.3.9.3.i.i.i.3.i.3.i.3.u.u.9.u.3.3.3.u.9.y.9.u.3.3.3.u.3.9.9.i.9.9.9.u.9.9.9.9.9.u.9.9.9.9.9.9.7.9.9.9.7.9.9.8.9.9.9.( } y > 2 * # # & : - - - 1 - $ ; 0 k.k.Y.k.p.( Q J J K H S S Z Z Z M C M M N N B M C Z S Z K G K J R J R J R Y R K J J J ! Y ! ) { { | } | ..:.:.:...;.@.@.@.$.@.@.+.@.X.:.:.| *.| +.| | ! ! ! Y ! Q ! ! | ) | | ;.-.7.2.i.f.f.M.m.m.H.E.E.E.W.I.E.E.I.K.W.I.!.E.I.!.H.!.I.I.E.W.E.I.W.E.E.K.P.J.K.K.A.K.m.H.M.M.v.9.;.;.[ M > w # ; ; ; $ ; @ # - & & & # E Q q.(.(.-X=X:X-X-X-X3X3X=X4X=X#X=X#X=X=X#X#X#X=X4X=XXX=XXX#XXX=X#X#X=X=X=X-X#X#X#X#X#X=X#X#X#X#X=X$X=X#X=X4X]. XJ.r.k.w.8.8.5.[ [ a * & & * & * # # * h h 1.9.8.1.9.7.3.i.i.}.qXqX7XwXqXwXwXwXqXiXwXwXwXuXwXwXwXwXiXqXwXwXuXwXwXiXwXwXwXwXwXwX0XrXwXwXwXqXrXwXwXwXwXwXwXqXwXwXwXiXwXwXwXwXwXwXwX0XrXwXrX9XqXrXwXwXwXwXwXwXwXwXrXwXwXwXwXwXwXwXwXwX0XrXwX9XwXwX",
"$.$.$.$.%.$.%.$.#.,.' O.> O O . . = X @ X z (.I.jXfXsXdX~.~.t.;.;.@.@.X.o.@.o.@.o.@.@.@.@.o.@.o.@.@.@.o.@.X.o.@.@.@.@.@.+.@.@.@.@.o.@.o.@.@.o.@.o.o.@.@.@.$.@.@.@.@.@.@.@.@.o.o.X.$.+.o.o.o.@.o.@.@.@.@.o.@.@.@.o.@.o.@.@.+.+.#.$.+.+.O.o.#.+.X.X.+.o.+.O.X.O.X.....+....... .^ { ^ ^ ^ Q Q ^ Q Q ^ Q T T Q Q Q W G D n @ - @ @ @ @ @ $ > B.J.cXnXnXgX`._.y.3.3.3.s.y.y.y.s.3.y.3.y.e.y.i.3.i.i.3.i.i.3.9.i.9.9.9.9.9.9.i.3.i.y.i.i.i.9.9.u.9.9.9.y.9.y.9.3.y.9.u.3.3.y.3.3.9.3.u.3.9.3.3.3.9.3.9.3.9.3.3.9.3.9.y.9.u.y.9.y.u.u.i.3.9.9.3.9.3.9.9.9.9.9.u.7.9.9.9.9.9.9.9.9.9.u.u.3.9.3.9.3.3.9.9.8.^ ( 9 4 * * # & # : : - - : ; $ - 0 k.r.!.d.a.( J Q J F J S S Z Z N N N L L N N C B Z G Z K K F K J J J J J J J J R R J Y ! Y ! { ! } [ | +.+...| @.@.@.@.@.$.*.@.@.+.+.....+.+.| +.| { { ! ! ! ! ! ! ! ! ) ) | :.:.*.7.2.a.f.f.M.m.n.H.E.H.E.K.W.!.E.!.W.W.!.E.W.W.E.!.!.H.W.E.W.W.H.!.W.I.K.K.K.K.Z.K.H.H.n.n.v.M.i.;.*.| M w ; # # $ ; # @ ; : @ & & & @ E E 0.W.I.,X=X=X3X=X=X=X=X=X=X=X=XOXOX=X@X#X#X#X#X=X=XXX=X=X#X#X#X=X=X$X#X=X=X#X=X#X-X#X#X%X$X%X%X%X#X-X=XXXXX].].K.k.k.q.q.q.q.' [ a & * * & * & # & * h k 1.8.3.1.1.8.7.e.i._.qXqXqXqXqXpXwXeXwXwXwXiXwXwXiXwXiXwXwXwXiXiXwXwXwXrXwXwXwXuXwXwXwXwXwXqXwXeXqXqXqXpXwXwXwXrX0XwXwXiXwXwXiXwXwXwXqXrX0XwXwXrXwXwXwXwXiXqXrXwXwX0XwX0XwXwXwXwXwXwXwX0XwXwXwXrX9XwX",
"$.$.%.$.%.$.%.%.#.%.P W = O O . . . . = @ P |.XXsXjXfXjX-X7Xu.;.@.;.;.:.@.X.+.@.@.$.o.@.o.$.$.@.@.@.+.$.o.@.@.o.+.o.@.o.@.@.@.@.@.@.o.@.X.$.$.o.o.@.o.@.@.@.$.o.o.$.@.@.@.+.@.@.@.@.o.@.@.@.@.@.o.@.o.@.o.@.@.@.@.o.@.@.@.#.@.@.+.+.@.o.o.+.o.+.+.@.X.X...+.+.+.+....... ...} ^ { T ! ^ ^ Q ^ T Q Q Q ^ Q Q / E / G G p $ - $ @ X @ @ @ 4 U.U.xXlXBXG.4.4.y.3.y.3.y.y.e.y.e.e.y.s.3.3.y.e.i.9.3.i.i.9.i.i.i.3.i.y.9.i.3.3.i.u.i.3.u.9.9.9.9.i.i.9.9.9.y.9.u.3.u.u.u.9.y.u.9.3.u.9.9.3.9.3.9.3.9.y.9.y.9.9.3.9.3.y.9.9.y.3.i.3.i.3.u.3.3.9.u.9.9.3.u.9.9.9.9.u.9.9.9.9.9.3.9.9.9.3.7.u.9.9.3.8.9.9.9.~ ~ r 2 * # & & & & & : - X - @ @ w / / J.d.k.} Q ! U U ! Y J U Y J R J K J J J J J K J J J J J J J J U Y U Y Y J J Y Y Y J U J H H K F K K K K K J K K J J J J J J J J J J Y R R K Y R Y R J J J J K Y K Y Y J J K J K J K R J { | | :.-.;.p.f.a.l.f.l.f.f.l.a.a.l.k.a.l.a.a.a.a.a.p.a.i.a.9.6.7.2.;.-.:.| } } } ) ) ( ) S w # $ # # - - @ : - : * & * & * [ [ q.H.Z.|.=X-X-X-X3X=X;X=X=X%X=X%X#X%X#X#X=X#X#X=X#X#X=X$X=X=X=X-X=X$X#X=X%X#X%X%X$X-X$X:X:X-X$X#X$X[.!.!.Z.d.k.9.6.6.t.5.&.*.v D < & # * & * & # # 8 +.+.6.1.1.3.3.3.9.s.i.}.8XuXwXqXqXqXiXwXwXiXwXiXqXwXwXiXwXwXwXwXqXwXiXwXwXrXrXwXwXrXwXwXwXwXwXrX0XrXrXrXrXrXwXwXwXrX0XwXwXwXwXwXwXwXwXwXwX0XwXwXqXwXrXwXiXwXiXwXtXyX0XtXrXwXwXwXwXwXrX0XwXrXwXwXwX9XwXwX",
"%.$.$.%.$.%.$.%.%.,.g g . . . O = . O = * [ :X,XdXfXjXiXfXfXH.t.;.@.o.@.@.;.o.@.@.o.o.@.o.+.X.X.@.o.O.o.+.X.@.@.@.@.@.@.@.o.@.o.@.o.@.@.$.+.o.@.@.@.o.$.@.@.X.$.@.+.o.@.@.o.o.@.@.o.@.@.o.@.o.@.@.@.@.@.@.@.@.o.@.@.o.@.o.@.o.@.@.$.@.@.@.o.+.o.@.o.+.X.X.X.X.............}  .} { ^ ^ T Y ^ T Q Q Q Q Q Q Q ) Q W G G 0 - $ - @ X $ O O 8 I.Y.MX:X9X3.y.y.3.e.s.e.s.y.s.y.s.y.9.s.3.i.9.i.3.s.3.9.y.i.y.3.i.i.3.9.9.9.9.9.i.u.9.u.i.i.u.u.9.3.u.u.u.9.u.9.u.u.u.9.9.u.u.u.i.9.i.u.u.u.u.u.i.u.u.i.u.9.u.9.u.9.9.9.9.3.9.u.3.3.3.9.u.i.y.3.3.9.9.9.9.9.u.9.9.3.9.9.u.3.9.u.3.9.u.9.9.9.9.9.9.9.3.8.1.U U 9 2 2 * # # * & & @ @ : ; @ ; # d n &.9.q.} ) ) ^ Q ) Q ) ! ! ! ! ! ! { ! ! ! ! ) Q ! Q Y ! ! ! Y Y Y Y Y Y ! ! Y ! ! J U Y U U U U J ! R Q J J J J J J U J J R Q J Y U R Y Y Y Y Y Y R U J Y ! R ! Y R U R Y Y J J J Y J J J K K Y Y Y Q R Y Y Q Y Y Y Y ! ! R ) R ! R R Y ! R U U J J U Y Y R Y R Q U ! ! ! ) ) Q U y # # # # - # : - : : : : : & * * &.*.0.k.d.J.[.].}.|.oXXXOX@X+X|.|.|.|.}..X|.|.@X#XXX#X#X#XXX#XXX#XXX#X#X#X#XXX$X#X$X-X$X%X.X.X).J.M.b.p.u.7.7.1.2.t.-.t.6.>.5.' s s * : > > : * * > > C 6.>.6.7.7.7.7.9.3.p.d..XuX8XwXwXpXwXwXwXiXwXwXiXwXiXwXtXwXwXrXtXwXwXtXwXwXwXwXwXwXtXwXtXwXrXwXtXwXwXrXwXwXwXwXwXwXwXwXwXwXtXwXtXwXwXtXwXwXwXwXwXrXwX0XwX0XwXwX0X0X0X0XwXwXwXtXwXtXwXwXwXwXwXwXwXwXrXrX0X",
"$.#.$.%.%.$.#.#.#.,.s g . = O O O X X & # / :X:XsXfXdXfXfXfXH.;.;.;.X.@.;.X.;.X.@.@.@.@.+.@.@.@.@.O.@.#.$.$.o.o.@.@.$.o.@.@.@.@.@.@.+.@.X.+.@.@.o.@.@.@.o.@.@.@.o.@.@.o.@.@.@.@.@.@.@.@.@.#.@.o.o.#.o.@.@.@.@.@.@.@.@.@.@.@.@.o.o.@.o.+.o.+.o.+.@.+.o.X.X.O.O...............} ^ { ^ T ^ Y Y Q Q T T Q T Q Q ) Q / G G 0 - $ ; $ @ X O O 8 Y.Y.CX&X<X4.e.3.y.y.y.3.y.y.y.y.e.s.3.3.y.e.9.3.9.i.9.9.9.9.y.y.i.i.9.9.u.9.9.9.u.u.u.9.u.3.u.9.u.u.9.9.u.u.9.9.u.u.9.u.u.u.9.9.u.u.9.u.9.i.u.u.u.9.u.9.u.9.9.9.9.9.y.9.9.9.3.9.u.9.3.9.y.3.y.u.9.u.9.9.9.9.7.3.9.9.9.3.u.9.3.u.3.9.9.9.9.9.9.9.9.9.9.9.4.T P r 2 2 & # & & & & : @ & - - # # d n &.8.7.} Q ) ~ ^ Q ^ ! ! ! { { ! { ) ! ! ! ) ! ! Q ! ! Y Y Y Y Q Y T ! ! ! ! ! Y ! J Y Y T T U Y U J U J J J J J J J J J J J U J U J J Y R R Y Y R U Y Y Y Y Y Y Y Y Y K Y R J R J R J J J J K R R R Y Y R ! ! Y ! Q ! Y Y ! Y ! ! Y R Y ! U U J J U R Y Y Y U Q U ! Y ! ! ! ) Q R d # # # # @ : & : @ : : : & * & * &.&.0.d.p.J.].]. X}.|.@X|.+X|.XX|.|..X|.|.XX|.XX#X#X#X#XXX4XXX4XXX#X=X#X%X@X#X$X#X$X$X&X#X.X.X).J.b.b.p.7.7.7.-.-.6.2.t.>.5.>.' g d 4 * > # : # ; > > G 1.5.6.3.2.7.7.7.9.d.d.}.wXuXwXwXwXwXwXwXwXiXwXwXpXiXwXwXtXwXwXwXwXtXwXrXwXtXwXwXwXwXwXwXwXtXwXwXwXwXwXwXwXwXwXtXtXwXtXwXtXwXwXtXtXwXwXwXwX9XwXwXwX0XwXwX0X0XqX0XtX0XyXlXwXtXrXwXtXwXwXtXwXwXrXwXwXwX0XrX",
"#.$.%.$.#.&.,.#.,.] * * . . = . . O = * ; *.7X7XdXjXfXfXfXkX4Xt.7.@.;.@.@.@.@.@.@.o.@.o.@.@.@.+.#.o.#.o.X.+.+.@.@.o.+.o.@.X.o.$.@.o.@.o.o.$.o.@.@.@.o.+.@.@.o.@.@.@.@.@.o.@.o.@.@.o.@.o.@.o.@.@.+.o.@.@.X.$.X.@.o.@.o.@.o.@.@.@.@.@.@.o.@.+.X.X.X.X.+.X...X......._ .. .}  . .( { ^ ^ ^ ^ ^ ^ ^ ^ ^ ) ) ) Q Q ) E G G 0 $ ; @ @ X O @ $ 6 (.].aXC.C.4.s.y.e.s.3.y.e.s.e.s.y.y.y.y.e.y.y.i.9.3.i.i.y.i.i.i.i.y.9.9.3.9.9.9.u.9.9.u.u.9.u.i.u.9.u.u.9.u.u.u.9.u.u.u.9.9.u.u.9.u.u.9.u.9.9.u.9.u.u.u.9.u.u.u.9.9.9.9.9.y.9.3.3.3.i.y.u.u.i.3.u.9.9.9.9.y.9.u.9.9.9.9.9.y.9.3.3.9.9.9.9.u.7.9.3.9.9.9.<.S I r 2 * # * # # & & @ : 1 @ # @ @ ; > j +.+./ ) ) ) ^ ) ^ ! { ) ! ! ) ! ! { ! } ! ^ ^ ^ { ^ { ! { ^ { ^ ^ ! ! ! ! ) ! ! ) Q Y Q Y Y ! ! ! ! Q ! Q ! U R Q J Q ! U U Q U U Y Y Y Y R Y Y U U R Y Y Y R Y R Y R Y Y Y Y Y Y Y R Y Y Y Y Y Y Y R Y Y Y Q Y Q R ) Y ! ! R Y ! ! Q Y U Y Y Y Q Y Y Y U ! Y ! Q Q ! ! ) Q L C w @ # # # : @ & : : : : : : * # * 6.t.0.9.q.7.i.i.a.l.d.g.v.l.x.x.z.x.x.l.l.x.x.c.Z.A.J.D.K.J.K.J.J.K.J.Z.A.J.A.J.P.D.b.c.d.9.9.4.2.1.2.2.2.2.t.7.7.-.7.-.5.>.&./ 8 9 > * * ; > > * 0 4 / 5.6.9.7.3.7.7.7.9.p.a.^.-XXX$X-X$X:X6X6X6X7XqX8X0XwXwXwXtXwXtXwXtXwXwXtXtXwXtXtXwXtXwXwXwXwXtXwXwXwXwXrXwXwXwXwXwXtXwXwXwXwX0X0X6X9X5X5X$X*X*X*X@X.X.XoX[._.).).'.G.'.G.'.*X.X.X*X*X*X$X&X5X&X&X6X0X0X9X",
"$.%.$.%.$.%.$.$.&.I @ O O X O % = . O , * >.qXuXdXfXfXfXsXfX7XH.j.$.$.$.X.@.@.@.@.X.@.@.X.@.@.o.O.o.#.@.@.o.@.@.@.@.X.+.$.@.@.o.@.o.@.o.@.@.X.@.@.@.@.@.X.X.@.@.@.@.+.o.@.@.@.@.@.@.@.@.o.@.@.o.@.o.@.@.@.+.$.o.@.o.@.o.@.@.@.@.@.@.@.o.@.o.X.X.X.X...| ...... ..... .....X.+.@.+.o.@.;.$.;.$.;.;.-.&.*.+.! ! R E G G w $ @ @ @ @ @ O @ 6 L.L.).y.i.3.s.y.y.s.e.3.y.e.3.s.3.e.3.9.y.i.3.9.9.i.9.3.s.i.i.y.y.i.9.9.9.9.3.u.u.u.u.9.u.9.u.u.9.u.u.9.u.u.9.u.u.u.9.9.9.u.9.u.9.u.u.9.9.u.9.9.u.u.9.u.u.9.u.9.u.9.9.9.9.u.9.3.i.3.3.9.y.9.9.9.y.9.3.9.9.9.9.9.3.9.9.3.y.9.3.u.9.9.u.9.9.9.9.u.9.9.9.8.#.N N t 3 6 * # # O & # & : @ ; @ @ & # @ , C C ~ ~ Q / Q ~ ) Q ^ ~ ^ ^ ~ ^ ) ) ) ^ ^ { } ! } ( { } } { { { { { } } { ( { { { { ^ { ^ ^ ^ ^ { { ! ^ ^ ^ ^ ! } ^ Q ^ Q ! Q Q Q Q Q Q Q U Q U Q Q ! Y Q R Y R Y ! Y ! U Y Q R Y ! Y Q Y R R Y ! U Q U Q Y Q Y Q ! ! U ! Q Y Q Q Q Q Q Y T U Q U ! Q ! Q Q Y Q Q Q Q ) Q F 9 9 O # @ ; - @ : : : : : : : & # # 0 q.0.0.7.0.7.6.7.6.7.2.t.-.2.t.2.2.1.6.-.7.6.6.2.7.7.7.2.7.7.6.7.9.7.7.3.1.9.1.1.2.2.1.3.1.1.2.2.2.2.1.2.2.4.1.2.t.-.7.6.-.*.#.c > > > * * * > > > 8 0 [ 8.6.6.7.7.7.u.9.9.i.9.d.f.l.l.b.x.b.C.C.A.P.P.^.^.).).}.}.oX*X.X$X*X$X$X$X6X6X6X6X6X6X6X5X6X6X5X6X&X6X&X&X$X$X$X$X.X.X.X'._.).!.G.S.C.j.b.j.f.f.a.j.s.a.a.g.y.s.y.a.s.y.s.a.j.f.f.f.j.j.b.C.A.A.G.G.^._.",
"#.$.%.$.%.$.$.%.,.I O O O O O . = O = * , ,.uXqXjXfXfXjXfXsX7XH.j.;.;.@.;.@.;.X.:.;.;.@.@.@.@.@.@.#.o.O.o.#.o.@.@.o.$.@.o.o.+.@.@.o.@.@.@.@.$.o.@.o.@.X.@.$.@.X.o.@.@.@.o.@.@.o.@.o.@.o.@.@.@.@.@.@.o.@.o.@.@.o.@.@.@.@.X.$.o.@.o.@.+.X.X.+.X.X.X.+...X........._  .......X.+.@.@.o.@.@.@.;.$.=.-.-.-.| ..) ! R ) b G 0 ; - $ @ X X O O 6 L.L.`.i.i.3.s.e.y.y.y.s.y.y.s.3.s.s.y.9.9.9.i.9.i.3.3.3.i.9.y.i.9.i.9.9.9.9.9.9.9.9.u.9.u.u.y.9.u.u.9.u.9.9.u.u.9.u.9.u.u.u.u.9.i.u.9.u.u.u.u.u.9.9.u.9.9.u.u.u.3.9.9.u.3.3.3.9.3.3.i.u.y.y.y.9.9.9.9.9.9.u.9.u.9.9.9.9.9.i.3.3.3.9.3.9.9.3.9.9.9.9.9.9.O.N V i 6 3 * * # & & & X @ : ; @ & # @ # , C C ~ ~ ~ Q / ) ~ ) ) ^ ) Q ) ^ ) ) ^ ^ ^ ^ ( { ) } } ^ } } { { | { } ! } { } ^ ^ ( } ^ { { } { ^ { { ^ ) ^ ! ! ! ^ ^ Q ^ Q ^ ) Q Q Q Q Q Q U ! U R Y Q ! ! ! ! ! Y Y U ! Q U Q U U Q Y Y ! Y R Y Q U Q Q Q Q Q Q Y ! U Q Q Q Q Q Y Q Q Y U T T Q U Q U Q Q Q Q Q Q Q Q Q F 9 7 # # # # @ : @ & : > : : : : @ # 0 q.6.0.0.7.0.7.7.7.7.2.2.2.2.-.2.2.1.1.1.-.7.6.2.7.2.6.7.6.6.7.7.7.7.7.6.7.1.3.6.7.7.2.1.1.2.2.1.2.2.2.2.2.1.1.1.2.6.-.1.1.*.%.C > 2 * * > : > # : 7 8 ( 6.6.6.7.2.7.9.9.3.9.i.h.f.l.l.l.M.c.C.C.A.P.S.W.).^._.}.}..X.X.XXX*X$X$X5X5X$X6X6X6X6X5X6X6X5X5X5X6X&X:X&X&X$X$X$X*X.X.XoX).).!.G.G.A.b.j.g.f.f.a.s.j.s.y.s.f.a.s.s.s.y.s.f.y.f.j.f.j.j.j.C.A.C.G.G././.",
"$.#.%.%.%.#.%.#.O.d O O = X O X X X O , < q.uXuXdXfXdXjXfXfXjXoX).2.;.;.;.X.@.o.@.X.X.X.o.@.X.o.@.@.@.@.+.@.@.o.@.@.@.@.o.@.@.@.#.o.o.@.o.@.o.o.o.$.X.$.$.o.$.o.$.@.@.o.@.@.@.o.@.@.@.@.O.@.#.@.@.@.@.@.@.@.@.@.o.@.$.+.o.+.$.X.o.+.$.o.+.X.X.+.;.@.*.:.+.+.@.$.@.$.$.1.1.-.6.9.7.u.9.9.9.i.i.i.i.0.0.6.7.+.) ! R G G 0 ; # - @ @ @ O @ * 7.7.k.y.i.y.3.y.s.s.3.y.e.e.s.s.y.y.3.s.3.e.y.y.9.3.s.9.y.9.i.y.i.3.i.9.y.9.9.u.u.9.9.u.i.9.9.9.u.9.9.u.u.u.9.u.9.u.u.u.9.9.u.3.u.u.9.9.u.9.y.u.u.9.9.9.i.u.9.9.9.u.u.9.9.3.i.9.u.3.i.y.9.9.u.u.u.9.9.3.9.9.3.9.9.9.u.u.3.9.3.9.9.9.9.9.9.u.9.9.7.9.3.4./ M z u 6 3 * # & & @ & @ & X @ & @ & & # # 8 8 k z z C A A F I U P Q ~ Q ~ ) ( ) ^ ( / ) ^ ^ ^ ^ ^ ^ ) ! ^ ^ ) ! ^ ^ ! ^ ^ ^ ! ^ ^ ^ ^ ( ) ^ ) ! } ) ^ ) ( ^ ^ ) ^ ^ ^ ) ^ Q Q Q Q Q ! Q U U ! Q ! ! R ! R ! Q Q Q Q Y U U Q ! R ! R Q Q ! Y Q ~ Q Q Q Q Q Q Q Q Q ! Q Q Q T U ~ T T U U Q Q Q Q Q Q Q Q Q U Q F A G d * > # @ @ & & & % : : : % & : & @ @ y 0.0.0.7.7.u.7.u.7.7.7.2.2.2.2.2.2.3.7.t.7.6.7.2.2.2.7.2.7.7.7.7.6.6.2.3.3.6.1.1.2.-.-.2.3.2.1.2.2.2.<.2.2.2.1.1.2.-.-.7.>./ / r # * : : > * : > : 4 < ( q.6.6.7.7.7.7.9.9.9.9.9.9.9.9.3.9.1.3.3.3.3.3.9.9.3.7.i.i.i.f.d.g.l.M.j.b.C.C.A.m.m.Z.A.A.A.D.D.A.C.D.C.C.b.b.f.f.f.a.f.s.i.u.i.i.i.i.i.s.s.i.s.y.s.y.s.a.s.a.y.s.s.a.a.a.y.a.s.a.a.s.s.i.s.i.i.s.s.s.s.",
"$.+.+.} } ( ) F I 6 O + . = O = O = O e 0 w.iXuXfXfXfXfXfXfXfXiXwXb.-.1.-.;.;.$.:.;.:.:.o.@.o.o.o.@.@.o.@.@.@.@.@.o.@.o.@.@.@.o.@.@.@.@.@.@.#.$.$.@.o.$.@.$.@.o.o.o.$.@.o.@.@.@.o.o.#.o.@.@.o.@.@.o.$.o.;.@.o.;.@.;.@.;.;.$.;.=.;.1.1.1.2.1.1.1.-.-.2.2.2.7.3.7.9.9.u.u.i.i.u.p.i.i.u.i.p.i.i.9.u.0.u.u.u.6.+.+./ G G 5 - # @ @ X O O # * +.[ 0.s.i.s.i.s.y.s.y.s.y.y.y.y.e.s.3.s.3.y.e.y.9.i.9.i.9.i.9.9.9.i.3.9.y.y.u.u.9.u.u.9.u.9.9.9.9.9.9.9.u.9.u.9.u.u.9.9.u.u.9.9.9.9.9.9.9.y.9.u.3.u.y.9.3.9.9.3.i.7.y.y.u.9.3.3.3.3.9.9.u.u.9.9.7.9.u.u.9.9.i.3.3.3.3.9.9.9.9.9.u.3.9.9.9.9.9.9.9.9.,.&.U k M x 6 t * * & O & @ & @ & - # & @ @ # & & * > > , , 0 0 8 r s s g z k z N N N N z V N N N N z N z k k M k M k k z k N z N N N C N C Z C Z G C C Z A Z G S S S G S J J P U R ~ Q Q Q Q ~ ~ Q ! R ) ) ! ! ! ^ Q Q Q ! ! ! ! ! ! ! Q Q Q ! Q Q Q Q Q Q Q ^ Y ) Q Q Q ~ Q Q Q Q U U U U U U F F S A Z N Z M l g r 8 8 : @ @ # : @ & & @ : : & : : & & & @ @ k 0.0.0.u.0.i.7.7.7.7.7.7.2.2.2.2.2.2.7.7.2.7.7.7.7.7.7.t.2.6.7.7.7.7.7.1.1.4.1.3.2.2.2.2.1.2.2.2.2.2.2.2.7.7.-.7.2.t.6.t.&.v A > * * > & : : : * ; > : E 6.6.8.7.9.9.9.7.8.9.9.9.4.3.9.9.9.7.7.7.9.3.8.3.3.3.3.3.3.3.3.9.3.9.u.7.9.3.9.3.u.7.u.u.3.3.e.3.9.9.9.9.9.3.9.y.9.3.3.3.3.3.i.i.i.s.s.s.a.s.a.s.a.a.s.a.s.a.a.s.a.s.a.s.a.s.a.s.s.y.s.s.s.s.s.s.s.s.s.s.",
"#...+.( ( ( ) P P 6 O O O O O = O O @ 8 8 0.dXiXfXfXfXfXfXfXfX8XwXj.-.2.;.;.;.$.;.X.o.:.o.:.o.o.@.o.@.#.o.+.@.@.@.@.@.@.@.o.@.@.@.@.@.@.$.o.$.#.o.@.$.o.$.@.$.$.@.@.$.+.$.X.@.@.@.@.o.@.@.O.@.@.o.$.@.$.@.:.;.o.+.@.;.@.$.;.=.=.=.1.1.1.1.4.1.1.t.2.2.7.7.7.7.7.9.9.9.9.u.p.i.i.i.i.i.i.9.9.p.9.0.u.0.0.u.2.*.*.) G G 7 # # @ @ @ X O # * ..+.0.i.i.s.y.y.y.i.y.s.e.y.3.y.e.y.3.3.e.y.y.3.i.9.9.9.9.9.9.9.9.9.y.3.u.u.y.u.9.u.u.9.u.u.9.3.9.9.9.y.u.9.u.u.u.9.u.u.u.9.u.9.9.u.9.u.9.y.9.y.u.9.9.9.3.u.9.9.9.y.9.9.u.i.3.9.3.3.u.u.9.u.u.9.u.9.9.9.9.3.9.9.3.u.i.9.9.3.u.9.9.9.9.3.u.9.9.7.u.9.$.<.P z z x t 3 * # # # & & @ : X @ & # & & & = * & * > * 4 8 6 8 r g s g k h z N z N N N N N N N z N z k z N h z k z z N z z z z N N N N Z Z C A Z Z A A N A C A S G S F F U P ~ Q Q Q Q U T ~ U Q Q Q Q ! ! Q ! T Q Q T Q Q Q Y ! ! Q T Q ! ! Q T Q Q Q T ~ Q Q Q Q Q Q Q Q Q Q U Q U U I U F P S F G Z L C k l g a 0 0 > # & @ & & & & : : % % : : % : & @ @ k 0.0.0.0.7.u.7.7.u.7.7.2.7.2.2.2.7.2.2.u.7.6.7.7.2.u.2.7.6.2.7.7.6.3.7.7.6.1.3.1.2.2.-.2.2.2.2.2.2.2.2.t.-.1.t.2.-.7.t.-.,.v A , : & > & * : : : * > 4 U 5.q.q.7.6.7.7.7.9.9.9.9.9.8.9.3.9.8.4.8.4.8.3.3.9.9.1.4.3.3.9.3.u.3.9.3.9.9.3.i.3.3.3.e.e.9.3.9.9.9.9.7.3.9.7.3.u.3.3.3.9.y.9.i.s.s.s.s.s.s.f.y.a.s.a.a.s.a.s.a.a.s.a.s.a.y.a.s.s.s.s.s.s.i.s.i.s.s.s.s.",
"J F F C N z k g h * = O = X = O & @ O e a z.dXdXsXfXsXfXfXfXfXfXfX).a.a.u.u.7.7.-.-.;.;.;.o.o.o.@.@.+.o.@.@.@.o.@.@.o.@.$.o.@.o.@.@.@.o.o.$.o.$.$.o.@.$.$.#.o.@.o.$.@.@.$.$.$.$.@.$.$.@.=.=.=.=.=.-.-.1.-.2.-.2.3.1.3.2.3.7.3.7.9.u.u.u.u.u.i.u.p.u.u.i.u.u.p.u.i.i.i.i.i.i.i.i.i.i.0.i.p.i.p.u.u.0.u.i.u.i.7.6.*.) ( l * # @ @ @ @ @ O * Q ~ 9.i.i.9.s.y.s.3.s.y.s.3.s.y.s.y.y.3.y.y.e.i.9.3.i.y.i.9.i.9.i.9.i.u.y.3.u.u.u.9.9.u.u.9.3.u.9.9.9.9.9.u.9.9.9.u.u.u.9.u.9.3.9.9.3.u.9.9.u.u.3.y.9.9.9.9.9.y.9.y.u.y.y.3.9.3.i.3.9.u.9.9.u.u.9.9.u.9.9.u.3.3.9.9.3.9.9.9.9.9.9.9.u.9.9.9.9.9.9.7. . .V m z m i t * * & O & @ : @ & # @ & @ O & @ # @ & * & & & * & & * * * > : > , > 6 > > 4 6 8 8 9 9 r r r r r r y r y r s r y y a d d d i g d d d i g g g x g x x x x x z k k z k c c c N v z A A G S G G G G G A S G S F S S S S G S S G G G S A A A Z C A Z V C N N k z k k h d d d d d r r 9 7 7 6 4 w 4 > ; # & @ # # @ @ & & : % : % % , : % : % % & @ @ F 0.0.p.0.0.u.u.7.7.7.2.7.7.2.2.u.t.7.7.t.2.2.7.7.2.t.7.7.7.7.7.-.7.7.1.1.3.1.3.1.2.2.2.7.2.2.2.2.2.2.2.7.7.7.2.2.7.t.t.7._ r t * * & > & > * > * : > ; j $.&.7.7.7.7.9.9.7.9.9.9.9.9.9.q.9.3.9.9.9.9.6.9.7.7.9.9.7.3.9.9.9.9.7.9.9.9.9.9.9.9.9.3.3.3.3.9.9.9.9.7.9.8.9.9.9.u.9.9.9.i.9.i.i.s.a.s.s.s.f.s.s.a.a.s.a.a.a.s.s.a.s.a.a.a.s.s.s.s.s.a.a.s.f.s.a.i.f.s.",
"l f f d d d f a r * = O O O @ X O = O g d J.sXiXfXsXsXfXfXdXiX5X6X).j.x.l.f.f.a.a.i.y.-.2.<.<.<.,.1.1.<.1.<.1.1.4.1.1.1.3.1.2.1.1.3.1.1.1.1.1.1.1.1.3.1.3.1.3.3.2.2.1.2.4.7.1.1.3.7.7.9.9.7.9.9.u.u.i.9.p.i.i.i.i.p.i.i.u.p.i.p.i.i.i.p.i.i.p.i.i.p.p.i.p.p.p.p.i.p.i.i.u.p.i.p.i.i.i.i.i.i.u.p.i.i.i.i.p.u.a.u.7.-.t.) 9 9 # @ @ @ O @ # F F u.i.i.i.y.y.s.i.y.y.y.y.y.e.y.y.e.y.e.e.y.s.3.i.9.9.9.9.9.i.9.9.y.y.9.u.3.9.u.9.u.u.9.9.9.9.9.9.3.9.u.9.u.u.9.u.9.9.9.u.u.9.9.9.9.9.9.y.y.u.y.9.9.9.u.9.9.y.9.9.y.y.9.9.3.i.3.9.9.9.u.u.u.9.7.9.3.9.9.9.9.3.y.y.9.9.u.9.9.9.y.9.7.9.9.9.9.9.9.<.U T z N N N g x 6 * * # & & @ : - @ & # = @ = & = & @ & & & & & & & & & & ; ; # ; : * ; ; # , > 4 n 0 9 p 9 8 e a r s a d x g g g j h g k j j j g a g d a a r t e t , 6 e 6 6 6 , 0 4 , , 3 6 6 , 6 6 8 6 6 8 6 6 8 6 6 6 6 7 5 8 6 7 6 6 8 6 4 6 6 6 6 6 6 4 , > > 4 > 4 * * > * & & # * * # # # # # # # ; # # ; # - - - @ : : % : % : % : : : % % % % % : @ # F 7.0.u.u.u.u.0.0.7.7.7.7.2.2.2.2.u.2.7.7.2.7.2.7.7.7.2.7.2.7.7.7.1.7.7.1.1.1.1.6.2.2.2.2.2.2.2.2.2.2.-.7.2.2.-.7.-.6.t.-.P , > * : * & , : > : * > # # 0 +.' q.7.q.7.q.q.q.9.9.9.9.9.9.4.9.9.8.1.q.7.9.7.9.9.9.q.7.7.7.q.q.q.9.9.9.q.9.9.9.9.9.8.e.9.e.9.q.9.9.q.9.7.0.9.9.i.9.9.i.d.i.d.s.d.s.s.a.s.j.s.a.a.s.a.j.a.a.a.a.s.s.a.f.a.a.a.s.s.a.s.s.s.s.f.s.s.s.s.",
"f f d d f d f r y * O O O % = O O X @ l j H.dXsXfXsXfXfXfXfX8X6X6X~.j.j.l.f.f.a.a.u.u.2.2.<.4.=.1.<.1.1.<.1.,.<.1.1.4.1.1.1.1.2.1.1.1.1.1.3.1.9.1.3.1.1.1.1.1.4.3.1.4.3.3.3.7.7.3.8.9.1.9.3.7.u.9.i.i.i.i.i.i.i.p.i.p.p.i.p.p.i.p.i.p.i.p.p.i.p.p.i.i.p.p.p.u.p.p.i.i.p.p.i.p.i.a.i.i.i.i.9.p.u.i.i.i.i.u.a.u.u.q.&.t.Q 8 8 # # @ X @ O # F F 7.a.i.i.y.s.y.y.s.s.y.e.e.s.y.y.e.y.y.e.y.3.i.3.9.9.i.i.9.9.9.i.3.9.u.y.u.y.9.u.u.9.u.u.9.9.9.9.u.u.9.u.9.i.u.9.u.u.u.9.u.9.u.9.9.9.u.3.u.y.9.9.y.9.3.9.9.9.9.y.9.u.y.u.3.3.3.i.3.u.u.9.9.u.u.9.9.9.9.u.3.9.3.9.3.9.3.9.9.9.9.9.9.9.9.3.u.u.9.=.Y T m N N z i i , * & & @ & 1 X & # @ & @ & # & @ # @ & # & & & & & & & : # ; : ; # : # ; : > , , 8 0 0 9 8 e e e s r s g g g j j g j k g h j g g s d a a a r e 8 e , t 6 6 , , 8 , , , 4 > 6 , , , 6 4 6 8 6 6 6 8 7 6 6 6 6 6 7 6 6 6 6 6 6 6 6 6 6 6 6 6 6 6 > 4 > 4 > 4 * * * # # & # # # # # # # # # - # - @ ; @ - ; - - - 1 % : % = % : : % , % , % - # @ Q 0.7.u.p.p.0.7.u.7.7.7.7.2.7.7.2.2.2.7.7.7.2.2.7.7.7.7.7.7.7.1.7.7.1.1.3.1.3.1.2.t.7.2.t.7.2.2.2.1.2.2.2.2.7.7.-.7.6.-.-.F , , * , : : > & * : > : ; : 0 +.+.7.7.9.7.9.7.9.9.9.9.9.9.9.9.9.9.9.9.9.q.7.7.q.7.9.7.q.7.7.9.9.7.7.9.9.9.q.9.q.9.9.8.8.9.9.8.7.9.9.9.7.9.9.9.9.9.9.i.s.i.d.s.d.i.d.a.s.a.s.s.s.y.j.a.y.s.f.f.y.a.a.a.a.s.s.f.a.s.a.s.f.i.s.s.i.f.a.s.",
"y y u a l f y n n 4 @ O @ O @ O O @ O c c Y.dXfXfXfXsXfXsXfXuX4X-X~.M.j.j.l.j.f.a.f.s.s.s.i.i.s.9.i.9.e.y.s.i.i.i.9.i.i.i.i.i.s.s.i.i.s.i.i.i.i.s.i.i.d.i.i.i.i.i.i.p.i.p.i.p.p.p.p.p.i.a.p.p.a.d.p.p.i.a.p.p.p.i.i.i.p.i.i.p.i.p.i.p.p.i.a.i.p.i.i.p.i.p.a.u.u.i.a.i.u.a.p.i.a.u.p.u.p.u.p.p.u.p.u.p.u.u.u.u.u.0.9.9.&.c z & O @ O @ O @ G L 7.i.i.i.i.y.y.y.y.s.3.y.9.s.9.y.i.i.y.9.s.3.i.3.i.i.9.9.y.i.3.i.u.u.u.9.u.u.9.u.u.u.9.u.9.9.u.9.u.9.9.u.u.u.9.u.u.u.u.9.u.u.9.u.9.u.9.9.u.u.u.7.9.9.9.3.u.u.9.u.u.9.u.9.i.3.9.9.9.u.9.u.u.9.u.9.9.u.9.u.9.9.9.u.9.7.9.9.9.3.9.9.9.9.u.3.i.3.y.T V V N z N x x x t * * O & & # & @ @ : @ @ & @ @ & @ : & @ : & & : & & & @ ; & - @ @ : @ @ & : & # : : : : > > > > > > > , 4 , , 6 6 6 6 , 6 6 , , , > > : > ; ; : # : : & # # & & & & % & @ & @ & @ @ - @ @ & @ @ & & @ @ # @ @ & @ # @ & O & @ & # & O & & @ @ # @ # @ & # & & @ @ @ @ @ # - : @ - @ ; @ - # - # - @ ; @ - - - % 1 : 1 : : : : % : : % & & @ # / 0.u.p.u.u.0.7.p.7.7.7.u.u.t.7.2.2.2.7.7.t.u.u.t.u.2.2.7.2.t.u.t.2.7.t.2.7.2.7.2.2.2.7.2.t.2.2.t.2.2.1.7.2.2.2.2.-.2.@.@.j > * * = , : : , * : : : , * , F F 8.9.9.8.q.8.9.q.q.9.q.9.9.8.q.7.8.9.7.q.9.9.7.q.9.9.8.7.9.8.9.7.q.q.q.9.q.9.q.9.q.9.9.q.9.9.9.9.9.0.9.9.9.0.9.9.9.p.d.i.d.s.p.d.a.d.a.s.a.s.a.a.s.s.a.s.a.a.a.y.f.f.a.a.s.s.s.s.f.s.s.s.a.s.a.s.s.d.",
"y y q u d y y y y # O # = @ O & & O * P E =XsXfXsXfXfXsXfXfXiX6X-X[.n.n.j.f.M.j.f.g.f.f.s.h.s.s.s.s.s.s.i.s.s.s.s.s.d.p.d.d.i.d.i.a.a.a.s.s.s.i.s.i.i.i.a.i.s.i.d.i.d.d.p.d.i.i.a.i.p.p.i.p.i.p.p.i.i.p.i.p.i.i.i.p.p.i.i.a.i.p.i.i.i.i.p.u.a.i.i.p.u.p.p.p.p.a.a.i.i.i.a.i.i.i.p.p.p.u.p.u.u.p.u.p.u.a.H.t.a.u.u.i.i.9.) ~ 8 @ @ @ @ @ @ M M -.i.9.i.y.y.9.i.3.y.i.i.e.3.s.i.i.i.9.i.y.i.y.i.i.y.i.i.i.9.i.i.3.u.9.u.9.9.u.u.9.u.9.9.u.9.u.9.u.u.u.u.9.9.u.u.9.9.9.u.u.u.9.u.9.u.9.u.u.9.u.u.y.y.u.3.u.9.u.u.9.9.u.9.u.u.u.u.u.u.9.9.u.9.u.u.9.u.9.9.u.u.9.9.u.u.9.9.u.u.9.u.u.u.3.i.i.<.<.I V N m N N V x x t , , * & # & @ & & # # : # & & # & @ & & & & & @ & & 1 & @ & @ & & @ - & @ # & @ # # @ @ # @ : @ @ : : & @ # @ # & & & @ @ @ - # - @ ; # # # @ - @ # @ - & - & % : X & % : @ : @ @ @ @ : : @ : @ & @ @ : & @ & @ & @ & @ = & & @ & @ & & @ : & @ & @ & @ @ & @ @ # - : - - : @ - @ - - - # - @ - # - - @ @ - @ : : : : 1 : % : % : % % & & # # / u.p.q.7.q.u.0.u.7.7.7.t.t.7.7.7.7.7.7.7.u.t.t.u.2.t.2.2.2.7.2.2.2.2.2.2.2.2.2.2.t.2.7.2.7.2.2.7.2.2.7.-.t.2.t.-.-.t.Q ) 4 : * : : , : * : : , = : * = * f f &.q.8.9.9.9.q.9.9.9.9.9.q.9.9.8.9.9.q.9.8.9.8.9.9.8.9.q.9.8.8.7.9.9.8.9.9.9.9.9.9.9.9.9.9.9.9.9.9.9.9.9.9.9.9.p.p.i.s.d.i.a.f.s.d.p.s.f.f.a.a.s.a.a.a.a.f.y.s.a.f.y.a.s.a.s.a.f.s.a.a.s.a.s.d.s.a.s.",
"q u y y y f d y y * # O @ = & = @ @ ; E E =XdXdXfXfXfXsXfXfXiX6X6XoXb.n.j.l.j.f.f.g.f.s.f.s.s.f.s.s.i.a.s.i.i.s.s.i.s.d.d.d.d.s.a.s.a.s.a.a.s.s.s.i.s.p.i.s.s.s.s.p.d.i.i.d.p.a.i.p.p.a.p.p.p.i.i.a.i.p.p.i.i.p.p.i.a.p.i.a.i.p.i.a.i.p.p.i.p.p.p.i.a.p.p.u.p.u.i.a.u.a.i.p.p.i.p.u.p.u.u.u.p.u.a.u.p.u.u.a.u.a.i.0.0.9.~ ~ e # # @ @ O @ k k -.s.9.s.3.s.i.y.y.y.3.9.y.9.s.9.s.i.y.9.i.9.i.i.y.i.i.y.i.i.y.i.u.9.9.u.i.u.9.9.u.u.u.u.u.u.u.9.u.u.9.9.u.9.u.u.9.u.9.u.9.9.u.9.u.9.u.u.9.u.u.u.9.3.u.u.u.9.u.u.9.u.u.9.u.9.u.u.9.9.u.u.9.u.i.9.u.u.9.u.u.u.u.u.u.9.9.9.3.9.9.u.9.u.9.y.y.o.<.V V N N z N V x x t * , * & & & & # @ & & & & # @ & & @ & & : & : X @ : @ & : @ & @ @ : @ : & @ & @ O @ # @ @ : @ & & @ : @ ; @ ; & & & @ & # @ # - # - - # # @ # # & @ - @ @ - & % % & : % @ : @ : : @ : @ @ : & @ - @ & @ & @ @ & & & & @ @ & @ & @ & @ & & @ & @ & @ & & & @ @ & : @ : - - - - & @ : @ - ; @ ; - - ; @ ; : X - 1 : 1 : 1 : : 1 : : 1 & % : # * ( p.q.p.0.u.p.q.u.u.7.7.7.u.2.7.7.t.u.7.7.7.7.2.u.2.2.2.t.2.2.2.2.7.t.7.2.t.2.2.2.t.2.t.2.2.2.2.2.2.2.-.7.2.2.-.t.2.-.) ) 6 > > * : = * , = : : : * * * 3 l l t.7.9.8.8.9.9.9.9.q.9.9.9.9.9.8.9.8.9.q.9.8.9.9.q.9.9.9.8.9.9.9.9.8.9.9.9.q.q.8.e.9.9.9.9.9.u.9.9.9.9.9.9.9.9.p.i.s.p.d.d.d.i.d.a.d.d.a.s.s.a.a.a.a.s.s.a.s.a.a.f.y.a.a.a.s.s.s.a.s.s.s.s.s.a.s.s.a.",
"d q u d d y d y 9 # # @ = O & O @ # 4 &.>.uXdXaXsXsXfXfXdXfXiXiXiX-XW.W.l.M.M.f.f.f.f.a.d.f.s.a.a.s.a.s.s.s.a.s.s.s.i.s.i.i.d.i.s.a.y.a.i.i.s.i.i.s.s.i.a.i.i.a.s.i.s.i.d.i.p.i.i.p.i.i.f.i.a.i.p.p.p.i.i.i.p.i.i.p.i.i.i.i.p.i.p.i.p.i.i.p.i.i.i.i.p.i.u.a.p.a.a.i.a.u.a.i.i.p.p.u.p.p.p.0.u.p.u.a.u.a.p.u.p.u.i.i.u.i.>.$.z * ; # @ @ # h l -.9.9.y.s.y.3.y.s.s.9.9.i.s.3.i.y.i.y.i.y.i.y.3.i.3.y.i.9.i.y.9.u.u.u.9.u.u.u.9.u.9.u.9.9.9.u.u.9.u.u.9.u.u.9.u.u.u.u.9.u.u.9.u.u.u.9.9.u.u.9.9.u.u.y.9.y.u.u.9.u.9.u.u.9.u.u.9.u.u.u.9.u.9.u.u.9.9.u.u.9.9.u.9.9.9.9.9.9.9.9.9.u.u.i.y.<.T T V m m z z V N z z i 3 3 & & # @ & @ : @ # @ @ & : @ @ @ & & & @ & : : @ - @ @ & @ : & @ & @ @ & @ @ @ @ @ @ @ X & @ @ & @ @ @ & @ - # @ # - - - - - - - - @ - - - @ ; : : 1 : - % & & % & & : X : X @ : X : : X - - - - : - @ & & @ X : @ - & @ & @ & @ & @ @ : @ : @ & X & @ & : @ 1 : - 1 - - - : : @ - @ @ - @ @ @ - - @ @ : @ & 1 : 1 : 1 : : : : & & & # # * _ p.u.u.0.0.u.u.7.7.7.u.2.7.7.2.7.u.t.u.t.7.2.2.t.2.2.2.7.2.t.7.2.2.2.2.2.2.7.7.t.2.7.2.2.2.2.2.2.2.2.7.-.2.2.2.t.t.*.M k * & * * , = : : , : : 3 , * > * 5 0 ( 7.8.7.9.9.q.9.9.q.9.q.q.9.9.q.9.q.9.9.q.7.q.9.9.q.q.9.q.9.q.9.q.7.q.8.9.9.9.9.9.9.3.e.9.9.3.9.9.9.9.9.u.9.9.i.9.s.f.i.i.d.p.f.d.s.s.d.s.a.a.s.f.a.f.a.a.f.s.a.a.j.s.a.f.a.s.f.s.s.a.f.s.f.i.f.s.s.",
"q f d q d d d 9 r + O # @ O = & O # d c.H.fXfXdXiXfXfXfXsXfXsXfXfXiX[.].b.g.g.f.f.f.f.a.s.f.s.s.a.s.a.s.a.s.s.i.s.s.s.s.i.d.i.s.a.s.y.a.s.y.y.s.s.i.s.s.y.s.s.y.i.s.s.p.i.s.p.i.a.i.a.p.p.p.i.p.p.i.i.p.i.p.i.a.i.p.a.i.p.i.p.i.p.i.a.i.i.i.p.i.p.i.u.p.p.u.u.a.a.i.a.u.i.p.p.i.p.p.u.u.p.u.p.u.u.u.p.p.u.a.u.p.p.u.p.0.8.8.F 4 4 @ @ @ $ 0 7 ..9.9.9.y.y.y.i.y.y.s.i.9.9.3.i.y.i.3.i.i.i.y.y.s.i.y.i.3.i.i.i.9.u.9.u.u.9.u.u.9.u.9.u.u.9.u.u.u.9.u.u.9.u.9.u.9.9.u.u.9.u.i.3.9.u.9.u.u.u.u.9.u.i.3.u.3.u.i.9.u.9.u.u.9.9.9.u.9.u.u.9.u.9.u.u.9.u.u.u.9.u.u.9.u.3.9.9.9.9.9.u.u.9.=.-.{ m V m V V N V z z x V i 6 0 : @ @ & @ : # @ & - # & & & : @ : X & & : @ @ : @ : % : & X X : % % % & & X & @ @ & & & % : % & & & @ & @ : : @ @ : @ ; - - - - - & & @ : @ @ 1 : & 1 1 & % & % & X @ : X : 1 & @ - % - 1 : - 1 : - 1 % : % 1 & % % % : 1 & % % : % & & : X % & & % % : % - - 1 & : % : @ X X : @ : @ - # - @ - @ - : & - % : 1 : : : : : : % : & & & , > +.p.u.p.q.p.0.7.7.7.7.7.7.7.7.7.2.2.u.t.u.2.u.t.u.2.2.2.2.7.2.7.t.2.2.2.t.2.7.2.t.2.2.t.2.2.2.2.t.2.2.2.2.2.2.2.-.1._ 6 4 * * & & , % : : : % : : & * * * 3 3 k } ( $.1.1.8.0.q.9.9.9.9.q.q.9.q.9.9.q.9.9.9.w.9.9.9.9.9.9.q.q.e.9.q.9.9.9.9.9.9.9.9.9.9.9.3.9.3.9.7.7.u.9.i.s.i.y.i.d.d.d.p.d.d.d.d.d.d.f.a.a.f.s.f.a.f.a.f.a.f.a.f.s.f.a.d.s.f.d.s.f.f.s.d.i.i.d.",
"q u q u d f d n y O & O O & = O # O a c.H.dXdXsXfXsXsXfXsXfXfXfXaXiX[.[.l.g.g.g.f.f.f.a.f.s.s.f.a.a.s.a.a.y.s.s.i.s.i.i.d.i.s.p.y.s.s.y.s.s.s.s.i.s.y.s.a.y.a.y.d.i.d.i.d.i.i.f.p.p.d.i.i.a.a.p.p.a.p.i.p.i.i.p.p.i.i.i.i.p.a.i.i.i.i.p.p.p.i.i.i.p.p.p.p.a.p.u.i.a.i.p.p.u.i.p.p.u.u.p.u.p.u.u.a.p.u.p.a.u.p.u.i.i.9.0.6.8.F > > @ @ @ # 7 4 +.9.9.8.y.s.i.y.y.y.3.9.y.9.s.s.i.s.y.i.y.9.i.i.y.i.i.i.y.i.y.u.9.u.u.9.9.u.9.9.u.9.u.u.9.u.u.9.u.u.9.u.9.u.u.u.u.u.9.u.u.9.u.u.u.9.u.u.9.9.u.u.9.u.y.y.9.u.9.u.9.u.u.9.u.u.i.9.u.9.u.u.9.u.9.u.u.u.9.9.u.u.9.u.u.u.9.9.9.9.u.u.9.9.=.-.! V V V m V z m x x V x x 8 8 # # & # & @ : @ & # @ @ & & @ & @ & : X @ : : X : % & % % & & % & & & % & & X @ X % @ % & % & & & @ : @ & @ @ & - @ - - - - - : - @ @ & @ & & : % 1 : & % & : % % & : @ : @ : @ : @ : @ - : - @ 1 1 & & X : : X : & : % & 1 % : % & & % % & & % X : & 1 : % % : : X : 1 - & : @ : @ - @ - @ ; @ ; ; X : @ : 1 : : 1 1 : 1 1 % : : % & * * #.0.7.p.u.u.7.7.7.7.7.7.7.7.2.t.2.t.7.u.t.t.7.u.u.7.7.2.2.t.u.2.2.2.2.7.2.2.2.2.7.2.7.2.u.2.2.2.2.2.2.-.u.2.t.2.t.1. .2 6 * & * & = : = , , , : 3 & > > * 2 2 k } } %.1.1.7.9.9.9.8.q.9.9.9.9.9.9.9.9.q.7.9.q.q.9.9.q.w.9.9.9.q.9.9.9.q.9.q.q.7.7.e.4.3.9.3.9.9.9.7.u.9.u.9.i.i.s.d.i.p.s.d.f.i.f.d.a.s.f.f.a.a.a.s.a.a.f.s.f.s.f.a.a.a.f.f.f.p.d.d.s.d.p.f.a.f.s.",
"u q d y y y d 9 t & O & @ = @ O # # G  X].1XiXiXdXiXdXfXiXfXiXdXiXiXoXXXb.g.j.g.f.f.f.a.f.a.s.a.i.a.s.a.s.s.i.a.a.s.s.a.s.a.i.f.a.s.a.s.s.y.i.a.s.s.i.s.s.s.i.i.i.s.i.a.a.i.a.i.a.p.i.a.i.p.i.p.i.i.p.i.a.p.a.i.p.a.p.p.p.i.p.i.p.p.p.p.i.a.i.a.a.u.a.a.u.a.p.a.a.u.u.a.p.i.a.u.u.a.p.u.p.u.u.a.u.a.p.u.p.u.u.H.0.9.9.0.9.q.E , 0 # # @ @ # ; N $.$.9.i.s.3.y.e.9.i.i.9.i.y.3.i.3.i.i.9.y.i.y.y.y.i.i.i.9.9.u.u.9.y.9.u.y.u.u.u.9.u.u.9.9.u.u.7.u.9.u.u.9.u.9.9.9.3.9.9.u.9.u.9.3.i.9.u.u.9.7.u.9.9.u.u.9.9.u.u.u.9.u.9.9.9.9.y.u.9.9.u.u.9.u.u.9.9.u.u.9.9.9.3.u.u.y.7.y.<.;.;.| Y Y B V m i V x z z z m x V h e t > # @ @ @ ; ; @ @ & : @ & & : # - @ @ - @ X @ 1 : @ : @ : @ : & & : % & : X % & 1 @ X & @ X @ 1 & X @ : X : - & @ : - : @ : - - : @ : - & @ - @ X : @ : @ & : @ & & X : X : @ : @ : @ : - X : X : - - - : - @ : - @ @ & : @ - @ - X X @ : & : @ : @ & @ - @ 1 : : 1 : @ : @ X : @ - @ - @ & @ : & @ & : - @ : 1 : 1 : : : : : % : = & 6 6 #.0.u.p.0.u.0.7.7.7.u.t.7.7.7.7.2.u.2.7.7.u.7.7.t.t.2.2.2.u.t.2.t.t.2.7.2.7.t.2.2.2.2.2.t.2.t.u.2.2.2.2.-.2.t.-.;.&.Z * + * & & & : % % : = : : : & * * > * 2 7 M L C C G F  ...<.q.7.q.e.9.q.q.9.8.9.q.e.q.q.9.e.e.q.9.q.9.q.9.9.9.q.7.9.9.q.9.9.9.q.9.9.9.3.3.3.3.9.i.9.i.i.i.i.s.i.a.s.d.i.p.p.s.d.a.s.s.s.d.f.h.s.s.d.s.s.s.f.f.d.f.d.i.f.d.d.a.s.d.f.d.s.d.d.",
"q d q d y y d 4 > # = O % O & # ; ; / >X,XdXuXuXfXfXfXfXdXfXfXiXaXiXoXXXb.f.g.h.s.f.a.s.s.a.a.a.a.s.a.i.a.s.i.a.i.a.a.i.a.i.a.i.y.a.s.a.a.a.s.y.i.i.a.i.a.y.a.s.i.a.i.i.s.i.p.p.i.p.i.p.p.i.f.i.a.p.p.a.i.p.i.p.p.i.p.i.a.p.p.a.i.a.p.u.p.i.p.i.u.a.p.u.a.u.a.u.u.a.a.a.u.p.i.a.p.p.u.p.u.p.p.u.p.u.u.p.u.u.u.t.p.u.0.9.9.9.Q 0 < # @ @ # O # 4 A S { 2.4.s.i.i.i.i.y.i.9.i.i.y.i.i.y.i.y.i.s.s.i.9.u.9.y.u.9.y.u.3.u.y.9.9.u.9.u.9.u.u.9.u.u.u.9.y.y.9.y.3.9.9.9.9.9.9.u.u.3.y.u.u.9.u.u.u.u.u.u.u.9.u.u.u.9.u.9.u.9.3.9.9.9.9.u.9.u.u.9.u.u.u.u.u.9.3.3.3.3.2.;.-.o.{ { Y Y H K V H B i V V V m V m V V z z x r r : @ ; - @ @ @ - - & & 1 : % % - @ - : @ : & % & % - @ : X : X : % X : % : X & X @ % & 1 X : @ 1 % & 1 X : % @ 1 & 1 @ @ : X % - @ & 1 @ 1 @ & 1 : @ : X : @ % @ & X : @ : @ : X : X : X @ : @ : X : @ 1 : - - 1 : : @ 1 @ : @ : @ : : - @ 1 @ : X : & 1 @ : @ @ - - 1 - - - : @ - % : & 1 & - % @ & @ X & & 1 : 1 : : 1 1 : : : : : & t t >.q.0.0.0.0.0.7.7.7.7.t.7.7.7.7.7.t.u.7.7.2.7.7.t.2.2.u.-.t.2.2.2.2.2.t.2.2.2.2.2.7.t.2.2.2.2.t.u.2.t.2.t.-.2.2.;.@.8 = + & & & & : : = : : = = : : * : * * # > d d N k k k k z C Q T #.4.4.q.e.q.q.e.e.9.s.e.w.9.9.w.w.9.w.p.e.w.9.q.w.w.9.i.0.9.9.7.9.9.9.e.i.9.9.9.9.s.e.9.s.i.d.d.s.d.d.d.d.k.d.s.d.d.h.d.d.d.f.d.h.s.f.f.s.f.d.s.d.s.d.d.d.a.h.h.d.d.d.d.d.p.",
"y y y y d y y 6 4 # & O = = @ # * * ~ >X,XuXiXiXjXiXiXgXiXfXiXsXiXiXoXXXl.f.g.f.f.f.a.a.s.a.a.s.y.a.a.a.a.s.i.s.a.s.a.a.s.a.a.a.s.a.s.y.a.s.i.a.y.s.i.a.i.a.y.a.a.i.i.a.y.i.a.i.i.p.i.p.i.a.p.a.p.a.p.a.i.d.p.i.p.i.p.a.i.a.p.i.p.u.a.p.u.p.p.p.p.a.u.a.u.a.u.a.a.p.u.a.u.a.u.a.u.p.u.p.p.u.p.p.u.a.u.u.u.u.p.t.7.0.u.0.7.0.R 0 0 ; @ @ @ # $ 5 Z F } 2.2.i.y.9.y.i.i.i.i.y.i.i.i.y.i.i.y.y.s.y.y.i.i.u.y.y.y.y.u.y.y.y.u.u.u.u.y.y.y.9.y.u.u.u.u.u.y.a.u.y.u.y.9.9.9.9.y.3.u.u.y.y.y.y.u.u.u.u.u.u.u.u.u.u.u.u.u.u.u.9.u.9.9.9.y.y.u.u.i.u.y.u.y.y.y.y.y.y.y.y.-.-.;.| { Y K K H V H m m m V i z z m z m z z z e a * & @ ; @ @ - @ ; @ 1 & : & % : X & : @ & % : & % : X : @ : @ : X : : % : % % X : % 1 & X % - % 1 @ X : % - : & X : & @ : X : X : @ @ 1 @ : @ : X : X : @ : @ : X & @ - % : @ : @ : @ - @ : : @ X : - 1 - - 1 - @ : X : : X @ : X : @ : % - : X : X : @ - % 1 @ : - 1 - : 1 @ & & & : % % : & % & @ : & @ & & % & : 1 : : : : & : & & t 9 >.u.p.p.0.0.0.t.u.7.6.7.7.3.6.2.7.2.7.t.7.2.7.7.7.2.7.2.7.t.t.2.2.-.7.1.7.7.-.7.t.7.7.7.-.-.7.6.3.7.7.-.6.1.1.1.#.#.9 + = & & & & : = % : : % , : * : * & * * * i d M z k k h z C U ~ ..1.1.q.q.0.9.q.7.0.9.w.q.w.w.0.w.q.e.0.0.0.q.9.9.q.9.0.q.9.7.0.7.7.9.9.9.9.9.9.9.9.9.9.e.s.w.i.d.d.d.d.p.p.d.d.d.d.d.d.h.d.d.d.d.d.d.d.d.d.d.d.d.f.d.d.a.k.d.a.k.a.d.a.p.d.",
"y y y y y d r * * O X O X = @ O 4 4 #.qX7XuXiXiXiXiXiXiXiXiXiXiXiXwX(.(.f.h.d.d.s.s.s.y.s.a.s.a.a.s.s.i.y.a.i.a.a.i.s.y.i.i.y.s.a.y.i.a.i.s.s.i.s.a.i.i.i.s.s.i.i.s.s.i.s.s.i.s.i.f.a.p.i.p.p.p.i.p.i.i.p.i.a.p.p.a.p.p.p.i.p.p.p.p.p.p.p.p.u.p.p.u.a.u.a.i.a.i.u.a.u.a.a.u.a.p.a.u.p.u.u.p.p.u.a.u.u.H.u.t.u.H.u.0.0.0.0.6.) < , O @ # @ @ # # k h B Z S { =.=.3.3.i.3.y.a.i.y.y.i.i.y.y.y.y.y.i.u.i.y.y.y.y.y.y.9.y.y.7.u.u.9.y.y.y.y.u.9.y.u.u.y.y.y.3.u.9.i.9.9.3.9.u.u.3.i.y.y.u.a.u.u.y.u.u.-.u.u.u.;.u.u.1.-.=.=.-.=.;.$.;.:.X.| ..| | |  . .T  .T T Y Y Y Y Y J K K K K H V H V V V m V x V z V N N z z a r * # @ @ @ - @ - @ 1 1 % % 1 1 @ : - @ % : : X : 1 @ : @ : X : % % & % : X & X : : X X & & % X & : % : X : @ @ - : @ 1 @ @ : @ : @ : : @ : @ : @ : @ : @ & X & @ @ & : @ - @ : X : @ : % - @ @ 1 : @ @ : - - - - : @ : @ @ : 1 @ : @ : @ - @ @ : @ : @ : @ - & - - - : - @ - : : % 1 % : % % % 1 & % X & - % % & % : : 1 1 : 1 % & & : a a q.0.0.p.u.t.u.t.0.6.9.6.7.7.7.2.7.2.2.7.7.7.2.7.-.2.t.2.2.2.2.t.2.7.-.7.-.2.7.2.2.2.-.7.7.7.7.-.2.-.-.7.1.-.-.1.~ ^ 2 = + & & & & : % : : = : = : = : = * * * * 3 4 j z z z k h x z z z z z S Q Q ( #.#.#.>.#.1.6.1.q.e.w.d.d.d.d.d.d.w.d.d.d.p.0.p.0.p.0.q.9.7.0.9.e.i.p.d.s.d.i.p.d.d.d.d.d.d.d.d.k.d.d.d.d.d.h.d.d.d.h.d.d.h.d.d.f.d.d.k.h.d.k.d.k.d.k.k.k.k.a.",
"y y y y d d 8 * * O & = X = = # 6 8 1.uXuXiXuXiXiXiXiXiXiXiXiX8X7XoXn.x.s.s.s.s.a.s.s.a.i.s.a.s.a.s.s.i.s.i.y.s.i.a.i.a.a.i.s.i.a.s.i.s.a.i.a.a.a.i.i.s.i.a.i.s.a.y.a.a.i.i.a.i.s.i.i.s.d.p.i.i.p.p.p.p.a.i.a.p.i.p.i.i.p.a.a.i.p.a.a.p.p.p.p.p.u.p.u.a.u.a.i.a.a.u.a.u.u.a.p.a.p.u.p.u.p.u.p.u.H.u.u.u.u.H.H.u.u.0.u.0.0.0.R 0 , # @ @ @ O O $ d y G V Z Z H H Y { T X.:.:.;.4.;.-.4.2.y.;.y.<.2.y.y.-.4.2.y.<.3.2.4.2.y.2.2.2.;.y.y.<.-.-.-.y.<.=.<.;.=.<.-.;.=.=.=.;.:.;.o.o.| :.| | | { { { ! Y ! Y K ! Y Y Y Y Y U J Y Y U K Y Y K Y J Y Y K Y Y H T H T Y Y Y Y Y Y K K K H H K V m m V m m V m z N z N v s r > & @ @ @ - @ # @ % % % 1 % & % % & 1 & : % 1 % % : @ : @ : - % : % : X % @ X : X % 1 % X % 1 % X % - % 1 @ X : X : @ : : @ : @ - % X : @ - X : X : @ : @ & X & : X X : @ : X : X : @ : X : : @ 1 : : @ 1 : - & - : @ @ : X & @ @ : X : @ : : - & X : @ : @ - - - : - : - : X : & & 1 & % 1 : % & & : % % & & % = % % & X % & % - @ # a n &.t.q.u.q.7.q.0.q.6.1.6.1.7.2.7.7.7.7.7.7.7.2.7.7.2.2.2.7.2.-.2.2.1.7.1.6.2.t.2.7.2.t.6.1.7.1.6.1.7.-.1.-.&.-.6.N N = & & : % & & : : % : : : = % : : & & & * * * * 6 h g x z z h z g k j k k g g k z k C N z z N N N A N G S D U Q ) ) } +.+.#.-.*.t.-.&.-.$.-.;.$.&.&.&.&.$.&.&.&.1.&.1.1.1.8.9.7.0.9.0.7.q.q.9.9.9.q.q.0.q.7.7.8.t.6.2.-.&.&.$.*.#.+.} ( ) ) Q ",
"q y y y d y 7 * & O O O O O & O 6 6 5.uXuXuXtXiXiXiXiXiXiXgXiX7X7XoXx.b.s.a.i.s.s.a.i.y.a.s.y.a.a.s.a.i.s.a.a.i.s.i.s.i.y.s.i.a.i.i.a.i.i.s.y.s.s.i.s.a.y.s.s.a.i.s.s.i.a.a.p.s.i.a.i.a.i.a.p.a.i.a.a.i.p.p.i.p.a.p.p.a.p.i.p.p.p.u.p.p.u.p.u.p.u.a.a.p.a.u.p.p.p.a.u.a.a.a.u.u.p.p.u.p.u.p.u.p.t.u.u.u.u.7.t.u.p.0.u.0.0.0.) > 4 @ @ @ O O # + r y S S V V Z S K Y ^ { :.:.;.=.2.2.-.4.;.y.<.y.y.-.2.2.2.2.y.y.2.2.2.2.-.-.2.2.;.y.o.y.2.-.2.-.4.=.;.-.-.=.;.-.;.=.$.=.;.:.:.X.| | | | | { { Y { Y Y ! Y Y Y Y Y Y Y Y Y U Y Y Y Y Y Y J Y Y J Y Y Y Y H T K Y Y Y J J Y B H U H H H V V m m m x z N z N z z z a s > & @ - @ @ - @ @ % 1 & % : X : : % & 1 % 1 % 1 % & : X : @ & : X : % & : % & % X : @ % % % X % 1 @ % @ % & : @ : @ - : X & X : @ - : @ : & : @ : @ : X & & : @ & & : @ : @ : @ : @ : X : @ @ : & @ - 1 - - 1 - - @ 1 & @ : @ : : X : @ & @ X : @ : X : X : % - - X 1 @ - X : @ & & 1 % & 1 % 1 % & X & % & & % % % @ 1 % : % & @ @ # 9 a &.0.q.q.7.q.7.7.7.8.1.9.6.6.7.t.7.7.7.6.7.2.7.2.7.2.7.t.2.2.u.-.t.2.1.6.1.2.2.2.2.2.7.7.-.7.6.6.1.-.7.6.1.-.>.1.N N = + = = & : & % = : = : % : : : % & & * & * * * 6 j k z g x z h x k h k g h h k k k C z N N z N N N A G S F F Q Q ^ } +.+.$.$.t.;.-.&.-.-.-.*.1.$.&.&.&.&.&.&.&.&.&.&.1.>.8.q.q.0.0.9.q.0.q.7.7.q.9.9.q.7.7.6.7.6.t.-.&.-.&.*.*.+.( +.) ) ) ) ",
"y y n d r y , O = O O O = % = O 8 e q.pXuXiXiXiXiXfXiXwXwXwX-X~.!.j.a.i.i.i.s.a.a.s.i.s.i.s.i.s.y.a.i.s.y.s.i.s.s.a.a.i.s.a.i.s.a.y.s.a.s.i.s.s.a.i.a.s.a.i.s.y.a.i.a.i.i.a.i.s.i.i.s.i.a.p.i.a.p.i.p.i.a.i.p.a.p.i.p.i.i.i.p.a.a.u.p.u.p.a.a.u.p.p.p.u.i.i.i.p.p.u.p.u.a.p.a.p.a.u.p.p.p.u.p.p.u.u.t.u.u.u.t.7.0.0.p.0.q.q.R 0 , @ @ @ @ @ @ # 9 8 A G F S S H K K Z H K K H K K K K Y U K Y H K Y Y Y T Y Y Y Y Y Y Y Y Y Y Y Y K T Y Y Y Y Y K K Y Y K Y K K Y K J J K K K Y K Y K Y Y K Y K K Y K Y K Y Y K K Y Y Y Y Y J Y Y K Y Y Y Y Y K Y K Y Y Y Y Y H K Y Y Y Y K V K H H H V x V z m m V x m N z v z d l : @ @ @ @ @ X & X & & % % % % % 1 % % 1 & % 1 & % 1 & 1 & % % : & % & % % & 1 & % & % X X % & % % @ 1 & % - @ : & & @ : @ - : @ @ & - & : @ @ : & - @ : & @ @ : # & @ & @ & @ @ : @ @ & @ & : @ @ : @ : @ - @ : @ & & & & @ 1 & % : & & @ & @ & - @ : : @ : & & % & & % & & % : X : & 1 & % : % 1 % % X 1 % % % % % % = % @ @ & @ & & : > s G G ~ ( ) [ *.| +.$.#.&.&.1.>.1.t.7.t.2.1.7.6.2.6.7.1.3.2.2.2.2.1.1.1.1.6.1.3.1.1.6.1.6.1.6.1.1.7.6.1.-.-.1.&.9 t = : = : : % : : * : : = : : : % : : * = : & : & * , 6 s g x x g z h z k k z z C C C Z Z C C C C C L C N C Z L B L Z L C L L M L Z L B Z L Z B L Z Z L G G L Z C G C C C C B L C C N C N C C C L M L M N z C L L G L G C L Z M L M L Z L C C L ",
"d d a y e t * O O X & = X = & = r r z.pXiX7XiXiXiXuXuX6X[.}.n.a.f.f.i.s.i.a.i.i.i.s.i.a.a.i.a.s.s.i.a.i.s.a.a.i.i.y.s.i.s.i.a.i.i.i.s.i.a.a.i.y.y.s.i.i.i.s.i.a.y.i.s.s.s.i.a.i.a.s.a.i.i.p.p.p.i.f.a.p.p.p.p.i.p.a.p.p.a.p.i.p.p.p.p.a.a.u.p.a.a.u.p.p.d.i.p.i.p.p.p.u.u.a.u.a.a.p.u.p.p.a.u.p.H.u.H.u.t.H.H.u.p.u.0.u.t.t.G w ; @ @ @ @ @ O O * 2 z S F S F S H K K H H Z K H K K K H V Y H K K Y Y K H H Y K K Y Y K K Y K Y Y K Y K V K Y Y Y Y Y K Y K Y Y Y Y Y Y Y Y Y Y Y Y Y Y Y Y Y Y Y Y Y Y Y Y Y Y Y Y Y Y Y J Y Y Y Y Y Y Y Y Y Y Y Y Y Y Y Y Y Y Y Y H H Y Y Y Y H V V V m V m x V x z V N z z c d l > @ @ @ # @ @ & @ & & & : & : & % : 1 @ % : : % & @ & & @ % @ @ & @ & @ & % @ & O & & & & @ @ @ : X @ @ @ # @ @ @ # @ @ @ # # @ @ & @ # @ @ @ @ & @ & @ @ # & @ & & & @ & & : @ # & & # & # @ # : @ & # & @ & # & @ @ @ # & & & @ & & & & @ & @ # @ @ # @ @ & O @ & & & X % & % & % - % % 1 % 1 X % 1 % % % % % % . X X X % X @ & @ @ - # # # # # w w 0 0 0 t r y g j j z C G G Q ) / +.+.#.$.$.$.&.-.t.-.t.>.1.1.6.1.1.6.8.6.1.6.1.6.>.8.1.6.-.1.t.>.>.F * * = & : : = : : : : & : : % : = : = : = : : : = = & & & * e e r s s s g g j z j z C C c C C C C C C Z C C Z Z Z C C G Z Z Z S Z Z L Z L L Z Z G Z Z G G G Z Z G C A Z C Z G Z C G Z G C C G C C Z G Z C Z Z C G G Z Z L M C L L C C G L Z L L Z ",
"f d d r t t = O O O % O O O % O n a k.uXiXuXiX7XtXuX8X8X}.[.n.f.a.p.i.a.s.i.i.a.a.y.a.i.y.s.a.y.s.s.i.s.i.i.s.a.i.a.a.i.a.i.y.a.s.a.i.s.y.s.i.a.i.i.a.y.y.s.i.a.s.s.a.y.i.s.i.i.a.i.a.i.p.i.p.i.p.i.i.p.p.i.i.p.i.a.p.a.i.p.p.p.u.p.p.a.u.a.a.u.a.u.p.p.i.i.i.a.p.p.p.a.a.u.a.u.u.u.p.p.u.p.p.p.t.H.t.p.7.H.t.p.0.0.0.0.t.7.G ; > ; @ # @ O @ # 2 # N F F S S S H H Z H H K Z K Y H H Y Y K Y Y Y K Y K H Y K K Y Y K Y K Y Y Y H K Y K Y Y Y K Y K Y K K Y Y J K Y Y J J Y J Y Y Y Y Y Y K Y Y Y K Y Y Y Y Y Y Y Y Y Y Y Y Y Y Y Y Y Y Y Y Y Y Y Y Y Y Y Y Y Y Y Y Y Y K Y K H H H I V m V m V x z x m z z z c g d : # @ O # @ @ @ @ @ X & : % % : : % % : : X % & % & @ & @ & & & @ % @ & & & % & @ & @ X & @ @ @ @ @ @ @ @ # # # # @ # # @ @ @ @ @ & & # @ # & @ & @ # & # & # @ & & # & & & @ & & @ # & & & & # # # @ # & # # @ # @ & @ & # & & & & * & & & @ # # # & & # @ & & @ & @ & & & X & % & & @ : % 1 % 1 % % X 1 % % X % % % X X @ O X X & & # # & # * * > ; 4 7 0 9 r r d g j z A G F Q / _ O.+.#.$.$.&.>.&.1.t.1.1.1.>.1.6.1.8.1.1.6.1.6.4.6.4.4.1.1.1.-.1.>.P + * & = = : : = : : * : % : : : % : % : : = : : : & & & & * e e e s s g j j j k z z c c A G C C C C C C C L G G L C Z Z C G Z G C Z G Z L Z L L Z G Z G Z Z G G Z C C C Z G G G Z G C C C C C C C C C L Z B C Z C Z L Z L C C L C G L L Z L G C L ",
"f y d r > , O % O X O O & % = = n 0 H.dXiXuXiXiX7XXXXXK.l.l.a.p.p.a.a.a.i.a.i.s.i.s.i.s.i.a.i.i.a.y.a.i.a.s.y.i.i.s.s.s.y.s.i.s.s.y.a.i.a.i.s.i.a.s.a.s.a.i.s.i.i.a.s.i.a.y.s.a.i.i.s.i.p.a.i.f.i.a.p.p.a.i.d.a.i.p.i.i.f.p.i.a.a.p.p.u.a.p.u.a.a.p.p.p.a.p.i.i.u.p.p.u.u.a.p.a.a.p.p.u.p.p.u.p.u.u.u.u.u.u.u.u.u.0.0.0.*.*.l ; # # @ @ @ O O @ # # q F S F H H H H K K K K K H K Y Y K K Y K K Y Y Y Y H Y Y Y K Y Y Y Y Y K Y Y K Y Y Y Y Y Y Y Y Y T Y Y Y Y Y Y Y Y Y J Y Y Y Y Y Y Y Y Y Y Y Y Y Y Y | Y Y Y Y ! Y Y Y Y Y Y Y K Y Y Y Y Y Y Y Y K Y Y K Y Y Y Y Y T K H Y H I V V m V x V m V x V N c c c a a ; @ @ # @ @ @ @ & & @ & @ & @ @ & : : @ & ; : & & & & # O = @ @ O & @ @ O O @ @ O & @ # O & @ @ @ @ @ - : : : : * > > , , 6 8 8 8 r e r a a g g g g g s s s s s a d a a r r a r r r e 9 8 6 8 , , 4 , , 6 , 6 , , 6 , 6 6 , , , , > * > * > > : * * * * * : * * & & @ @ O @ O @ @ @ @ & X % : % X % 1 1 % % % % % % & % % & % % & & @ & & & # & # # # # @ # & & * & * * * * * > > > 4 8 6 r j j C A D F ~ Q ^ / _ _ +.#.#.$.#.#.&.>.>.>.>.>.>.>.>.*.~ ~ 6 * * = : = % : % : : : : : : % % : % : : = : : = = & * & & & & & & , : , 8 0 e s a g j j k z b C C L G G G Z G Z Z G Z C C G Z Z C G Z Z G G Z G G Z G Z G G Z G G A Z A G Z C Z G Z Z G Z C C C Z Z G Z C G G Z L L Z C G Z L C Z L Z L L Z L L G ",
"g a a 8 * & O . . = . = . = O & e t V.pXuX7XXX#XW.l.z.i.s.i.p.i.i.s.s.i.s.i.y.s.i.a.s.s.u.a.i.a.i.a.p.p.i.i.a.i.u.a.a.a.i.a.p.i.i.a.a.a.i.i.a.i.i.a.i.p.i.i.a.y.a.a.s.a.i.a.s.s.a.y.i.a.i.a.i.i.p.p.a.p.p.a.a.p.i.a.i.a.a.p.i.i.p.p.p.a.i.a.i.a.p.a.i.a.p.i.i.p.u.p.i.p.i.p.i.p.p.u.p.u.p.i.i.i.p.p.u.p.p.u.p.u.0.0.0.7.R Q , # # ; @ @ @ @ @ @ # # w k k F Q J Y K J H K H K Y K Y K Y K Y J J K Y K Y Y Y Y Y Y K Y Y Y Y K Y Y Y J Y Y Y Y Y Y Y Y Y K Y ! Y Y Y K ) K K Y ) Y Y Y Y Y Y Y Y Y Y Y Y Y Y Y Y Y Y Y ! Y Y ! Y Y Y Y Y Y Y J Y Y Y Y Y Y Y Y Y Y Y Y Y J J Y Y H H S V M m N z z N z N z z z g e 8 # @ @ @ O @ # @ @ @ # # @ @ @ # $ ; # # # # # @ # # # O O # + O # # * * * * 3 > 6 6 e t s s s j x z v c I E ~ / ' _ %.&.,.1.7.8.w.k.k.c.D.J.I.I.Y.I.Y.I.I.T.T.P.L.P.D.B.V.V.V.z.z.r.e.e.4.,.O.] ` ` ` ] ] ` O.O.,.' O.O._ _ _ _ ] ` ` ` / ` / ~ I P I ~ ~ ` P P A g j d r r e 9 9 6 # : X % % X 1 % 1 % % % % & % % & & & % & & @ & & & & & & * = # # @ & # & & & & & & : : : & * : & : : : = = * * * * * * 3 t t t r i x x z A I I I U P T P I I z t 6 * = * & & & % & % : & & & : : : & : : % % : : : : % : & & : % : : : : = : : , : : , , , 6 t e r g j g z z v A A D G C D C G A A G Z G G G G A A G G G D G S D D D D G D D A A C D G G G S A G Z G C Z Z Z G G G G G G G G G L G L L L L L L M b M k ",
"h 9 9 * O & X = % . = X O % @ & t r r. X|.P.l.z.9.7.9.9.i.i.i.s.i.s.i.s.i.a.s.a.a.y.i.i.p.p.i.a.a.i.p.i.p.a.i.a.p.p.i.i.i.u.p.i.i.i.i.i.i.a.i.a.p.a.a.i.i.a.i.a.s.y.a.y.a.i.y.a.s.a.a.i.s.i.s.a.p.p.u.a.u.p.i.a.a.p.i.p.p.p.a.p.i.a.p.p.i.p.p.u.i.p.i.i.p.i.i.p.p.p.p.p.p.i.p.i.p.p.p.p.p.0.p.d.p.p.p.u.u.0.0.0.0.7.q.*.j j ; # @ @ @ - @ @ - @ $ # ; 9 7 F R J Y Y Y Y Y Y Y K Y Y Y K Y Y Y Y Y Y Y Y Y J Y Y Y Y Y Y Y Y Y Y Y ! Y { Y Y Y Y Y Y | Y ) Y Y Y Y | | K | Y Y Y ! Y Y ! ! Y Y Y Y Y Y Y Y ! ! Y ! R Y Y Y Y Y Y Y ! Y Y { Y Y Y Y Y { J Y J J Y J Y ! Y Y { Y Y H S S V N z z z z z x x h g g r * * O @ O # O O O # @ @ @ @ # # # $ # # # # # : > 0 6 9 d f k D G I ~ ~ _ _ .._ ,.,.8.h.w.V.B.J.T.{.{.OX;X=X2XqX1XpXaXdXaXzXsXzXnXjXjXzXzXgXsXzXvXsXsXjXgXsXzXaXaXvXeXzXcXpXpXlXpXeXeXaXeXeX1X<XcX1X<X<X<X<X1X<X<X<X<X<X<X<X<X<X<X<X<X<X<X2X<X;X-XOX(.T.S.U.U.(.D.B.w.,.$.+.+.+._ _ / E a a & & @ 1 % 1 1 @ % & % & & & & & = & * & & & & & & * & & & & & & & & @ & : @ - & : & & & & & * & = * : * * = = * = * * * * * * & * * + * & = * * * * * * * + & & = & & & & & = & : : : : : 1 1 : % : : : : : % : : : % & 1 & = : % = % : : % = : % : & & : : & & * , , e e r j x b c v C A D G G C C C C G Z Z G G A G S D D v G G D D G C D C D A G G A Z C Z G G G G G C C C C C C G L L k h k k h k h h l h l l f ",
"j r 9 & O X = . O = O X % X & O r r z. X|.U.x.h.9.9.9.i.i.i.i.s.s.i.i.s.s.s.i.i.i.i.a.i.a.p.i.p.i.i.a.i.a.i.a.i.p.a.i.i.i.i.p.i.a.u.i.i.i.i.a.i.a.u.p.a.a.a.i.i.s.a.s.y.i.a.i.a.i.a.y.a.a.i.i.i.p.p.p.i.a.a.i.i.u.p.a.p.p.p.p.p.p.p.p.i.p.p.p.i.i.i.p.p.i.i.p.i.p.p.p.p.i.i.i.i.p.u.p.0.p.0.p.i.p.p.u.p.p.0.d.i.0.7.7.#.k k ; # ; @ - @ - @ @ # # # # 7 9 G Q Q U J Y K Y K J Y K Y K Y Y Y J K Y K Y K Y Y Y Y Y Y Y Y Y Y Y Y Y Y Y ! Y Y ! ! Y ) Y Y ) Y Y ) K K ) | Y Y Y Y ! Y ! Y Y Y Y J Y Y Y Y Y Y U Y ! ! Y Y Y Y Y ! Y Y Y Y J Y Y Y Y J K { Y Y Y Y Y Y Y Y Y Y Y Y U S S N z m z x x x z x h g g r 2 * # O @ O @ O O O O O # @ # # # $ # # # # # ; > 6 6 r d y k A S I ~ ~ /  ._ +.#.,.8.w.w.V.J.D.U.{.{.+X3XOX2X1X1XpXaXaXsXsXsXzXxXnXzXjXjXsXgXsXsXaXgXzXsXgXvXaXaXaXzXeXlXeXpXpXpXeXeXeX9XcXcX1X1X1X<X<X<X<X<X&X<X<X1X1XeX<X<X9X<X<X1X<X1X<X:X;X&X+XY.(.D.U.I.Y.D.D.w.#.#.+.+.+._ _ / E a a @ % % % 1 X % % X & & & % & * & # & & & & & # & & & & & & & & & : & : : @ : : & # : & & & = & : : : = * : = = * = * = * * * * * * = * * * * * * * , * * * & & = & & * & & & : = : % : : % : % : : : % % : % : : % : % & % & % % : : = % : % % % : : & * : : * & * , , e r e l k x c v C D c G C C D C G C D C G G A G D A D D D D v G C D G A G C D G G A A C S G S G G C C C G G C C L C b k k k j j j h j l l l l ",
"r * * # = O = % X % = X O & X = e r ,.k.d.q.8.9.q.9.9.9.9.9.i.9.9.s.i.s.a.y.a.i.a.a.i.s.i.i.a.p.i.p.p.p.i.p.a.i.p.p.i.0.p.i.i.p.i.a.p.p.i.i.a.i.p.a.i.i.i.i.s.a.i.i.s.a.s.a.i.i.a.i.s.s.i.d.i.d.p.p.p.a.p.p.p.a.a.a.p.u.p.p.p.u.p.i.p.i.p.u.p.p.p.i.p.0.p.p.p.p.p.p.u.p.p.p.d.i.0.k.p.0.p.p.d.p.p.u.p.0.p.q.7.6.&.+.( G 0 0 ; @ @ @ @ - $ @ - @ # $ # # ; f J R Y Y U Y Y T U Y Y Y Y Y K Y Y Y Y Y Y T Y ! Y Y Y Y Y Y Y Y Y Y Y Y ! ! Y Y ! Y Y Y Y Y R Y Y Y | Y ) K Y Y | Y Y Q Y Y ! Y ! { Y ! ! ! ! ! ! ) ! ! ! Y ! Y ! Y Y Q Q Y Y Y ! Y J { J K Y U Y Y Y Y Y Y Y ^ Y ^ I Z A z x x x i g i t t 8 > 6 * * # O O O O # O # O # # @ # $ + # 4 f y F ( ( #.1.q.8.z.J.D.(.|.@X>X1XqXqXpXuXaXaXzXzXxXnXxXxXnXxXxXxXxXzXxXzXzXsXxXzXgXsXzXvXaXaXsXgXaXgXaXaXaXaXgXaXaXgXaXaXrXaXrXaXrXpXeXrXrXrXeXeXeXeXeX1XlXeXeXeXeXcX9XcXeXeXzXcXlXeXzXeXeXpX1X1X<X@XOX_.T.I.C.w.u.>.$.$.<.#.#.X.O.+.#.*.@.@.*.%.&.v v X @ @ % % % @ & & & * , * , * > > * 3 > * * * * * * * * & # & # @ @ # & & # # # @ & & % = % = = % = : * : * * * * * * * * * : * * & & * & & & * * : & & & * = * & = & & & & : : : : % % : : : : 1 % : : : : % : % : : & : & : : : % : : % : % , % % & * * = & & & & = * : : : , < 0 n l a l l l s s l a s a s s a g j s s s s s l s j j s j j j j j k j j j j j h l h j j j d l d l a n n n 9 9 9 9 9 7 0 8 4 7 4 8 ",
"* O O X & % = % % = O & % @ @ & a a #.q.8.7.9.9.9.9.9.i.9.9.i.s.i.s.i.i.i.p.p.i.i.i.p.i.i.p.i.p.d.0.p.0.d.p.p.a.i.d.p.p.0.p.p.i.p.p.p.p.d.p.p.a.p.d.p.p.p.a.p.p.i.a.p.i.p.p.p.p.p.i.p.p.d.i.d.p.p.p.p.p.a.p.a.p.p.p.p.p.u.p.p.p.p.p.p.p.u.p.p.p.p.0.p.p.p.0.d.0.p.p.p.q.i.0.i.p.u.p.q.0.6.-.t.-.*.t.*.*.+.| ) R G f d 4 ; w # @ @ @ @ @ X - X X @ O # @ # * k k U U U Q T T T Y Y Y Y Y ! Y Y Y Y Y Y { Y ! ! Y ! ! ! ! | Y Y ! ! Y ! ! ! ! ! ! Y Y ) Y Y Y Y Y Y Y Y Y Y Y Y Y Y U Y T Y U Y ! Y Y ! U ! ! Y ! ! Q U Y Y Y Y Y U Y U Y Y U Y U Y J Y U U J Y U T U U U Y U H U N g d 9 6 8 6 > , & & + & O # O O O O # O O # O O O + # 6 6 z ~ ) 1.J.D.@XqXqXqXaXsXaXsXgXnXsXnXnXjXjXxXsXjXvXgXvXgXnXsXgXzXzXzXzXvXzXzXzXzXgXvXvXgXvXzXvXgXgXvXgXaXgXaXyXaXvXvXaXyXzXgXaXzXgXgXaXaXaXrXiXaXaXrXiXwXwXpXeX0XeXeXpXqXqXuXeX1X1X:X%X%XOX}.}.`.T.T.S.v.z.h.8.8.1.@.#.o.O.O.+.+.@.@.@.+.$.X.+.+.*.@.+.%.+.*.a a X @ X & @ & : r r ~ ,.,.,.,.,.&.#.,.#.#.#.O.' O.' _ _ _ _ ~ ~ W P P D v v z g x s r r e t t 3 * > & = 3 , = = * * = * * * & * & * * * * & * & * * & & & & & & & = & & & & & & & : : : : : 1 : & : : : & : & : : : % : : % 1 1 : & : : : % : : : : : : : & & & & & : = % : = & & & : : : - , : : : > > > : : : , : , , : > < > < , : , < 0 6 < 0 < 0 8 8 6 6 8 7 8 6 6 8 0 8 6 6 < 4 4 ; 4 > ; > # > : * # * # * * & ",
"> & = = % O O % X = & O & @ @ & s a *.7.7.q.q.9.9.9.e.9.i.9.9.9.i.i.s.i.p.a.u.p.p.i.i.a.p.p.p.i.p.d.p.p.p.p.p.a.p.a.0.p.p.p.0.0.p.p.i.p.p.p.i.a.p.a.d.p.p.p.p.p.d.i.p.i.i.p.p.i.i.d.i.i.i.d.e.p.p.i.d.p.p.p.p.p.p.p.p.i.p.p.p.p.0.p.p.i.p.p.r.p.p.p.p.p.d.p.p.p.p.p.p.p.p.i.i.0.0.0.0.7.7.t.1.-.t.*.*.;.@.[ Q Q C l l 8 # ; # # @ O - @ @ X - X @ @ # O # * k z J T T T T T ! Y Y Y Y Y Y ! U ) Y Y Y Y ! ! ! Y Y Y ! ! Y Y ! Y ! Q Y ! ! Y Y ! ) Y R Y Y Y Y Y Y Y ) Y Y Y Y Y U Y U Y U ! J J Y Y U ! Y U U ) R ! Y U Y Y Y Y Y Y Y U U Y U Y Y Y U Y Y Y U U U U Y Y T T F F N d d 9 6 6 , > * * & & * + O O # O O o # O O O O @ O # 7 8 z ) ) 6.J.D.OX>X1XuXaXsXsXxXnXsXnXnXnXnXnXjXnXjXjXzXvXzXsXvXzXsXvXsXxXzXzXzXaXzXzXaXsXaXvXgXzXgXvXsXaXvXvXrXzXaXrXaXgXaXzXrXgXgXaXiXaXiXrXaXpXaXaXpXaXrXpXqXeXrXeXeXqXqXpXqX1XqX1X:X;X%X+X}.`.`.T.^.D.x.v.d.4.8.<.@.@.O.X.+.+.+.O.+.@.+.+.+.+.@.+.@.+.+.*.] a a @ @ & % & @ : r s W %.,.,.#.#.,.,.#.#.#.' ' ' _ ' .._ _ ` ~ ~ P I I D c v x j g s r r 8 , , 3 , > * 3 : = = : = * = & * & & * * & * * & * & * & * * & # * # * & * & & & & & & & & : : % : 1 : 1 : 1 % 1 : 1 : % : : : 1 : : & : 1 : % : : : : % : % : : : & & & & & : : : : & & & > : : : : : : > : : > > , : : , : > > < < < : , < , , , 6 < , , 8 0 8 0 8 8 8 6 t 7 6 8 0 < 6 6 , 4 > > > w > > # * * * # * * * * ",
"= = X = % % % = @ % % & X O & & x z 5.q.q.w.9.0.e.s.s.9.i.9.s.9.i.i.i.i.p.u.i.p.p.p.p.p.p.p.k.p.d.0.a.p.p.p.p.d.a.p.d.p.d.d.a.k.p.k.a.p.d.p.a.d.d.p.p.p.p.p.d.i.i.d.i.s.d.p.i.i.p.p.i.d.0.p.p.9.0.i.0.p.0.9.0.9.u.7.7.7.7.7.t.7.6.t.7.2.2.2.t.t.1.-.$.$.#.+.+.} ) { ) ) ! ! U ! U ! R R G Z Z Z L L L m M h n y 7 8 4 4 > , : # # @ $ @ @ X X X @ @ @ # # # 6 6 j V N A V S V H K B K K S G S F H S S S K K Z S K Z S Z Z Z Z B Z N B L L B M M L Z L B L M L L L M M M L M M f h h h f f h f h f h l f l h h h h h h h h h h h m k M M M M C M M C M C N V N B N N N z z h r r 4 * * # & # @ @ & = O O O @ O @ O O + + + O # O > z z +.k.k.`.:X>XpXnXnXnXnXnXnXvXsXgXvXgXnXgXvXvXjXgXnXsXvXnXvXvXvXvXvXzXvXgXzXzXvXgXzXzXaXaXvXvXaXgXvXgXvXgXvXgXvXvXaXaXgXrXgXaXrXrXaXiXaXiXpXiXiXrXwXwXwXuXqXqXwXeXqX9XqX:X-X%X|.`.`.P.Z.Z.z.h.w.8.4.4.$.$.$.O. .O.....O.O.+.X.+.+.+.@.+.+.+.#.+.+.+.@.+.@.+.+.*.%.~ > * @ X X & & & e e.8.3X1X1XeXqXqXeX1X1X9X<X<X:X<X<X>X:X<X<X;X;X;X%XOXOX}.`.(.T.L.L.B.V.V.z.h.w.e.4.4.,.] O.` P T I z k g r t t 3 > * * * + + + * & & + # * * * & & = & & & & & & & : X : % & & & % & & : & & & : = : : : & : : : : : & : : : : : : % : % : : : 1 & : & : : % & : & : : : : 1 : : : - : : , , : : : % , : : > : : : : : ; : > : : > > : > > > > * * * , > , > > , > > > ; # * > # * # * # * & * & * & * ",
"X & & X = O % % % & X % X & X : x j ] #.#.#.#.$.$.#.$.$.>.<.<.<.-.-.6.7.6.6.7.-.7.2.6.t.t.t.t.t.*.+.+.+.[ +.[ [ [ +.[ | [ [ | [ ) [ [ } [ } [ ( ( ( ) ( ) ( ) ^ ^ ^ ^ ) ^ ^ ^ ^ T ^ Q ) Q Q ^ Q Q ) Q Q Q Q U J R R G Z G G Z Z Z G L Z L L G L C N k h l f f y l q n n 7 7 5 7 5 5 7 7 7 5 7 7 q 0 q q 9 9 9 9 7 0 7 7 8 8 6 : ; O $ $ X @ @ @ X @ X @ @ # # O 2 4 4 7 7 7 9 7 7 q 7 7 7 7 8 7 7 7 7 7 7 7 7 7 7 7 7 7 4 0 4 5 0 4 4 4 0 w 4 4 w w w 5 w 0 5 5 w 0 5 0 w w 0 w w 4 # 4 # * > # * 2 * 2 ; w # w ; w w ; w w w w * 4 2 4 4 4 4 4 7 5 5 4 4 5 6 6 6 t 6 > > * O & @ @ @ X @ O O X % % % % @ O & O # O o + + r E P w.(.].qXnXMXNXnXnXmXvXvXnXjXhXvXvXvXvXnXvXnXvXsXnXvXnXgXvXnXgXgXvXvXvXaXvXgXvXvXgXgXgXvXgXvXvXaXgXvXgXsXvXsXvXgXzXaXvXaXgXaXrXpXrXrXwXrXqXwXqXqXqXqXqXqXqX>X>X&X|.].(.P.Z.Z.z.h.d.9.1.4.#.#.@.O...O.O...O.O.O.O.o.#.X.+.O.+.O.#.+.X.$.+.o.+.+.o.+.+.+.@.+.+.@.#.#.' +.A # @ @ & & & & & v 3X;XxXxXxXzXgXaXaXvXzXzXaXvXzXzXzXzXsXzXaXvXvXzXzXzXsXzXzXzXgXzXzXvXzXvXzXeXeXzXeXeXeX&X<X%X+X+X`.T.T.S.x.x.h.3.3.<. . .T S V x y y 6 2 * * + + # # + # @ @ # @ & # @ : & & & & & & & & & & % & : % : - & : : & & : & : : : % % : : : = : % : & : : % % : : : & 1 % : & : : , : : : : % : : : : : , % : 1 : : : : : , : : : : : : : : : : & & , * , : > : : > : , : > > : : : : : * : : * : * : : * : ",
"O & % O % % % % X % @ % % @ @ , b j +.%.%.#.#.@.#.$.$.$.1.1.=.<.-.1.2.1.1.3.7.7.6.2.t.6.6.6.-.-.*.+.+.| } [ | } [ } +.[ } ..[ +.[ | [ | } } } ( ( ) } ) ) / ^ ) ^ ) ^ ^ ^ ^ ^ ^ Q Q ^ Q Q Q Q Q Q Q Q Q Q U U J F K K Z S S S S Z L G Z Z L B L Z L m h h u f d q q n 7 7 7 5 7 7 5 7 7 7 7 7 9 5 q q q q n n 0 9 7 8 7 8 0 0 : : O X O X O X @ @ & X O & @ & * * 4 4 6 7 7 7 7 7 8 7 7 7 7 8 9 7 7 7 7 7 6 9 7 9 0 8 7 4 6 6 6 , 6 4 4 4 4 , 4 4 4 4 4 4 4 4 4 0 0 5 w 4 4 > 2 > > # 2 : 2 # 4 * > * > > * > * w ; > # 4 4 # 4 > 4 4 4 4 4 4 6 4 6 6 6 6 6 6 6 6 6 6 * > & & & O @ @ O @ X @ @ X = X = X @ # O O O O + + 9 Q P w.(.{.eXxXnXMXnXnXvXvXnXnXvXgXnXvXnXnXvXgXzXvXnXzXvXvXvXxXvXxXvXzXvXgXvXgXgXvXgXgXvXgXvXvXaXgXvXvXaXvXaXvXvXzXgXgXnXsXsXaXrXrXrXrXqXwXwXqXqXqXqXqXqXqX8XqX>X:X&X@X(.(.L.Z.Z.x.d.d.7.1.1.$.@.@.O.O.O...O.O.O.O.X.O.#.o.+.O.+.+.+.+.+.@.+.+.+.+.+.+.@.o.+.+.@.@.*.+.*.' A @ @ @ X & % : : D ;X3XsXzXzXaXgXgXzXzXzXzXgXzXzXzXsXaXvXgXsXsXgXsXzXgXzXsXaXzXzXgXaXzXsXaXaXaXrXeXrXeX9X9X:X%X+X.X`.T.W.D.x.x.h.4.8.$... .T S A h r r 6 4 * * * & + # # # & # # # # # @ & @ & & @ & & & & & & # & & & & : : : : - & # : & & & & & : : & % : % : : & : % : : % : = : : % & : : & : : : , : : = , : : : : % : : > : : : : : : : : : : : : : : , : : : 3 : : , : , > > > > : : : > * : * # : : * : & * : * ",
"% X X % 1 % X % X & X 1 X @ & > a a j g h g l j g h g k k k h N M M N N C M M L M C M M M k k h f d d y u q d d d q y y y u u 9 q y d n d d y d y d d d y y i u r y y y y y r y y y y r y y y d y u d y y y q y 9 9 9 7 9 7 9 q 7 n 9 7 9 9 9 9 9 7 7 9 9 7 7 9 5 0 5 5 5 7 7 5 5 7 7 4 0 7 7 7 n 5 5 q 0 n n q 9 r 9 n a a 9 : > @ O $ X @ @ X X & @ & & X @ O O # # @ & & * * & # & # # # @ # & + & O * # # & # ; # # # * : # # & # # # # # # # # # # @ # # # ; + ; $ # # # # # # # # & # # # # # # # # # # # # ; & # # # # # # # # # # # & # # # # # + # # # & # # @ @ @ @ @ @ X & X O X O % O X % X O O O O # # y +.X.Z.=X=XzXnXMXxXnXvXnXnXnXnXjXvXhXvXnXvXvXsXvXgXnXvXvXgXnXvXjXvXgXvXvXvXgXnXnXzXnXsXaXvXvXaXvXaXgXvXvXaXgXvXgXvXgXgXgXjXgXgXrXwXrXrXwXqXqXqXqXqXqX7X7X:X6X#X`._.P.x.v.d.1.1.1.,.#.@.+.O.O.X.O.#.O.O.#.O.@.@.+.O...X.X.+.O.X.+.O.+.o.+.@.@.+.X.+.+.@.+.X.+.+.+.+.+.+.+.+.#.+.' s = O = & @ & > > / sXdXsXzXzXaXvXaXvXyXgXyXzXsXgXgXsXvXaXgXgXgXjXgXjXgXhXaXvXaXvXgXvXgXgXvXaXlXvXyXvXyXvXyXgXgXvXvXvXgXgXsXyXaXrXwXwX9X6X:X$X_._.(.L.P.V.0.1.1.+.) ~ C d d 8 6 6 4 2 , ; @ # # @ # O O @ @ & & O # O # @ # * # & @ & & & * & & & & & & & : : = : & & & & & & & & : & : = & : & : : = : = : : % : : % % : : : : * : , : : : : : & : : > : : : = > = : : : : : : : : > : : > * * * : & : * : * : & > & & : ",
"X X % X % % X % % X @ X % & % > < < 0 , 4 0 0 4 6 4 4 4 4 4 6 4 4 5 5 4 4 4 5 5 4 5 4 4 4 4 4 4 4 w w 4 4 4 4 4 4 4 4 4 4 4 4 2 4 4 4 7 7 6 7 8 7 7 7 7 9 9 9 9 7 9 7 9 7 9 t 8 7 7 t 7 9 9 9 9 9 r r 9 9 9 9 9 9 9 q 9 9 9 9 9 q 0 9 9 9 9 9 9 9 q q 9 9 9 9 9 n q 9 9 9 9 9 q 7 9 9 9 7 9 9 9 n n n n n d n q a a a a a a p , , @ $ X . @ X @ X @ % & % % @ & # @ @ & & @ @ & & @ @ @ & @ : @ & & @ & @ & @ : ; : & : & : : & & : & ; ; & : ; ; ; : & ; # & : ; # ; ; : : @ : : # ; ; : # # : ; : : # # : # : ; & ; # & ; # ; : : @ : : : # - & # @ & # & @ & - @ @ @ @ % % @ @ % % @ = X = X % X X % X @ # * U U D.>X7XgXnXnXnXmXvXxXvXnXvXvXbXnXnXhXnXgXnXgXvXgXnXnXvXvXnXgXnXgXvXvXnXxXvXvXvXnXzXvXvXaXvXgXgXvXgXvXvXvXgXvXvXsXvXaXgXnXnXsX6X&X:X:X6X:X6X6X6X$X:X@X`.^.J.b.x.s.1.9.$.@.@.X...O. .O.O...+.@.@.@.+.+.#.O.@.@.#.O.+.@.+.+.+.X.+.O.+.X.o.+.@.O.+.+.+.+.+.+.@.#.@.X.+.@.@.+.+.@.#./ / 9 O @ @ @ & & > > ,.cXzXzXzXrXlXrXgXgXrXvXrXvXgXgXgXvXgXgXgXjXgXgXgXgXgXgXgXvXyXyXrXvXlXvXvXlXlXlXvXlXvXvXlXlXvXlXvXgXvXvXvXgXvXgXbXhXhXhXhXhXvXgXgXaXgXiXiX8XqX>X-X;X|.Y.^.L.B.V.c.z.z.w.8.8.>. ._ ~ S S z y r t * 3 & O + = O = # # & = & * & & & & & & & : : : & * & & : @ & & : * & & : : : & * : * : : % : : : & & & : % : : : : : : : ; & : : : : : : : : : : : = % : : : , : : : > : : : * * : * : : & * : > & & : ",
"% % X & X % X 1 @ 1 @ % % & % < < 6 0 , , 4 4 , 4 4 6 4 4 4 2 5 5 4 5 4 4 5 5 4 4 5 4 5 4 4 4 4 4 4 4 4 w 4 4 4 4 4 4 4 4 2 4 4 4 5 4 4 8 7 4 7 0 7 9 9 7 9 9 9 7 9 9 8 9 7 7 7 t 7 8 t 7 7 9 9 q 9 9 9 9 9 9 9 q 9 9 9 9 9 9 q 9 n 7 n 9 7 q 9 n 9 9 q q 9 9 9 9 7 7 9 7 7 9 7 9 7 9 9 9 9 7 9 q 5 q n n n y n r a r r a a a > > O O @ @ X @ X & @ X X X = @ @ # @ @ @ O & @ & # @ : @ @ & @ : @ # & @ & @ # & : # ; & ; & : & : & - : : - # : @ ; : @ : ; ; & - ; ; ; # : : & : : : # & ; : & : # & ; & ; : & ; ; & : : & ; - # : : & # : : # : @ & @ & @ & @ @ # @ @ @ @ % % % % @ % X % X % O % @ % @ O @ > T ~ D.7X7XjXSXnXMXMXvXvXnXvXvXMXnXvXnXgXnXvXvXzXvXvXvXzXjXvXzXnXvXgXnXnXvXvXgXnXnXgXvXgXvXvXgXvXvXgXzXgXsXgXvXgXgXvXgXvXgXvXnXiX:X:X6X6X>X6X6X>X:X:X&X@X).`.S.M.c.i.8.1.&.+.@.O.....O.O.X.O.X.+.@.@.+.#.X.#.O.+.O.@.O.+.o.@.+.+.o.+.o.#.+.o.+.+.X.+.@.@.@.X.+.@.+.+.+.+.o.+.*.+.#._ / 8 @ @ @ : X & > , &.cXzXzXlXlXvXlXlXyXvXvXvXgXaXvXaXvXgXvXhXgXjXgXhXgXgXgXgXgXvXgXvXrXvXgXgXlXvXvXlXvXlXrXaXlXlXyXvXvXgXvXvXbXgXvXgXbXgXhXhXvXgXhXgXgXsXaXuXqXqX>X-X-X}.(.(.D.c.Z.c.z.z.w.8.6.>._  .~ I S z y i 8 3 > + + O = # O # & # & * & * & & & & & & = : * & & * & & & @ & : & & & * * : : : * : : , , : = & & & & % , : & * : : : : : : : : & : : : : : : : : , : : : : : , > * : > & * : : * : * * * : * & & > * ",
"X X X X X X 1 X X X X X X : : > < 0 < < < , 0 6 4 4 4 4 4 4 4 4 4 4 4 4 4 4 4 0 0 4 4 4 4 4 4 4 4 4 4 4 4 2 4 4 4 4 4 4 2 4 2 4 4 4 4 4 4 6 8 7 9 9 9 9 9 9 8 9 9 8 9 9 8 9 9 9 9 9 9 9 t 9 9 9 9 9 n 9 a 9 9 9 9 9 9 9 9 9 r 9 9 9 9 q 9 9 9 q 9 q q 9 9 y 9 9 r 9 r 9 n 9 9 q r r r r r r a 9 y 9 9 y y a n a s r s s r s e , > X X O X @ X @ @ @ 1 & % : X @ X @ @ - & @ & X @ - @ @ @ - - - @ : 1 - - & - - : : @ : & 1 & 1 : % : - - - : - : : @ : : % - : : - : @ : : & : @ : : : % : : - : @ : : & 1 & - & : : X @ : @ : - @ : - & - & & & @ & @ & & @ & @ : & & @ & % @ O % % X % X = X % @ X % X , 0 ,.#X@XsXnXnXnXvXnXvXnXnXbXvXvXmXvXvXnXvXnXgXnXvXvXvXvXnXvXvXvXvXgXvXgXnXgXvXjXnXgXgXnXgXvXvXvXgXvXgXvXgXvXsXvXgXsXjXvXnXgXvXgXsXS.S.P.$X%X#X|.^.^.D.h.h.9.1.1.=.$.;.@.X.X.+.@.+.@.+.+.@.#.@.#.+.@.#.$.@.@.@.@.@.+.@.@.#.@.#.@.#.+.@.+.#.@.@.@.O.+.+.@.+.+.@.+.+.@.@.@.+.@.@.#.#.+.*.Q R > O @ @ @ & @ , , e.zXzXzXlXaXrXvXlXyXgXyXyXlXyXgXvXyXbXyXgXvXhXgXyXvXgXgXvXyXyXvXvXrXvXvXyXvXyXyXvXvXvXyXvXvXlXgXlXgXvXvXgXvXlXgXhXgXhXgXgXgXhXgXgXvXgXjXhXgXjXgXnXhXgXjXjXsXaXaXpXiXrXqXeXqXqX>X:X&X%X#X.X`.`.P.g.x.4.O.O.T v v i t t * O + O = = = = = & & * = * & & O # @ = O & & & & = : * = : : & & = : & & & & & & % : : : , : : , : % : : : : : : : : : : & & : & : & : : : : * : : * : : * : : : : : & > & & & & ",
"1 X X X X X X X X X X X X : 1 : < < < , < , 6 < 6 , 6 > 4 4 6 4 , 4 , 4 4 4 4 4 4 4 4 4 4 4 > 4 4 4 > 4 4 4 > 4 4 4 4 2 4 * > 2 > 2 2 * 4 4 8 8 8 9 9 r 9 9 r 9 t r t 9 r 9 9 t t 9 t t r 9 9 a a 9 r r 9 9 r a n a 9 a r r 9 r 9 9 9 9 9 9 9 9 9 9 9 9 9 9 y 9 r y r r 9 d r a r r r r a r r r n a a a n a a r e a e e e r e : & O X X X @ @ X 1 @ @ % X X : : : : X X @ @ - - 1 @ - 1 1 @ @ X @ : - - - 1 1 : - & 1 - X : % & 1 @ @ : - - : : : % 1 % : % : 1 : % 1 : : X : X & 1 : 1 : 1 1 : - : : 1 : % % : X % : : : % : % - & @ : @ : X @ @ & @ & X & : X @ @ X : : @ & X % & = % % O X % X % @ X < ,.>.2XxXxXnXvXnXvXmXvXvXvXvXnXvXvXvXnXvXvXnXvXnXvXgXnXgXvXsXvXvXxXvXnXvXjXgXnXgXvXhXnXvXhXnXhXgXgXvXgXvXgXvXaXgXgXvXvXgXjXgXjXgX|.}.i.b.b.Z.h.h.9.1.1.$.@.@.o.X.@.@.@.@.o.@.o.@.@.@.+.+.$.#.@.#.@.$.@.$.+.@.@.@.@.+.+.@.#.@.#.@.@.@.#.@.#.@.@.@.#.@.+.@.@.@.X.X.@.@.+.+.@.@.@.@.+.*.*.+.c C # @ O @ @ & # 6 6 z.zXzXzXlXgXvXyXyXvXlXrXlXgXvXyXyXhXyXgXhXgXvXgXhXgXhXgXgXgXbXgXgXvXvXgXvXgXvXvXyXyXvXvXvXyXgXvXvXgXgXgXhXyXhXgXgXhXgXbXgXhXgXhXgXhXgXhXgXhXhXvXvXgXvXgXvXgXvXgXgXgXvXgXaXgXaXgXaXlXgXvXzXzXzXaXeXeX1X<X9X;X@X%X`.T.S.V.e.e.,./ ~ V g i t * * = + = = . O O + = = = = & * = = * = = = & = * * & & & & + * = % 3 % % % % : : : : & : : : : 1 1 : : : * : * : : * : * : * : * : * : * & * : * & & * & * & ",
"X X % X X 1 X X X X 1 X X : : , < < < < , < 4 0 , , , 4 4 4 4 , > 4 4 4 4 4 4 4 4 4 4 4 4 4 > , > 4 4 4 4 4 4 4 4 4 4 4 4 * 2 4 2 2 2 4 4 4 6 9 9 8 9 9 9 9 r r 9 9 8 t 9 t t 9 e 9 9 8 r 9 9 r a 9 r 9 a 9 r 9 a 9 a 9 r r r r 9 9 9 9 9 9 9 9 9 9 n y r 9 q r r r r r r r r r r r r r e r r r r a a r a r a a e a e s s e e & > X @ . X @ X @ - @ X - : % % X % @ : @ X - X : 1 - - : @ 1 : @ X - - 1 @ : - : : @ : @ - & : & % : - - - : : - : : & & X : 1 : 1 1 : 1 % & % : 1 & 1 & 1 1 : % : 1 1 : 1 : & % : 1 & % % : X : X : @ : : @ @ : & @ : X & @ @ @ & - @ @ X @ % % X % & X % & X % X X X @ > 5.5.3XxXxXnXnXnXvXvXvXvXmXvXvXvXMXvXvXvXvXvXnXnXvXvXxXnXvXgXnXvXnXvXxXvXvXgXhXnXgXhXgXjXvXgXjXgXvXgXvXvXsXvXaXvXgXvXgXnXsXgXgXvX_.}.i.C.V.Z.h.f.7.1.=.$.$.@.@.o.o.o.@.o.@.o.@.@.@.@.$.$.$.+.@.@.+.@.$.@.$.@.@.*.@.#.*.@.+.#.+.@.@.*.#.#.@.@.@.@.+.@.+.X.+.+.X.@.+.@.:.@.@.@.#.+.+.*.@.+.C b # @ @ @ # @ # 6 6 z.cXzXlXzXyXlXyXvXyXvXvXgXvXyXgXyXyXyXhXgXhXgXgXgXhXgXhXvXgXyXvXvXgXgXvXgXvXvXgXvXvXyXvXgXvXvXyXvXyXgXgXgXvXyXyXhXvXgXyXvXgXhXgXhXjXhXvXhXjXhXgXgXvXvXjXgXgXvXvXgXgXvXsXgXzXgXvXaXvXvXgXvXrXaXeXeXeXeX<X<X;X%X+X+XT.T.V.e.e.#.` W I g g 3 * * = + = + = O = = = @ & = = = = = = * = * & = & & & & & = & = : : % 3 % % % : % : : : : : 1 : : : & & , > & * : * : * : : & * : & : * : : : * : & & & * & * ",
"X X X X X X X X X X X X X X % : , , < < < < < < 4 , 4 > , 4 > , , , , , > , > > > 4 > > > , > , * > > 4 > > > 4 4 > > > > 4 > > ; > > > > > 4 8 8 a p 9 p 9 n 8 9 p r e e 9 e e r e r e 8 n 9 p 8 a n 9 p a 9 n a a n a p r r r n 9 9 n r 9 r r 9 y n 9 r a a r 9 r r r a r a r r a a a p a a n a a a r p a a a a a s e a s e & & X X X @ X @ X X : @ % & X - % @ 1 X @ - @ @ 1 - @ 1 X - @ X : @ - & - - - - - & - @ : X % : % & 1 : - - - - : % X : % & % : : : - % : & 1 : % & 1 : 1 - & 1 : 1 : : X : X : : % & : X : % : % & & 1 % & 1 % & % : % & & % & % & % & % % & @ @ & O X & O X X O @ O , 6 5.2X>XxXnXMXnXnXnXnXvXmXvXMXvXvXvXmXvXvXnXnXvXhXvXnXgXvXzXvXvXxXvXgXvXvXnXgXnXnXgXnXnXgXnXgXnXgXnXgXjXgXgXvXgXvXgXvXgXsXgXgXnXnX%Xs.s.s.1.3.=.$.@.@.+.o.@.o.o.@.@.@.@.@.@.@.@.@.@.@.@.@.@.+.@.@.#.*.+.@.$.+.@.$.@.#.@.#.#.#.@.@.@.+.+.#.@.@.@.@.+.@.o.@.@.@.@.@.@.@.@.*.:.+.*.+.*.#.#.*./ n a # @ @ @ @ @ @ 8 e D.xXnXzXyXvXvXvXlXgXlXgXvXyXvXyXbXhXbXgXbXgXhXbXbXgXhXhXlXhXvXgXgXgXvXgXvXvXrXvXvXyXvXgXvXyXvXvXvXyXvXvXvXyXbXvXvXyXbXgXgXhXgXvXgXgXgXgXgXgXgXgXgXgXgXhXgXvXaXgXvXaXgXgXvXyXvXyXvXgXyXgXgXzXzXaXvXvXzXzXzXvXeXlXeXzXeXrXeXrX9X<X<X<X%X@X+XS.S.V.3.e.,.T ~ P z z t 6 6 * * = = = = = = = & = = + + * * & , = % , : % , , : % % & & % : : 1 : & & & & & & & & * * : # & & # ; & & ; # * # # * * * * & = * ",
"X X X X X X X X X X X X X X X X X - : , , < , , , > , , , , , > , , , , % , : , , , : , > < : , > > : , : , < > : , < > < > > > < > > > : > > , , 8 8 < 6 < < < 0 8 , < 8 < < 6 e , e 6 e e e e e a e e r a p e a p r e p r r r r e r r r e r e r r p r r a r r r r r a r a a s e a s e s s e s a a a a p e p a a e s e a a , % @ X X O X O % @ @ & @ % X @ 1 & & X @ : @ X - - 1 1 - X - X @ X 1 : - - - : - - @ : @ : @ 1 X : % : - : - - : : : & % & % : : 1 : 1 : 1 % & % & & 1 1 : : 1 : 1 : 1 : 1 : 1 & : X : : % : & % : : % & & % - : % & & % & % & % & % & % & % X @ % % @ @ & O X @ O @ 8 q.q.2XZXCXxXnXCXjXnXjXmXnXnXbXnXnXvXvXmXvXvXvXvXvXnXvXgXvXvXvXvXnXgXhXvXjXxXvXgXgXnXhXgXnXgXgXnXgXjXgXjXjXhXjXnXgXgXvXgXvXvXnXwX}.`.9.<.<.=.o.o.X...+.@.@.o.@.@.@.@.@.o.@.@.#.@.@.@.@.@.@.@.@.@.@.+.@.@.@.@.@.$.@.@.@.*.@.*.+.@.@.#.@.+.@.@.@.+.@.@.@.@.@.@...@.@.*.@.:.@.@...:.*.:.$.+.@.@.R 0 4 $ @ @ @ @ @ @ 9 8 U.nXzXvXbXgXvXvXvXvXgXvXvXgXgXgXvXgXgXhXgXgXbXgXgXvXhXvXhXhXhXgXgXgXvXgXgXvXgXgXvXgXvXgXgXvXgXvXgXvXzXgXzXvXvXvXvXvXvXvXzXvXvXgXaXvXgXvXgXvXgXvXgXvXgXgXvXvXlXyXlXyXlXgXyXlXgXvXgXgXgXgXgXlXyXvXyXvXyXvXvXlXrXlXaXvXlXzXgXvXrXzXvXrXzXaXeXlXlX0XrXeXeXqXlX<X:X:X%X`.+X(.B.V.V.4.#.,.` I I k y r 3 * * + = = & & : = , , % % % = , % = : & & & & & & # ; # ; # : & ; # # * # # & # O O & & * t t v _ ` w.",
"X X X X X 1 X X X X X 1 X X 1 1 : % : , < < < < , , > , > , > , , , : , 3 , , , : 3 : , > < > > : > > , , : , > , , , : > : < > : : > > > > > , , < < 8 < < < < < < 8 < < < 6 < , e , e e e r p e a p r r p a e a a a a a e r e r r e r e r e e e r r r e e r r r r r e r r a e e a e s e p s e a r a a e s a a p e a a a e < % O X X X X @ @ X @ X & X : % % X 1 @ - X @ : X - @ - - - @ 1 - @ @ - - 1 : X : X : X : X & & : % : % - : X : : - 1 & & 1 : X 1 : : : 1 : : % & & 1 & : 1 1 : % : % : X : % 1 & % : % % : X : : % % : & 1 : % % & & % : X & & & % % % % % = & % & X & X @ X @ @ O @ e q.q.1XCXZXxXnXCXnXnXnXnXvXnXnXvXnXvXbXvXvXvXvXnXnXvXvXnXnXgXnXgXzXnXnXjXvXvXvXnXnXgXgXnXhXnXhXnXnXhXjXgXgXjXgXgXsXvXgXgXgXnXnXiX`.`.u.=.<.,.X.o.X.X.X.+.@.@.o.@.o.@.@.@.o.@.o.o.@.o.@.@.#.$.@.@.@.*.*.*.@.@.@.@.@.*.@.@.*.@.#.@.@.@.*.+.@.@.$.+.@.+.X.+.X.+.;.*.@.@.+.@.@.+.@.:.:.*.+.#.#.*.Q 4 5 # @ @ @ @ @ # 8 9 T.xXvXgXvXvXyXyXyXyXvXgXgXvXhXhXgXgXhXgXhXhXbXhXhXhXhXgXgXgXgXgXvXhXgXvXgXgXvXgXgXvXgXvXvXgXvXgXvXvXlXvXlXvXvXvXvXvXvXvXvXgXgXvXvXgXvXgXgXgXvXgXvXgXvXhXgXyXgXvXyXvXyXyXlXyXyXgXgXgXgXgXgXgXvXgXvXyXyXgXyXvXgXyXlXrXrXvXlXaXzXaXaXzXaXlXeXeXeXrXeXrXrXeX<X<X&X<X%X+X+XT.D.z.z.9.#.#.^ I P z 9 r 2 + * & = = & & % : : % 3 % % : % % % : & & & & & & : # : # ; # # # * # # & # # # # # & + * 9 r v _ _ w.",
"X X X X X X X X X X X X X X X $ X X % : : < > < > > , > , , > > , : > > , , % : , : , , < > , < , > < : , , : < : > > < > : : : : > > : : : : : : : : : : : : , : : : : : : : , : : : : : > > , 8 < p 8 p a p a a s p e a a a a p a a p a a p a a p a a a a a p e a a a a p a a s a p e s e e s e p r 9 e e 8 8 e e e p p e * X X . O X O X % X % % & % % @ : X % @ X @ X X : @ 1 - 1 @ @ @ X & X 1 : : 1 : : @ @ : @ & - % @ : @ % : X : % - : X : X & & X : X X & : X % & & X & % : @ @ & X : - % : @ @ : 1 @ @ : & X - & X : : X & & % : & X % & % X % % X % & % X = X & % X & % % X @ X @ p 8 q.dXdXCXCXMXnXCXjXCXkXmXjXmXnXmXkXnXbXnXvXvXnXgXnXnXhXnXjXnXjXnXjXnXjXjXnXjXnXjXvXnXhXvXhXvXjXhXgXjXhXjXhXjXgXjXjXgXnXnXmX0X).`.u.;.-.;.@.;.:.X.o.o.X.o.+.@.o.@.@.@.@.@.@.@.@.o.@.@.@.X.@.#.o.@.*.@.$.@.$.@.*.@.@.@.$.@.@.@.@.@.@.@.+.@.X.@.X.+.@.+.X.X.@.@.@.:.| | *.@...@.@.*.:.:.:.+.@.+.*.C ; ; # @ @ @ # # @ r r (.zXnXzXgXvXgXvXvXvXgXvXvXvXgXvXbXgXhXhXjXhXgXhXhXhXjXhXvXhXhXhXhXhXvXhXhXhXvXhXvXnXnXnXnXvXvXvXvXiXwXqX6X:X6X&X&X%X9XqXqXsXsXgXsXvXvXsXvXgXgXvXhXgXgXgXgXyXyXgXvXyXgXgXvXyXvXyXgXhXhXgXgXgXhXgXgXgXgXvXvXyXgXgXgXgXyXgXvXyXyXyXgXrXlXyXlXlXyXlXlXlXlXrXlXlXyXlXlXlXaXlXlXcXeXrXlXlXaXaXrXqX%X%X+X`.`.U.r.V.>.W W e : , % % = = % : = : & & & & & & # * # # # # # O # # O * * 6 z z +.h.z.`.;X;X9XeXrXaX",
"X X X X X X X X X X X X X X X X X X X @ - : > : , : , : : > : , , : > > : , , , : , , : : > : > > , : , : , < > < > : < : < , : : : : : : : : X & : - & @ & @ X & @ % & @ @ 1 X & & & : & & & : & : : : > : > , , , < < < < p p e e e p a p a a a a p a a p p a a a a e e e e r e e e e < e < , , , > , , , , > * : , : > > & O O X O X X % O % & X X & @ 1 % & 1 @ : : - @ - 1 - @ 1 - 1 & @ @ @ : 1 - : 1 : 1 : X : @ % : : % 1 & % : % : : X : @ : @ @ : @ : : @ @ & : X % & % & X : @ - : @ @ - @ : : @ & - : X % : % % : % % : % % : X % : : : X : O % & & & % % & X % & X % O @ X @ X 0 r.r.CXCXZXCXCXnXCXkXCXjXCXkXnXkXnXhXnXvXjXhXhXnXvXnXvXvXnXvXnXvXnXjXnXjXnXnXjXnXjXnXjXhXnXgXnXgXjXnXjXjXjXjXnXnXkXnXhXjX6XZ.D.;...X.o.@.;.;.:.@.@.+.@.X.@.@.X.@.@.@.$.#.@.@.@.@.@.@.@.@.o.$.+.o.@.+.$.@.@.@.@.@.@.@.*.@.@.@.$.*.:.@.+.@.+.@.@.+.@.@.@.@.@.@.@.@.@.*.:.;.:.@.@.@.@.:.@.:.*.+.+._ ( d # # @ O # @ O @ # d r {.nXvXvXbXvXbXvXvXvXvXvXvXgXhXhXhXhXhXjXjXjXjXhXjXjXjXnXjXnXjXnXnXmXvXnXmXnXgXgXrXqX0X$X}.}.S.h.h.9.4.1.$.@.o.#.@.@.$.8.8.g.P.P.@X<X<XaXsXxXjXzXvXzXjXgXvXgXgXvXgXgXgXgXgXgXgXgXgXgXgXgXgXgXgXgXgXyXgXyXyXgXlXlXyXyXlXgXyXgXgXlXlXrXgXgXyXgXlXyXlXrXaXlXrXcXzXeXaXlXlXrXlXrXvXaXaXaXaXgXaXvXsXzXaXzXcXxXxXcXdX3X3X] 3 : % : : : : = % = = & & & & # ; # # O # # * 6 N N @.B.B.@XeXeXpXpXeXpXeXaXzXaXaXpX",
"X X X X 1 X X X X X X X X X X X X X X - @ - : > > > > > : * , , , : , , , : , , , , > > > > > > : < : < > < , > > < : < > , : , : - > - - @ - : @ @ : @ - X : : @ X X & X : @ : - % : @ & % & & : & : : : , : , , < , < < < 8 < p p r p p p a p p a p a a p a a p a p r e e e p e e e e p e < , , , > > , > > * , * > > > > & X X X X X O % = X X & & 1 1 1 & % @ @ X X @ & X @ @ 1 - 1 @ @ & X @ - 1 & X : 1 & @ & @ & @ & % & % & & & - & % : @ & @ & & @ & # @ 1 @ : & & % % & & @ & @ & @ : : @ @ @ : @ @ @ @ & & % : & % : & & % & & % & % % : % & X % & % X & % % X @ X & % % & X 1 X p r.v.dXSXSXCXCXCXjXCXkXCXmXmXnXjXmXnXnXmXvXjXnXhXnXjXvXnXvXhXnXvXbXnXjXjXjXjXnXjXnXjXnXnXvXnXhXgXjXjXjXjXjXjXnXbXbXjXhXgX6XZ.A.;...| @.@.@.;.X.@.@.X.o.@.X.X.X.$.X.@.@.@.@.@.@.@.o.@.@.@.o.@.#.@.@.@.$.@.$.@.@.*.@.$.@.@.@.@.*.;.+.@.+.@.@.+.@.*.@.@.+.+.*.+.@.;.:.*.:.:.+.:.*.| *.:.*.*.*.@.*.( +.d # # @ @ # @ # @ # r a {.vXnXvXvXvXvXyXvXvXvXvXvXvXgXbXhXjXhXhXnXhXjXjXhXnXnXgXvXvXnXvXvXbXnXmXmXmXaXsXrX0XqX$X_._.S.h.h.9.1.1.$.+.$.$.@.#.<.3.3.l.P.L.@XeX<XeXzXsXvXzXvXzXgXvXgXgXgXgXgXgXgXgXgXgXgXgXgXhXgXgXgXhXgXhXgXgXgXyXvXlXaXgXyXyXyXgXhXyXyXvXyXyXyXlXlXlXgXrXlXgXrXrXlXrXlXrXlXaXlXrXrXzXrXvXgXrXvXaXaXsXgXgXzXsXzXxXxXcX1X,X3X] * , & & & & = = : = & & & & ; # * & # # # # # 7 C C #.B.Z.OXeXeXpXpXpXaXaXaXaXaXrXrX",
"1 X X X X 1 X X X X X X X X X X 1 X X @ @ X - - & & @ # & & & & & & & : : : : : : % : : : : : : < : < : : : : : : : : 1 : : : : - - - - - X @ @ X : : X @ X X @ @ : - @ X @ : X @ - @ : & & @ & : @ & & 1 & 1 & % % & & & : : : & : * , < > , , , 0 0 0 < < 8 0 < , < < , , > > , & & & % = : : & & & & & & & & & & @ & % % O . . . X = X X X % & % X @ & X % @ % @ & @ X X & & @ @ X : & X X & X % & % : @ : @ & & & @ & & @ & @ # & & @ & @ @ & @ & @ @ & @ & & # # @ # & # & @ & @ # # # # @ @ # # # # @ # # # # @ & @ @ & @ & # @ @ @ & @ & & X @ @ @ @ X @ O X @ O @ O @ X O @ @ O 0 < q.sXdXSXCXSXCXkXkXSXkXCXSXkXkXnXkXnXhXjXhXvXnXhXnXhXkXmXkXnXjXjXkXkXkXkXkXkXjXkXkXkXkXhXjXnXjXnXjXnXhXvXhXiXfX8XXX.XJ.1.4.Y T Y | ;.@.@.@.;.;.@.X.;.@.@.@.@.@.@.@.@.@.o.@.@.@.@.@.$.@.o.@.@.o.o.o.@.@.@.$.+.*.:.;.:.@.@.:.@.:.@.:.:.X.@.| *.@.@.@.*.;.$.;.;.-.-.2.2.7.u.a.k.l.l.k.v.f.f.a.l.l.u.#.#.9 O # @ @ @ @ @ # O d d |.nXnXvXgXbXvXBXvXvXbXbXvXnXhXhXvXnXnXjXnXjXgXvXgXiXrXrXqX<X<X*X}._.!.Z.S.h.3.3.4.$.$.o.....X.O.O. .O.O.o.O.X...X.........O.o.+.#.<.1.s.D._.}.-XeXeXpXfXgXgXgXgXgXhXhXgXgXgXgXgXgXgXhXgXhXgXyXgXyXgXgXyXyXyXyXlXlXvXyXyXyXyXyXvXgXlXrXvXgXyXgXlXyXgXvXrXrXlXeXlXrXrXrXvXlXrXrXgXgXgXaXgXgXgXrXiXqX$X-X].J.R.r.,.,.p % & @ % @ @ % * % = = & O * # 2 * 7 N N 1.L.P.>XsXjXNXnXCXnXxXnXqXqX9XqXpXrXaXrXaXpX",
"1 X X X X $ X X X 1 X X X X X X X X X X X X X X X O X O X O % % = X & O & % @ @ % & % 1 1 - @ - : : 1 : X : % & % X 1 - : X - @ - @ - X @ - - X @ 1 X - @ : @ 1 X X - @ - X : : : @ : X : @ & @ @ & X : @ - - @ % & % X & & % % % X @ @ % : : % 1 & : & : @ : @ & @ : & @ X @ X % % = X % & % % @ X @ X @ @ X & & & @ & & @ X X O . . . O % X X % X & % % @ : X X & X & & = = X @ @ @ @ @ O % O & & % & & & @ & O & & & # @ @ # & # & O * & & & * # O & & & O & # O # # O = O * O # # # O # + # # # # # # # @ # # @ # # * O # @ = & & O & @ & = @ @ @ X X X @ X @ X X @ $ @ O @ O O O > [ ] uXCXCXCXdXfXuX7XuX8X-X6X-X-X=XXX@X@X.XoX.X_.'._.).).'.).).'..XXXXX5X6X7X6X7X8X8X8X7X8X7X8X7X6X.X#X!.D.C.i.$.@.{ ^ ! ! { { X.o.;.o.o.;.;.o.@.o.;.X.:.;.X.@.o.o.+.o.@.o.X.o.@.o.o.X.+.@.@.@.o.@.@.o.@.@.@.@.@.@.;.*.;.@.;.@.;.;.*.;.*.;.;.-.2.-.9.a.d.f.M.x.n.c.H.H.K.K.R.I.K.I.E.!.I.!.!.W.I.I.Z.5.5.7 # # $ @ # O @ @ @ d d +XvXvXvXbXvXvXgXyXvXrXwXwX0X:X-X@X}._.W.Z.Z.f.s.h.8.1.>.$.o.o. . . . . . . . ...O...o.O.O.X.o.#.#.o.#.o.#.o.o.@.o.#.o.o.o.#.@.@.O...O. . .O.O.#.4.8.g.W.P..X6X:XwXwXrXyXgXgXgXhXhXgXgXgXgXgXgXgXgXgXgXgXlXgXyXvXgXyXyXgXvXyXlXyXyXyXlXyXrXvXyXlXyXlXgXlXlXrXlXrXrXvXrXgXgXtXyXrXwXwXqX-X&X_.b.M.1.o.@.+.' ' %.I E : % O & @ = % % = : = & + , 2 k $.$.(.pXsXAXAXAXNXnXnXNXnXnXnXvXvXrX6X>X6XwXwXiXaXiXiX",
"X X X X X 1 $ $ X X X X @ X X X X X @ X X @ @ X @ X O X O X O X X @ X X & @ X @ = % 1 @ 1 X 1 @ : : : : : : X X : : X - X @ X X X @ - X X @ X @ X @ X @ @ 1 @ @ : @ @ 1 @ - & @ X : @ : @ & @ & & @ : @ : @ & : & % @ @ % X & X @ @ X 1 & % : : & : & : : @ : : : & X @ X @ @ @ & X X % X % % = % O X @ X O = % & % & X % @ X . X X = X X O X = % & X % - % - % % @ & X = X % % X @ X @ % & = % @ % & % @ X & @ & @ = O & # # & O & # * O + & & = & * # = & & # # # @ # * = + O & O # # # # # # # # @ O # # O # # # + & O & O & & O & & @ & & O & @ O @ @ @ X O O @ X O @ @ X O X O # > [ [ dXCXCXCXiXfXuXiX7X6X6X-X-X$X$XXX@X@X.X.X.X.X_._.).)./.).'.).oX5X5X5X6X8X8X8X8XqXuX8X8X7X6X6X$X$X#X^.A.A.s.@.;.{ Y ! Y | {  .:.:.o.o.@.@.@.;.@.@.@.@.@.@.@.o.@.o.@.o.o.X.o.X.o.X.$.@.@.o.@.@.@.@.@.o.@.@.@.@.@.@.;.@.@.@.;.*.;.*.;.;.-.;.-.7.u.u.a.d.f.v.x.c.H.n.m.K.K.K.E.I.W.I.H.I.W.I.I.I.I.m.5.1.9 $ # @ @ @ # # @ @ d d |.xXnXvXvXvXvXvXrXvXtXwXwX6X5X:X@X_.}.W.Z.Z.g.d.w.4.<.<.$.o.O. . . .`  . . .O...O...O.O.O.O.O.@.o.#.o.,.o.#.@.@.@.o.#.#.@.o.@.@.O.O.O... . .o.,.e.4.h.S.P.@X5X6X0XwXrXrXyXgXgXgXgXgXgXhXgXgXgXgXyXgXgXyXgXrXvXyXgXyXyXvXyXyXgXyXyXgXgXyXlXyXyXgXgXlXrXrXaXvXrXlXzXrXvXyXrXrXgXiXwXwXqX&X$X).b.x.2.@.@...+.+.%.P E & % & @ & & % & & & & = * * 4 z #.#.^.iXiXAXNXAXnXnXNXnXnXmXnXvXvXwX:X6XqXwXwXrXiXaXiX",
"  X X @ X X @ X X X X X X @ X X X % X . % % % % X X = X X O @ O O O @ O X @ X @ 1 $ $ - X @ 1 - 1 : - 1 - : % - X & X @ @ @ - @ - - - - @ - @ @ @ # @ @ @ @ - @ : @ @ - & @ & & : % & % - @ & @ # @ : @ : @ @ X 1 @ X - @ : : X - X X - % % @ 1 1 & % % - X % @ & X X @ @ % @ % X @ @ X X X @ X X . % O X = X O % . = . % % % % = . = . = X = % O X O % & % & X % & @ # & = = = = % = % = % = & & & & * & & * * > , , , , e e e t e r r e s s s s s s s s s d s r r r r t t e t 9 8 7 7 7 7 5 5 6 6 6 6 6 6 6 6 6 4 3 3 3 3 3 2 > * 3 > * * * & # # @ # O O O O X X X O X O $ $ O # # b U.U.3X].H.H.v.r.6.2.2.-.-.;.$.=.$.o.o.@.$.$.o.;.;.;.;.;.o.;.;.;.;.;.;.;.;.y.;.y.-.y.-.-.1.2.-.2.<.;.<.;.X.X.| X.X.:.;.;.=.$.;.$.@.@.@.$.$.;.@.;.@.o.;.@.;.X.o.o.o.X.:.:.+.@.@.@.;.$.$.$.;.=.$.$.$.$.$.;.;.-.-.-.7.2.7.i.u.p.p.a.k.k.k.l.n.b.n.Z.A.P.W.E.W.P.P.!.P.I.!.I.H.].~.!.!.!.I.!.!.I.!.U.U.k._ _ 4 # O @ @ O @ @ @ @ g g OXnXnXnXhXwXwX@XP.F.f.4.-.;.| ..{ { { ^ ^ ^  .^ ^ ( _ }  .O.O.....O.X.+.o.#.O.#.#.#.o.o.#.o.o.$.,.$.,.#.#.,.o.,.o.o.$.#.$.$.$.#.o.$.$.o.O.@.o.o.O.X.O.+.o.@.4.4.d.A.A.).#X$X6XwXwXrXgXiXgXgXaXgXyXlXgXgXgXyXgXgXrXyXyXyXlXyXyXyXyXgXyXyXyXgXyXvXrXyXvXrXyXlXyXlXvXrXrXqX<X@X@X^.Z.A.s.<.-.@.:.| @.+.+.+.#.#.%.x g & % @ % O O & % X & O = , ` ] %XvXMXMXNXNXNXnXMXMXmXmXnXmXvXvXvXMXlX9X9X:X6X6X0X7XqX7X",
"$ X @ O $ O $ @ @ @ O O O O O O X . = = = = = % # # = & & = & # & * O & O O @ @ - - - X - 1 @ @ X - - - - @ & @ & @ @ & & @ @ @ - @ @ - @ - # @ & @ @ @ @ @ @ @ @ @ @ @ @ @ @ = & & & & # & # : & & - - - : - : @ @ : @ - X @ @ @ - & @ X : X % X % X & : % & X X X = X X O X O O X X & O X O X = . O % . X = . = = % % . = . . . . . . . . = X & O X @ X @ @ & & > : > * , , e e e t e r s i g x v v P / W _ ] O.#.>.,.5.w.e.w.z.z.V.J.B.R.U.T.T.T.T.`.`.{.{.`.{.Y.P.U.L.D.J.B.B.Z.c.c.x.v.z.z.g.h.g.w.e.e.9.e.q.8.8.e.4.>.,.#. .~ / U P P A v A A v v k > > O O X O . O X O $ $ 8 4 &.k.k.5.&.t.t.*.t.-.-.-.-.-.-.1.-.1.<.<.<.1.<.4.<.2.;.<.;.<.;.<.<.2.;.<.-.;.-.-.-.-.-.-.4.-.=.4.-.2.;.;.4.-.2.=.-.-.-.2.;.=.;.=.$.;.;.@.;.;.=.-.=.-.2.1.-.-.-.1.1.-.2.4.4.3.7.7.u.9.3.9.i.i.i.i.d.d.f.f.l.n.n.H.K.I.W.W.W.I.!.!.!.~.H.E.I.P.W.!.W.W.W.^.W.W.!.!.!.!.!.!.!.!.!.!.].!.I.!.!.I.!.I.J.Z.5.v A * O O O @ @ X # @ # j k ,XnXnXsX$Xl.f...! ^ Y { { ) } } { } } }  ._ .. ...........O.+.+.+.X.+.+.#.@.@.#.#.$.,.#.#.#.,.#.o.#.$.$.$.#.#.$.,.#.$.,.#.,.#.$.#.#.#.#.$.#.$.#.+.@.@.@.@.o.o.+.X.X.X.$.=.=.7.g.f.P..X.X5X6X0X9XrXwXrXgXgXaXaXgXaXgXrXgXgXgXgXgXhXyXgXgXrXgXyXgXyXgXrXrXrXwX9X9X:X}.}.S.d.1.1.$.X.+.+.X.@.@.@.@.+.@.X.*.#.#./ 8 8 & O % = % % = = = & = = z _.`.MXMXvXbXmXnXmXNXmXvXvXNXnXnXnXnXMXvXzXqXqX$X}._.!.P.P.b.",
"X O X O O X O @ @ O O X X @ O X O O = = . = = = @ & & & = & # @ = = = = @ @ @ @ $ - X - X - X @ - - @ - @ : @ & & @ @ # @ @ @ & @ @ - @ - @ @ @ & @ % & - @ @ @ @ @ @ # # @ & & & & & @ @ & @ : @ @ - # @ - @ @ - @ X - @ X X - % X - 1 X % : % 1 & X % X - X @ @ O O @ O % O X X = X O O X X . % . = . = . = X . % . . % % % . . . . = . = % = X = O & @ X @ @ & & & , , 6 6 e t , e i r s s x x v A I W ~ ` ] ' #.>.>.8.q.w.w.r.v.V.J.J.R.U.U.Y.Y.Y.+X{.{.{.{.`.Y.U.U.L.J.J.D.c.B.c.c.V.z.z.z.z.h.h.h.e.e.q.q.e.9.8.8.4.<.<.#._ ~ ~ U I I S A v C G c k > * O X X O . . X   o X 4 p ] k.k.6.&.*.t.t.*.-.-.-.-.<.$.-.=.=.<.1.=.-.-.=.4.4.-.y.-.;.;.y.;.;.y.-.-.-.-.-.-.-.y.4.;.-.=.4.-.2.;.4.=.=.-.=.=.-.;.4.-.=.=.;.$.@.;.$.$.=.=.-.1.2.2.1.1.2.2.-.2.<.4.y.2.3.7.7.7.7.9.9.u.9.i.p.p.p.f.k.l.b.n.n.J.!.I.I.I.!.I.!.E.~.!.!.!.W.!.W.!.!.!.W.!.!.!.!.I.!.].!.!.].].!.!.!.H.~.!.!.I.I.n.Z.5.A A # O O # @ @ @ @ @ @ j j ;XnXnXsX$Xl.f.X.! ^ Y { { | { |  .} } }  ... .........O.+.+.+.X.+.+.+.@.@.#.#.#.$.o.#.#.#.$.#.,.#.#.#.#.#.#.$.#.$.#.#.$.$.#.$.#.$.#.$.@.#.$.#.$.@.#.#.@.$.$.o.o.+.o.X.$.=.=.7.l.l.P..X.X&X6X0XwXrXwXrXgXyXgXaXgXgXrXyXtXgXyXfXgXyXgXgXgXgXyXgXgXrXgXyXrXwXrX9X0X6X}._.S.s.1.<.$.@.+.o.@.@.@.@.@.@.@.+.#.&.#./ 8 t & @ = % = = % & = = = = I `.`.vXbXvXBXnXmXnXmXmXnXMXvXBXmXvXvXvXmXvX9XqX$X_.'.!.K.P.b.",
"O O O O O # # # * * > > 4 0 8 a s s x z v v I I P ~ P ~ W ~ ~ P I I I I A x z , - $ @ X - X @ @ @ - @ ; # @ & @ @ & # & # # # @ ; - @ - @ # @ - = & & & # # # & # # # & # & & & & # & & : # & & : # : : : : : : : - : @ - : & X - @ @ @ : & 1 X % X : - & X & X X X X X O X X O X . X . . . X O . . = % % O X = . = = . = = = % = = = . . = = = > , 6 e r s c x A ~ T _ ,.,.4.e.e.V.V.B.D.T.T.+X;XeX1XpXzXzXcXMXxXMXxXMXMXMXMXMXMXCXxXxXMXnXnXnXMXxXxXxXnXxXzXzXzXnXnXxXxXxXxXxXnXjXnXjXvXjXgXvXzXzXvXaXsXvXsXvXzXsXzXzXzXeXzXeXeXqXeX<X<X<X<X:X>X2X1X1XY.j j o O . . O o $ O o : [ [ J.6.5.&.6.t.t.t.t.2.-.2.-.1.1.1.1.1.<.<.<.2.-.4.-.;.4.;.-.2.4.<.<.-.2.-.2.;.y.2.-.-.;.;.2.2.1.-.2.4.4.2.-.2.-.2.-.-.2.-.-.2.4.2.7.u.7.i.l.d.M.Z.A.P.E.P.!.Q.!.!.!.!.W.!.Q.!.(.(.!.).^.^.).).`.).).).`.(.[.!.[.].).!.).~.~.!.).!.].~.!.!.!.!.!.!.W.!.!.!.!.W.!.!.!.!.!.(.(.~.I.!.].I.].].!.I.W.P.w.k.+.g g # O O O @ @ @ & @ # k j 2XaXpX[.-.Y T ! | } | X.| +.+.*.+.@.+.$.+.#.#.+.X.#.#.@.+.+.+.@.@.@.@.@.@.$.$.#.$.,.#.$.#.,.$.$.$.,.,.$.,.$.$.,.,.$.,.#.#.$.,.$.,.o.$.$.$.$.$.$.$.$.$.$.#.$.@.$.@.$.@.@.$.$.o.X.X.o.=.;.9.M.l.P.).`..X$X$X:X6X6X0XqXqXqXqXqX0XqXqX0X6X6X9X6X:X&X$X%X@X_._.P.c.b.9.1.1.$.$.$.$.@.@.$.$.@.@.@.@.+.@.+.@.@.#.%.P * & O = & = X % O O & O * * ` cXeXMXMXMXMXmXmXmXmXNXnXvXvXnXmXmXmXnXnXpX@X#XD.3.3.=.$.$.$.",
"z N N I ~ P / _ ` O.,.,.4.w.w.V.L.T.`.OX+X2X2X2XeXeXeX1XeXeX1X1XeX2X<X<XOX{.Y./ - # X @ O X @ X O # @ @ @ # @ & = & + O + O = * & * * & ; # * * * * * * * * * * : * * * * * & * * & * & & & & * * & & & # : : & @ # - & # @ @ @ @ : X - % 1 & X X & % % X @ X @ @ X X O O X X . . O O . = % . = = . = . = @ O @ = % = & 3 % , e t i v V I P W O.1.>.e.V.z.T.{.}.%XeXqXzXzXzXzXzXlXMXMXMXMXMXNXMXMXMXMXMXxXnXMXzXMXvXzXMXvXvXnXvXvXvXvXvXsXvXvXzXcXzXjXsXsXvXzXgXgXsXsXgXvXaXvXaXaXjXgXaXgXgXaXgXaXaXaXyXrXaXrXrXaXrXeXrXeXeXrXaXrXeXaXaXaXeXaXpXaXaXsXsX3Xk z X   O O $ o $ O $ b 4X3XH.%.%.6.-.t.2.t.t.2.-.t.-.1.$.1.-.1.=.4.=.<.2.2.;.4.4.4.-.4.-.2.4.-.-.-.-.2.=.2.=.-.-.2.<.;.2.2.2.-.-.2.2.1.1.-.2.-.2.9.9.p.M.l.n.R.H.W.!.^.).[.).(.[.(.[.[.(.`.).).).`.).).[.(.[.[.(.[.(.).(.).(.~.[.).(.[.~.].~.!.~.~.!.~.~.~.!.!.~.~.!.!.!.W.!.Q.!.!.!.!.!.I.(.!.I.].!.!.I.].!.!.!.I.W.I.I.H.6.8.~ t t O O O % @ @ @ & @ # d l U.I.I.+.R | | ..$.$.;.-.t.-.;.;.&.&.&.-.&.$.&.$.&.$.#.$.$.$.>.$.#.#.$.$.#.,.$.$.,.$.$.$.,.,.$.$.,.$.$.$.$.,.#.$.$.$.$.,.#.,.$.#.,.#.$.$.#.&.$.$.$.$.$.$.$.$.$.$.$.o.$.#.@.#.$.$.@.o.o.@.o.@.o.o.=.1.1.9.9.f.x.j.n.Z.Z.m.D.Z.Z.m.Z.n.x.c.l.k.f.p.3.1.1.#.$.#.+.+.+.X.@.+.*.@.*.@.$.@.*.$.+.@.*.@.*.#.+.#.&.#.j & @ O & O @ % X & @ @ O 6 , e.nXMXMXMXMXBXmXNXnXmXnXmXnXmXmXmXBXvXqXqX^.p.s.=.o.o.$.<.=.,.",
"z z I I P E ~ _ ` O.,.,.8.e.w.V.L.L.{.OX%X%X2X<X2X2XeXeXeX1X1XeX<X2X%X2X3X{.+XW @ # @ O & X O & & @ & @ @ & @ # & & O * # * O + * & * * # # * & * * = * & * & * * * * * & & * & * * & & * # & # & & & & : : @ : - & & @ & @ @ & X X & @ 1 @ % 1 1 % 1 @ : % @ X O X X X X X X X % X . X . . = . . = = = = O @ @ % = & = 3 = 3 i , s v x I T T ] >.<.e.v.B.L.}.{.%X1X<XzXzXzXMXBXMXzXMXMXNXZXMXMXMXMXMXMXxXMXxXxXBXxXxXBXxXvXvXzXvXzXvXgXvXsXgXsXzXvXgXsXaXsXsXgXzXzXgXsXzXsXvXaXjXjXaXgXaXsXgXaXgXrXaXaXaXrXrXpXrXaXrXrXeXrXeXrXaXeXrXeXeXrXpXaXaXpXsXdXOXz z O O $ O o $ O $ O b 4X4XH.$.*.-.t.t.t.t.;.t.2.-.2.1.1.<.1.<.1.<.=.4.<.-.2.4.-.-.2.-.4.-.-.-.2.4.-.-.4.<.2.4.2.;.2.4.-.4.;.-.2.2.-.2.-.2.2.2.7.9.7.p.l.l.n.K.K.I.!.^.`.).`.[.[.[.(.(.[.).).).).).^.(.[.[.(.(.[.(.[.`.).(.[.].[.[.!.~.].~.].~.].!.].(.).!.~.~.!.!.!.!.!.!.W.!.!.!.!.!.!.!.!.!.!.(.!.!.!.~.!.!.!.I.W.W.I.J.6.6.~ r e O O O O @ @ @ @ @ @ n l U.I.!.+.Y { | +.$.$.&.-.-.;.t.&.-.-.&.&.&.&.&.$.&.#.$.$.&.$.#.$.$.&.#.&.&.$.$.>.$.#.>.,.$.$.$.,.#.$.,.$.$.$.,.$.$.,.#.$.$.,.$.,.#.&.$.$.$.$.$.#.#.$.#.$.$.$.$.$.$.$.$.$.@.@.$.o.$.@.+.o.X.o.@.$.=.=.1.3.9.h.x.x.n.m.Z.A.Z.A.Z.Z.Z.n.c.b.l.f.f.i.6.7.1.$.;.+.X.O.X.@.+.*.$.$.$.%.$.@.@.*.$.@.+.@.+.@.@.#.#.%.g # # @ O & X = O @ = @ = 6 , e.xXnXvXBXvXvXnXmXnXmXmXmXNXmXmXNXNXvX0X0X`.i.s.;.o.=.$.o.;.o.",
"`.+X+X+X%X<X<XqXqXeXeXzXzXzXzXxXxXvXxXnXzXMXzXzXcXMXzXMXzXzXMXcXlXcXzXzXcXcXcXw.* & @ @ = O O O O & @ = * : 0 r e r g i x z v I T ~ ~ ~ ~ ~ ~ ~ W ~ ` W T ` / W ~ ~ ~ ~ T W W P P I I A v A z j g s 8 8 , > * * * & # # & # = # @ & @ 1 1 @ - % % & & X @ @ @ @ @ O @ O @ O O = O . O O O = O = & * , t 6 r j j v P P ` O.,.8.V.V.D.+X`.;XeX1XzXMXnXnXMXMXnXnXMXMXvXMXMXMXzXMXzXzXMXMXzXnXnXnXMXMXMXnXnXBXMXzXBXzXnXzXnXvXnXvXvXvXnXvXvXgXvXgXnXvXgXjXjXvXvXsXsXgXsXgXzXgXgXaXgXgXfXgXgXgXgXgXaXgXaXaXvXiXaXrXaXaXrXeXrXrXrXyXrXrXaXeXaXeXaXrXpXpXpXpXaX Xj k $ $ $ O $ O $ ; # r.CXCXn.1.t.t.t.t.;.t.t.t.2.t.-.<.1.1.=.1.=.2.2.-.-.y.-.-.-.-.-.4.y.-.-.2.-.2.-.1.<.1.2.2.;.2.-.-.2.2.2.2.-.-.2.3.1.u.p.p.l.Z.Z.P.W.!.!.~.!.!.!.).).).).).(.(.).(.).(.).).(.).^.(.).[.(.~.].!.(.(.).!.[.).(.(.).~.].~.!.~.!.!.!.(.!.!.!.!.~.~.!.~.~.Q.Q.).!.Q.!.(.(.!.(.(.I.].!.].!.!.!.I.!.W.I.I.I.c.&.>.~ 8 8 O & O % % & @ @ @ @ 4 ; G *.*.} *.-.;.t.t.-.t.t.-.t.-.t.-.-.t.-.&.&.t.&.&.-.$.>.>.$.>.$.$.$.>.$.,.$.>.$.,.$.=.$.$.,.,.$.$.>.>.$.>.$.$.>.,.$.,.$.&.$.&.#.,.$.#.&.$.>.$.$.&.$.&.$.$.$.$.$.$.$.#.$.$.$.$.$.$.$.@.$.$.@.o.o.O.@.@.o.o.@.@.@.@.#.$.#.#.@.#.+.o.O.X.O.@.#.+.@.+.+.+.@.+.@.+.+.@.@.@.@.@.@.@.@.@.@.+.+.X.+.+.@.@.*.+.#.' ' t @ O # & O & O O % @ & & t r V.MXMXMXBXvXBXmXmXNXnXmXnXmXmXrX%X&X/.g.g.=.X.X.o.o.;.o.<.,.;.",
"zXMXnXnXxXxXvXvXnXzXlXvXvXzXzXlXBXzXvXzXlXzXMXzXcXMXzXzXzXzXzXzXcXlXlXlXcXcXcXV.* & @ O O X & & O O # & A A >.r.r.V.D.V.T.(.T.}.+X%X%X;X;X&X;X%X%X%X%X%X%X%X%X%X%X%X%X%X%X%X%XOXOX+X+X{.Y.T.L.B.B.z.e.w.>.+.O.~ S D j t t 2 + & @ @ @ @ @ - @ X X @ @ @ @ @ O @ O O @ O O O * 6 6 r z z I ~ P ` ,.#.5.w.w.v.L.L.{.;X=X1XcXcXcXzXzXMXMXzXMXzXvXvXvXvXvXvXvXvXmXvXzXBXzXzXzXBXzXBXMXzXBXMXnXMXnXMXnXnXnXnXzXxXzXvXzXnXvXvXnXvXzXvXxXgXsXgXvXhXgXvXhXgXhXgXhXgXgXgXvXgXgXsXgXfXsXgXgXgXdXgXaXgXaXgXiXaXrXaXrXgXrXrXrXaXrXaXrXrXaXrXaXeXlXrXrXeXaXpXiXpXdXdXI.d d   O   o $ o $ 0 0  XxXCX].9.q.7.6.u.t.t.u.2.-.2.-.1.1.2.2.2.2.2.-.-.2.;.4.-.y.y.-.-.-.-.y.4.-.2.4.1.2.2.=.-.2.<.2.-.2.-.2.-.2.2.y.d.f.b.K.J.W.W.!.!.!.(.^.).(.(.[.!.!.).~.).!.).~.].~.(.[.(.).(.).).(.!.).~.~.[.(.).(.).!.(.).~.(.~.~.~.].!.!.!.~.!.(.!.!.!.~.~.!.~.!.Q.Q.Q.Q.!.(.W.!.!.(.!.!.!.!.!.!.!.].!.I.W.W.P.P.k.#.#.S > 3 & O O & O O X & @ @ ; # 4 R R &.-.-.-.2.-.-.t.-.t.t.-.&.-.-.-.-.&.6.&.&.&.>.1.$.,.>.$.,.>.>.$.>.$.>.$.&.$.>.,.$.,.$.=.,.=.,.$.,.$.,.=.,.$.,.=.,.#.,.$.,.$.$.$.$.$.$.&.$.$.$.$.&.$.#.$.$.$.#.$.$.$.#.$.@.#.@.$.$.$.+.#.#.@.@.@.@.o.$.#.@.@.$.@.$.$.@.@.+.@.O.@.o.#.@.+.+.$.+.#.@.$.+.$.+.*.#.+.*.#.@.#.@.@.+.@.@.+.@.+.+.+.+.*.#.~ ~ > @ O @ @ & X & & X @ @ = s s D.MXMXMXvXMXvXvXmXmXnXnXMX6X6XC.4.4.o...X.X.X.o.<.o.,.o.o.o.o.",
"zXMXzXBXnXvXxXzXvXBXzXlXBXBXzXlXzXlXzXlXzXzXlXMXzXzXMXcXcXcXlXlXzXlXlXlXcXcXcXz.% , = O O O = @ $ # @ # C C 5.k.r.c.Z.B.P.T.`.+XOX%X%X%X%X%X:X%X%X%X+X%X%XOX%X%X%X%X%X%X%X%X+X+X+X`.+X`.T.T.T.V.B.z.e.e.>.#.O.~ I I x t t * + * & O & @ & @ @ @ @ X @ & & # O @ @ O O O O O * 6 6 r z z I ~ ~ ` #.#.8.w.w.x.L.L.{.;X=X1XaXaXzXxXBXlXBXMXMXlXzXzXzXMXBXlXbXbXbXgXvXvXmXvXvXnXnXnXnXnXnXnXnXnXMXMXnXnXzXMXzXBXzXvXvXzXvXvXjXnXnXhXgXvXgXvXvXvXvXlXgXhXhXlXvXgXyXlXgXaXvXaXgXaXgXgXgXgXaXgXaXgXaXgXiXsXfXaXrXiXrXrXgXrXrXrXrXrXrXrXeXrXrXrXlXeXrXpXpXpXaXaXI.l d o O $ $ O o O 0 0  XCXsX[.0.0.6.6.7.t.t.-.7.1.6.1.1.2.1.3.2.3.1.1.1.1.-.-.-.2.2.1.-.2.-.-.2.2.1.1.1.1.-.2.-.2.2.-.-.2.-.=.-.2.1.9.d.f.n.K.J.W.W.I.W.(.!.!.(.~.].~.[.!.!.).!.[.!.!.[.).(.[.~.~.).~.~.].~.).(.(.).].[.!.(.[.!.!.~.).~.~.!.~.!.!.(.!.!.(.!.(.~.~.~.!.~.~.~.!.Q.~.~.Q.!.!.!.!.(.Y.!.!.].!.!.!.!.I.W.E.I.K.k.%.*.S , , O O & = @ @ X & O @ O # 0 R Q &.-.t.-.6.;.t.t.-.t.-.-.-.-.-.-.-.&.-.t.5.-.&.$.>.$.=.>.$.,.&.$.>.$.>.$.&.,.&.$.,.$.>.$.>.$.>.$.$.=.$.>.$.>.$.$.&.#.$.,.$.,.$.$.$.$.>.$.$.&.$.$.$.$.$.#.$.$.$.$.$.$.$.$.$.$.#.#.$.$.#.o.$.o.o.$.$.o.o.$.o.$.#.$.$.@.@.$.o.o.O.o.@.@.#.@.#.@.#.@.#.@.@.#.+.@.#.@.#.@.#.@.#.@.@.@.+.+.+.+.+.+.#.+.#.~ W * O & O @ # O & O & @ @ = s d L.MXMXMXBXvXbXvXMXnXmXnXmX9X6XC.3.4.o.X.X. .o.X.;.;.o.o.,.<.<.",
"BXzXvXzXMXvXvXBXBXzXzXBXzXzXzXMXBXzXMXBXMXzXzXBXzXzXzXzXMXzXzXMXzXcX<X2X+X`.T.,.3 = O X = X @ O @ # $ h v.v.>XiXpXsXaXzXaXaXeXzXeXlXlXeXeXrXlXlXeXcXlXlXcXlXlXcXlX9XcXeXeXlXcX<XzXcXlXcXcXeXeXzXeXeXeXeX9X:X;X%X`.`.D.s.h.,.T P g 8 t > > * & & @ = & O O & = O O @ # t D D #.e.w.B.`.T.+X%X;X1XpXeXaXxXzXzXnXxXxXnXxXnXxXxXvXzXlXBXlXlXzXlXlXBXBXlXvXvXlXbXvXbXbXvXvXbXvXvXvXvXvXnXmXvXnXnXvXnXnXnXxXvXzXxXvXzXxXvXzXzXgXgXgXbXgXgXgXgXgXyXtXyXwX0XwX0X0XwX0X0X0X0X0XqXwXwXqXwXwXwXwXiXiXiXiXwXiXwXwXwXwXrXrXtXrXrXrXrXaXrXrXaXrXaXaXeXpXaXpXpXrXpXdXsXc.n 9 o O o o $ $ o j j 7XCXsX3XH.H.M.M.M.M.l.l.l.l.l.x.l.b.l.c.x.l.l.l.d.i.u.7.2.2.1.1.y.-.y.y.1.<.2.2.1.2.y.-.2.-.-.2.2.1.2.4.u.a.a.x.K.J.W.!.(.!.(.(.!.(.!.].).(.~.~.~.(.(.~.(.!.[.(.!.(.(.!.].).].~.~.~.].).).~.).~.(.).).(.).!.(.(.~.].~.].(.!.!.(.).!.(.!.!.~.~.~.!.~.Q.Q.~.Q.Q.Q.!.!.!.!.!.Y.!.(.!.I.I.!.!.W.I.I.K.K.8.' _ c * > * O O & & X @ @ & @ # O w R F -.-.-.-.-.2.-.2.t.-.t.-.-.-.-.-.-.-.>.&.&.-.&.&.,.>.,.$.>.$.>.>.$.>.$.-.,.$.>.>.$.,.$.,.$.,.$.$.>.,.$.$.,.>.$.,.&.>.#.,.#.#.&.$.>.$.$.$.$.$.$.>.#.$.$.&.$.$.#.$.$.$.,.$.#.$.$.$.$.$.#.#.o.#.o.#.o.#.#.o.#.o.#.#.$.#.#.#.o.o.#.o.#.@.o.#.@.#.@.#.@.@.#.@.@.@.@.#.@.#.@.+.*.@.#.#.+.+.+.+.+.@.#.#.*.v v * & @ @ @ & & X & X @ = @ x x T.MXMXvXNXMXBXNXvXmXnXnXNXC.x.X. . .X.X.o.X.o.X.o.<.o.o.;.o.o.",
"vXMXMXvXvXvXMXvXzXzXBXzXzXBXBXzXBXzXMXzXzXMXMXMXMXMXMXcX1X1X+XD.S.e.,.,.` I I e % = % = O @ @ @ - ; 1 [ 3X-XsXjXaXgXaXpXiXyXrXrXrXlXrXrXrXlXlXeX0XeXlX9XeXlXeXlXeXlXlXrX0X9XlXlXeXlXeXlXrXlXlXeXaXrXeXeXeXzXrXaXeXeXrXeXeX@Xg.x.&._ / ~ D D 6 O O = O O = O O O * c N w.Y.(.%XqX9XeXeXeXaXzXaXaXrXpXeXrXeXrXlX0XrXfXaXaXzXaXzXvXlXlXBXBXlXlXlXlXvXlXlXlXyXlXlXbXvXgXbXyXvXvXvXnXvXvXMXvXmXnXnXvXzXlXzXeXzXeX0X0XqX9X6X6X-X$X*X*XXX.XoX'.'.)././.G.G.S.A.A.S.S.A.A.S.G.G.G.S.W.W.^.^.^.).).)._.[._.'.}.oX_..X@X'..X_.@X@X@X#X@X:XeXeXaXrXeXeXeXuXuXdXdXdXr.0 8 o $ o o O $ o E E sXsXfX6X(.].!.!.!.!.W.W.!.W.W.W.!.!.W.W.!.!.I.W.W.A.K.b.f.f.i.7.y.-.-.-.4.-.2.<.4.4.-.-.y.-.y.2.2.9.a.d.n.K.K.W.(.!.!.(.(.W.!.(.(.(.!.!.~.].].~.~.(.(.!.!.~.).).~.).~.).~.).~.~.).~.).~.(.~.~.~.(.~.!.).(.(.!.!.~.~.!.~.!.(.!.(.!.!.(.(.!.~.!.~.~.!.~.!.~.!.~.!.!.!.!.!.W.!.!.I.!.!.].!.I.I.!.P.H.v.5._ ` x * * O & O & & X & & @ # @ @ ; F F t.2.-.t.-.-.t.t.-.-.-.-.-.&.-.-.-.-.&.&.-.&.&.&.&.$.>.>.$.=.&.&.=.>.#.,.$.>.$.$.>.$.&.$.,.,.$.,.$.$.>.$.$.$.,.$.$.>.$.$.$.#.$.&.$.>.#.&.#.$.$.$.&.&.$.$.$.$.#.#.>.$.#.$.#.#.,.$.#.,.#.#.#.$.#.#.#.#.O.#.#.o.#.#.#.#.o.#.#.#.@.#.o.#.$.$.#.@.@.#.#.#.@.#.+.+.@.*.#.@.@.+.$.@.@.@.+.@.+.@.#.+.O.#.' s s & @ & @ @ O & O O & & X = z v {.MXMXNXvXvXmXvXMXBXnXmXbXh.h. .o.o.X.X.o.X.o.o.o.o.o.o.,.;.$.",
"vXzXBXvXMXvXvXvXMXBXzXBXBXzXBXMXMXBXzXBXMXMXMXzXMXlXMXcX<X<X+XD.D.e.,.,.` I I s = % = . @ O & O - ; < [ 3X3XdXiXsXiXaXrXrXaXrXrXrX0XrXrXrXlXeXeXlXlXeXlXlXeXeXeXlXrXeXlXlXlXlXeXlXeXlXeXrXlXeXrXeXrXeXlXrXrXaXaXrXrXlXeXeX@Xg.V.&.( _ E D D , & & O O = O O O + # Z A w.(.(.%X9X<XeXlXlXaXaXaXzXaXiXpXwXrXwXlXlXpXaXaXgXlXvXzXlXlXlXlXBXlXMXlXBXlXBXlXvXhXhXbXlXgXbXhXvXvXvXvXvXvXvXmXvXvXvXvXnXvXzXlXrXlXeXlX0XrX9X6X6X&X$X*X*X.X.X'.'._./.G./.G.G.G.F.S.A.A.A.S.A.G.G.S.W.W.W.^.^.).).).`._.)._.}._._..X_._..X.X.X.X.X.X*X#X:XrXeXrXrXeXeX1XpXpXpXsXaXk.7 7 o o o o $ o o E E sXsXjX6X~.(.!.!.!.W.W.P.!.W.W.!.W.W.W.W.!.W.W.W.P.A.A.n.f.f.u.7.u.2.y.2.-.2.2.2.2.=.4.-.;.-.-.y.3.u.p.p.b.K.K.W.W.W.(.W.(.W.!.!.!.!.(.(.~.~.~.~.(.~.(.).(.).~.).).~.).~.).~.~.~.~.).~.(.).).~.(.~.!.[.~.!.).[.!.~.~.!.!.!.!.).!.!.(.!.!.!.!.~.~.!.~.!.~.Q.~.Q.~.!.!.I.!.I.!.].!.I.!.I.!.!.W.I.I.H.H.,.[ _ z * * * O & = @ & & O - # $ @ ; F F t.t.t.2.2.2.-.-.-.t.-.-.-.-.-.-.-.&.-.>.&.t.&.>.&.>.$.>.<.,.&.,.,.,.1.$.>.$.,.1.$.,.=.>.$.$.>.$.,.,.$.>.>.,.$.>.$.$.#.&.$.&.$.#.$.$.$.&.$.$.>.$.$.$.#.#.$.$.$.$.#.$.#.$.$.$.#.#.$.#.o.,.o.#.o.#.O.#.o.,.o.#.#.o.#.#.#.#.o.#.@.O.#.#.o.#.#.#.#.@.@.+.#.@.@.$.+.+.@.#.@.@.+.+.$.+.@.+.@.@.+.#.#.#.%.d s & X O & @ & = @ = X = & = v v +XMXMXvXBXvXBXNXBXnXmXnXBXh.g.X.o. .o.O.o.X.X.o.o.o.<.;.,.o.$.",
"vXBXmXvXvXnXvXMXnXnXMXBXMXMXMXMXMXMXBXcXlX9X+X_.D.V.V.4.` O.I x v i t t t e , 3 O @ $ @ @ @ O O ; l l H.dXiXfXdXiXfXgXiXgXiXaXrXrX0XrXrXyXrXrXlXrXrXeXlXeXlXeXlXrXlXrXrXeXlXrXrXeXeXrXlXeXrXrXfXgXaXiXgXiXaXiXaXrXrXrX*X%XG.f.f.7.6.6.6.%.%.9 O O O O O O O O O s k.z.:XeXqXqXeXqXeX9XeX9XlXeX'.S.S.C.D.G.D.C.S.C.S.S.C.S.G.^.^.G.G.N.G.&XyXlXlXbXlXbXlXlXbXbXlXbXvXbXvXgXgXvXgXlXlX0X9X5X&X&X*X_._._._.G./.G.G.S.A.C.C.j.j.j.j.j.a.a.j.a.y.a.y.a.a.f.f.g.j.j.j.j.j.j.C.C.C.C.C.D.D.A.A.S.A.S.S.A.K.S.S.S.P.G.S.S.S.^.S.W.E.P.^.|.@X+Xv.,.>.#.8.8.v. X Xq.8 8   o o o $ $ o -.t.CXsXsX4X~.~.!.~.!.!.!.!.!.!.(.!.^.!.^.Q.!.!.^.!.!.!.W.W.W.P.A.M.M.f.f.a.i.y.3.3.3.3.y.i.a.a.f.j.l.n.K.K.W.!.!.!.(.!.(.!.(.!.!.(.!.~.~.~.~.~.~.!.).(.(.(.!.).~.~.!.~.).~.~.~.~.~.~.~.!.).~.).~.].!.(.(.(.).(.!.(.].!.!.!.!.(.(.!.!.!.!.!.).!.~.~.!.~.~.!.~.~.!.!.!.!.W.!.Y.!.!.!.!.!.!.I.!.I.!.J.k.z.#./ / s & * O & & & & & : @ @ # @ # ; G F t.-.2.u.t.;.t.t.-.-.&.-.-.-.-.-.t.&.&.&.&.1.=.>.#.$.>.>.$.>.$.,.&.=.,.$.<.>.$.>.#.$.,.$.>.>.>.$.,.>.$.,.$.$.>.$.&.$.&.$.$.&.#.$.,.#.,.,.$.$.$.&.$.$.,.$.#.#.,.#.$.$.#.,.$.,.$.,.$.$.#.#.$.o.#.$.@.o.#.#.@.#.#.@.#.#.@.#.#.#.#.#.#.@.#.#.@.#.@.#.@.#.+.#.@.#.*.@.#.@.#.+.@.@.@.+.+.+.+.*.+.+.%.+./ 8 8 & & = @ @ @ @ O & = O & & I D ;XMXMXBXmXmXvXmXmXmXnXmXmXW.W.3.O.X...o.X.o.o.o.o.$.$.o.$.=.$.",
"MXMXNXNXMXMXNXNXMXlXeXeX%X`.`.S.h.z.4.O.O.T I S x x x i t t t t t t 3 t t i i , @ O @ @ O @ @ @ - [ ) 4XiXdXdXfXiXfXfXfXfXiXfXrXrXlXrXyXrXyXrXgXaXeXvXrXlX0XlX0XyXrXeXrXyXrXrXrXlXlXaXrXaXgXaXaXaXrXrXgXfXgXgXwX&X$X/.D.D.g.i.i.6.>.>.5.%.*.8 O O O O # O + + o D {.(.qXeXqXqX9X9XeX9XeXeX*X*Xs.y.4.y.4.y.4.<.y.y.4.<.y.4.4.4.4.<.y.y.y.C.&X5XyXlXyXyXyXgXyXyXyXwX0X0X5X*X$X_.W.G.G.D.D.C.j.C.j.g.j.j.h.a.j.C.s.f.f.a.j.j.M.m.M.m.b.m.C.F.C.G.F.F.G.F.G.F.G.F.F.G.Q.G.W.W.G.G.Q.G.W.G.W.W.E.W.E.W.W.^.S.G.W.^.G.^.G.W.P.P.S.S.S.D.6.1.g 6 6 , 8 8 d c v c 8 6 # O O $ O + # J.J.SXsXsX4X(.].!.(.!.!.(.!.(.!.~.^.^.^.).^.^.).~.).!.!.!.!.!.^.!.W.W.E.A.A.A.b.b.b.b.m.C.A.F.A.G.G.W.W.!.!.!.!.(.!.!.(.!.(.(.!.!.(.].~.(.(.~.].].~.!.!.~.!.!.~.).~.).~.~.~.).~.].~.~.).~.~.~.~.~.~.!.[.~.(.!.!.).~.~.~.!.!.!.!.!.(.!.!.!.].!.!.~.~.~.~.!.~.!.~.~.!.W.(.(.W.W.Y.!.].!.].!.I.W.J.J.J.q.q.#.~ ~ e * O * & O & X @ @ & - @ @ @ w R F t.2.t.t.;.-.t.t.;.-.-.-.&.-.-.-.-.1.&.>.-.&.-.,.1.$.,.=.,.#.1.&.=.$.-.>.$.$.>.<.$.>.$.,.$.$.$.,.$.$.,.$.,.,.$.&.#.>.$.&.$.$.,.$.,.$.$.$.$.$.&.$.$.$.$.#.,.$.#.,.#.#.,.$.#.#.#.#.#.$.#.#.$.#.#.#.#.#.@.o.$.#.@.o.#.#.#.o.#.#.o.@.$.#.#.#.#.#.#.@.#.+.$.@.#.@.+.@.@.+.*.$.+.#.@.@.+.@.+.+.#.+.+.%.P 4 > O @ X X & @ O & O & & O & T ~ 1XMXMXmXmXmXBXnXmXmXkXmXmX.X|.P.s.s.=.o.o.X.X.X.o.o.$.$.;.o.$.",
"NXNXNXNXNXMXNXNXMXvX0XlX%XT.`.S.h.g.4.O.O.` I U v x x i i e t t t t t t t i s 3 O @ O @ @ $ @ @ ; [ ) 4XdXiXfXfXaXfXiXiXgXiXgXfXrXrXrXrXyXyXaXrXrXlXrXrXrXlXlXlXyXaXtXrXrXrXfXiXeXrXrXrXiXtXaXiXaXaXfXiXgXfXgXwX&X&X/.D.A.g.i.i.6.1.>.5.&.*.0 O O O # O O O O # S `.`.qX9XqX9XeX0X9XeX9X9X%X$Xh.3.4.y.3.4.4.<.<.<.<.<.<.<.y.<.y.y.<.4.4.j.5X&XtXbXyXlXbXgXgXyXyXtX0X0X5X*X*X_.W.G.G.D.S.C.C.C.j.j.g.g.g.j.j.j.a.j.a.j.a.j.M.j.b.m.m.m.M.A.A.A.F.F.G.G.G.F.G.G.G.G.W.G.G.W.G.W.G.^.G.W.P.W.W.G.W.W.P.W.W.W.G.^.^.W.W.P.W.W.P.P.A.D.6.6.f 6 6 , 8 8 s c C c 8 8 # O $ o o o # J.R.SXfXsX-X).).~.~.~.!.~.!.!.).!.(.).^.^.~.!.!.!.!.!.!.!.!.!.!.!.W.E.G.A.S.C.b.b.b.b.Z.C.Z.S.A.G.E.W.!.!.!.!.(.!.(.(.(.!.!.!.!.(.!.!.!.~.(.(.~.!.!.~.~.!.!.~.).~.).~.).!.!.~.).~.).~.~.~.).~.!.~.~.(.!.~.(.!.~.Q.(.!.!.!.!.(.(.!.!.!.!.!.!.~.~.~.~.!.~.~.~.~.!.!.!.!.!.!.(.Y.Y.!.!.!.!.I.!.I.J.J.n.9.q._ ~ T e & + & O & & & @ & @ @ # @ # ; R F t.t.2.t.t.-.;.t.-.t.-.-.1.t.-.&.-.-.&.&.-.&.&.>.$.1.,.$.>.,.,.&.,.>.,.=.>.>.,.$.,.$.,.>.$.>.$.=.$.>.$.$.,.$.>.&.&.#.$.>.$.$.$.$.#.,.,.$.$.$.$.$.#.$.#.#.$.#.$.$.#.$.#.#.$.$.#.#.$.,.#.#.#.$.#.#.o.#.$.o.#.#.#.o.$.o.#.@.#.#.@.#.#.#.@.#.#.#.#.@.@.@.#.@.@.@.#.@.+.@.#.@.+.@.+.+.+.+.+.#.+.+.+.+.I * , @ X X & O % = = X O @ O & ~ T 1XMXMXvXBXmXvXmXmXmXmXmXnX+X.XP.s.s.=.X.o.X.X.o.o.$.$.$.$.o.$.",
"+XT.^.V.h.w.1.#.o.` T T P I I z k k g y y t t r t t t t t t t t t t i x x v v t O $ @ @ O @ @ @ p r.H.uXdXiXdXfXgXfXfXfXiXfXiXfXwXyXtXfXgXrXrXiXrXaXeXrXrXrXrXeXfXiXgXrXgXgXfXfXeXrXyXyXgXaXfXgXfXfXfXgXwX$X$X).A.A.b.j.j.g.9.i.1.&.&.8.' ' w # @ O O O # O # O P |.|.qXqXqXqX0XeX9X0X0XeX*X@X3.4.3.4.4.4.4.y.<.y.<.y.;.<.<.<.<.<.<.<.<.4.j.j.G././././././.G.G.C.M.b.g.h.h.f.s.a.s.f.s.f.s.f.f.a.j.j.j.j.j.C.m.m.F.G.G.G.G.Q.G.G./.G.G.G./.G./.G./.G.G.Q.W.Q.Q.Q.Q.Q.G.^.^.^./.^.G.W.W.W.W.W.W.W.W.^.W.W.W.W.G.^.G.W.^.S.E.P.P.D.@.#.2 # # # & & # & & : > : : : # # o O 0 3X=XCXdXdX4X).).~.(.(.(.).(.!.(.).~.^.!.).^.(.!.[.(.!.!.!.!.!.!.!.!.^.W.W.!.!.E.!.W.W.W.W.W.W.!.^.^.^.!.(.!.(.!.!.(.!.!.(.!.(.!.!.(.!.!.~.~.(.(.(.!.!.!.].!.!.).~.~.).~.).).~.~.).~.~.).~.~.~.].~.~.).!.(.(.!.(.(.!.!.!.].!.!.!.(.!.!.(.!.!.~.~.~.~.~.~.!.~.!.~.W.!.!.I.!.I.W.(.!.I.I.P.H.n.x.f.l.0.>.$.#.P I 6 # # O & @ & @ & @ : # @ @ @ w R R t.t.-.;.2.-.2.-.-.-.-.&.-.-.-.-.-.&.-.>.&.-.>.$.>.$.,.1.#.<.&.$.>.$.>.>.$.$.>.1.#.$.=.$.,.$.,.$.>.$.$.>.$.,.$.&.&.$.$.$.$.$.>.,.$.#.$.#.>.&.$.>.$.$.,.#.,.$.#.,.$.#.$.,.#.,.$.$.#.#.o.$.#.#.$.$.#.#.#.#.#.@.#.#.#.#.#.#.o.#.#.#.o.@.#.+.@.#.@.@.+.@.@.@.#.@.@.#.*.@.@.#.*.#.*.$.+.+.@.#.+.+.%.+.z * & @ O X @ & X & O = @ O & * _ ] eXMXMXvXBXmXmXmXmXmXmXmXNX@X@X}.^.^.Z.e.s.3.=.<.o.o.@.o.$.$.=.",
"^ T T U H Y S S S C N N z z k h g u i y i r y y t y t i u i u z z N V I F ~ ~ d # o @ O # @ 4 > *.3X3XuXuXuX7X4X6X8XwXwXtXyXhXtXgXiXiXfXfXfXgXyXfXiXtXwXiXfXwXwXwX8X8X8X8X8X6X6X8X6X6X8X8X5X5X5X6XXX'.'.G.F.F.m.j.b.M.j.j.j.a.i.6.&.&.5./ W $ ; @ # O # # o # # ~ |..XqX9X9XqX9X9XeX9XeXeX<X9XC.2.4.y.4.2.2.2.3.<.y.y.<.y.<.y.<.y.u.-.y.y.y.3.u.y.i.i.u.i.i.9.u.3.7.u.9.3.u.i.i.s.i.a.s.f.g.j.b.A.G.G.G.G.W.G.Q.W.G.Q.Q.Q.!./.W.G./.W.Q.Q.W.Q.Q.W.Q.Q.W.Q.Q.!.!.W.W.Q.W.W.(.W.!.W.W.!.W.W.W.G.W.W.W.W.W.W.W.W.W.!.W.W.W.I.W.P.P.K.*.-.w # ; & # @ ; ; @ ; @ @ ; ; # * O o N jXxXCXiXdXoX).).].~.).!.).!.).~.~.~.Q.).Q.Q.).~.~.~.~.^.~.!.!.!.Q.!.!.W.^.^.Q.^.!.(.Q.^.^.Q.!.!.!.(.!.~.(.!.!.~.!.~.~.!.).!.~.!.~.!.!.!.~.(.(.(.(.!.~.!.^.Q.^.~.!.(.!.~.).!.~.!.!.~.!.!.~.~.!.~.!.!.!.!.!.Q.(.!.(.(.!.(.!.!.!.!.(.!.(.!.).!.!.!.(.!.~.~.!.!.!.!.!.!.].I.!.K.n.n.M.l.l.p.i.i.7.7.7.6.#.#.' A v > & & & & # & # # & # - @ # @ > D R t.t.-.-.t.-.t.-.-.t.-.-.-.1.&.-.-.&.>.-.&.>.-.>.$.$.1.&.$.>.$.$.1.$.=.1.$.$.>.$.-.1.$.$.1.$.&.$.1.$.-.$.-.&.$.$.$.-.$.-.$.$.&.$.-.$.&.&.$.$.%.-.$.$.$.$.&.%.$.&.%.#.$.$.$.$.#.$.$.$.#.#.#.#.@.$.#.#.$.$.#.#.@.#.$.$.#.#.#.@.#.@.#.@.#.@.#.@.#.#.*.#.@.+.*.#.@.@.+.@.*.@.@.@.@.@.@.@.+.#.@.#.' ' a @ @ O @ O % & @ # @ & @ = & , ] ,.zXMXvXvXmXmXBXmXhXkXnXmXnX.X#X_.)._.).W.W.K.Z.Z.l.9.9.=.$.$.@.",
"^ T T Y P P I S V C N V N h z h g f y y y y r y y i t i i i x z z V P I P E Q d # O O O O @ 4 > [ 3X3XdXuXuX7X>X6X8XwXwXfXyXyXtXtXfXfXfXgXfXfXyXgXtXrXwXtXwXtXiXwXwXwX8X8X7X8X8X6X6X8X5X6X8X5X5X6X$X'.'.G.F.F.m.M.b.j.j.j.j.i.i.t.&.&.t./ / # @ @ O O O + # o $ E |.|.qXeX9X9XrX0X0X0X9X0X9X5XV.<.<.2.2.4.3.2.2.y.<.4.;.<.y.<.y.-.u.y.-.y.-.u.u.i.i.i.u.3.u.7.u.3.7.7.3.9.9.i.i.i.s.a.f.f.j.g.j.A.G.G.G.Q.G.W.Q.W.W.Q.Q.Q.W.W././.Q.W.Q.W.Q.Q.W.Q.~.W.Q.Q.W.W.W.W.^.W.W.!.W.(.W.W.(.W.!.W.W.Q.W.W.W.W.W.W.I.W.W.W.W.P.W.W.P.P.W.J.-.-.; # # & @ @ @ @ @ @ ; ; - & : * $ # L CXsXCXiXiX4X).~.~.~.(.).!.).~.~.~.).!.).).Q.Q.~.~.).~.~.~.!.Q.!.^.Q.!.!.!.W.Q.^.^.Q.^.Q.!.!.!.!.!.!.(.!.(.!.(.!.!.!.~.!.!.!.!.~.!.!.~.!.!.(.).(.).!.^.!.!.^.!.(.~.(.!.!.!.~.~.~.~.~.~.~.~.!.~.~.~.W.!.!.!.!.Q.(.!.!.!.!.(.(.(.(.!.(.].!.!.!.!.!.!.!.~.!.!.!.!.!.!.!.!.!.!.K.H.H.v.p.k.d.9.u.7.7.6.t.#.#._ A A > # & & & & & @ : @ : # # $ @ > R R t.2.t.2.-.t.-.t.t.t.-.-.-.&.-.t.-.-.&.&.-.&.&.$.&.>.$.&.>.$.&.&.$.>.>.$.&.-.$.1.&.$.>.-.&.&.$.$.$.$.-.&.$.$.-.-.$.$.&.$.$.-.$.&.$.&.&.$.$.$.$.$.-.=.,.$.%.$.$.$.$.$.#.%.$.$.$.#.@.$.@.$.@.$.$.#.#.$.#.@.#.#.$.$.#.$.$.@.@.#.@.#.@.#.@.#.@.#.@.@.#.@.@.@.#.@.@.@.$.@.$.@.@.$.@.@.@.@.@.*.@.#.+.+.a = & % X X @ X = @ & O @ & = * ,.,.zXMXMXmXbXvXvXbXmXmXmXmXkX@X*X_.[.`.).I.W.P.Z.A.l.u.9.=.@.;.+.",
"^ ^ ^ ^ T { ^ ^ ^ / ^ ) ~ T T U U I I A A A z N N N m V V I I U P U T T ) / / d o o O O # O j j H.uXuXuX>XuXoXH.H.E.W.G.Q.).G.'.`.).)._._.)./.).).).!.^.W.Q.W.W.Q.G.G.G.W.E.E.E.F.F.G.G.G.G.F.F.F.m.b.b.m.j.m.j.j.j.j.j.b.f.u.i.6.&.&.t.b v - @ $ # # O $ # @ # E }.[.qX0XeX0X0X9XwXeX9X0XqX0X@Xy.y.y.2.4.u.2.3.4.4.4.y.y.-.y.2.t.u.u.2.y.7.2.2.3.3.7.3.3.4.2.2.3.7.3.7.9.9.i.i.i.f.j.j.C.S.S.G.G.G./.G.Q.Q.Q.Q.!.Q.!.Q.W.^.!.W./.Q.Q.Q.W.Q.Q.W.E.~.!.~.Q.W.!.W.!.^.^.^.!.!.W.!.W.!.W.W.Q.W.W.Q.W.W.W.W.W.W.W.!.W.W.I.I.W.P.W.P.J.-.-.; ; ; & : ; & @ ; - @ @ ; # ; # + # @.CXCXCXuXiXoX].~.].~.).~.).~.~.~.~.~.Q.~.Q.~.).~.~.~.~.~.).~.Q.!.Q.Q.).!.!.!.!.^.Q.^.!.!.^.!.!.!.!.!.(.!.!.(.!.!.!.!.~.~.!.~.~.~.!.~.~.~.~.).!.(.!.!.!.^.!.^.!.).!.!.(.!.!.~.!.~.!.~.~.!.~.~.~.!.~.!.^.!.!.!.!.!.!.!.).!.(.!.!.(.!.!.!.!.!.(.!.).(.!.!.!.!.!.!.!.!.!.H.v.l.9.6.6.7.7.7.2.t.7.7.8.7.6.+.+./ j j * & & & # & & # : @ @ @ @ # # ; R R t.t.t.2.t.-.2.t.-.1.t.-.-.&.1.-.-.-.&.&.1.-.&.&.&.$.>.1.$.1.$.&.&.$.-.=.-.-.=.&.=.-.-.&.=.-.$.-.$.-.;.$.-.-.$.-.-.-.*.-.;.&.$.;.&.$.&.$.$.-.&.-.*.$.&.%.&.$.&.$.$.$.$.$.$.@.$.@.$.#.$.$.$.$.@.$.@.$.@.$.@.$.$.#.$.@.$.@.#.#.@.@.@.@.@.+.+.@.@.#.@.#.*.#.@.#.*.+.+.*.@.$.@.+.$.@.*.$.@.%.#.#./ ~ 6 O O X @ @ O & X O & & @ = % , >.,.cXvXMXvXmXvXBXbXmXvXkXhXmX*X*X_._.[.`.[.`.).(.(.(.!.!.A.f.k.3.",
"` ` `  .^  .^ _ `  .^  .^ ^ / ~ ~ ~ T T T U U P T P P P T T P T T T T ^ / ) ) r + # # O @ O D D  XuXuXuX4X4XH.H.n.n.m.m.m.Z.m.m.b.m.m.m.b.m.m.C.C.Z.b.m.n.j.m.m.b.m.m.A.m.K.A.A.F.m.A.A.F.A.m.F.F.m.N.m.m.m.M.M.M.M.M.j.j.f.i.i.t.t.%.5.a n @ @ @ O @ O O $ O @ F [.].qX9X9XqXwX0X9XeX0XqXqXqX9XC.A.4.2.3.7.7.2.4.y.y.4.2.y.2.y.7.7.7.u.-.u.7.u.7.7.7.2.7.3.7.2.7.3.9.7.9.u.i.g.g.C.W.G.G.W.W.W.G./.W./.Q.G.Q.W.Q.W.Q.Q.!.W.W.^.Q.Q.Q.W.Q.Q.W.Q.Q.Q.Q.~.W.Q.!.!.W.W./.W.!.W.!.W.!.!.W.W.W.W.W.W.W.^.W.!.!.W.W.W.W.W.W.W.W.W.P.W.P.6.7.w # # # @ & @ - @ @ ; ; @ ; # # # $ c.sXCXdX7X>XoX~.~.~.~.(.).~.).~.).~.~.).Q.).Q.!.).~.~.).~.~.!.Q.).Q.!.Q.!.^.(.^.Q.^.).^.).^.).(.).(.(.).!.(.!.(.!.!.~.~.~.~.!.).!.~.~.!.~.!.(.).~.!.!.(.Q.^.!.^.!.!.(.!.(.!.!.~.~.~.~.~.~.~.!.~.~.!.!.Q.!.!.!.(.!.(.(.!.(.!.(.!.!.(.!.!.!.(.!.!.!.(.!.!.!.W.I.I.m.a.d.7.2.2.2.2.7.2.2.t.2.7.7.6.7.7.6.+.+.~ s a * & & & : # : & @ & # @ ; ; $ 0 R ) t.2.-.-.t.-.t.-.t.t.-.-.-.-.&.-.-.>.&.&.&.&.1.&.&.$.=.$.>.$.&.=.>.&.-.&.-.=.&.-.=.-.=.$.-.=.-.$.-.*.-.-.$.$.-.$.$.-.-.-.*.-.-.-.t.1.6.6.6.7.q.6.t.4.6.1.-.&.&.&.$.$.#.@.%.#.$.#.$.@.$.#.$.$.#.$.#.$.#.$.#.@.$.@.$.#.$.@.@.@.#.@.#.@.+.$.*.@.#.@.#.+.+.@.@.@.+.*.#.@.@.+.$.@.@.$.+.+.@.@.@.#.P F > & O O % X & X & & @ O & @ @ e e.e.xXnXnXmXbXmXbXmXhXbXmXmXmX*X#X_.[.'.).`.).[.).).`.`.).`.).(.W.",
"`  .^  .( { _ { } ( { ( ^ / ^ ^ ^ ~ T T T U T P P P P T U T ~ T T ~ ` T ^ / ^ d # O O # # @ A D  X>XdXuX-X4XW.M.n.m.m.m.m.m.C.m.m.b.m.b.m.j.A.b.C.b.C.b.m.m.M.m.b.m.C.m.F.m.A.A.F.A.A.F.F.m.F.F.F.m.m.m.M.M.m.M.M.M.j.j.j.l.i.i.t.t.&.5.a n # ; @ @ @ $ O @ $ $ F ]. X9X0XqXqX9X0XqX0XqXqXqX0X9XA.C.3.3.3.7.7.7.7.2.u.2.y.u.2.7.u.7.7.2.7.7.7.7.7.7.7.7.2.7.2.2.3.7.7.9.7.9.i.g.g.C.G.G.W.W.W.^.W.W.W.Q.Q.Q.Q.W.Q.W.Q.W.!.^.W.!.!.!.Q.W.!.Q.Q.!.!.!.Q.E.!.!.W.W.^.!.!.W.!.!.W.!.W.!.W.Q.W.W.E.Q.P.W.W.^.W.!.W.W.!.W.P.!.I.W.W.I.P.6.6.4 # ; & @ # @ @ ; @ - $ - # ; # O O c.sXsXiXuX7X X).).].~.).).).~.~.).~.~.~.~.Q.).).~.~.~.~.).~.Q.!.Q.^.~.Q.^.^.Q.(.Q.!.^.).^.^.).!.).(.).!.!.(.!.(.!.!.~.~.~.~.~.~.!.~.~.~.).~.(.!.!.!.(.^.!.^.~.!.(.(.!.!.!.!.).~.~.!.!.!.~.~.!.~.~.~.!.^.!.^.!.^.!.^.!.!.(.!.(.(.!.(.(.(.!.!.(.(.!.(.!.~.~.I.W.W.m.f.a.u.7.2.2.6.2.t.2.2.7.2.7.6.9.6.t.' +.W s a : # & # : & # # : @ # - @ # ; ; R R t.t.t.-.t.1.-.t.-.-.t.-.&.-.-.&.6.&.>.-.-.1.>.$.&.>.&.$.1.&.$.-.$.$.-.$.1.-.=.&.&.-.-.-.$.&.$.-.;.-.-.$.-.-.$.$.&.;.-.-.$.*.t.t.t.6.7.1.9.7.6.6.q.7.t.t.t.t.$.&.$.*.@.@.@.#.$.$.#.#.@.#.$.%.$.$.@.$.$.$.#.#.$.$.$.$.$.#.@.#.@.@.#.@.@.@.#.*.#.@.+.$.@.@.@.@.@.@.@.@.$.@.@.@.*.$.$.@.*.#.#.#.D I > % O X O X & & % O @ @ & @ @ 6 w.e.zXMXMXbXmXvXbXmXhXbXmXmXkX#X*X_.'.[._.`.).).`.[.).`.).[.(.(.W.",
" .` { _  .( { _ (  .( { _ ^ ` ` ^ / / ^ ~ ~ ~ T T T T T T T T ~ T T ` ` ^ / / y + O @ O O # D D 4XuX>X>X~.!.n.m.m.m.M.m.F.m.m.F.m.m.m.A.C.m.C.A.A.m.F.b.m.m.A.m.A.m.F.F.A.A.F.A.F.F.F.F.F.F.F.F.F.F.F.m.m.m.m.M.M.M.M.j.j.l.i.i.-.6.5.%.0 0 @ $ @ O O @ @ O @ @ C Y.T.9XqX9X9X9XqX0XqXeX0XeXqXeX'.*Xy.3.3.7.7.u.3.7.2.7.-.u.y.7.7.7.7.7.7.7.7.7.7.7.6.3.7.7.7.u.3.7.7.9.d.i.b.A.F.G.W.W.!.E.W.^.^./.G.G.G.Q.Q.Q.!./.Q.!.Q.W.^.W.W.!.!.Q.Q.W.Q.W.!.W.Q.Q.Q.~.!.W.^.W.W.!.!.!.!.!.W.!.W.W.W.W.W.W.^.W.G.W.!.P.W.W.W.!.W.P.W.I.W.E.I.7.7.8 @ @ # : @ : @ @ @ - ; ; ; # # # # |.pXpXiX4X-X[.~.).).).(.).~.~.).~.).~.~.~.).Q.~.~.~.).~.~.~.!.Q.Q.Q.!.!.!.!.^.!.^.Q.).!.).(.^.(.!.(.!.).(.!.!.!.!.!.~.~.~.~.I.~.~.~.!.!.!.~.(.!.).(.!.!.^.!.^.^.!.!.!.).!.!.!.~.Q.~.~.~.~.~.!.~.!.].!.Q.^.!.!.Q.(.!.).(.!.!.!.!.(.!.!.!.!.(.!.!.(.(.!.!.E.H.a.a.2.2.2.t.7.7.2.2.2.2.2.2.2.2.t.6.6.6.t.' +.R 8 9 & # : & & * ; @ @ & ; @ # # # 0 ) [ t.2.t.2.-.t.t.-.6.t.6.-.-.-.-.-.&.&.&.&.&.&.$.1.&.=.&.&.$.&.$.&.&.>.=.-.$.&.=.-.=.&.-.$.=.$.-.$.&.&.-.-.6.-.1.1.1.t.1.t.7.7.q.7.0.0.e.9.e.r.0.p.0.0.0.0.9.7.q.q.7.6.t.6.-.-.$.$.%.$.$.$.$.@.;.$.@.@.#.$.$.@.$.@.#.#.#.@.@.+.@.#.@.+.*.#.@.+.@.@.*.+.@.@.#.@.*.@.#.$.+.@.@.@.@.$.+.#.@.@.@.+.z z * O O = X O @ X O & @ & O @ @ r B.B.MXzXBXnXbXBXvXhXmXbXmXkXnX@X$X_._.}._.[.[.[.).).].).[.(.).[.`.",
" .( _  .(  .( .. ._ _ ` ` _ _ ^ ^ _ ( ` ` ~ ^ ^ ~ ~ T T T ~ ~ Q ^ ~ T ~ ~ ~ ) 9 O # # @ @ # E I 4X>X7X XH.K.n.m.m.m.m.m.m.m.m.m.F.C.A.A.F.m.m.F.F.C.A.F.A.A.A.F.A.F.F.A.A.F.G.A.E.A.A.F.E.E.F.E.F.F.F.F.m.F.N.m.m.M.m.M.M.l.a.u.t.&.&.*.0 > @ $ @ @ @ @ O X . X b L.U.1X9X<XqXqXeX0XqX0X0XqX0X0X9X6XC.y.3.3.2.y.y.7.u.2.u.7.7.7.7.7.7.7.9.7.7.7.9.u.7.7.u.7.7.7.u.u.u.l.A.A.W.E.W.G.W.G.W.W.W.G.G.Q.W.W.!.Q.W.^.^.W.W.!.W.Q.Q.!.!.W.!.!.!.Q.Q.!.!.!.W.!.W.W.!.!.Q.!.!.!.!.!.!.W.!.!.W.W.W.W.W.W.W.W.!.W.W.!.W.!.W.!.W.W.W.W.W.I.P.0.q.8 @ # # @ # & - @ - # # - @ - # r y :XuXuX>X4XoX).).).).).).~.~.~.!.~.~.~.~.~.[.~.~.~.).Q.~.~.~.).~.).).~.).!.Q.).).Q.Q.~.Q.).Q.Q.~.~.~.).~.~.~.~.~.!.~.!.!.Q.!.!.!.!.(.!.!.!.Q.Q.~.Q.Q.Q.Q.~.~.Q.~.~.!.~.!.~.!.!.Q.^.!.^.!.~.!.~.~.~.!.!.^.!.!.(.!.(.!.!.^.(.(.!.!.!.I.(.(.!.!.(.!.W.!.J.p.p.7.7.6.t.2.2.2.2.2.7.2.2.t.2.2.2.7.7.6.6.q.&.' [ G , 4 & & ; * & & & : & ; # ; ; ; # l t.t.t.2.-.t.-.1.-.&.6.-.1.-.-.-.-.-.-.&.1.-.>.&.&.1.$.-.=.&.=.-.-.-.-.-.=.$.-.&.-.$.-.$.;.&.-.&.6.7.7.8.7.7.0.p.p.0.p.0.p.p.p.p.p.0.p.k.p.d.p.d.0.d.d.p.d.p.r.p.d.p.d.k.d.d.0.p.0.7.7.-.-.-.$.@.*.*.;.$.#.@.#.#.$.@.$.$.$.#.@.@.@.+.@.@.#.@.@.+.$.@.#.@.@.#.*.@.@.@.@.@.@.@.$.@.@.@.@.$.@.+.$._ s g # X = X O X & X & O = O = & = x `.T.MXMXzXmXbXbXbXmXhXmXkXmXbX$X*X'.}.`.}.`.[.].`.).`.`.).[.`.`.).",
"_ } _ } } _ } (  ._ ^ _ } { _ _ ` _ ^ ^ / ` ~ ` ^ ~ ~ ~ ~ ^ Q ^ T T ^ ^ ) ~ ) 9 O O @ @ # - D E 4X>X>X[.R.H.m.m.m.m.m.m.m.m.m.m.m.m.F.m.m.F.C.m.m.F.A.m.F.F.A.A.F.A.A.A.F.A.A.F.K.G.A.F.E.m.F.F.F.F.m.F.F.A.A.m.M.m.M.M.j.x.i.i.-.t.t.*.< 0 # @ - @ O @ X X O $ c R.U.1X9XqXqX0X9X0X0XqX9X0XqX0X0X0XD.3.y.2.u.2.y.7.2.u.2.7.u.7.7.u.7.9.7.7.3.7.3.7.7.7.7.7.u.7.7.u.i.l.A.A.W.W.W.W.W.W.W.W.W.W.^.W.W.W.Q.Q.W.W.W.!.^.^.W.!.Q.W.Q.Q.Q.!.Q.!.!.Q.!.!.!.!.!.!.!.~.!.Q.!.!.!.!.W.!.!.W.W.W.Q.W.W.Q.W.!.W.!.W.!.W.W.!.P.W.W.P.W.W.W.P.q.9.8 - @ : @ & @ : @ @ @ - @ @ # # 9 9 :XuX7X-X4X4X[.~.).).).~.).~.~.!.~.~.~.~.~.!.!.).Q.Q.!.).~.~.~.~.~.~.~.Q.).Q.Q.).Q.).Q.).Q.Q.).~.).).~.~.!.!.~.~.~.Q.~.Q.Q.~.!.Q.(.!.(.!.~.(.Q.!.Q.!.Q.Q.!.Q.!.Q.~.~.~.~.~.~.!.^.!.^.!.!.~.~.~.~.!.~.!.!.(.).!.Q.^.!.^.^.!.!.(.(.!.(.!.(.!.!.(.!.I.!.m.p.p.7.2.2.2.2.t.7.2.2.t.2.2.7.2.2.t.7.2.6.6.6.&.[ ' C < 0 : # # : & & & : & # # ; $ - # n t.t.t.t.t.-.t.-.t.-.-.-.-.-.-.t.&.-.-.&.-.&.&.=.>.$.1.$.&.$.1.-.$.-.;.&.&.-.$.=.-.-.-.&.$.&.&.1.1.7.7.7.7.7.0.d.0.0.p.p.d.p.p.0.k.p.k.0.p.p.r.d.p.r.0.k.p.p.p.r.p.p.r.0.d.0.p.i.0.7.7.7.-.-.$.;.*.;.*.$.@.$.$.$.$.#.$.#.@.#.@.@.#.+.#.#.@.#.@.@.+.#.@.#.@.@.+.$.*.@.@.$.@.@.*.$.*.@.*.@.@.#.#.' s a & O X & % O X @ @ & & O @ = % g Y.T.MXBXMXvXbXmXbXkXmXhXkXmXnX*X$X_.'.[.[.(.[.[.).`.].).[.).[.).].",
" . .(  .( ( ( .._  .( ( ( ..( _ ^ _ ( ^ ` ^ / ` ^ / ^ ^ ^ ~ T Q ~ ^ ^ Q ^ ~ Q 9 # # $ O O # W E =X=X4XR.H.H.H.H.m.m.A.m.F.m.m.F.F.C.F.m.A.C.F.A.A.F.A.A.F.A.A.A.F.A.G.A.E.A.G.A.E.E.A.E.G.F.F.F.F.F.N.A.F.F.A.m.m.F.m.M.m.j.a.a.t.t.t.*.< 0 ; - # @ $ @ $ O . X x J.J.qX9X9XqX0XqX9XwX9X0XqX0XqX0X0X@Xi.i.3.y.3.y.3.3.u.7.3.7.7.7.7.7.7.u.7.9.7.9.7.7.u.7.u.u.u.a.n.H.E.!.W.~.E.W.W.W.Q.W.W.W.W.W.W.G./.Q.Q.W.!.W.^./.!.^.!.W.Q.~.!.Q.!.!.!.~.!.!.Q.W.W.!.!.!.W.!.~.~.W.!.!.~.~.!.W.~.E.H.!.~.H.W.W.Q.W.!.W.!.W.W.W.E.!.I.W.W.E.I.0.0.a # @ @ & # & @ @ - @ $ ; # # O G G >X>X>X=XoX[.[.).~.~.).).).~.!.~.~.~.~.~.~.).~.~.~.~.~.).Q.Q.~.~.).~.~.~.).!.Q.~.Q.~.).~.~.~.~.~.~.~.~.~.~.~.~.!.~.~.~.!.Q.Q.Q.!.(.!.!.).!.!.Q.).Q.Q.Q.!.Q.Q.Q.~.!.~.!.~.~.!.!.(.!.^.!.!.!.!.~.~.~.~.!.!.(.(.!.Q.^.!.^.(.!.!.Y.!.!.(.!.!.!.!.!.J.p.a.6.7.7.7.2.2.2.2.7.2.2.2.2.2.2.2.2.7.t.2.7.7.6.6.*./ [ b > > ; : # : & : & & : & & ; # ; ; G k.q.t.-.t.-.t.-.-.-.-.-.-.-.-.-.&.-.-.>.&.&.>.-.&.-.&.&.;.&.;.&.-.-.-.;.&.$.-.-.-.&.6.q.t.7.0.0.p.r.p.0.p.p.p.p.p.p.k.0.p.p.r.p.p.0.p.p.p.d.0.k.0.p.p.p.p.H.0.p.p.q.q.p.p.p.p.H.p.p.0.p.0.0.q.0.7.t.*.$.$.#.#.$.$.$.#.$.$.+.@.@.#.+.+.$.+.@.@.#.*.+.@.$.+.$.@.@.@.$.@.@.@.@.@.@.@.@.@.*.@.#.#.) r e = O % X @ X = @ X O = @ O & O x +X+XMXMXzXBXBXBXlXbXkXbXkXmXkX#X*X_._._._.[.[.].`.).[.).).).[.).).",
"( ....( ......_  .( _  ._ ( _ ( _ { ` _ ( ` ^ _ _ ^ ` / ^ ~ ^ ~ ^ Q ^ Q ~ ~ Q 9 @ # # O O ; ' / 4X].].H.H.H.H.c.m.m.m.F.m.F.F.F.F.F.F.C.A.F.C.F.A.A.G.A.A.F.G.A.A.F.A.E.A.E.A.E.A.E.E.S.E.F.E.F.F.F.F.F.E.E.F.F.m.F.m.m.m.M.f.l.6.-.t.t.0 0 $ @ @ @ $ @ X X X $ j Z.B.<X9X<X9X0X0XwX9XwXqX0XqXwX0XrX9XC.C.u.u.9.3.u.u.7.u.u.u.u.u.9.0.7.u.7.u.7.6.9.7.u.u.a.M.M.K.W.W.!.W.!.W.Q.W.W.W.W.W.W.W.W.W.W.Q.W.W.Q.!.W.^.W.W.W.W.Q.!.Q.~.E.!.!.Q.~.~.~.!.!.!.~.!.!.!.~.W.!.!.!.!.!.~.H.W.!.!.Q.~.!.~.W.W.W.W.W.W.!.W.W.W.W.W.W.!.W.!.I.I.r.w.n @ # & @ @ @ @ - @ @ ; - @ # O ( _ =X=X%X|.[.].).).~.[.).~.).~.~.~.~.~.~.).~.~.~.).~.~.Q.~.Q.).~.~.!.~.~.~.~.Q.).~.~.~.Q.).~.~.~.~.~.~.~.~.!.~.!.~.!.Q.!.~.~.!.Q.Q.(.!.(.!.!.!.~.Q.!.).!.~.Q.!.Q.Q.~.~.!.~.!.~.^.Q.^.!.).~.~.~.~.~.~.!.!.(.!.!.).Q.!.^.!.(.!.!.(.!.(.(.I.!.K.l.l.9.6.t.7.2.7.7.2.t.2.2.2.2.7.t.7.2.2.7.t.2.2.2.t.t.t.t.*.) W n - ; ; ; ; & & & & & % : * # ; w w G H.H.t.t.-.t.2.-.t.-.2.-.-.t.-.1.-.-.-.&.-.&.&.&.-.-.-.-.&.-.&.&.&.*.-.$.1.1.1.7.7.q.i.p.p.p.p.p.p.p.p.p.p.r.p.k.0.p.0.p.q.p.p.p.p.p.p.0.d.d.0.d.k.r.p.p.0.q.q.p.k.H.p.p.r.0.p.q.q.p.p.p.0.p.p.p.p.p.0.0.7.1.>.$.#.$.$.#.$.@.@.#.@.*.#.+.$.@.+.@.#.@.@.+.#.+.@.$.#.@.@.@.+.+.@.@.$.@.*.@.#.#.#.E < 6 X X O O % & X @ & & O = @ O & I ;X%XMXzXBXBXzXBXBXkXmXbXmXkXmX$X*X_.'.[.[.[.(.).`.`.).].`.).`.`.[.",
" ...( ...._ ( _ } _ _ _ _ ..( _ ` ( _ ^ _ ^ _ ^ ^ ` ^ / Q ^ ~ ^ ~ ^ ^ ~ ) Q ~ 7 # O @ O # ; / _ 3X!.!.H.H.H.H.n.m.F.m.E.F.F.m.m.C.F.C.F.F.C.F.F.A.F.A.A.F.F.A.A.F.F.A.A.K.A.E.E.F.A.A.E.F.E.E.F.F.F.F.F.F.F.F.F.F.F.F.m.m.M.j.l.t.t.t.%.0 7 ; $ - $ X O O O X X j J.Z.1XeX9X9X9X9XwXwX9XwX9X0XwXwXwX9XC.C.y.u.y.u.9.3.9.7.9.7.u.9.7.9.9.0.u.9.9.7.9.7.u.i.p.M.M.I.W.!.!.W.W.~.Q.Q.G.W.W.W.W.Q.W.^.G.W.W.Q.!.Q.W.!.!.W.^.W.W.Q.W.Q.Q.~.~.!.H.~.~.~.H.W.!.!.W.!.!.~.~.!.!.W.!.!.Q.!.W.~.~.~.Q.W.!.E.!.W.W.E.!.I.W.W.W.!.W.!.E.W.W.I.p.r.n & & # @ @ @ # - # - $ @ @ - O ' _ :X=X=X|.].[.).).).).~.).~.~.~.~.~.~.~.~.~.~.~.).Q.).Q.Q.).~.~.~.~.~.~.).Q.).Q.~.~.!.~.~.~.~.~.~.].~.~.~.~.~.~.~.~.~.Q.~.Q.Q.!.!.!.!.!.^.~.!.Q.).Q.!.Q.!.Q.!.~.~.~.~.~.!.~.~.!.^.!.!.!.!.~.!.~.!.~.!.(.!.(.!.!.!.^.).!.(.(.W.!.!.(.W.(.!.J.l.l.9.7.2.2.7.7.2.2.t.7.7.t.-.7.7.7.2.2.2.7.2.2.7.7.7.t.t.*./ / l ; ; - ; ; : : & % & & & * ; ; ; w R r.H.t.2.-.t.t.t.-.t.-.-.6.-.-.&.-.&.-.&.&.&.&.&.&.&.-.;.t.t.;.;.-.*.-.-.-.6.6.7.q.9.i.p.0.p.p.p.p.r.p.k.r.p.p.p.r.p.k.H.q.p.p.r.p.p.q.k.p.r.d.p.0.p.p.q.p.p.p.0.p.p.r.p.0.H.0.p.p.p.r.q.p.p.p.p.p.0.q.9.6.1.1.#.@.#.$.#.$.$.+.@.@.#.@.@.@.#.*.@.@.#.@.#.+.@.+.$.@.@.+.@.@.@.@.@.@.$.@.@.@.#.#.P 6 , @ = O X O X @ X & & = @ = & & N ;X2XMXzXMXvXBXvXbXkXbXbXkXmXnX$X$X_.[.[._.].[.[.`.].`.).).).[.`.(.",
".._ .._ ( ....( _ _ } (  .( _  .(  .^ _ ^ _ ^ _ _ ^ ` ( ^ ~ T ^ ^ Q Q ^ ~ / Q 8 # # O # # > *.'  XH.H.H.n.H.H.m.m.F.m.H.F.m.F.F.F.F.F.F.F.F.A.F.A.F.F.E.F.A.F.F.F.A.G.F.G.G.E.A.K.F.E.A.F.A.F.F.F.F.F.F.E.F.F.F.m.F.F.m.F.m.j.j.7.&.&.*.l l ; ; @ @ O O X X $ $ s V.B.1X9X<X9XqX9X9X9XwX9XwX9XrX0X0X0X_._.s.i.i.u.u.u.u.u.u.u.7.7.9.7.9.7.7.9.7.u.u.i.l.l.H.I.E.E.W.I.E.W.W.H.Q.W.Q.W.Q.W.W.Q.~.W.W.W.Q.W.Q.!.!.W.^.^.!.Q.Q.!.Q.Q.Q.Q.~.!.!.~.~.~.!.!.!.W.W.Q.!.~.W.!.W.!.!.!.!.W.!.H.!.Q.!.~.E.~.W.W.Q.!.!.!.W.I.!.W.W.!.!.!.E.I.0.r.n @ @ : @ @ @ @ @ @ - ; - @ @ O 5.6.4X|.|.[.[.].).).!.~.).~.~.~.~.~.~.~.~.~.~.).~.~.).Q.~.!.).~.~.[.~.~.~.!.).Q.~.~.~.~.~.~.~.~.~.~.~.~.~.).!.!.~.~.!.~.!.Q.~.Q.!.~.!.!.!.Q.!.!.Q.!.!.Q.Q.~.Q.Q.~.!.!.!.~.!.Q.!.!.!.^.!.!.!.~.~.~.!.~.~.!.!.!.(.^.Q.!.!.^.(.W.(.(.(.W.P.Z.H.i.2.2.-.7.2.2.2.7.7.t.2.2.2.2.7.7.-.-.t.7.2.2.2.7.t.2.7.t.-.*.D R n - ; ; - - & % % : & : & & ; ; 0 0 R H.q.t.-.t.-.-.-.t.-.-.&.1.-.t.-.-.-.t.1.&.-.1.-.-.-.&.;.t.;.t.t.-.7.7.7.9.p.0.p.d.d.d.0.q.H.p.p.k.p.p.p.p.p.p.p.p.p.p.p.p.p.t.p.p.H.q.p.p.p.d.k.k.p.k.q.H.p.p.p.k.p.p.H.t.q.0.H.p.p.p.q.H.p.p.p.p.k.p.w.p.0.0.7.1.1.-.$.$.$.#.@.#.@.#.@.@.@.#.#.@.+.#.@.@.@.@.+.$.@.$.@.@.+.@.@.@.@.*.+.+.*.+.c : > @ X % O % @ @ % O O & O @ + * P 1X<XMXBXzXBXvXvXbXbXhXmXmXkXmX$X$X)._._._.`.`.[.).).`.[.`.[.(.).[.",
"( ..( +...( .._ .._ _ .._ } _ ( ..(  .` _ ^ _  .^ ( { ^ ^ ^ ^ ^ T ^ ~ ^ ~ Q ~ 8 # # @ @ # * E E H.J.J.H.H.H.H.H.H.N.W.E.F.F.E.E.F.F.F.F.F.F.F.A.E.E.E.E.F.E.F.E.F.E.F.H.E.E.K.F.A.E.E.E.E.E.E.E.E.E.E.E.E.E.E.F.E.m.E.F.H.H.k.l.;.[ [ *.l b - $ @ $ @ X X O X $ a V.B.2X9X<X9X0X0X0X9XrXqX0XqX9XqXwXwX$X&Xj.a.i.d.u.i.p.i.i.i.u.9.9.u.u.0.p.p.p.x.x.n.H.E.!.~.~.!.!.E.~.W.!.!.!.Q.Q.!.Q.~.!.!.~.Q.Q.!.Q.W.Q.!.W.!.Q.Q.Q.!.Q.!.Q.!.H.~.~.!.!.!.!.~.~.~.~.~.~.W.~.W.!.H.~.~.~.~.!.~.!.!.~.~.W.!.Q.W.W.W.W.W.W.W.W.~.H.!.!.!.I.!.W.I.k.d.l # @ : @ ; @ @ - @ @ $ ; @ @ ; k.k. X|.[.[.[.!.).Q.).Q.Q.~.~.).~.~.).!.~.).Q.Q.Q.~.).~.~.~.[.!.Q.~.Q.).Q.Q.).~.).!.).~.(.~.~.].~.~.~.~.].).~.~.~.~.~.!.~.~.!.~.!.~.~.~.Q.!.~.~.~.Q.!.~.~.~.!.~.!.~.(.(.!.(.(.!.!.~.~.~.~.~.~.~.~.~.~.!.^.^.!.^.!.!.^.~.!.(.(.(.(.J.K.f.7.7.2.2.2.7.7.7.7.7.2.7.2.2.7.2.2.2.2.t.7.7.1.2.7.2.2.t.2.6.&.t.[ G G 0 - : : & : & & : & & : : : - ; 0 ; [ 0.u.t.-.6.6.-.2.2.-.-.-.-.-.-.-.-.-.-.-.-.-.-.-.-.-.-.7.7.t.7.p.p.H.p.a.a.a.a.a.d.a.k.p.p.p.a.p.a.p.p.a.a.H.a.a.a.p.a.q.u.a.H.a.p.p.0.p.a.H.p.a.p.p.p.p.p.p.p.p.t.p.p.q.H.p.p.q.p.p.p.p.p.H.p.p.p.q.H.p.r.p.r.d.d.0.0.6.7.-.$.*.$.;.*.#.*.*.@.*.#.*.+.+.o.+.@.X.@.+.@.@.+.@.X.@.+.@.+.+.+.) / r & # X % X % X X % @ X % O = O * * ~ cXcXvXvXBXvXbXbXbXbXbXbXkXkXkX*X*X[.'.[.[.).`.).[.).[.(.].).].).).",
".._ ..} _ ..( .._ ( } _ .._ ....(  ._ _  ._ ^ _ _ } _ ^ ^ ^ ^ ^ ^ ^ T ^ ) Q Q 6 O @ @ @ O : E E H.H.J.H.H.H.H.H.H.m.H.H.m.F.H.E.F.m.F.E.F.F.A.F.E.H.A.E.E.E.E.H.E.E.E.E.E.E.K.E.K.E.E.K.E.m.E.E.H.F.E.F.H.F.E.F.E.H.m.F.m.H.l.a.*.*.*.*.l l ; $ @ @ $ X O X O X a V.B.1X9X9X9X0X9XwX0X9X0XqX0XeX0XwXqX$X$XM.a.a.i.p.i.u.i.i.u.u.9.9.9.9.u.i.p.a.l.l.H.K.K.W.E.~.~.W.E.!.W.W.!.!.Q.!.Q.!.!.~.~.H.!.Q.Q.Q.Q.!.Q.Q.W.Q.W.W.Q.!.!.!.!.~.~.~.~.!.!.~.!.!.~.H.!.~.Q.Q.!.!.Q.~.~.~.!.~.!.!.!.!.W.~.!.!.W.Q.Q.W.W.W.W.W.~.!.!.~.W.E.E.!.I.r.r.n @ @ & @ @ @ @ - @ - @ @ @ - $ k.k. X}.|.}.[.(.).~.~.~.).~.~.~.~.~.).).~.Q.!.).).~.~.~.~.~.~.~.~.Q.).Q.Q.~.~.~.~.).(.~.(.~.~.~.~.).~.~.~.~.~.~.~.!.~.~.~.!.~.~.~.Q.Q.Q.~.Q.Q.!.~.Q.~.~.!.~.!.~.~.~.!.!.(.!.!.!.~.!.~.!.~.~.!.~.!.~.!.!.!.!.).^.!.!.(.(.!.!.W.(.W.K.J.f.7.7.t.2.2.-.-.7.-.t.2.2.2.2.2.2.t.2.2.7.2.1.7.1.6.t.7.7.2.6.&.%.+.v v 0 : : : & % & & & & & & : & - ; w 0 [ 0.p.t.-.-.-.-.-.t.7.-.-.6.-.-.-.&.1.-.-.&.-.-.&.-.-.-.t.t.u.u.0.7.q.p.a.k.a.a.d.a.a.p.q.H.p.k.H.a.p.0.H.u.q.a.p.k.0.H.H.a.a.a.p.p.p.H.a.p.q.a.p.k.q.H.p.u.H.t.p.H.p.p.u.p.p.p.q.p.p.p.p.p.t.p.p.u.0.p.p.p.p.d.p.0.p.9.7.6.>.&.-.@.@.*.$.@.@.@.@.@.+.+.+.@.+.+.+.@.@.X.X.@.@.+.@.@.@.+.+.+./ / a @ @ & O % O @ O & O & & O = @ * * ` zXlXnXbXvXBXBXbXbXbXbXmXkXkXkX5X*X).).[.).).[.[.(.`.[.(.).).).(.].",
"_ ...._ ..} .._ ( +...( _ ..[ .._ .._ _  .`  ._ ` ^  .^ ` / ^ ^ ^ ^ ^ T / Q ~ 4 # # # @ # # 9 9 *.H.m.H.H.H.H.H.H.m.E.m.E.E.E.m.m.F.F.F.F.F.F.A.E.E.E.E.E.E.E.E.E.E.E.E.E.E.m.E.E.K.E.E.E.E.E.F.F.E.E.E.E.E.E.m.E.E.H.m.H.M.2.7.| [ ) [ l l - @ @ O X X X $ O   a z.z.1X9X<X9X9X0X0XqX0XqX0X0XwXqX0XwX0X0XW.g.j.f.f.a.l.f.d.d.p.a.p.p.a.l.M.M.H.E.K.W.E.W.E.!.~.!.W.~.~.E.~.W.~.!.!.!.!.~.~.H.~.!.Q.!.W.W.W.Q.W.Q.Q.Q.!.!.!.Q.!.~.!.~.~.!.~.~.W.~.!.!.~.~.H.~.~.Q.Q.~.Q.H.~.!.~.~.~.~.!.!.!.E.~.W.W.Q.W.W.W.W.W.Q.E.!.H.W.!.I.!.I.d.r.s @ @ # @ @ # @ @ @ @ - - $ @ 0 H.v. X}.}.].(.[.(.Q.~.~.~.~.~.).~.).!.).~.).Q.~.~.~.~.~.[.~.~.~.).).!.~.).~.~.~.).!.~.).~.~.~.~.~.~.~.~.~.~.~.~.~.!.~.!.~.~.!.~.!.!.!.~.Q.Q.~.~.!.~.!.~.!.~.~.~.!.~.!.(.!.(.(.!.~.~.~.~.~.!.~.!.~.~.~.Q.!.^.Q.!.^.(.!.!.!.(.I.W.n.i.a.2.7.2.2.7.-.7.7.7.7.2.2.2.t.2.t.7.2.7.2.7.-.7.1.3.1.7.2.7.6.q.%.t.[ j b > : & : & & & : & & & : : ; ; - 0 p t.H.r.7.7.1.-.6.-.6.-.-.-.-.-.-.-.&.-.-.-.t.-.6.1.6.9.7.p.p.p.p.a.p.p.p.H.0.a.k.p.l.a.k.p.p.H.a.q.p.a.H.q.u.a.p.H.a.p.p.a.a.a.p.H.0.a.p.k.p.p.k.p.k.p.a.H.0.p.t.p.p.u.p.p.p.H.t.p.p.p.p.u.p.p.p.p.H.p.p.p.d.p.p.d.0.p.0.0.p.9.1.7.-.t.*.$.%.*.#.%.@.@.+.+.+.+.+.@.@.+.@.@.+.@.@.@.@.@.+.+.+.D D 6 @ O X % X % O X = % @ = X = & * * #.zXcXnXbXbXbXbXbXbXbXbXkXkXkXSX*X*X).[.).[.[.).(.[.[.(.[.(.`.).[.(.",
"..[ } +.} +.} ........+.( ..} } _ .... . . . . . . .` { ` ^ ^ ` ` ^ / ) Q R Q # # # # # # # * # c q.a.H.H.H.H.H.H.m.E.F.H.E.E.E.F.F.m.E.F.F.E.E.E.E.E.E.E.m.F.E.E.F.E.E.E.E.E.E.A.K.K.E.E.E.E.E.E.E.E.H.E.E.E.E.E.N.m.m.M.a.+.:.) [ [ [ n n # @ $ X O X O O X X e z.z.qX9X9X9X0X9X9XwXqX0XqX0XwXwXwXqX0XqX#Xb.b.b.M.b.M.b.b.b.b.x.n.J.H.K.I.I.W.!.!.W.!.W.!.!.~.~.!.~.!.~.!.~.W.~.~.!.Q.~.~.~.!.Q.!.Q.!.Q.Q.!.Q.Q.!.Q.W.Q.Q.!.Q.~.~.~.~.H.!.W.~.!.~.~.!.!.~.~.~.Q.Q.Q.Q.~.!.~.~.~.~.~.H.~.~.~.~.W.W.W.W.W.W.W.!.!.~.W.!.W.I.E.!.I.k.k.j @ @ : @ @ @ - @ - @ @ @ - @ n J.J.].}.}.[.).(.).~.~.~.~.~.~.~.~.~.).~.~.).Q.~.Q.~.~.~.~.).~.~.Q.Q.).Q.).).~.~.~.).!.~.(.].].!.~.~.~.~.~.~.~.~.!.~.~.~.!.!.~.!.~.~.Q.Q.Q.Q.!.~.!.~.~.~.~.!.~.~.~.~.!.!.!.~.!.!.~.~.!.!.~.~.!.~.!.!.~.~.^.!.^.^.Q.!.^.!.!.W.x.x.7.7.2.2.2.2.2.7.7.7.-.-.7.7.2.7.2.2.7.2.2.2.t.7.7.1.7.6.1.1.6.6.6.t.&.*.E a a : # : : & : & & & : % & : @ ; ; l l H.H.H.H.p.7.9.-.7.-.6.1.1.-.6.-.1.1.1.6.7.7.9.0.i.a.k.a.p.k.p.a.q.H.0.H.p.p.k.p.a.a.a.p.p.u.0.p.p.p.a.p.a.a.a.p.q.a.p.a.u.q.H.a.p.p.p.t.k.p.a.k.p.p.p.p.p.p.p.H.p.p.q.H.p.p.p.p.p.u.q.H.q.H.p.p.p.t.p.p.d.p.0.k.p.d.0.p.d.0.p.0.0.0.7.q.6.7.6.-.-.-.-.$.$.@.+.+.o.@.@.@.@.@.@.+.X.@.@.+.O._ j j & @ @ X O % X @ X @ X & = & = + 3 6 >.nXnXMXbXbXbXbXbXbXbXkXmXkXCXkX5X*X).[.[.[.(.].).].).].(.(.[.(.~.].",
"| | ....| ..+.| +.} +...| [ +.+.....}  ... . . . . .^ ` ^ ` ^ ^ ^ ^ T ` ) U P # # # # # # # : * c p.0.J.H.H.H.H.m.H.E.A.F.m.E.m.F.F.F.F.F.E.K.E.A.K.E.E.E.E.E.E.H.E.E.E.E.F.E.F.E.K.K.K.E.F.E.F.F.E.E.F.E.E.F.F.F.m.F.m.m.u.| +.) [ ) [ l l @ $ - $ $ O X . X . e z.z.<X9X9X9X9X9X0X0X0X0X0X0XeXqXwXwXqX0XXXm.n.b.M.b.b.b.b.M.x.M.H.H.n.J.W.W.W.!.!.W.Q.~.~.~.!.W.~.~.~.~.~.!.~.!.~.H.~.~.~.!.!.!.Q.~.W.W.Q.~.E.W.Q.!.Q.W.!.~.W.~.H.~.~.~.~.~.!.!.~.~.~.!.!.!.~.E.~.~.Q.!.!.~.E.~.!.~.~.!.~.Q.E.W.Q.W.W.W.!.!.~.W.!.!.E.!.W.W.E.I.k.k.l - @ @ @ # @ - $ - @ @ - @ @ n J.J. X].}.].).).(.~.~.!.~.).~.~.~.~.~.~.).Q.).~.~.~.).!.~.~.~.).~.).Q.~.Q.!.).~.~.~.~.~.].!.!.(.~.~.~.).~.~.!.~.!.~.~.~.!.!.~.~.~.~.~.Q.Q.~.~.~.!.~.!.~.!.Q.).!.~.~.!.!.(.~.~.!.!.~.!.~.~.!.~.~.~.!.~.!.!.Q.^.!.^.Q.(.!.!.P.M.x.9.u.2.2.-.7.7.7.-.7.-.7.7.t.2.7.2.7.t.2.7.t.2.2.7.2.7.1.6.6.1.6.7.5.*.%.E n a - - : : & & & : & & & : : ; ; ; d d H.H.U.H.p.7.7.6.1.-.1.1.-.-.1.-.-.1.-.6.8.7.7.0.0.p.d.f.d.p.k.a.0.p.p.p.p.p.H.0.a.p.H.p.p.0.p.p.p.a.H.p.a.u.a.a.a.H.0.a.a.u.p.a.q.u.a.H.a.k.p.p.p.p.p.p.H.p.p.p.t.p.p.p.p.p.p.p.t.p.p.p.H.p.p.p.p.p.p.u.d.d.0.d.p.r.p.p.0.0.p.0.0.0.q.q.7.6.6.t.t.t.*.*.-.@.#.+.@.@.@.@.@.@.@.@.@.+.:.+...[ l k & & @ % % = X O X @ & X = & O O 6 3 <.MXnXMXlXBXbXBXbXbXbXBXlXbXkXBX*X*X_.).'.[.~.].[.oX[.].~.[.(.].).(.",
"#.$.@.@.+.+.+.$.$.$.%.@.;.*.@.@.+.+.@.@.o.$.o. .O. . . .{ `  .^ ` ^ ^ ^ / F F # # * ; @ # # # # 4 / ( n.H.H.H.K.H.m.m.F.F.F.E.E.m.F.m.F.F.F.F.K.E.K.K.F.F.H.F.E.E.F.E.F.H.F.E.K.E.A.A.E.E.F.H.E.E.E.E.H.E.F.E.H.F.F.m.j.f.;.) | | [ ) [ n n $ @ $ @ @ @ X X X . e z.z.1X<X<X6X9X9X0X0XeXqX0X0X0X0XwX0X0XwX8XW.Q.b.Z.Z.A.A.A.K.P.E.E.I.!.!.!.I.!.!.!.W.~.Q.~.H.~.!.!.~.~.~.!.H.!.!.!.~.~.Q.~.!.W.~.W.Q.Q.~.Q.~.Q.Q.!.!.Q.Q.Q.!.~.!.~.~.~.Q.Q.~.~.!.~.~.~.!.!.W.W.!.~.W.W.Q.!.~.~.!.~.E.~.W.W.~.~.W.W.W.!.!.~.E.~.W.W.W.!.!.W.!.!.I.k.k.l @ @ & @ - @ @ - $ - @ @ $ @ k U.I.].[.[.).].).).~.~.~.).Q.~.~.).).~.~.~.~.Q.~.~.~.~.).~.~.~.!.~.).!.(.~.~.~.~.).~.~.~.!.~.~.~.).~.~.~.~.~.~.~.~.~.!.!.~.~.!.Q.!.~.!.!.~.Q.!.~.!.~.~.~.!.!.!.Q.!.!.!.~.!.~.~.~.~.!.~.!.!.!.!.!.~.~.!.~.^.!.(.(.!.!.!.!.K.f.7.u.-.2.2.2.7.7.-.7.7.2.1.7.-.2.2.2.2.2.2.2.2.2.2.2.2.2.6.6.1.2.6.1.6.t.' +.v 0 < : - & : % & & & & & & : : & ; : v G [.[.4X].P.k.l.9.6.6.1.1.6.2.6.7.9.7.7.0.p.p.d.d.a.k.d.d.p.l.a.k.H.p.a.p.a.p.p.u.p.p.0.u.p.H.p.p.p.a.u.p.H.q.p.a.a.a.u.p.H.0.H.p.H.p.p.a.p.p.H.p.q.H.p.p.0.u.p.p.H.p.p.p.H.t.p.p.H.p.p.p.q.u.p.p.p.p.H.q.0.d.0.d.p.p.p.r.p.p.p.r.0.p.p.p.0.i.p.q.0.0.9.6.7.$.@.+.+.@.X.+.X.+.@.+.:.@.+...+.Q 0 9 O X X O % X X @ O @ @ @ & O # & 8 7 w.MXMXvXbXbXBXlXbXbXbXbXbXbXkXBX*X*X).[.[.~.].~.H.oX].~.[.~.).).).[.",
"l.f.l.l.l.l.M.c.l.v.M.x.M.l.M.M.l.l.g.f.f.f.k.a.i.4.4.$.@.o.O.}  .^ ` ^ ( N M + # ; & & # * : # ; L b 6.K.H.H.H.m.F.E.F.m.F.F.F.F.F.F.F.F.E.G.K.E.A.m.E.E.E.E.E.E.E.E.E.E.K.E.E.E.E.E.E.E.K.E.A.E.F.E.F.E.H.E.E.E.H.m.y.t.| { ) ) [ [ ) 0 0 # $ @ $ $ O X X . . e z.z.1X9X9X9X0X0X0X0X0XeX0X0XwXwXwXwXwX0XwX$X$XA.A.A.W.K.W.W.W.W.I.!.W.!.!.W.!.!.!.~.~.!.~.~.!.!.!.~.H.~.~.~.~.~.Q.!.!.Q.Q.W.Q.W.Q.Q.W.E.!.Q.!.!.!.Q.!.!.!.~.!.!.!.W.Q.Q.~.~.E.Q.!.H.~.~.!.!.!.!.!.W.!.Q.~.~.W.E.~.H.Q.W.W.!.~.W.W.E.!.W.W.Q.H.W.W.W.W.!.!.!.H.U.k.k.j @ @ @ : - @ @ @ $ ; ; # $ $ Z I.I.}.}.[.).).).).).~.~.~.~.).).!.~.Q.).Q.).~.).).).Q.~.Q.Q.).~.~.(.(.!.Q.(.Q.).Q.~.~.~.~.~.(.~.~.~.!.~.~.~.~.~.!.~.!.~.~.~.~.~.Q.Q.!.~.~.~.~.~.~.~.!.!.~.).!.^.Q.^.!.~.!.~.~.~.~.).!.~.~.~.Q.!.^.~.^.!.(.(.!.^.!.!.K.K.f.2.2.2.2.7.2.7.-.2.2.2.2.2.2.2.2.2.2.t.2.7.2.2.7.t.7.6.t.1.6.3.6.6.6.6.6.%.[ / l > > ; - : : & : & & & : : # : : ; ; ) /  XoX[. X].W.!.n.h.f.9.7.8.9.i.9.d.d.d.d.d.p.a.d.p.d.k.a.p.a.k.p.u.p.a.a.a.p.p.p.p.p.p.a.a.p.a.H.p.p.a.a.a.a.a.a.p.k.a.a.u.q.0.u.u.a.a.p.p.p.0.u.p.p.H.p.p.p.H.t.p.p.H.p.p.p.H.t.p.p.H.p.p.p.H.t.t.p.p.0.k.0.d.d.0.p.p.p.q.H.p.0.p.0.r.p.d.p.p.0.d.0.0.0.p.t.*.+.@.@.@.| @.@.@.@.@.*.+._ ( c , > X @ X & X & X @ @ @ & O O & & O r r x.MXMXvXBXvXbXbXbXbXbXbXbXbXhXhX*X*X~.oX[.[.oX[.[.[.[.~.].~.).].).].",
"l.k.l.h.l.k.M.M.M.M.M.M.M.l.M.M.l.f.l.g.l.f.d.f.i.4.4.o.o.X... . .` ` ^ ( N k + : # & & : # * : w k L 0.H.H.K.J.K.m.A.F.F.F.F.F.F.F.F.F.F.E.A.E.G.F.E.E.F.E.E.F.E.E.m.K.E.F.E.H.F.E.E.E.E.H.K.E.E.E.E.E.E.F.E.E.E.m.m.;.2.| { { ) [ / ) 0 0 $ @ $ @ $ @ X . X . e z.z.1X<X9X9X0X0XeX0XrX0X0X0XeX0XqX0XqXwXwXXXXXA.A.A.E.W.E.P.W.!.E.W.W.W.!.!.!.!.!.H.~.!.!.~.~.!.!.!.~.!.~.~.~.!.!.!.!.Q.Q.!.Q.W.Q.Q.~.Q.~.Q.!.Q.!.!.Q.~.~.~.W.!.!.!.Q.Q.E.~.Q.H.~.~.!.!.~.W.!.!.!.!.W.W.W.Q.Q.Q.~.~.!.W.!.!.H.!.W.!.W.W.!.!.~.W.W.W.W.E.I.!.!.U.k.k.g @ @ - @ - @ - @ @ ; ; $ $ # G I.I.}.].}.).~.].~.~.).~.~.~.~.Q.~.Q.).Q.~.!.~.~.~.~.Q.).~.).Q.~.(.!.).(.).Q.).Q.~.Q.).~.~.~.~.~.~.~.!.).~.~.!.~.~.!.~.!.Q.Q.Q.!.Q.Q.~.!.~.!.~.!.~.~.~.~.Q.Q.^.!.^.~.~.~.~.!.~.!.).!.!.~.!.!.~.Q.!.!.!.^.!.!.^.!.!.!.P.K.f.2.2.2.2.2.2.7.7.t.2.2.2.2.1.2.2.t.2.2.7.2.2.t.2.2.2.2.2.6.1.1.6.t.6.6.6.&./ / l ; > ; : : : % % % & & & ; : ; : ; 0 / /  X XoX[.[.W.W.Z.h.h.9.7.3.9.9.p.p.d.d.d.d.d.a.d.d.p.a.d.k.p.k.a.0.H.a.p.p.p.q.H.0.H.p.p.H.p.u.0.p.0.H.p.a.u.q.H.a.a.a.k.a.H.a.p.q.H.p.p.H.p.p.p.p.p.t.p.H.p.p.p.p.p.t.p.a.p.p.p.p.p.t.p.H.p.p.p.H.p.p.p.p.d.d.0.q.q.H.p.q.p.0.p.0.p.p.p.0.0.p.p.p.0.d.d.0.-.@.+.@.+.@.@.@.+.X.@.@.+.*.} ..C > > = X O X O X @ O @ O & @ @ # & # r t x.MXMXMXzXBXbXbXbXbXbXbXkXbXkXkX*X*X).).[.[.oXH.[.oX[.[.~.].~.].).).",
"!.W.!.!.!.!.~.~.~.~.!.~.~.].~.~.Q.Q.!.W.!.!.W.W.S.A.D.b.f.h.p.7.9.,.#.#.o.y y # # ; * # : # # * # 5 5 ! M.c.H.H.K.m.m.E.A.F.G.E.F.F.G.A.E.E.E.A.A.E.F.F.E.E.H.E.E.E.E.E.E.A.E.E.E.E.E.E.F.K.F.K.E.m.E.E.E.E.H.E.m.m.u.@.X.{ { { { ) ( P > > $ @ @ @ $ O X X X . e V.V.1X9X9X9X0X0XeX0X0XrX0X0X0XwXwXqXwXwXuX8X8X!.J.m.I.W.E.W.W.I.!.!.!.!.!.!.!.E.!.!.!.!.H.~.~.!.~.~.~.~.~.H.~.~.~.~.!.Q.Q.~.!.~.Q.W.~.Q.Q.Q.!.~.~.H.~.E.~.!.~.W.~.!.Q.W.Q.E.Q.~.~.~.~.~.W.!.!.!.!.W.!.Q.Q.W.Q.Q.Q.Q.~.W.!.!.W.W.W.W.W.W.W.!.~.W.W.Q.!.!.E.I.!.I.k.k.j @ @ @ & @ - X @ @ - @ $ $ @ ~ I.Y.].[.}.).).(.~.!.).~.).~.).!.Q.Q.).Q.~.~.).~.~.~.!.~.Q.Q.Q.).(.!.(.^.).).~.).Q.~.~.~.).).~.).Q.~.~.Q.~.~.~.~.~.~.!.~.!.Q.!.Q.~.~.!.~.~.!.!.~.~.~.~.!.!.Q.!.!.!.!.~.~.~.~.!.~.!.~.~.~.~.!.Q.^.!.^.Q.(.!.!.!.!.!.A.f.f.2.-.2.2.u.2.2.7.2.7.2.7.2.2.-.2.2.-.2.2.2.7.2.2.2.2.2.7.2.1.6.1.7.7.6.6.6.*.R R 0 ; ; ; - & : : & : : % : : : : * ; 0 t.t. X].oX[.}.[.}.).W.W.Z.l.l.d.f.d.f.d.l.d.d.d.p.f.p.d.a.d.p.a.p.l.p.k.q.a.a.H.H.q.p.a.q.p.0.u.p.p.a.a.a.a.p.a.a.a.a.p.a.p.a.a.u.a.p.a.p.p.t.p.p.p.H.t.p.p.t.p.p.p.H.t.p.p.H.t.p.p.H.t.p.p.t.p.p.p.H.q.p.p.p.d.k.0.p.p.p.r.0.p.p.0.p.p.p.0.p.0.0.p.r.p.d.q.0.t.@.*.X.@.@.@.+.@.+.@.:.+.+.) ~ d @ # X @ X O X = X O @ @ # @ & # @ # y d D.MXMXnXBXmXvXbXbXbXbXbXhXhXBXhX*X*X).'.[.).).[.H.oX].~.[.].~.~.].).",
"!.(.!.!.!.!.!.!.~.~.~.~.[.H.~.oX!.Q.~.Q.W.Q.W.Q.W.!.^.W.W.!.W.G.G.Z.x.M.9.2 5 # > # * : : : : * # ; # d &.&.H.K.K.K.K.A.A.K.A.K.F.F.E.A.E.A.A.G.A.K.E.A.E.E.E.F.H.K.H.K.K.E.E.E.E.E.E.F.m.K.K.E.E.E.E.E.E.E.W.H.a.a.;.| | { { { ) } ^ A # # # O $ @ @ X X . X X a V.V.1X9X9X0X0X9X0X0X0X0X9XwXwXwX0XwX0XwX8X7X8X).m.m.W.W.I.W.W.!.E.!.!.!.!.!.!.!.!.!.!.Q.!.~.~.~.!.~.~.!.!.~.~.E.~.!.~.!.Q.Q.E.W.Q.Q.W.Q.Q.Q.!.~.~.~.!.~.~.!.!.~.W.!.!.~.~.~.Q.~.~.Q.!.W.~.W.!.!.!.!.!.W.~.Q.!.~.~.H.~.W.!.E.!.W.!.W.W.Q.!.W.H.W.~.E.W.!.!.!.!.I.k.k.k @ X : : - X X - @ - # - $ $ / ].].].[.[.).].).~.).~.).~.~.~.Q.).~.~.~.).).~.).~.~.).Q.).).~.Q.(.).~.(.!.(.Q.).Q.~.~.~.~.~.~.~.~.~.~.Q.~.~.!.!.~.~.Q.~.Q.Q.Q.~.Q.~.~.~.!.~.~.!.!.!.~.~.~.!.~.!.^.!.~.!.!.!.~.!.~.!.~.!.~.~.^.!.(.!.^.(.!.!.!.K.K.f.2.2.2.2.2.2.-.7.2.7.-.2.2.7.-.2.7.2.2.-.2.2.2.2.t.t.7.t.7.t.7.6.1.1.6.-.6.-.6.' c C > # ; ; : - : & % : % = : = : & * ; 0 H.v.oX X X[.}.[.[.[.[.}.[.^.(.A.l.x.d.f.d.f.d.d.f.p.d.p.p.f.p.k.p.a.a.a.H.p.u.0.p.p.p.p.H.a.a.p.p.u.H.a.a.p.a.a.a.a.k.p.a.a.p.a.q.H.H.p.t.H.p.p.p.p.a.p.p.u.p.p.p.p.p.p.p.u.p.p.p.p.p.p.p.p.p.p.p.p.p.u.0.q.d.0.p.p.p.0.p.r.p.0.r.p.p.0.0.p.0.d.p.p.0.p.d.6.7.%.+.@.@.@.@.+.@.X.@.:.*.:.[ F F 8 O O @ X % O @ X @ @ @ @ @ & @ # # * h g I.MXNXvXvXNXbXbXbXbXbXbXBXkXhXBX*X*X).).~.oX~.[.].].H.].oXoX~.].).).",
"!.!.~.!.~.!.!.).~.~.~.~.H.H.oXH.!.!.Q.Q.Q.W.W.W.!.W.^.W.W.W.E.P.K.Z.x.c.8.2 2 # # # : # * : * & # w # l *.*.H.K.K.H.K.K.K.K.F.A.A.A.K.K.A.A.G.K.E.A.E.F.E.E.E.E.E.F.E.E.E.m.E.E.F.E.F.E.E.E.K.E.E.E.E.H.E.E.E.m.l.a.;.| | { { ! { ( ^ G # # # O @ # $ O X X X . a V.V.1X9X9X9X0X0X0XwX0X0X0X9XwXwX0XqXwXwXwX8X8X_.m.H.!.W.W.W.W.W.!.I.E.!.!.~.~.!.!.!.!.~.!.~.~.!.!.~.~.~.!.~.~.!.!.!.~.W.Q.W.~.~.W.Q.!.Q.Q.H.!.~.!.!.~.!.W.!.!.!.~.!.Q.Q.W.Q.Q.~.H.!.~.!.!.!.!.E.~.!.W.Q.Q.W.Q.!.H.~.~.!.W.!.W.W.~.W.W.~.~.!.W.W.~.W.W.~.H.H.!.I.k.z.j @ & - X & - & @ @ # @ @ # $ ( I.Y.{.].}.).).).~.).!.).!.~.~.).Q.~.~.~.~.!.).~.).~.Q.).Q.).Q.~.!.(.!.(.).(.).Q.).~.~.~.).).!.).~.~.~.).Q.Q.~.~.~.!.~.!.Q.!.Q.Q.Q.~.!.~.!.!.~.~.~.~.!.~.!.!.Q.!.!.!.~.~.~.~.!.~.~.~.~.!.~.!.^.^.Q.^.!.!.(.Q.!.K.K.a.7.8.1.-.-.2.2.2.2.2.7.2.7.7.7.2.2.2.2.u.-.7.2.2.2.2.2.2.2.6.7.1.1.1.6.7.6.-.t.+.c C > ; # - - : : & : : % : % : = : & # 0 c.H. X[.oXoX[.}._.[.}.[._.!.W.D.x.l.l.d.d.d.f.p.f.d.f.p.f.d.a.k.p.k.a.k.a.a.p.a.H.p.k.p.k.a.a.a.p.H.0.p.p.a.p.a.p.u.a.p.a.a.H.p.p.p.q.p.a.p.p.H.q.p.p.p.p.0.p.H.q.p.p.p.p.q.p.p.H.p.p.p.H.p.p.p.H.a.p.p.p.H.p.k.0.0.k.p.0.p.H.0.p.0.H.0.p.r.d.p.r.0.p.d.r.8.6.$.+.*.+.@.+.@.+.@.+.@.:.*.| K J 8 O O @ @ X X X X O O O @ @ @ @ # @ # g x T.NXMXBXvXvXbXbXbXBXbXbXBXkXkXkX*X*X).oX).~.~.[.[.~.oX].~.H.].].[.).",
"~.~.~.~.~.~.!.~.~.~.~.~.oXoXH.oX!.Q.!.Q.Q.Q.~.~.W.W.Q.W.^.!./.^.!.!.W.Y.e.* 2 # # ; : > : * * * # ; * 4 b k &.M.n.J.K.A.A.E.K.F.E.K.G.A.E.P.A.E.E.K.E.E.A.E.K.E.E.E.K.A.K.K.E.E.H.E.H.E.E.E.E.H.E.E.E.E.E.H.E.f.;.;.:.{ { { { { ) } ( N # $ o o $ $ O O X X . . s B.B.<XlX9X9X0X0X0X0X9XrX0XwXwXqXwXqX0X0XwXqX0X}.M.M.I.W.I.!.W.!.!.~.!.!.!.H.!.!.!.!.!.~.~.~.~.~.H.H.!.Q.!.~.Q.~.Q.W.Q.W.~.Q.~.W.Q.~.W.~.~.~.~.!.~.!.!.!.Q.Q.Q.Q.W.Q.~.W.~.~.~.~.Q.Q.Q.Q.!.!.!.!.!.!.W.!.W.~.!.!.!.!.H.!.W.W.W.W.E.W.W.H.!.W.~.~.H.W.W.~.I.!.I.U.k.z.g @ @ & & X @ @ 1 - ; $ # o # ' Y.(.[.[.`.).).~.).~.~.~.~.~.).~.~.~.~.~.~.~.!.~.!.).~.).~.~.~.~.~.!.[.~.~.!.Q.~.Q.~.~.~.~.!.~.!.~.Q.Q.~.~.~.Q.!.!.~.~.~.Q.~.~.!.~.~.!.~.~.~.!.!.~.~.~.~.!.!.!.!.!.!.~.~.!.~.~.~.!.!.!.~.~.!.~.!.!.Q.Q.!.!.!.A.l.f.u.-.1.4.y.7.7.2.2.7.2.2.2.t.-.7.2.2.2.t.2.2.7.2.7.2.6.2.2.2.2.t.6.6.9.1.6.6.&.t./ l l ; @ ; ; : @ : & & : = : : : : & * ; h ].I. X[.oX[.[.[.'.[.`.[.[.[.}.(.P.K.n.l.l.f.d.f.p.d.p.d.p.p.p.a.a.a.a.p.a.p.p.p.q.u.a.p.p.p.H.t.p.p.p.p.a.a.a.a.H.0.a.p.p.k.0.u.p.a.u.p.p.p.p.p.0.u.p.p.H.q.p.p.0.u.p.p.p.H.p.p.t.p.p.p.q.u.p.p.t.p.p.p.p.p.p.p.p.p.0.p.p.p.t.0.p.p.t.0.p.p.p.0.p.p.0.p.7.$.-.*.+.+.@.@.@.@.@.@.@.*.| *.[ G C , # @ O X & @ & @ & X @ @ @ @ O @ @ * z z _.nXMXvXBXvXbXbXvXvXbXbXkXBXBXBX*X*X).).).oXoX~.~.[.oX~.[.].~.~.~.N."
};
