/* XPM */
static char *result[] = {
/* columns rows colors chars-per-pixel */
"50 50 195 2 ",
"   c #000000",
".  c #0B0304",
"X  c #070709",
"o  c #080708",
"O  c #0A0A0C",
"+  c #080807",
"@  c #160304",
"#  c #180304",
"$  c #150F0D",
"%  c #15110E",
"&  c #0E0E11",
"*  c #0F1013",
"=  c #121215",
"-  c #191513",
";  c #1C1917",
":  c #15161A",
">  c #1A171B",
",  c #1A1A1D",
"<  c #17181D",
"1  c #22080A",
"2  c #340609",
"3  c #3B0709",
"4  c #220D10",
"5  c #271C13",
"6  c #231D1B",
"7  c #2A1918",
"8  c #341515",
"9  c #29211A",
"0  c #33261D",
"q  c #1C1C22",
"w  c #1F1E28",
"e  c #221D24",
"r  c #232325",
"t  c #2B2524",
"y  c #25252A",
"u  c #2B292C",
"i  c #2C2924",
"p  c #3B2C27",
"a  c #342C2A",
"s  c #372921",
"d  c #3B342E",
"f  c #2B2B34",
"g  c #352F30",
"h  c #323233",
"j  c #3A3A3A",
"k  c #383637",
"l  c #4C080B",
"z  c #4F0609",
"x  c #5F0E13",
"c  c #46161A",
"v  c #59070B",
"b  c #6C080D",
"n  c #7C070D",
"m  c #77070C",
"M  c #6B0C11",
"N  c #780C11",
"B  c #7E1A1D",
"V  c #66171B",
"C  c #433226",
"Z  c #513A29",
"A  c #5D2E32",
"S  c #423C34",
"D  c #4C373A",
"F  c #502F32",
"G  c #663530",
"H  c #5E422E",
"J  c #4A433B",
"K  c #594536",
"L  c #66482F",
"P  c #6C4C31",
"I  c #634B36",
"U  c #704E33",
"Y  c #6E5037",
"T  c #745135",
"R  c #72553C",
"E  c #353747",
"W  c #454446",
"Q  c #4B4B4C",
"!  c #45454B",
"~  c #564D42",
"^  c #584F46",
"/  c #554E49",
"(  c #5D5346",
")  c #424255",
"_  c #525253",
"`  c #54545A",
"'  c #5B5A5A",
"]  c #724D42",
"[  c #64564A",
"{  c #64594D",
"}  c #695D4E",
"|  c #635346",
" . c #635B54",
".. c #72584B",
"X. c #6A6052",
"o. c #706354",
"O. c #7E6F5E",
"+. c #756A5C",
"@. c #7E715E",
"#. c #5E5E65",
"$. c #5A5C78",
"%. c #5E617D",
"&. c #656566",
"*. c #6B6B6C",
"=. c #776C6B",
"-. c #7D7162",
";. c #727272",
":. c #7F7A74",
">. c #85080E",
",. c #8A0E13",
"<. c #9B0F16",
"1. c #930B12",
"2. c #89141A",
"3. c #AB0E15",
"4. c #A20C14",
"5. c #B90F17",
"6. c #B40F18",
"7. c #BB1019",
"8. c #B31018",
"9. c #913437",
"0. c #C31119",
"q. c #CC1019",
"w. c #CD1B23",
"e. c #C23A3F",
"r. c #805A3B",
"t. c #91564C",
"y. c #844F50",
"u. c #BC5558",
"i. c #966A46",
"p. c #856A52",
"a. c #83725F",
"s. c #AC784F",
"d. c #A5744C",
"f. c #AD7A51",
"g. c #A27D5E",
"h. c #B07F57",
"j. c #817261",
"k. c #8E7E69",
"l. c #867A6E",
"z. c #D9595C",
"x. c #C27B7B",
"c. c #D6666A",
"v. c #94826D",
"b. c #8F8477",
"n. c #9D8B76",
"m. c #B98E6A",
"M. c #A18E78",
"N. c #A5927B",
"B. c #8C8B8B",
"V. c #878584",
"C. c #908F8E",
"Z. c #9D958C",
"A. c #959595",
"S. c #9D9D9D",
"D. c #A49481",
"F. c #AC9A83",
"G. c #B19D84",
"H. c #A79F96",
"J. c #BCA78C",
"K. c #A0A0A0",
"L. c #AEAEAE",
"P. c #ABA8A3",
"I. c #B4B2B2",
"U. c gray72",
"Y. c #C3AB8E",
"T. c #C2AC92",
"R. c #C9B193",
"E. c #C7B398",
"W. c #D4BA99",
"Q. c #DABE9E",
"!. c #D2B998",
"~. c #CBBCA9",
"^. c #DCC29F",
"/. c #DFC4A2",
"(. c #D5CABB",
"). c #E2C7A5",
"_. c #E6C9A6",
"`. c #E7CCA9",
"'. c #E9CDA9",
"]. c #E8CAA6",
"[. c #EFD1AB",
"{. c #F2D3AD",
"}. c #F4D6B1",
"|. c #FBDBB3",
" X c #F7D8B2",
".X c #C5C5C5",
"XX c #CCCBCB",
"oX c #D2D2D2",
"OX c #DBDBDB",
"+X c #E2D5C5",
"@X c #F8E0C4",
"#X c #EEEEEE",
"$X c #E3E3E3",
"%X c #F5F5F5",
"&X c #FEFEFE",
/* pixels */
"                                                                                                    ",
"                                                                                                    ",
"                                  & q                                                               ",
"                                = q O                                                               ",
"                        O f w w O & < < < < q q r ! #.*.! <                                         ",
"                          q                           X j B.` O                                     ",
"                        q X                               X ;.'                                     ",
"                      X =                                     *.:                                   ",
"                      O O                                     , j X                                 ",
"                      =                                         = X                                 ",
"                      :         S 6 X - -.    { X   6 -     O   O X                                 ",
"                      =       + J.; 9 !./.X t /.X t !.a O } X.  X &                                 ",
"                      :       @.'.d /.|.|.i F.n., J.|.( G.F.=.j r X                                 ",
"                      : O ~ | ].{._.|.|.|.+.P.$X$XI.D.}.J.XX&XOX&.X                                 ",
"                      < - R.!.{.|.|.|.|.`.A.&X&X%Xj L.W.H.&X&X;.L.<                                 ",
"                      O , R.!.{.|.|.|.|.v.oX&X&X%Xh .XD.H.&X&XC.U.r                                 ",
"                        u R.!.{.|.|.|.|.v.XX&X&X#X> oXD.H.&X&XV..Xq                                 ",
"                        i R.!.{.|.|.|.|.W.b.#X&X&X.XI.W.n.XX&X%XB.O                                 ",
"                        u R.!.{.|.|.|.|.}.M.B.XXOXK.N.|._.l.C.V.y                                   ",
"                        u R.!.{.|.|.|.|.|.{.R.a.a.E.|.}.!.'.Q.(.r                                   ",
"                        u R.!.{.|.|.|.|.|.|.|.|.|.|.|.|.N.|.|.+Xr                                   ",
"                        y Y.!.{.|.|.|.|.|.|.|.|.|. XY. X'.|.}.+X<                                   ",
"                        < M.W.'.|.|.|.|.|.|.|.|.|.a.O /.|.|.|.P.&                                   ",
"                        o / W.W.|.|.|.|.|.|.|.|.|.S O Q.|.|.@X_ X                                   ",
"                          : -.!._.|.|.|.|.|.|.|.|.K J }.|.|.:.:                                     ",
"                            y ( Y._.|.|.|.|.|.|.|.}.}.|.^.' -                                       ",
"                      X : r A 9.B G ] | t.t...-.b.=.| / r &                                         ",
"                    = y y.e.w.q.5.v 2 M q.q.,.! S.L.c r                                             ",
"                  < D u.w.q.q.<.M <.0.q.q.q.0.C ` P.=.M :                                           ",
"                = a c.q.q.q.,.. 7.q.q.q.q.q.q.V Q ` A.2.c O                                         ",
"                < x.w.q.q.6.. l q.q.q.q.q.q.q.,.W Q ' A <.,                                         ",
"              < F z.q.0.3.l   n q.q.q.q.q.q.q.3.k Q Q p 5.c : X   O O O X                           ",
"              r 4 M 1.>.n 1   b 5.q.q.q.q.q.q.6.h Q Q g 6.<.4 7 < a / J : q +                       ",
"            & V.~.+.8 z m .   m >.4.7.q.q.q.q.3.r k S i 5.0.3 m 7 -. Xj.-.~ *                       ",
"            : E.|.|.}.v.p . . m n n >.1.3.5.0.>.q r r 8 4.1.2 3 k.J |.a g > O                       ",
"            , ).|.|.|.|.|.o.  # @ @ @ # # @ @ . + X o . # @ . 6 `.S E.( '.u                         ",
"            r ].N.R.|. X|.k.. 5 5 5 5 5 5 5 5 5 5 5 9 9 9 9 % @.|.{ 9 ( b.:                         ",
"            > J.J R./.} |.a.$ s.s.s.s.s.s.s.s.s.s.f.f.f.m.m.K R.}.S `.N.: X                         ",
"            X y 6 R.n.} ].} f i.s.s.s.s.s.s.s.s.s.s.s.s.m.m.C { k.^ ).o.<                           ",
"                * < t S } k f C r.i.d.s.s.s.s.s.s.s.s.d.g.p.f : : = < q                             ",
"                      & = = X r Z H H I P T T T T U P R +.s y q * X                                 ",
"                          < q h j j k h i 0 L P P Y R I C ;.K.S.&.=                                 ",
"                        . : O *.K.K.K.K.S.*.9 0 0 9 - ' A.K.K.K.K.j                                 ",
"                  X - = q k W = B.K.K.K.K.S.y = r _ h &.K.K.K.K.K.`                                 ",
"                f r E $.%.j Q r *.S.K.K.K.K.f & u _ h &.K.K.K.K.K.`                                 ",
"                X < ) : E j _ r ;.K.K.K.K.K.k q = r % j Q Q Q Q Q u                                 ",
"                  q * = f , r O j W W W W W y X < = = : = = = = = X                                 ",
"                          = = = & = = = = = O                                                       ",
"                                                                                                    ",
"                                                                                                    "
};
