/* XPM */
static char *result[] = {
/* columns rows colors chars-per-pixel */
"50 50 208 2 ",
"   c #130F0D",
".  c #15110E",
"X  c #19120F",
"o  c #171311",
"O  c #1B1512",
"+  c #1E1916",
"@  c #1E1A19",
"#  c #221916",
"$  c #241C1A",
"%  c #291E1B",
"&  c #211715",
"*  c #2B211E",
"=  c #26211F",
"-  c #32231F",
";  c #262121",
":  c #2D2421",
">  c #2E2A29",
",  c #2F2826",
"<  c #332623",
"1  c #342926",
"2  c #3A2B26",
"3  c #352C29",
"4  c #3B2E2A",
"5  c #382521",
"6  c #3C312D",
"7  c #37302C",
"8  c #373131",
"9  c #3D3531",
"0  c #422F2B",
"q  c #412B24",
"w  c #44332D",
"e  c #423532",
"r  c #4A3731",
"t  c #443A36",
"y  c #4B3A35",
"u  c #453C3A",
"i  c #4B3D3A",
"p  c #513C37",
"a  c #503E3B",
"s  c #4D423D",
"d  c #47403C",
"f  c #54423D",
"g  c #59453E",
"h  c #533E40",
"j  c #4D4543",
"k  c #544542",
"l  c #594642",
"z  c #544944",
"x  c #5C4A45",
"c  c #5B4D4A",
"v  c #554B4A",
"b  c #5E524D",
"n  c #5A564A",
"m  c #5C5451",
"M  c #5E5B55",
"N  c #614B45",
"B  c #634E4A",
"V  c #63524D",
"C  c #69544F",
"Z  c #635654",
"A  c #6A5652",
"S  c #665A54",
"D  c #6C5A55",
"F  c #6D5D59",
"G  c #645F5A",
"H  c #715B56",
"J  c #725E59",
"K  c #715754",
"L  c #6D625C",
"P  c #6C6659",
"I  c #74625C",
"U  c #79635E",
"Y  c #716C59",
"T  c #756560",
"R  c #7B6662",
"E  c #766962",
"W  c #7D6A64",
"Q  c #7D6D68",
"!  c #7E716A",
"~  c #767268",
"^  c #6D6860",
"/  c #826B66",
"(  c #846E6A",
")  c #886F6C",
"_  c #84726B",
"`  c #8A746E",
"'  c #87796F",
"]  c #887F6A",
"[  c #8C6E71",
"{  c #877571",
"}  c #8C7671",
"|  c #867A72",
" . c #8B7B74",
".. c #8E7F79",
"X. c #927C76",
"o. c #947C7A",
"O. c #9C7B7D",
"+. c #947476",
"@. c #88816E",
"#. c #8E8277",
"$. c #8D827A",
"%. c #8C8A75",
"&. c #928D76",
"*. c #94837C",
"=. c #9B847E",
"-. c #9C8B7D",
";. c #95897C",
":. c #98957E",
">. c #997D82",
",. c #A17E82",
"<. c #9C8581",
"1. c #9C8B83",
"2. c #988A83",
"3. c #9E9085",
"4. c #9C9A81",
"5. c #9F9289",
"6. c #A28684",
"7. c #A38C85",
"8. c #A38689",
"9. c #A68D89",
"0. c #A98E8A",
"q. c #AA8A89",
"w. c #A49285",
"e. c #A4938A",
"r. c #AA928C",
"t. c #A5988C",
"y. c #AA998F",
"u. c #A19B82",
"i. c #AE8E91",
"p. c #B38F95",
"a. c #AB9691",
"s. c #AD9B92",
"d. c #B39396",
"f. c #B99295",
"g. c #B39D94",
"h. c #B69499",
"j. c #BA9A9B",
"k. c #BA9B9A",
"l. c #A4A086",
"z. c #A4A288",
"x. c #AAA48B",
"c. c #AFA98F",
"v. c #B0A88F",
"b. c #B4B38D",
"n. c #ADA097",
"m. c #AFA991",
"M. c #B2AB93",
"N. c #B5A299",
"B. c #BAA49B",
"V. c #BCA99D",
"C. c #B8A496",
"Z. c #BBB39A",
"A. c #B9B693",
"S. c #BC9BA0",
"D. c #BEA4A1",
"F. c #BEABA1",
"G. c #C29F9D",
"H. c #C1B698",
"J. c #C1A89A",
"K. c #C99EA6",
"L. c #C3A4A5",
"P. c #C1ADA3",
"I. c #CAA9AB",
"U. c #C7A6AA",
"Y. c #C4B2A5",
"T. c #C3BCA2",
"R. c #CAB4A9",
"E. c #C8B6A9",
"W. c #D0B9AE",
"Q. c #D2AAB2",
"!. c #DDAEB9",
"~. c #D9ADB4",
"^. c #CEBBB2",
"/. c #DDB2B9",
"(. c #D7B8B4",
"). c #D1A4AC",
"_. c #E3B5BC",
"`. c #C6C39B",
"'. c #CAC2A7",
"]. c #CECBA3",
"[. c #CDC4AC",
"{. c #CBC9A7",
"}. c #D0CBA3",
"|. c #D3CBAB",
" X c #DBDCB2",
".X c #DAD5B1",
"XX c #D2C7B0",
"oX c #E0DEB8",
"OX c #E2CCBD",
"+X c #E5E8B7",
"@X c #EFEBBE",
"#X c #E1E1B9",
"$X c #F0E4BF",
"%X c #F0EFBE",
"&X c #EFF2BC",
"*X c #F0F1BF",
"=X c #EBB9C4",
"-X c #E5BAC0",
";X c #F2BCC7",
":X c #F2BDC8",
">X c #F2C3C6",
",X c #F1CAC5",
"<X c #F3C2CC",
"1X c #EED8C1",
"2X c #F1D4C2",
"3X c #F0DDC1",
"4X c #EFCCD2",
"5X c #F0E1C0",
/* pixels */
"; u x k k k z k f k t $ v Z Z Z m Z Z M Z m Z Z j > > m v 8 @ c Z Z Z m Z Z t @ 8 8 > > > > ; $ 8 3 ",
"# y / / / / / / / J w # R 0.9.9.0.9.q.9.9.0.9.9.[ e ; B l r ; 8.r.0.0.0.9.9.c o @ @ O o . O O . % < ",
"o # 0 r p p r 0 q 2 O % l K / +.O.>.<.>.O.*.o.} D - O - % O b o.} X. .} | ( u O x I _ Q _ E 6   . # ",
"o X & # % % # # & X     $ % - < < 3 3 1 < < < 1 < o   @ O O * 3 4 4 2 1 < 2 # F g.*._ _ _ ' V L y.V.",
"5.| i % w k A I I Y Q Q S u o O $ 1 9 t t 3 # 3 9 t D F.F.s...P z i t 8 + e z  .I F H D H F w 2.P.1.",
"F s % y.C.C.g.-.*. ._ R S 3 z E.Y.B.g.7.{ F 1 a.s.s.g.s. .}  . .1.e.7.b 7 _ H K D H U R / W 6 b =./ ",
"A : : y.=.0.9.6.<.6.H.Z.x.%.t.m.m.m.m.m.m.:.&.[.Z.M.M.v.M.v.v.v.m.v.z.:.&.T.V.C.X./ / / / W w = H / ",
"f # 6 B.i.r.0.0.r.T.r.0./ # j I J F J F F e 1 P.o.W / W R U U I J H N 2 # r.w.( j./ / ( / U r O e R ",
"w O t g.0.0.0.0.0.'.9.9.=.3 1 T F D F F D 0 : 2./ / / / / W / / / U N 4 & =.7./ j./ / / / F r + * N ",
"*   * A K D K K C M.l g f # O z k k u 9 % $ + ^ W I A C A A A B x y w 6 O f f f q.g a g f y r $   < ",
"t i i 6 $ X & : 1 l.3 3 3 : # o o . @ %.|.Y j %.t G P , ] ^ u u j j j z k 9 O O o.$ * % % & + O @ : ",
"B.P.N.1.z 9 =.1.1.'.1.7.1.7.e. .t L n.n.%.5.M.t.$.^ %.M M ~ N.Y.F.N.7.>. .I 3 E S.1.r.*.Y * s _ 5.a.",
"/ _ / R c s *.U U Z.J U I I I V < _ P G m S 4.v D &.Z z 2.z.E ! W J F Z D z s r.G.W I I V 9 ' W W W ",
"W W R R c z C.R I Z.U I I U U k 9 R H K K A K D D A k t | F D D D D D D D x 3 F h.D H D c 7 s.6.<.6.",
"W R R R z u R.o.` T.o.*.=.=.7.` x ( / / / / / / / W U % Z D D Z A B c l l t < U k.R R R D , g.r.0.0.",
"x l a p < 4 k.g.e.'.r.0.q.w.0.H 4 / / / / / R / / / W % $ 0 e 0 0 4 0 0 2 % & D j./ / / A = =.0.0.0.",
"0 2 - 1 % : H <.9.'.9.1.=.=.-.-.b.`.].].}.}.}.}.}.}.].A.b.A.H.H.J.G.B y y * # A d.F J J z O f H ) X.",
"X O . .   + 6 s f x.y w 0 q q Y *X&X&X&X+X+X+X+X+X+X&X&X&X@X$X3X,X>Xh : < & . * >.* % % + o * < : ; ",
" .-.*. .E b t 1 * :.O 1 B S Y :.&X&X&X X' L 3 L P s t M.@X$X3X,X>X<XI e 3 1 # Z L.| ` #.*.*.-.X.E 7 ",
"R.J.V.V.V.V.N.t.;.Z.* G D.J.g.C.*X*X*X XI s j ^.W.| z ^.Y.2X,X>X=X:Xk.-.#.` s ..j.I F W _ ` ` | | j ",
"e.9.<.| U D A A S x.1 t V I L &.&X&X&X XV = x..X|.A.3.N.r.L.<X;X;X;X} A C l < c d.D D D A V V B l $ ",
"0.0.0.q.6.=.} E D z.u 1.f t l @.&X&X&X].- X A.&X@X$X1XB.r.a.=X;X;X;Xf.9.=.| B 4 8.i x l f a y 0 0 $ ",
"0.0.0.0.9.0.0.9.} z.u T I # . n &X&X&X].. . c.@X$X1X,X~.r.r.=X;X;X;Xk.0.q.0.2.6 O.5 l k l l l k l e ",
"0.0.0.0.0.0.9.9.I u.9 A b , I y.&X&X&X+Xt.7.|.5X2X,X>Xp.D W =X;X;X;Xh.0.0.0.9.F o.% f l g l f l g a ",
"D U ( } +.` W D s :.z A t t 6.H.&X&X@XoX9.6.XX,X>X>XQ.v g J ;X;X;X;X>.) } ` / D o.$ f l g g l g a l ",
"x l l k g f f y : 4.V t . 3 B ] &X*X@X.XB Z Q [ ) c O o < S.;X;X;X;XU k k f f f +.o e t i a i a h k ",
": : = # # @ + + # 4.: $ $ ; : P 5X&X@X[.% $ @ X o O % 7 >.;X;X;X;X;Xi o O O O + +.@ O O O O o O $ # ",
"N.1.Q i s *.#.#.$.Z.*.2.w.t.y.T.5X&X3XOXa.e.,.R [ j.Q.=X;X;X;X;X;X;X .+ V  .1.t.I.a.t.1.*.I z 3 # u ",
"S V c 1 L 1.Q W W Z.W W ` =.X.u.&X5X2X(./ ( ).;X;X;X;X;X;X;X;X;X;X;XT # V.V.y.7.D... .o.-.w.=.| z B.",
"I J c # m =.=.6.<.[.8.6.9.q.+.-.5X2X,X_./ K S.;X;X;X;X;X;X;X;X;X;X;Xh 1 s.I D D d.D D D A D l y 3 r.",
"/ W R : i y.r.r.0.^.r.r.9.X./ w.2X>X<X/./ p p.;X;X;X;X;X;X;X;X;X;X;Xi 6 ` / / R j.Y I J I L A f 6 =.",
"R / J % 3 r.r.0.e.^.q.6.X./ / 6.>X<X;X!.l 0 p.;X;X;X;X;X;X;X;X;X;X<Xh : U _ ( ( j./ / / _ / / F 3  .",
"J H l & + U _ / _ L.} U J J K +.>X;X;XQ.2 3 p.;X;X;X;X;X;X;X;X;X<X4Xk $ g A U / k./ / / / / / E * f ",
"2 1 - X . < 2 2 3 8.< : < % $ C ;X:X;X;X!.!.=X;X;X;X;X;X;X;X;X;X<X4Xh O % 1 2 r 8.f f f f f f f % % ",
"m P _  .;.2.2.o.I 8.3 L e O : J _._._._._._._._.!.~.K.)._._._.-X4X4X2.G 6 . X o o.+ = : * : * %   + ",
"*.W _ / _ / W ( I 6.} t.c u ( o. .} ` ` ( ( / R R T 1 F s.*./ Q E / Q T t 9 *.2.L.1.w.1.2.2.*.z s *.",
"{ T T U U U U J F 9.r.J 6 l ( / / ( / ( / / / W / D 5 Z -.R I F L H L N # _ W.H.J.` / U P C x * G =.",
"T J J H D K A B l 8.R C : V ( ( / ( / / / W I K V p * < z V A V A V b w 6 C.k.r.).=.X.X.X.` H $ L N.",
"e 0 2 2 2 2 1 - # >.Z c # 6 x C K J D V l p r w 0 1 X X % = * * $ @ + X A r.0.0.I.0.0.q.q.7./ $ L g.",
"o O O O o $ % $ # >.9 ; o O # % % % % $ % # O o % i S ' 1.t.3.;.#.' I d W r.q.w.I.0.q.-.=.` g $ Z 7.",
"w.P * b 2.s.e.s.8.D.L m ; 8 b E Q / ~ E I P c , ..*.7.d.y.e.7.-.-.=.} k e T | o.G.` C N f p w & , F ",
"L z -.*./ H D I W S.W J 1 a.^.W.R.C.C.C.w.*.} t .._ _ ( / ( =.1.1.8.<.u O & % : O.% % : * * * + O + ",
"A u / C A A A C S i.l e 1 w.-.X.( / / / R J l % F H H J I W ` +.o.o.[ < k J F F 0.* k 1.r.y.t.e.1.-.",
"6 v 9.U L I I I J } h.q.+.f.f.f.f.f.f.f.f.f.8./ +.>.O.,.O.>.>.,.6.,.+.[ q.j.j.j.W : Z ` X.*.*.X.X.X.",
"# T a._ / / _ / ( ( / / w k H H H K K D K N w + o o O $ @ = $ @ @ O   O f S D F f . < k V A A I J D ",
"  y V V B B B B N x f i # # 2 4 2 2 2 3 2 1 $ f  .a.n.D.N.w...E D z 3 | | _ E A s 8 = @ & $ $ $ $ + ",
". O # O + O O + # $ + + O O # = : , : ; # . m N.F.P.N.2.Q I J T R c j P.N.y.w.3.s.N.C.t.;.I 9 = b W ",
"3.1.' : E | | Q k + k P ' e.g.n.n.s.s.s.*.e  .} / / o.1.8.7.7.7.8.z 1 I L F D D F I Q Q E D 1 P F./ ",
"D z s u r.a.r.0./ % d.=./ X.=.7.7.q.7.7.6 z r.0.9.9.0.9.0.e.7.X.Q 4 ; J J J T T R T J D Z S $ { P.<.",
"W E A 4 o.=.-.=./ % s.B.*.6.9.q.q.w.9.9.< b e.0.0.0.9.0.0.6./ U L $ t _ / ( ( ) ( ( ( R F k   2.Y.a."
};
