/* XPM */
static char *result[] = {
/* columns rows colors chars-per-pixel */
"640 640 250 2 ",
"   c black",
".  c #1D1C1B",
"X  c #36290D",
"o  c #2A251A",
"O  c #372B16",
"+  c #3C3418",
"@  c #352B0D",
"#  c #1E2223",
"$  c #242525",
"%  c #2A2926",
"&  c #292728",
"*  c #2B2B2B",
"=  c #272827",
"-  c #322E29",
";  c #33322D",
":  c #3A3628",
">  c #2E2E30",
",  c #2E3133",
"<  c #333233",
"1  c #3C3B34",
"2  c #363639",
"3  c #3B3B3C",
"4  c #37383A",
"5  c #302F30",
"6  c #251E15",
"7  c #463817",
"8  c #4B3514",
"9  c #443B25",
"0  c #423D3A",
"q  c #583D23",
"w  c #6E3938",
"e  c #3E413B",
"r  c #51461B",
"t  c #494327",
"y  c #574927",
"u  c #43433C",
"i  c #454637",
"p  c #585332",
"a  c #634A27",
"s  c #675629",
"d  c #6B5932",
"f  c #736731",
"g  c #68501D",
"h  c #3E3D42",
"j  c #393B42",
"k  c #413E42",
"l  c #443E45",
"z  c #3F4244",
"x  c #3F4448",
"c  c #414244",
"v  c #424549",
"b  c #454A4D",
"n  c #494B4D",
"m  c #484A44",
"M  c #474C50",
"N  c #494E52",
"B  c #4A4C57",
"V  c #4C5156",
"C  c #4E545A",
"Z  c #4D5759",
"A  c #51565C",
"S  c #55585A",
"D  c #515445",
"F  c #756D49",
"G  c #6F7273",
"H  c #615A52",
"J  c #9D3A37",
"K  c #96392D",
"L  c #A33B36",
"P  c #A43B3A",
"I  c #AA3C3A",
"U  c #A63936",
"Y  c #A53B2D",
"T  c #94371B",
"R  c #99551B",
"E  c #99641C",
"W  c #B26717",
"Q  c #BB7E1C",
"!  c #B67818",
"~  c #AB6814",
"^  c #9A4930",
"/  c #A84239",
"(  c #B44633",
")  c #AE5529",
"_  c #907331",
"`  c #B8642A",
"'  c #B5792B",
"]  c #A9591B",
"[  c #C3792C",
"{  c #914E4C",
"}  c #867747",
"|  c #8A7A53",
" . c #A3695C",
".. c #963D40",
"X. c #BD821D",
"o. c #BE8A1D",
"O. c #BA8815",
"+. c #BE941A",
"@. c #968639",
"#. c #8F8339",
"$. c #BE8421",
"%. c #BE8922",
"&. c #BB872A",
"*. c #B49034",
"=. c #B7A43E",
"-. c #C3851D",
";. c #C48B1E",
":. c #C98E1E",
">. c #C18B17",
",. c #C5931E",
"<. c #C9921E",
"1. c #C69A1D",
"2. c #C99B1E",
"3. c #C49317",
"4. c #D09A1F",
"5. c #CBA21D",
"6. c #D2AC1E",
"7. c #D6B61E",
"8. c #D8B61E",
"9. c #D6B81E",
"0. c #D9B81D",
"q. c #CFB21D",
"w. c #C28622",
"e. c #C58C22",
"r. c #C98E22",
"t. c #C68D29",
"y. c #C98D2A",
"u. c #C59222",
"i. c #CB9223",
"p. c #CC9B23",
"a. c #CB9629",
"s. c #CC9A29",
"d. c #C69825",
"f. c #D19C24",
"g. c #D19E29",
"h. c #D09425",
"j. c #C69738",
"k. c #CD9039",
"l. c #CDA224",
"z. c #CDA12A",
"x. c #CFAB22",
"c. c #D1A524",
"v. c #D3AC23",
"b. c #D9AE24",
"n. c #D4A52D",
"m. c #D5AA2C",
"M. c #D9A92D",
"N. c #D6B424",
"B. c #D9B525",
"V. c #D7B823",
"C. c #DAB925",
"Z. c #D6B42A",
"A. c #D9B52A",
"S. c #D7B92A",
"D. c #DAB92A",
"F. c #D8A631",
"G. c #D6A931",
"H. c #D7A833",
"J. c #D5B434",
"K. c #DBB632",
"L. c #DABA34",
"P. c #DABA3B",
"I. c #D7B639",
"U. c #CCA835",
"Y. c #E3B838",
"T. c #E1B72E",
"R. c #DCC23A",
"E. c #E2C43D",
"W. c #958959",
"Q. c #95874C",
"!. c #AE954A",
"~. c #B8A54F",
"^. c #978E64",
"/. c #A69A67",
"(. c #AF9D65",
"). c #B5A770",
"_. c #C79A45",
"`. c #C89D55",
"'. c #C8A748",
"]. c #D4AB44",
"[. c #DBBA44",
"{. c #DBBB4C",
"}. c #D6B747",
"|. c #C6AA55",
" X c #DBBB54",
".X c #D6B95C",
"XX c #DABA5D",
"oX c #D6B859",
"OX c #CDB250",
"+X c #E6B948",
"@X c #D6BB63",
"#X c #D9BB62",
"$X c #DABE6A",
"%X c #D4B968",
"&X c #CDB67A",
"*X c #CAB779",
"=X c #D3BB74",
"-X c #D1B97A",
";X c #D3B878",
":X c #C9AA6B",
">X c #E4BA6D",
",X c #DCC347",
"<X c #DBC356",
"1X c #E2C54F",
"2X c #DCC26A",
"3X c #DBC477",
"4X c #CFC07B",
"5X c #E3C676",
"6X c #E3C86A",
"7X c #7B8385",
"8X c #969A9E",
"9X c #9D9D9D",
"0X c #989698",
"qX c #868B8D",
"wX c #A39C9C",
"eX c #AF9091",
"rX c #A1A09E",
"tX c #B6AC8E",
"yX c #A19FA0",
"uX c #A3A3A3",
"iX c #A9A9AA",
"pX c #B3BBBD",
"aX c #B5B7B7",
"sX c #B0B4B3",
"dX c #9B9FA2",
"fX c #CBB685",
"gX c #CBB689",
"hX c #C9B787",
"jX c #C3B595",
"kX c #C6B696",
"lX c #D0BA86",
"zX c #C7ABA7",
"xX c #D6C686",
"cX c #E4CD85",
"vX c #D2CEBC",
"bX c #B5BEC0",
"nX c #B9BEC1",
"mX c #BAC2C4",
"MX c #CCCECD",
"NX c #C4CACA",
"BX c #CED0CF",
"VX c #CBCFD0",
"CX c #CED1D2",
"ZX c #D1D3D2",
"AX c #D8DBDB",
"SX c #D4D2C8",
"DX c #DEE2E3",
"FX c #E0E2E3",
"GX c None",
"HX c #767F80",
/* pixels */
"                                                                                                                                                                                                                                                                                                                                                                                                                                                                                                                                                                                                                                                                                                                                                                                                                                                                                                                                                                                                                                                                                                                                                                                                                                                                                                                                ",
"                                                                                                                                                                                                                                                                                                                                                                                                                                                                                                                                                                                                                                                                                                                                                                                                                                                                                                                                                                                                                                                                                                                                                                                                                                                                                                                                ",
"                                                                                                                                                                                                                                                                                                                                                                                                                                                                                                                                                                                                                                                                                                                                                                                                                                                                                                                                                                                                                                                                                                                                                                                                                                                                                                                                ",
"                                                                                                                                                                                                                                                                                                                                                                                                                                                                                                                                                                                                                                                                                                                                                                                                                                                                                                                                                                                                                                                                                                                                                                                                                                                                                                                                ",
"                                                                                                                                                                                                                                                                                                                                                                                                                                                                                                                                                                                                                                                                                                                                                                                                                                                                                                                                                                                                                                                                                                                                                                                                                                                                                                                                ",
"                                                                                                                                                                                                                                                                                                                                                                                                                                                                                                                                                                                                                                                                                                                                                                                                                                                                                                                                                                                                                                                                                                                                                                                                                                                                                                                                ",
"                                                                                                                                                                                                                                                                                                                                                                                                                                                                                                                                                                                                                                                                                                                                                                                                                                                                                                                                                                                                                                                                                                                                                                                                                                                                                                                                ",
"                                                                                                                                                                                                                                                                                                                                                                                                                                                                                                                                                                                                                                                                                                                                                                                                                                                                                                                                                                                                                                                                                                                                                                                                                                                                                                                                ",
"                                                                                                                                                                                                                                                                                                                                                                                                                                                                                                                                                                                                                                                                                                                                                                                                                                                                                                                                                                                                                                                                                                                                                                                                                                                                                                                                ",
"                                                                                                                                                                                                                                                                                                                                                                                                                                                                                                                                                                                                                                                                                                                                                                                                                                                                                                                                                                                                                                                                                                                                                                                                                                                                                                                                ",
"                                                                                                                                                                                                                                                                                                                                                                                                                                                                                                                                                                                                                                                                                                                                                                                                                                                                                                                                                                                                                                                                                                                                                                                                                                                                                                                                ",
"                                                                                                                                                                                                                                                                                                                                                                                                                                                                                                                                                                                                                                                                                                                                                                                                                                                                                                                                                                                                                                                                                                                                                                                                                                                                                                                                ",
"                                                                                                                                                                                                                                                                                                                                                                                                                                                                                                                                                                                                                                                                                                                                                                                                                                                                                                                                                                                                                                                                                                                                                                                                                                                                                                                                ",
"                                                                                                                                                                                                                                                                                                                                                                                                                                                                                                                                                                                                                                                                                                                                                                                                                                                                                                                                                                                                                                                                                                                                                                                                                                                                                                                                ",
"                                                                                                                                                                                                                                                                                                                                                                                                                                                                                                                                                                                                                                                                                                                                                                                                                                                                                                                                                                                                                                                                                                                                                                                                                                                                                                                                ",
"                                                                                                                                                                                                                                                                                                                                                                                                                                                                                                                                                                                                                                                                                                                                                                                                                                                                                                                                                                                                                                                                                                                                                                                                                                                                                                                                ",
"                                                                                                                                                                                                                                                                                                                                                                                                                                                                                                                                                                                                                                                                                                                                                                                                                                                                                                                                                                                                                                                                                                                                                                                                                                                                                                                                ",
"                                                                                                                                                                                                                                                                                                                                                                                                                                                                                                                                                                                                                                                                                                                                                                                                                                                                                                                                                                                                                                                                                                                                                                                                                                                                                                                                ",
"                                                                                                                                                                                                                                                                                                                                                                                                                                                                                                                                                                                                                                                                                                                                                                                                                                                                                                                                                                                                                                                                                                                                                                                                                                                                                                                                ",
"                                                                                                                                                                                                                                                                                                                                                                                                                                                                                                                                                                                                                                                                                                                                                                                                                                                                                                                                                                                                                                                                                                                                                                                                                                                                                                                                ",
"                                                                                                                                                                                                                                                                                                                                                                                                                                                                                                                                                                                                                                                                                                                                                                                                                                                                                                                                                                                                                                                                                                                                                                                                                                                                                                                                ",
"                                                                                                                                                                                                                                                                                                                                                                                                                                                                                                                                                                                                                                                                                                                                                                                                                                                                                                                                                                                                                                                                                                                                                                                                                                                                                                                                ",
"                                                                                                                                                                                                                                                                                                                                                                                                                                                                                                                                                                                                                                                                                                                                                                                                                                                                                                                                                                                                                                                                                                                                                                                                                                                                                                                                ",
"                                                                                                                                                                                                                                                                                                                                                                                                                                                                                                                                                                                                                                                                                                                                                                                                                                                                                                                                                                                                                                                                                                                                                                                                                                                                                                                                ",
"                                                                                                                                                                                                                                                                                                                                                                                                                                                                                                                                                                                                                                                                                                                                                                                                                                                                                                                                                                                                                                                                                                                                                                                                                                                                                                                                ",
"                                                                                                                                                                                                                                                                                                                                                                                                                                                                                                                                                                                                                                                                                                                                                                                                                                                                                                                                                                                                                                                                                                                                                                                                                                                                                                                                ",
"                                                                                                                                                                                                                                                                                                                                                                                                                                                                                                                                                                                                                                                                                                                                                                                                                                                                                                                                                                                                                                                                                                                                                                                                                                                                                                                                ",
"                                                                                                                                                                                                                                                                                                                                                                                                                                                                                                                                                                                                                                                                                                                                                                                                                                                                                                                                                                                                                                                                                                                                                                                                                                                                                                                                ",
"                                                                                                                                                                                                                                                                                                                                                                                                                                                                                                                                                                                                                                                                                                                                                                                                                                                                                                                                                                                                                                                                                                                                                                                                                                                                                                                                ",
"                                                                                                                                                                                                                                                                                                                                                                                                                                                                                                                                                                                                                                                                                                                                                                                                                                                                                                                                                                                                                                                                                                                                                                                                                                                                                                                                ",
"                                                                                                                                                                                                                                                                                                                                                                                                                                                                                                                                                                                                                                                                                                                                                                                                                                                                                                                                                                                                                                                                                                                                                                                                                                                                                                                                ",
"                                                                                                                                                                                                                                                                                                                                                                                                                                                                                                                                                                                                                                                                                                                                                                                                                                                                                                                                                                                                                                                                                                                                                                                                                                                                                                                                ",
"                                                                                                                                                                                                                                                                                                                                                                                                                                                                                                                                                                                                                                                                                                                                                                                                                                                                                                                                                                                                                                                                                                                                                                                                                                                                                                                                ",
"                                                                                                                                                                                                                                                                                                                                                                                                                                                                                                                                                                                                                                                                                                                                                                                                                                                                                                                                                                                                                                                                                                                                                                                                                                                                                                                                ",
"                                                                                                                                                                                                                                                                                                                                                                                                                                                                                                                                                                                                                                                                                                                                                                                                                                                                                                                                                                                                                                                                                                                                                                                                                                                                                                                                ",
"                                                                                                                                                                                                                                                                                                                                                                                                                                                                                                                                                                                                                                                                                                                                                                                                                                                                                                                                                                                                                                                                                                                                                                                                                                                                                                                                ",
"                                                                                                                                                                                                                                                                                                                                                                                                                                                                                                                                                                                                                                                                                                                                                                                                                                                                                                                                                                                                                                                                                                                                                                                                                                                                                                                                ",
"                                                                                                                                                                                                                                                                                                                                                                                                                                                                                                                                                                                                                                                                                                                                                                                                                                                                                                                                                                                                                                                                                                                                                                                                                                                                                                                                ",
"                                                                                                                                                                                                                                                                                                                                                                                                                                                                                                                                                                                                                                                                                                                                                                                                                                                                                                                                                                                                                                                                                                                                                                                                                                                                                                                                ",
"                                                                                                                                                                                                                                                                                                                                                                                                                                                                                                                                                                                                                                                                                                                                                                                                                                                                                                                                                                                                                                                                                                                                                                                                                                                                                                                                ",
"                                                                                                                                                                                                                                                                                                                                                                                                                                                                                                                                                                                                                                                                                                                                                                                                                                                                                                                                                                                                                                                                                                                                                                                                                                                                                                                                ",
"                                                                                                                                                                                                                                                                                                                                                                                                                                                                                                                                                                                                                                                                                                                                                                                                                                                                                                                                                                                                                                                                                                                                                                                                                                                                                                                                ",
"                                                                                                                                                                                                                                                                                                                                                                                                                                                                                                                                                                                                                                                                                                                                                                                                                                                                                                                                                                                                                                                                                                                                                                                                                                                                                                                                ",
"                                                                                                                                                                                                                                                                                                                                                                                                                                                                                                                                                                                                                                                                                                                                                                                                                                                                                                                                                                                                                                                                                                                                                                                                                                                                                                                                ",
"                                                                                                                                                                                                                                                                                                                                                                                                                                                                                                                                                                                                                                                                                                                                                                                                                                                                                                                                                                                                                                                                                                                                                                                                                                                                                                                                ",
"                                                                                                                                                                                                                                                                                                                                                                                                                                                                                                                                                                                                                                                                                                                                                                                                                                                                                                                                                                                                                                                                                                                                                                                                                                                                                                                                ",
"                                                                                                                                                                                                                                                                                                                                                                                                                                                                                                                                                                                                                                                                                                                                                                                                                                                                                                                                                                                                                                                                                                                                                                                                                                                                                                                                ",
"                                                                                                                                                                                                                                                                                                                                                                                                                                                                                                                                                                                                                                                                                                                                                                                                                                                                                                                                                                                                                                                                                                                                                                                                                                                                                                                                ",
"                                                                                                                                                                                                                                                                                                                                                                                                                                                                                                                                                                                                                                                                                                                                                                                                                                                                                                                                                                                                                                                                                                                                                                                                                                                                                                                                ",
"                                                                                                                                                                                                                                                                                                                                                                                                                                                                                                                                                                                                                                                                                                                                                                                                                                                                                                                                                                                                                                                                                                                                                                                                                                                                                                                                ",
"                                                                                                                                                                                                                                                                                                                                                                                                                                                                                                                                                                                                                                                                                                                                                                                                                                                                                                                                                                                                                                                                                                                                                                                                                                                                                                                                ",
"                                                                                                                                                                                                                                                                                                                                                                                                                                                                                                                                                                                                                                                                                                                                                                                                                                                                                                                                                                                                                                                                                                                                                                                                                                                                                                                                ",
"                                                                                                                                                                                                                                                                                                                                                                                                                                                                                                                                                                                                                                                                                                                                                                                                                                                                                                                                                                                                                                                                                                                                                                                                                                                                                                                                ",
"                                                                                                                                                                                                                                                                                                                                                                                                                                                                                                                                                                                                                                                                                                                                                                                                                                                                                                                                                                                                                                                                                                                                                                                                                                                                                                                                ",
"                                                                                                                                                                                                                                                                                                                                                                                                                                                                                                                                                                                                                                                                                                                                                                                                                                                                                                                                                                                                                                                                                                                                                                                                                                                                                                                                ",
"                                                                                                                                                                                                                                                                                                                                                                                                                                                                                                                                                                                                                                                                                                                                                                                                                                                                                                                                                                                                                                                                                                                                                                                                                                                                                                                                ",
"                                                                                                                                                                                                                                                                                                                                                                                                                                                                                                                                                                                                                                                                                                                                                                                                                                                                                                                                                                                                                                                                                                                                                                                                                                                                                                                                ",
"                                                                                                                                                                                                                                                                                                                                                                                                                                                                                                                                                                                                                                                                                                                                                                                                                                                                                                                                                                                                                                                                                                                                                                                                                                                                                                                                ",
"                                                                                                                                                                                                                                                                                                                                                                                                                                                                                                                                                                                                                                                                                                                                                                                                                                                                                                                                                                                                                                                                                                                                                                                                                                                                                                                                ",
"                                                                                                                                                                                                                                                                                                                                                                                                                                                                                                                                                                                                                                                                                                                                                                                                                                                                                                                                                                                                                                                                                                                                                                                                                                                                                                                                ",
"                                                                                                                                                                                                                                                                                                                                                                                                                                                                                                                                                                                                                                                                                                                                                                                                                                                                                                                                                                                                                                                                                                                                                                                                                                                                                                                                ",
"                                                                                                                                                                                                                                                                                                                                                                                                                                                                                                                                                                                                                                                                                                                                                                                                                                                                                                                                                                                                                                                                                                                                                                                                                                                                                                                                ",
"                                                                                                                                                                                                                                                                                                                                                                                                                                                                                                                                                                                                                                                                                                                                                                                                                                                                                                                                                                                                                                                                                                                                                                                                                                                                                                                                ",
"                                                                                                                                                                                                                                                                                                                                                                                                                                                                                                                                                                                                                                                                                                                                                                                                                                                                                                                                                                                                                                                                                                                                                                                                                                                                                                                                ",
"                                                                                                                                                                                                                                                                                                                                                                                                                                                                                                                                                                                                                                                                                                                                                                                                                                                                                                                                                                                                                                                                                                                                                                                                                                                                                                                                ",
"                                                                                                                                                                                                                                                                                                                                                                                                                                                                                                                                                                                                                                                                                                                                                                                                                                                                                                                                                                                                                                                                                                                                                                                                                                                                                                                                ",
"                                                                                                                                                                                                                                                                                                                                                                                                                                                                                                                                                                                                                                                                                                                                                                                                                                                                                                                                                                                                                                                                                                                                                                                                                                                                                                                                ",
"                                                                                                                                                                                                                                                                                                                                                                                                                                                                                                                                                                                                                                                                                                                                                                                                                                                                                                                                                                                                                                                                                                                                                                                                                                                                                                                                ",
"                                                                                                                                                                                                                                                                                                                                                                                                                                                                                                                                                                                                                                                                                                                                                                                                                                                                                                                                                                                                                                                                                                                                                                                                                                                                                                                                ",
"                                                                                                                                                                                                                                                                                                                                                                                                                                                                                                                                                                                                                                                                                                                                                                                                                                                                                                                                                                                                                                                                                                                                                                                                                                                                                                                                ",
"                                                                                                                                                                                                                                                                                                                                                                                                                                                                                                                                                                                                                                                                                                                                                                                                                                                                                                                                                                                                                                                                                                                                                                                                                                                                                                                                ",
"                                                                                                                                                                                                                                                                                                                                                                                                                                                                                                                                                                                                                                                                                                                                                                                                                                                                                                                                                                                                                                                                                                                                                                                                                                                                                                                                ",
"                                                                                                                                                                                                                                                                                                                                                                                                                                                                                                                                                                                                                                                                                                                                                                                                                                                                                                                                                                                                                                                                                                                                                                                                                                                                                                                                ",
"                                                                                                                                                                                                                                                                                                                                                                                                                                                                                                                                                                                                                                                                                                                                                                                                                                                                                                                                                                                                                                                                                                                                                                                                                                                                                                                                ",
"                                                                                                                                                                                                                                                                                                                                                                                                                                                                                                                                                                                                                                                                                                                                                                                                                                                                                                                                                                                                                                                                                                                                                                                                                                                                                                                                ",
"                                                                                                                                                                                                                                                                                                                                                                                                                                                                                                                                                                                                                                                                                                                                                                                                                                                                                                                                                                                                                                                                                                                                                                                                                                                                                                                                ",
"                                                                                                                                                                                                                                                                                                                                                                                                                                                                                                                                                                                                                                                                                                                                                                                                                                                                                                                                                                                                                                                                                                                                                                                                                                                                                                                                ",
"                                                                                                                                                                                                                                                                                                                                                                                                                                                                                                                                                                                                                                                                                                                                                                                                                                                                                                                                                                                                                                                                                                                                                                                                                                                                                                                                ",
"                                                                                                                                                                                                                                                                                                                                                                                                                                                                                                                                                                                                                                                                                                                                                                                                                                                                                                                                                                                                                                                                                                                                                                                                                                                                                                                                ",
"                                                                                                                                                                                                                                                                                                                                                                                                                                                                                                                                                                                                                                                                                                                                                                                                                                                                                                                                                                                                                                                                                                                                                                                                                                                                                                                                ",
"                                                                                                                                                                                                                                                                                                                                                                                                                                                                                                                                                                                                                                                                                                                                                                                                                                                                                                                                                                                                                                                                                                                                                                                                                                                                                                                                ",
"                                                                                                                                                                                                                                                                                                                                                                                                                                                                                                                                                                                                                                                                                                                                                                                                                                                                                                                                                                                                                                                                                                                                                                                                                                                                                                                                ",
"                                                                                                                                                                                                                                                                                                                                                                                                                                                                                                                                                                                                                                                                                                                                                                                                                                                                                                                                                                                                                                                                                                                                                                                                                                                                                                                                ",
"                                                                                                                                                                                                                                                                                                                                                                                                                                                                                                                                                                                                                                                                                                                                                                                                                                                                                                                                                                                                                                                                                                                                                                                                                                                                                                                                ",
"                                                                                                                                                                                                                                                                                                                                                                                                                                                                                                                                                                                                                                                                                                                                                                                                                                                                                                                                                                                                                                                                                                                                                                                                                                                                                                                                ",
"                                                                                                                                                                                                                                                                                                                                                                                                                                                                                                                                                                                                                                                                                                                                                                                                                                                                                                                                                                                                                                                                                                                                                                                                                                                                                                                                ",
"                                                                                                                                                                                                                                                                                                                                                                                                                                                                                                                                                                                                                                                                                                                                                                                                                                                                                                                                                                                                                                                                                                                                                                                                                                                                                                                                ",
"                                                                                                                                                                                                                                                                                                                                                                                                                                                                                                                                                                                                                                                                                                                                                                                                                                                                                                                                                                                                                                                                                                                                                                                                                                                                                                                                ",
"                                                                                                                                                                                                                                                                                                                                                                                                                                                                                                                                                                                                                                                                                                                                                                                                                                                                                                                                                                                                                                                                                                                                                                                                                                                                                                                                ",
"                                                                                                                                                                                                                                                                                                                                                                                                                                                                                                                                                                                                                                                                                                                                                                                                                                                                                                                                                                                                                                                                                                                                                                                                                                                                                                                                ",
"                                                                                                                                                                                                                                                                                                                                                                                                                                                                                                                                                                                                                                                                                                                                                                                                                                                                                                                                                                                                                                                                                                                                                                                                                                                                                                                                ",
"                                                                                                                                                                                                                                                                                                                                                                                                                                                                                                                                                                                                                                                                                                                                                                                                                                                                                                                                                                                                                                                                                                                                                                                                                                                                                                                                ",
"                                                                                                                                                                                                                                                                                                                                                                                                                                                                                                                                                                                                                                                                                                                                                                                                                                                                                                                                                                                                                                                                                                                                                                                                                                                                                                                                ",
"                                                                                                                                                                                                                                                                                                                                                                                                                                                                                                                                                                                                                                                                                                                                                                                                                                                                                                                                                                                                                                                                                                                                                                                                                                                                                                                                ",
"                                                                                                                                                                                                                                                                                                                                                                                                                                                                                                                                                                                                                                                                                                                                                                                                                                                                                                                                                                                                                                                                                                                                                                                                                                                                                                                                ",
"                                                                                                                                                                                                                                                                                                                                                                                                                                                                                                                                                                                                                                                                                                                                                                                                                                                                                                                                                                                                                                                                                                                                                                                                                                                                                                                                ",
"                                                                                                                                                                                                                                                                                                                                                                                                                                                                                                                                                                                                                                                                                                                                                                                                                                                                                                                                                                                                                                                                                                                                                                                                                                                                                                                                ",
"                                                                                                                                                                                                                                                                                                                                                                                                                                                                                                                                                                                                                                                                                                                                                                                                                                                                                                                                                                                                                                                                                                                                                                                                                                                                                                                                ",
"                                                                                                                                                                                                                                                                                                                                                                                                                                                                                                                                                                                                                                                                                                                                                                                                                                                                                                                                                                                                                                                                                                                                                                                                                                                                                                                                ",
"                                                                                                                                                                                                                                                                                                                                                                                                                                                                                                                                                                                                                                                                                                                                                                                                                                                                                                                                                                                                                                                                                                                                                                                                                                                                                                                                ",
"                                                                                                                                                                                                                                                                                                                                                                                                                                                                                                                                                                                                                                                                                                                                                                                                                                                                                                                                                                                                                                                                                                                                                                                                                                                                                                                                ",
"                                                                                                                                                                                                                                                                                                                                                                                                                                                                                                                                                                                                                                                                                                                                                                                                                                                                                                                                                                                                                                                                                                                                                                                                                                                                                                                                ",
"                                                                                                                                                                                                                                                                                                                                                                                                                                                                                                                                                                                                                                                                                                                                                                                                                                                                                                                                                                                                                                                                                                                                                                                                                                                                                                                                ",
"                                                                                                                                                                                                                                                                                                                                                                                                                                                                                                                                                                                                                                                                                                                                                                                                                                                                                                                                                                                                                                                                                                                                                                                                                                                                                                                                ",
"                                                                                                                                                                                                                                                                                                                                                                                                                                                                                                                                                                                                                                                                                                                                                                                                                                                                                                                                                                                                                                                                                                                                                                                                                                                                                                                                ",
"                                                                                                                                                                                                                                                                                                                                                                                                                                                                                                                                                                                                                                                                                                                                                                                                                                                                                                                                                                                                                                                                                                                                                                                                                                                                                                                                ",
"                                                                                                                                                                                                                                                                                                                                                                                                                                                                                                                                                                                                                                                                                                                                                                                                                                                                                                                                                                                                                                                                                                                                                                                                                                                                                                                                ",
"                                                                                                                                                                                                                                                                                                                                                                                                                                                                                                                                                                                                                                                                                                                                                                                                                                                                                                                                                                                                                                                                                                                                                                                                                                                                                                                                ",
"                                                                                                                                                                                                                                                                                                                                                                                                                                                                                                                                                                                                                                                                                                                                                                                                                                                                                                                                                                                                                                                                                                                                                                                                                                                                                                                                ",
"                                                                                                                                                                                                                                                                                                                                                                                                                                                                                                                                                                                                                                                                                                                                                                                                                                                                                                                                                                                                                                                                                                                                                                                                                                                                                                                                ",
"                                                                                                                                                                                                                                                                                                                                                                                                                                                                                                                                                                                                                                                                                                                                                                                                                                                                                                                                                                                                                                                                                                                                                                                                                                                                                                                                ",
"                                                                                                                                                                                                                                                                                                                                                                                                                                                                                                                                                                                                                                                                                                                                                                                                                                                                                                                                                                                                                                                                                                                                                                                                                                                                                                                                ",
"                                                                                                                                                                                                                                                                                                                                                                                                                                                                                                                                                                                                                                                                                                                                                                                                                                                                                                                                                                                                                                                                                                                                                                                                                                                                                                                                ",
"                                                                                                                                                                                                                                                                                                                                                                                                                                                                                                                                                                                                                                                                                                                                                                                                                                                                                                                                                                                                                                                                                                                                                                                                                                                                                                                                ",
"                                                                                                                                                                                                                                                                                                                                                                                                                                                                                                                                                                                                                                                                                                                                                                                                                                                                                                                                                                                                                                                                                                                                                                                                                                                                                                                                ",
"                                                                                                                                                                                                                                                                                                                                                                                                                                                                                                                                                                                                                                                                                                                                                                                                                                                                                                                                                                                                                                                                                                                                                                                                                                                                                                                                ",
"                                                                                                                                                                                                                                                                                                                                                                                                                                                                                                                                                                                                                                                                                                                                                                                                                                                                                                                                                                                                                                                                                                                                                                                                                                                                                                                                ",
"                                                                                                                                                                                                                                                                                                                                                                                                                                                                                                                                                                                                                                                                                                                                                                                                                                                                                                                                                                                                                                                                                                                                                                                                                                                                                                                                ",
"                                                                                                                                                                                                                                                                                                                                                                                                                                                                                                                                                                                                                                                                                                                                                                                                                                                                                                                                                                                                                                                                                                                                                                                                                                                                                                                                ",
"                                                                                                                                                                                                                                                                                                                                                                                                                                                                                                                                                                                                                                                                                                                                                                                                                                                                                                                                                                                                                                                                                                                                                                                                                                                                                                                                ",
"                                                                                                                                                                                                                                                                                                                                                                                                                                                                                                                                                                                                                                                                                                                                                                                                                                                                                                                                                                                                                                                                                                                                                                                                                                                                                                                                ",
"                                                                                                                                                                                                                                                                                                                                                                                                                                                                                                                                                                                                                                                                                                                                                                                                                                                                                                                                                                                                                                                                                                                                                                                                                                                                                                                                ",
"                                                                                                                                                                                                                                                                                                                                                                                                                                                                                                                                                                                                                                                                                                                                                                                                                                                                                                                                                                                                                                                                                                                                                                                                                                                                                                                                ",
"                                                                                                                                                                                                                                                                                                                                                                                                                                                                                                                                                                                                                                                                                                                                                                                                                                                                                                                                                                                                                                                                                                                                                                                                                                                                                                                                ",
"                                                                                                                                                                                                                                                                                                                                                                                                                                                                                                                                                                                                                                                                                                                                                                                                                                                                                                                                                                                                                                                                                                                                                                                                                                                                                                                                ",
"                                                                                                                                                                                                                                                                                                                                                                                                                                                                                                                                                                                                                                                                                                                                                                                                                                                                                                                                                                                                                                                                                                                                                                                                                                                                                                                                ",
"                                                                                                                                                                                                                                                                                                                                                                                                                                                                                                                                                                                                                                                                                                                                                                                                                                                                                                                                                                                                                                                                                                                                                                                                                                                                                                                                ",
"                                                                                                                                                                                                                                                                                                                                                                                                                                                                                                                                                                                                                                                                                                                                                                                                                                                                                                                                                                                                                                                                                                                                                                                                                                                                                                                                ",
"                                                                                                                                                                                                                                                                                                                                                                                                                                                                                                                                                                                                                                                                                                                                                                                                                                                                                                                                                                                                                                                                                                                                                                                                                                                                                                                                ",
"                                                                                                                                                                                                                                                                                                                                                                                                                                                                                                                                                                                                                                                                                                                                                                                                                                                                                                                                                                                                                                                                                                                                                                                                                                                                                                                                ",
"                                                                                                                                                                                                                                                                                                                                                                                                                                                                                                                                                                                                                                                                                                                                                                                                                                                                                                                                                                                                                                                                                                                                                                                                                                                                                                                                ",
"                                                                                                                                                                                                                                                                                                                                                                                                                                                                                                                                                                                                                                                                                                                                                                                                                                                                                                                                                                                                                                                                                                                                                                                                                                                                                                                                ",
"                                                                                                                                                                                                                                                                                                                                                                                                                                                                                                                                                                                                                                                                                                                                                                                                                                                                                                                                                                                                                                                                                                                                                                                                                                                                                                                                ",
"                                                                                                                                                                                                                                                                                                                                                                                                                                                                                                                                                                                                                                                                                                                                                                                                                                                                                                                                                                                                                                                                                                                                                                                                                                                                                                                                ",
"                                                                                                                                                                                                                                                                                                                                                                                                                                                                                                                                                                                                                                                                                                                                                                                                                                                                                                                                                                                                                                                                                                                                                                                                                                                                                                                                ",
"                                                                                                                                                                                                                                                                                                                                                                                                                                                                                                                                                                                                                                                                                                                                                                                                                                                                                                                                                                                                                                                                                                                                                                                                                                                                                                                                ",
"                                                                                                                                                                                                                                                                                                                                                                                                                                                                                                                                                                                                                                                                                                                                                                                                                                                                                                                                                                                                                                                                                                                                                                                                                                                                                                                                ",
"                                                                                                                                                                                                                                                                                                                                                                                                                                                                                                                                                                                                                                                                                                                                                                                                                                                                                                                                                                                                                                                                                                                                                                                                                                                                                                                                ",
"                                                                                                                                                                                                                                                                                                                                                                                                                                                                                                                                                                                                                                                                                                                                                                                                                                                                                                                                                                                                                                                                                                                                                                                                                                                                                                                                ",
"                                                                                                                                                                                                                                                                                                                                                                                                                                                                                                                                                                                                                                                                                                                                                                                                                                                                                                                                                                                                                                                                                                                                                                                                                                                                                                                                ",
"                                                                                                                                                                                                                                                                                                                                                                                                                                                                                                                                                                                                                                                                                                                                                                                                                                                                                                                                                                                                                                                                                                                                                                                                                                                                                                                                ",
"                                                                                                                                                                                                                                                                                                                                                                                                                                                                                                                                                                                                                                                                                                                                                                                                                                                                                                                                                                                                                                                                                                                                                                                                                                                                                                                                ",
"                                                                                                                                                                                                                                                                                                                                                                                                                                                                                                                                                                                                                                                                                                                                                                                                                                                                                                                                                                                                                                                                                                                                                                                                                                                                                                                                ",
"                                                                                                                                                                                                                                                                                                                                                                                                                                                                                                                                                                                                                                                                                                                                                                                                                                                                                                                                                                                                                                                                                                                                                                                                                                                                                                                                ",
"                                                                                                                                                                                                                                                                                                                                                                                                                                                                                                                                                                                                                                                                                                                                                                                                                                                                                                                                                                                                                                                                                                                                                                                                                                                                                                                                ",
"                                                                                                                                                                                                                                                                                                                                                                                                                                                                                                                                                                                                                                                                                                                                                                                                                                                                                                                                                                                                                                                                                                                                                                                                                                                                                                                                ",
"                                                                                                                                                                                                                                                                                                                                                                                                                                                                                                                                                                                                                                                                                                                                                                                                                                                                                                                                                                                                                                                                                                                                                                                                                                                                                                                                ",
"                                                                                                                                                                                                                                                                                                                                                                                                                                                                                                                                                                                                                                                                                                                                                                                                                                                                                                                                                                                                                                                                                                                                                                                                                                                                                                                                ",
"                                                                                                                                                                                                                                                                                                                                                                                                                                                                                                                                                                                                                                                                                                                                                                                                                                                                                                                                                                                                                                                                                                                                                                                                                                                                                                                                ",
"                                                                                                                                                                                                                                                                                                                                                                                                                                                                                                                                                                                                                                                                                                                                                                                                                                                                                                                                                                                                                                                                                                                                                                                                                                                                                                                                ",
"                                                                                                                                                                                                                                                                                                                                                                                                                                                                                                                                                                                                                                                                                                                                                                                                                                                                                                                                                                                                                                                                                                                                                                                                                                                                                                                                ",
"                                                                                                                                                                                                                                                                                                                                                                                                                                                                                                                                                                                                                                                                                                                                                                              .                                                                                                                                                                                                                                                                                                                                                                                                                                                                                                                                                 ",
"                                                                                                                                                                                                                                                                                                                                                                                                                                                                                                                                                                                                    G G GXG HX7X7X7XHXHXHX7XHXHX7XHXHX7XHXHX7X7XHXHX7X7XG 7XG 7XHXHXG HXHXHXHXHXHXHXHXHXG HXG G HXHXHXHXHXHXHXHXHX7X7X7X7X7X7X7X7X7X7X7X7X7X7XqX7XqX7XqX8X7X7X7XHXHXHXHXHXHX7XHXHXHXHXHXHX7X7X7X7X7X7X7X7X7X7X7X7X7XsX7XpX7X                                                                                                                                                                                                                                                                                                                                                                                                                                                                                                    ",
"                                                                                                                                                                                                                                                                                                                                                                                                                                                                                                                                                                                                    FXDXDXDXDXDXAXAXAXDXAXAXAXAXDXDXAXDXDXAXDXDXAXDXDXDXDXDXDXDXAXDXDXDXAXDXAXAXAXDXDXDXDXDXDXDXFXFXAXDXAXAXDXAXAXAXAXAXAXAXAXAXDXAXDXAXDXAXDXAXAXAXAXDXAXAXDXmXmXmXmXmXmXNXVXmXmXNXmXNXNXNXmXbXmXmXbXbXmXmXmXmXbXbXmXNXVXNX                                                                                                                                                                                                                                                                                                                                                                                                                                                                                                    ",
"                                                                                                                                                                                                                                                                                                                                                                                                                                                                                                                                                                                                    DXCXZXBXZXBXVXCXCXZXCXCXVXCXCXVXCXVXmXVXCXCXVXVXCXCXmXAXVXAXBXBXBXBXCXBXCXCXZXZXCXBXCXZXZXZXZXZXCXZXSXCXZXZXSXCXCXCXSXCXCXCXVXVXBXVXVXCXVXVXVXVXVXVXVXVXAXbXnXbXnXnXmXbXmXmXbXbXbXbXbXbXbXbXmXmXbXbXbXbXmXbXbXbXbXbXNXbX.                                                                                                                                                                                                                                                                                                                                                                                                                                                                                                   ",
"                                                                                                                                                                                                                                                                                                                                                                                                                                                                                                                                                                                                    DXBXZXBXZXBXCXCXZXZXCXCXCXCXCXCXCXAXAXVXCXCXVXVXAXCXCXCXVXVXCXCXBXZXZXBXZXZXZXZXBXBXZXCXCXZXZXZXZXZXSXCXZXCXCXCXCXCXCXCXCXCXBXVXVXVXBXVXVXVXVXVXVXVXVXVXVXbXnXnXnXnXbXmXbXbXbXbXmXbXbXbXbXbXmXmXpXpXbXbXbXbXpXpXbXbXbXbX                                                                                                                                                                                                                                                                                                                                                                                                                                                                                                    ",
"                                                                                                                                                                                                                                                                                                                                                                                                                                                                                                                                                                                                    FXAXZXBXCXBXBXZXBXZXBXBXZXZXCXCXCXCXVXAXVXAXCXCXAXVXCXAXCXAXZXZXBXZXZXBXBXZXCXZXZXZXZXSXCXZXZXZXSXCXZXCXCXZXCXZXCXCXSXCXCXCXBXCXBXVXVXCXVXVXVXVXVXVXVXVXCXbXnXnXnXnXnXnXmXnXmXmXmXnXmXbXbXbXbXbXpXbXbXbXbXbXpXpXpXpXbXsXGX                                                                                                                                                                                                                                                                                                                                                                                                                                                                                                  ",
"                                                                                                                                                                                                                                                                                                                                                                                                                                                                                                                                                                                                    FXAXBXBXZXZXZXBXZXBXCXCXBXZXCXVXCXCXVXVXVXCXCXCXAXVXCXCXCXCXZXBXZXZXZXZXZXZXZXZXZXZXZXZXZXCXZXZXCXCXZXZXZXZXZXZXZXZXZXCXCXZXBXBXVXVXVXVXVXCXVXVXVXVXVXVXAXbXnXnXnXnXnXnXnXnXnXnXnXnXbXmXbXbXbXbXbXpXbXbXbXbXpXpXbXpXsXdX                                                                                                                                                                                                                                                                                                                                                                                                                                                                                                    ",
"                                                                                                                                                                                                                                                                                                                                                                                                                                                                                                                                                                                                    DXCXBXBXZXBXBXBXZXZXBXZXZXZXAXVXAXVXVXAXVXCXCXCXVXVXZXCXCXCXZXBXBXZXZXBXCXCXZXZXCXZXSXZXCXZXCXZXZXZXSXCXZXZXSXZXZXZXZXZXZXZXCXVXBXVXVXCXVXVXVXCXVXVXVXVXCXbXnXnXnXnXmXnXnXnXnXmXmXnXmXbXbXbXbXpXpXpXbXbXpXpXpXpXmXmXbX7XGX                                                                                                                                                                                                                                                                                                                                                                                                                                                                                                  ",
"                                                                                                                                                                                                                                                                                                                                                                                                                                                                                                                                                                                                    DXCXBXZXZXZXZXZXZXZXBXZXBXZXVXVXVXVXVXVXVXAXCXCXCXCXZXZXCXCXZXZXZXBXBXZXBXCXCXSXCXCXCXCXZXZXZXZXCXZXCXCXCXCXCXZXCXZXZXBXZXCXCXMXMXVXVXCXVXVXVXVXVXVXVXVXAXbXmXnXnXnXmXnXnXnXnXnXnXnXbXbXbXbXpXpXpXbXpXpXpXpXpXpXpXmXmX7XGX                                                                                                                                                                                                                                                                                                                                                                                                                                                                                                  ",
"                                                                                                                                                                                                                                                                                                                                                                                                                                                                                                                                                                                                    FXCXVXCXBXCXCXBXCXCXAXmXAXCXAXmXAXCXAXAXmXAXCXCXCXCXZXZXZXZXZXZXCXCXCXCXCXCXCXCXCXCXAXVXVXVXAXVXVXAXCXCXCXCXCXCXCXCXZXCXZXCXCXCXVXVXVXVXNXCXCXVXVXVXCXCXAXbXbXbXmXbXbXmXbXmXbXmXmXbXbXmXbXbXbXpXbXbXpXpXpXpXbXbXbXbXpX7X# .                                                                                                                                                                                                                                                                                                                                                                                                                                                                                                 ",
"                                                                                                                                                                                                                                                                                                                                                                                                                                                                                                                                                                                                    FXCXVXCXCXCXCXBXCXCXCXCXCXCXCXAXmXAXmXAXmXAXCXCXCXCXCXCXZXBXCXCXCXCXCXCXCXCXCXCXCXCXVXAXVXAXVXVXVXVXCXCXCXCXCXCXCXCXCXZXCXCXCXCXVXVXVXVXCXVXVXCXVXVXCXNXCXbXmXbXbXbXmXmXbXmXmXbXbXmXbXbXbXbXbXbXbXbXbXbXbXbXbXbXpXbXpX7X                                                                                                                                                                                                                                                                                                                                                                                                                                                                                                    ",
"                                                                                                                                                                                                                                                                                                                                                                                                                                                                                                                                                                                                    FXVXVXCXCXCXCXCXZXZXmXAXVXAXCXCXCXCXAXmXAXAXCXCXCXCXZXZXZXZXCXZXZXCXCXCXCXCXCXCXCXCXVXVXAXVXAXVXVXAXCXCXCXVXCXCXCXCXZXBXCXCXCXCXCXCXVXVXVXVXVXVXVXVXCXNXAXbXmXbXmXmXmXmXmXpXbXmXbXmXbXmXbXbXbXbXbXbXbXbXbXpXbXpXpXbXpX8X                                                                                                                                                                                                                                                                                                                                                                                                                                                                                                    ",
"                                                                                                                                                                                                                                                                                                                                                                                                                                                                                                                                                                                                    DXCXVXZXCXCXCXBXZXCXAXCXVXCXCXCXCXCXCXAXAXmXCXCXCXZXCXZXCXZXCXCXZXCXCXCXCXCXCXCXCXCXVXVXVXVXVXVXVXVXCXCXCXVXCXCXCXCXZXZXZXBXCXNXCXNXVXVXVXVXVXCXCXNXCXNXCXbXmXmXmXmXmXpXmXmXbXmXbXbXmXmXbXbXbXbXpXbXbXbXpXbXbXbXpXbXpX8X                                                                                                                                                                                                                                                                                                                                                                                                                                                                                                    ",
"                                                                                                                                                                                                                                                                                                                                                                                                                                                                                                                                                                                                    DXCXVXVXCXCXBXCXCXCXCXCXCXCXCXCXAXmXCXVXCXCXCXCXCXCXCXZXZXCXVXVXCXCXCXVXCXCXCXCXCXCXCXCXCXCXVXVXVXAXVXVXVXCXCXCXCXBXBXZXBXBXCXCXCXCXNXCXCXCXVXNXVXVXVXVXCXbXmXbXmXbXmXmXmXpXbXmXbXmXbXmXbXbXpXbXbXbXpXbXpXbXbXbXbXbXpX7XGX                                                                                                                                                                                                                                                                                                                                                                                                                                                                                                  ",
"                                                                                                                                                                                                                                                                                                                                                                                                                                                                                                                                                                                                    DXVXCXVXCXVXCXCXCXCXCXCXCXCXCXCXCXAXAXVXCXCXCXCXCXCXCXZXCXCXAXVXAXCXCXAXCXCXCXCXCXCXCXCXCXZXVXAXVXVXVXVXVXVXCXBXZXZXZXZXBXZXCXNXNXCXCXCXNXNXCXCXVXVXVXVXCXbXmXbXbXbXmXpXmXmXmXbXbXbXbXmXbXbXbXbXbXbXbXbXbXbXbXbXbXbXpX7XGX                                                                                                                                                                                                                                                                                                                                                                                                                                                                                                  ",
"                                                                                                                                                                                                                                                                                                                                                                                                                                                                                                                                                                                                    DXVXCXCXVXVXCXCXCXCXCXCXCXCXAXVXVXCXAXAXCXCXCXCXCXCXZXZXCXCXVXCXCXCXCXCXCXCXCXCXCXCXCXCXMXZXVXVXAXAXCXAXVXVXCXBXBXZXZXZXBXZXNXCXVXVXCXNXCXCXCXVXVXCXVXCXCXbXnXmXmXbXbXmXmXmXbXmXbXmXmXmXbXpXpXbXbXpXbXpXbXbXbXbXpXbXmX8XGX                                                                                                                                                                                                                                                                                                                                                                                                                                                                                                  ",
"                                                                                                                                                                                                                                                                                                                                                                                                                                                                                                                                                                                                    AXVXCXCXVXVXCXCXZXZXZXZXZXCXVXCXAXAXmXmXVXAXCXCXNXBXCXBXMXMXVXCXCXCXCXAXCXCXCXCXVXCXCXCXMXSXVXAXVXVXVXCXCXAXCXCXCXBXBXNXBXBXAXNXVXVXCXCXNXCXNXCXVXNXNXCXCXbXbXnXbXmXbXbXbXbXmXbXmXmXbXbXmXmXbXbXbXpXbXpXpXbXpXbXpXbXmX8XGX                                                                                                                                                                                                                                                                                                                                                                                                                                                                                                  ",
"                                                                                                                                                                                                                                                                                                                                                                                                                                                                                                                                                                                                  GXFXAXVXVXCXAXZXCXZXVXZXZXZXZXAXDXDXDXAXCXAXAXAXAXAXCXAXAXAXAXDXDXDXDXDXDXAXAXAXAXAXDXAXDXAXFXFXFXFXFXDXDXDXDXDXAXAXAXZXAXAXAXCXNXCXCXCXCXCXCXCXCXCXCXCXCXNXbXnXnXnXnXmXmXbXmXnXbXnXnXmXmXmXmXbXbXpXpXpXpXbXbXpXpXpXbXbX7XGX.                                                                                                                                                                                                                                                                                                                                                                                                                                                                                                 ",
"                                                                                                                                                                                                                                                                                                                                                                                                                                                                                                                                                                    qXdXuXyXiXeXiXsXuXuXiXuXiXiXiXdXDXVXCXCXCXCXCXZXZXZXZXZXZXZXAX7XqX8XqXqXqXqXqXqXqXqX7XqXqXqX7X7X7X7X7XqXqXqXqXqXqXqXqXqX7X7X| 7XG G G HXG HXHX7X7X7X7X7X^.HXpXNXNXNXNXNXNXCXNXNXNXVXNXNXCXNXVXmXmXNXVXmXNXmXNXNXNXNXVXmXmXmXpXbXpXpXpXpXbXbXbXpXpXpXbX7X                                                                                                                                                                                                                                                                                                                                                                                                                                                                                                    ",
"                                                                                                                                                                                                                                                                                                                                                                                                                                                                                                                                                                  GXdXZXAXAXAXAXDXAXAXAXZXAXZXZXAXZXZXZXCXCXCXCXAXVXZXZXZXZXZXZXFX< j j 3 2 3 z x c c m v m x m x x x x e z e z e z 3 e h h c v B B n m n M Z D M m e x x x x , bXNXNXNXNXNXNXNXNXNXNXNXNXNXNXVXVXVXVXVXVXVXVXNXNXVXVXVXmXAXmXpXpXpXpXpXbXbXpXdXpXpXpXpXmXqX                                                                                                                                                                                                                                                                                                                                                                                                                                                                                                    ",
"                                                                                                                                                                                                                                                                                                                                                                                                                                                                                                                                                                    uXVXVXCXZXZXCXCXZXZXZXCXAXZXZXZXZXZXAXVXAXVXCXCXVXZXZXZXZXMXFXv C B V b b n n M N V b b b b Z Z x x b x b b x b x b b n n n M B n N N N n V N M M n M M x j bXNXNXNXNXNXNXNXVXNXNXVXNXNXNXVXVXVXVXVXVXVXVXVXVXVXNXVXVXVXmXbXpXpXpXpXpXpXpXpXpXpXpXpXmXqX                                                                                                                                                                                                                                                                                                                                                                                                                                                                                                    ",
"                                                                                                                                                                                                                                                                                                                                                                                                                                                                                                                                                                    sXVXZXZXZXSXZXZXAXZXZXZXZXAXZXZXZXZXVXVXVXAXCXCXCXCXZXZXMXMXFX2 b b b b n n b b b n M b b b x M M b b n b b M b b b b n N n b b b b b M b b b b N x b m b , bXNXNXNXNXNXNXNXNXNXNXVXNXNXVXVXVXVXNXVXVXVXVXVXVXVXNXMXVXVXmXbXpXbXbXpXpXpXpXpXpXpXpXpXmX7X                                                                                                                                                                                                                                                                                                                                                                                                                                                                                                    ",
"                                                                                                                                                                                                                                                                                                                                                                                                                                                                                                                                                                    iXVXZXZXZXZXAXZXZXZXZXZXZXZXZXZXZXZXAXAXVXVXAXVXAXCXZXZXZXMXFX2 b b b n b b b N b n V n b n M M n n M b n M b b n N b b n n b b b n b m b b M m M m b b n z bXNXNXNXNXNXCXNXNXNXNXNXNXNXNXCXVXVXVXVXVXVXVXVXVXVXVXVXNXNXmXsXpXpXpXpXpXpXpXpXsXpXpXpXpX7X                                                                                                                                                                                                                                                                                                                                                                                                                                                                                                    ",
"                                                                                                                                                                                                                                                                                                                                                                                                                                                                                                                                                                    iXVXSXZXZXAXSXZXZXZXZXZXZXZXAXZXZXVXVXVXAXVXZXZXVXVXZXMXZXMXFX3 n n b b b b n b b N b b n b M n M b b b n M b b M b b b b b b b b n b N b N b M b M b b x e sXNXNXNXNXNXNXNXCXNXNXNXNXNXNXVXVXVXVXVXVXVXVXmXNXVXVXVXVXNXNXpXpXpXpXpXpXpXpXpXpXpXpXpXmX7X                                                                                                                                                                                                                                                                                                                                                                                                                                                                                                    ",
"                                                                                                                                                                                                                                                                                                                                                                                                                                                                                                                                                                    iXCXZXZXZXZXZXZXBXAXZXAXZXZXZXZXZXAXZXZXZXZXZXCXCXVXMXZXMXZXFXc n b b b b b b N n b b b b N M b b b b n b b b b b b b n b b n n n B b b n b b b b b b b x e sXVXNXNXNXNXNXNXNXNXNXNXNXNXNXVXVXVXVXVXVXVXVXVXVXVXVXNXMXVXmXpXpXpXpXpXpXpXpXpXpXpXpXmXmXdX                                                                                                                                                                                                                                                                                                                                                                                                                                                                                                    ",
"                                                                                                                                                                                                                                                                                                                                                                                                                                                                                                                                                                    iXCXZXZXZXAXZXZXZXAXZXZXZXAXZXZXZXZXZXZXZXZXZXCXCXCXMXZXMXZXFXe n b b b b n M b b n M b n n b M b b b M b b b b b b b b n b b b b b b n n n b b b m b m b z iXNXmXNXNXNXNXNXNXNXNXNXNXNXNXVXVXVXNXVXVXCXVXVXVXVXVXVXCXNXmXpXpXpXpXpXpXbXbXbXpXpXpXpXpX7X                                                                                                                                                                                                                                                                                                                                                                                                                                                                                                    ",
"                                                                                                                                                                                                                                                                                                                                                                                                                                                                                                                                                                    dXCXZXZXZXZXAXZXZXZXZXZXZXSXZXZXZXZXZXZXZXZXZXCXZXZXZXMXZXZXDXc v b b b b b n n M b M b n M n n n b b n n n n b n b n b b b b b b N b b M b M n n b M b x e sXVXNXNXNXNXNXNXNXNXNXNXNXNXVXVXCXVXCXVXVXNXVXVXNXVXVXVXVXNXmXpXpXpXpXpXpXdXpXbXpXpXpXpXbX7X                                                                                                                                                                                                                                                                                                                                                                                                                                                                                                    ",
"                                                                                                                                                                                                                                                                                                                                                                                                                                                                                                                                                                    dXCXZXZXZXZXZXZXZXZXZXZXZXZXZXZXBXZXZXZXZXZXCXCXCXZXZXZXMXZXDXu b b n b b n b n n M n n b M M b n b b n b b M b b b b b b b b b b N n M b b b b b b D M N e sXNXNXNXNXNXNXNXNXVXNXNXNXNXNXVXVXVXVXVXNXVXVXVXVXVXNXVXVXVXmXbXpXpXpXpXpXpXpXpXbXpXpXpXpX7X.                                                                                                                                                                                                                                                                                                                                                                                                                                                                                                   ",
"                                                                                                                                                                                                                                                                                                                                                                                                                                                                                                                                                                    iXCXZXZXZXZXZXZXZXAXZXZXZXAXZXZXZXZXZXZXZXZXZXCXCXZXZXMXZXZXDXc n n b b b M M b b n M b b n b b b b b M M n n b b n b n b M N b n b b M n M n M b b x N x z sXCXNXNXNXNXNXNXNXNXNXNXNXNXNXVXCXVXVXVXVXVXVXVXVXVXVXVXVXVXmXsXpXpXpXpXpXpXpXpXbXdXpXpXbX7X                                                                                                                                                                                                                                                                                                                                                                                                                                                                                                    ",
"                                                                                                                                                                                                                                                                                                                                                                                                                                                                                                                                                                  GXiXAXVXCXZXZXZXZXZXZXAXZXZXZXZXZXZXZXBXBXZXBXCXVXZXBXZXVXZXVXFXm b b b b N b b b b M n b n n n b n b M b b b M M b n n n b n n n b b b n m b b b b M x M M e sXmXmXNXNXNXNXNXNXNXNXNXNXNXNXNXVXmXCXCXVXVXNXNXNXVXVXMXNXVXmXpXbXbXpXpXpXpXpXpXpXsXpXsXmX8X                                                                                                                                                                                                                                                                                                                                                                                                                                                                                                    ",
"                                                                                                                                                                                                                                                                                                                                                                                                                                                                                                                                                                  GXiXAXAXZXZXAXZXZXAXZXZXZXZXZXZXZXZXBXZXZXBXBXZXZXVXZXZXZXVXMXDXc b n n b b n b n b n b b b B M b M n n b b b b n b M N b b b b b b b v n b n b b b M Z M M e sXVXmXCXNXNXNXNXNXNXNXNXNXNXNXVXVXVXmXCXVXVXVXVXVXVXVXVXVXVXmXmXbXdXpXpXpXpXbXdXpXpXpXpXmX8X                                                                                                                                                                                                                                                                                                                                                                                                                                                                                                    ",
"                                                                                                                                                                                                                                                                                                                                                                                                                                                                                                                                                                  GXbXAXZXZXZXZXZXZXZXZXZXZXAXSXZXZXBXBXBXBXBXZXVXZXZXZXVXVXZXZXFXN v b n n N n n n M M b b B B M m b b n M M n M n n M b b b b b b n b N b N n M n n M n b x e iXmXmXCXmXVXNXNXNXNXNXNXNXNXNXNXAXmXAXCXVXVXVXVXVXVXVXNXVXCXmXsXbXpXpXpXpXpXbXbXpXpXpXpXmX7X                                                                                                                                                                                                                                                                                                                                                                                                                                                                                                    ",
"                                                                                                                                                                                                                                                                                                                                                                                                                                                                                                                                                                  GXiXAXZXZXZXZXZXZXZXZXZXZXZXZXBXZXZXZXBXZXZXBXZXVXZXVXZXZXZXMXFXm b n n b N N N N N N n B b l n Z N N n b b b b n b b N b b v b n b n b V V N b V N n b b b z mXCXmXmXCXmXNXmXNXNXNXNXNXNXNXNXCXCXAXmXVXVXCXVXVXVXVXVXCXZXNXpXpXpXpXpXpXpXpXpXpXpXpXbXmXsX                                                                                                                                                                                                                                                                                                                                                                                                                                                                                                    ",
"                                                                                                                                                                                                                                                                                                                                                                                                                                                                                                                                                                  GXiXAXZXZXZXZXAXZXZXZXZXZXZXZXZXZXZXBXBXZXZXBXZXBXZXCXBXZXZXMXFX0 < 2 2 , 2 2 j j j j j j j j 4 2 4 j 4 , , x j x x x x h 3 2 2 < 2 e 3 z 3 m x e e , e 2 2 # sXNXmXNXNXNXNXNXNXNXNXNXNXNXNXBXAXVXSXCXCXCXCXCXSXMXCXZXCXCXNXpXpXpXpXpXpXpXpXdXbXpXpXpXbX7X# .               GX        GX                                                                                                                                                                                                                                                                                                                                                                                                                                                                      ",
"                                                                                                                                                                                                                                                                                                                                                                                                                                                                                                                                                                  GXaXAXZXZXSXZXZXZXZXZXZXZXZXZXBXZXZXZXBXZXBXZXZXZXMXMXZXZXZXZXAXaXmXnXpXaXbXbXnXnXnXnXaXbXnXNXmXpXpXmXnXmXnXmXsXaXsXpXpXaXaXnXmXmXbXbXsXsXsXsXsXiXsXiXiXsXbXpXNXZXBXBXBXBXBXBXSXNXMXBXZXBXZXmXpXpXbXbXbXbXbXbXnXpXnXmXmXmXmXpXpXpXpXpXpXpXpXpXbXbXpXpXbXbXbXbXmXpXsXsXsXiXbXbXbXbXsXbXsX                                                                                                                                                                                                                                                                                                                                                                                                                                                                      ",
"                                                                                                                                                                                                                                                                                                                                                                                                                                                                                                                                                                  GXzXZXSXSXMXMXSXMXMXMXSXMXZXBXMXBXZXZXZXZXZXZXBXZXSXCXZXZXZXZXZXBXZXVXVXVXVXCXAXVXVXAXVXCXCXZXZXCXCXCXZXZXCXCXCXCXCXCXCXZXZXZXBXZXBXCXZXAXZXZXCXZXSXVXBXBXBXZXZXZXBXZXSXZXZXZXBXBXZXBXZXZXBXmXbXpXpXpXbXbXbXbXaXmXnXnXmXpXpXpXpXpXpXpXpXpXpXpXpXpXpXpXpXbXpXbXsXpXpXpXaXpXpXpXbXsXbXbXiXGX                                                                                                                                                                                                                                                                                                                                                                                                                                                                    ",
"                                                                                                                                                                                                                                                                                                                                                                                                                                                                                                                                                                  GXzXZXZXZXMXMXZXSXMXBXMXMXBXBXBXMXZXMXBXBXZXZXZXZXZXZXZXZXZXZXZXZXZXZXCXCXVXVXVXCXCXZXVXVXCXVXCXCXCXCXCXCXVXCXBXBXBXBXVXVXCXZXBXBXBXVXBXBXBXZXCXCXCXMXNXBXBXBXBXBXZXBXBXZXBXZXBXBXBXBXZXBXSXmXbXpXbXbXbXbXbXbXnXnXnXnXnXnXnXpXpXpXpXpXpXpXpXpXpXpXpXpXpXpXpXpXpXbXsXpXaXpXpXpXbXbXbXsXbX                                                                                                                                                                                                                                                                                                                                                                                                                                                                      ",
"                                                                                                                                                                                                                                                                                                                                                                                                                                                                                                                                                                  GXbXAXMXMXSXMXMXMXMXSXMXMXMXSXBXBXZXZXBXZXBXZXBXZXZXBXZXZXZXZXZXZXZXVXCXCXCXCXCXZXZXZXCXCXMXZXBXBXBXBXCXZXMXMXBXBXBXBXBXBXBXBXBXBXBXBXBXBXBXBXBXBXBXBXBXZXBXBXBXBXZXBXBXBXBXZXBXZXBXBXBXBXBXNXbXbXbXbXbXnXnXnXnXnXnXnXnXpXbXbXpXpXpXpXpXbXpXpXpXpXpXpXpXpXbXpXpXsXbXbXiXbXpXpXsXbXiXbXdXGX                                                                                                                                                                                                                                                                                                                                                                                                                                                                    ",
"                                                                                                                                                                                                                                                                                                                                                                                                                                                                                                                                                                  GXsXAXSXMXMXMXMXMXMXMXMXMXSXMXBXBXZXZXBXZXZXZXZXZXZXZXZXZXZXZXVXZXZXZXCXVXZXCXZXZXZXZXCXCXMXVXBXBXBXZXCXVXZXMXBXBXBXBXBXBXBXBXBXBXBXBXBXBXBXBXBXBXBXBXBXBXBXBXZXBXBXZXZXZXBXBXZXBXBXZXBXBXBXmXpXbXbXaXbXnXaXnXnXnXnXaXnXnXbXaXpXpXpXbXpXpXpXpXpXpXpXpXpXpXbXbXsXbXsXbXsXbXaXpXsXbXbXbXbXGX                                                                                                                                                                                                                                                                                                                                                                                                                                                                    ",
"                                                                                                                                                                                                                                                                                                                                                                                                                                                                                                                                                                    iXZXSXMXMXMXMXMXSXMXMXMXMXMXBXBXBXZXZXZXZXZXZXZXZXZXZXZXZXZXZXZXZXZXZXZXZXZXCXZXZXCXCXCXVXZXBXBXBXBXBXBXMXMXBXMXBXBXBXBXBXBXBXBXBXBXBXBXBXBXBXBXBXBXBXBXBXBXBXBXBXBXBXBXBXBXBXZXZXBXBXZXZXmXnXnXnXnXbXaXbXnXpXnXaXnXnXnXbXnXbXpXpXpXbXbXpXbXpXpXpXpXpXpXpXbXbXbXsXsXbXsXsXaXbXbXsXbXiXGX                                                                                                                                                                                                                                                                                                                                                                                                                                                                    ",
"                                                                                                                                                                                                                                                                                                                                                                                                                                                                                                                                                                    bXAXSXMXMXMXMXSXMXMXMXMXMXMXMXBXZXZXZXZXBXZXZXZXZXZXZXZXZXZXZXZXZXZXZXZXZXZXCXZXZXCXCXVXVXVXBXZXBXBXBXMXZXMXBXBXBXBXBXBXBXBXBXBXBXBXBXBXBXBXBXBXBXBXBXBXBXBXBXBXBXBXBXZXBXBXZXBXBXZXZXBXBXvXaXpXbXbXbXnXnXnXpXnXmXnXnXnXbXaXbXpXpXbXpXpXbXpXpXpXpXpXpXpXpXdXbXsXbXbXsXbXaXbXbXsXbXiXsXGX                                                                                                                                                                                                                                                                                                                                                                                                                                                                    ",
"                                                                                                                                                                                                                                                                                                                                                                                                                                                                                                                                                                    iXMXMXMXMXMXMXMXSXMXMXMXMXMXMXMXZXZXZXZXZXZXBXZXZXZXZXZXZXZXZXZXSXBXSXZXZXSXZXZXZXZXZXVXVXCXBXBXBXBXBXBXBXBXBXMXMXMXBXBXBXBXMXBXBXMXMXBXZXMXBXZXMXBXMXMXZXMXZXZXZXMXZXBXMXMXZXBXBXZXMXZXBXmXbXbXbXbXvXsXpXbXaXbXbXbXnXnXaXaXbXpXpXpXbXsXbXbXbXsXbXsXbXaXaXpXiXpXpXpXpXpXiXpXsXbXbXsXsXGX                                                                                                                                                                                                                                                                                                                                                                                                                                                                    ",
"                                                                                                                                                                                                                                                                                                                                                                                                                                                                                                                                                                    iXNXSXMXMXSXMXMXMXMXMXMXMXvXMXMXZXMXMXZXZXZXZXZXZXZXZXZXZXZXZXZXZXZXZXBXBXZXBXZXZXZXZXZXCXVXBXBXBXBXBXBXBXBXSXMXMXMXBXMXMXMXBXMXBXMXBXMXMXBXBXMXBXBXMXZXMXMXMXMXBXBXMXZXZXZXMXZXZXBXZXMXZXNXbXbXbXbXbXpXbXbXmXbXbXbXnXnXnXnXaXpXpXpXbXbXbXsXbXbXbXbXbXpXbXaXpXpXpXpXsXpXbXpXbXbXsXpXiXGX                                                                                                                                                                                                                                                                                                                                                                                                                                                                    ",
"                                                                                                                                                                                                                                                                                                                                                                                                                                                                                                                                                                    uXMXNXMXNXMXMXMXMXSXMXMXvXMXMXSXMXZXZXZXMXZXZXZXBXZXZXZXZXZXZXZXBXZXZXZXZXZXZXZXZXZXZXZXVXZXBXBXBXBXZXBXBXBXZXMXMXMXMXBXMXMXMXMXBXMXBXMXMXZXBXBXMXBXBXZXMXBXMXZXBXBXZXBXZXZXZXMXZXBXMXSXZXnXbXaXbXpXpXbXbXbXbXmXbXbXnXnXbXbXbXaXpXpXbXsXbXbXsXbXbXbXbXsXpXpXpXpXpXiXpXpXpXsXsXbXbXdXsXGX                                                                                                                                                                                                                                                                                                                                                                                                                                                                    ",
"                                                                                                                                                                                                                                                                                                                                                                                                                                                                                                                                                                    uXNXNXSXSXSXSXMXMXMXMXMXMXMXMXMXZXZXZXZXMXZXBXZXBXZXZXZXZXZXZXBXZXZXZXBXZXBXBXZXZXZXZXBXBXMXBXBXBXBXBXBXBXBXMXMXMXMXMXBXBXBXBXMXMXBXMXMXMXMXBXMXBXMXMXMXBXBXMXMXMXZXBXMXMXBXBXZXBXBXMXZXZXmXbXpXpXbXpXbXbXbXbXaXnXbXbXmXaXaXbXbXpXpXpXbXsXbXsXbXbXsXbXbXpXsXpXpXpXpXpXpXsXpXsXsXbXsXiXGX                                                                                                                                                                                                                                                                                                                                                                                                                                                                    ",
"                                                                                                                                                                                                                                                                                                                                                                                                                                                                                                                                                                    iXMXSXMXSXMXMXMXMXMXMXMXMXMXMXMXSXZXZXMXZXZXZXBXBXBXZXZXZXBXBXBXZXBXZXZXZXZXZXZXZXZXBXBXBXMXBXBXBXBXBXMXBXBXMXMXBXBXBXBXBXBXMXMXMXMXMXMXBXZXBXMXMXBXMXMXBXMXZXMXMXZXMXMXBXBXZXBXBXSXZXBXZXmXbXbXbXbXbXbXbXbXbXbXpXbXbXbXbXpXaXsXbXbXsXbXsXsXbXbXbXsXpXaXpXpXpXpXpXiXpXpXiXpXbXiXbXiXiXGX                                                                                                                                                                                                                                                                                                                                                                                                                                                                    ",
"                                                                                                                                                                                                                                                                                                                                                                                                                                                                                                                                                                    sXZXNXMXMXMXMXMXMXvXMXSXMXMXSXMXMXMXZXSXMXZXBXZXZXZXBXZXBXBXZXBXZXBXBXBXZXBXMXZXZXZXZXBXBXMXBXBXBXBXBXBXMXBXMXMXBXBXBXBXMXMXMXMXZXMXZXMXMXMXBXBXBXMXBXBXMXMXMXZXZXMXZXMXBXBXBXBXMXMXMXZXZXmXaXbXbXpXbXbXaXbXbXbXbXbXbXbXpXpXbXbXbXsXbXbXbXbXsXbXbXbXpXpXaXaXpXpXpXpXpXsXbXpXsXbXbXpXsXGX                                                                                                                                                                                                                                                                                                                                                                                                                                                                    ",
"                                                                                                                                                                                                                                                                                                                                                                                                                                                                                                                                                                    iXAXSXMXMXMXvXMXMXMXMXMXMXMXMXMXZXZXZXZXZXMXBXZXZXZXBXZXBXZXBXBXZXZXZXBXZXBXZXZXZXZXZXBXBXBXBXBXBXBXBXBXBXBXZXBXBXBXBXBXMXMXZXMXMXZXMXMXMXZXSXBXBXMXMXMXMXMXMXBXBXMXMXBXBXBXBXBXMXMXZXZXZXmXpXbXbXbXbXbXnXaXaXbXbXpXbXbXpXpXpXpXbXsXbXsXsXbXsXbXbXsXpXaXaXpXpXpXpXpXpXpXsXpXpXpXpXiXsXGX                                                                                                                                                                                                                                                                                                                                                                                                                                                                    ",
"                                                                                                                                                                                                                                                                                                                                                                                                                                                                                                                                                                    iXZXSXMXMXMXMXMXMXMXSXMXvXMXMXMXMXZXMXMXZXZXBXBXBXZXBXSXZXBXZXBXSXBXBXBXBXZXBXSXZXZXBXBXBXBXBXBXBXBXBXBXMXMXBXBXBXBXBXMXSXMXSXMXMXZXMXMXSXMXMXMXBXBXBXBXMXMXZXMXSXMXMXMXBXBXSXBXMXMXSXSXZXmXpXpXpXbXbXaXnXnXmXbXaXvXbXmXpXpXpXpXbXbXsXbXbXsXbXbXsXbXpXpXaXaXaXpXpXiXsXsXpXsXpXpXiXpXiXGX                                                                                                                                                                                                                                                                                                                                                                                                                                                                    ",
"                                                                                                                                                                                                                                                                                                                                                                            m m n GXGXGXGXGXGXGXGXGXGXGXGXm m GXm GXGXGXGXGXGX    GX                                  GX    GX                  GXGXGXGXGXGXn m m m i m m u u i e i u m i m m D GXGXu i D GXGXGXGXm rXSXSXSXSXSXvXvXvXvXSXvXvXSXSXSXSXSXSXSXSXSXSXSXSXSXSXSXvXvXvXSXvXvXvXvXvXSXSXvXSXSXSXSXvXSXSXSXSXSXSXvXSXvXvXSXSXvXvXSXvXSXSXvXSXvXSXvXSXvXSXSXSXvXvXvXSXSXSXSXSXSXSXvXSXSXvXvXvXvXnXSXAXvXaXaXzXaXaXaXaXaXaXaXzXaXaXaXaXaXsXsXaXaXzXaXaXaXaXzXaXaXaXaXaXaXiXaXaXzXsXaXaXkXaXzXsXsXtX1 GXD m i GXGXD D D D m i D m D i m D D D D D D D D D D D D GXGXGXGXD D D GXGXGXD D D D D i D i i D p m i i m i p i D m n GXm D GXGXGXGXGXGXD m D GXD i n                                                                                                                                                                                                                                                                                                             ",
"                                                                                                                                                                                                                                                                                                                                                                          G xX).).*X).).).).).).).).).).).).).).)./.).)./.).)./././././././././.^./.^./././.^./.^././././././././././././.).(.(./.)./.).(.).).).).).).).).).).).).).).).).).).).).).).(.(.).hX).fX).xX*XxXxXxXxXxX&XlXlXxXlXfX*X:XgXfX>X&X&X;X:X;X;X;X;X:X&X&XlX&X&XlXlXlXfX*XlXfX&X*XfX*XhXhX*X*XfX*XfXfXfXfXfXfXfXfXlXfXfXlXfXfXfXlXlXfXfXfXfXfX&XfXfXfXfXfX&X:XfX&X&X&XfXfXfXfXfXfXfX&XxXlXgXfXgXlXhXxXxXlXlX4XhXxXgX4XlX-XfXfXlXgXgXxXhXxX4XgXgXlXhXlXxXgXlXzXzXgXgXlXlXlXlXlXlXlX&XgX*XfX*X).*X).*X*X).hX*X&X&X*XfX*XlX*X&XfX*XfX*X*X*XtX*X&XfX&X&X*X*X&XfX&XfX*X&X*X*X*X*X*XfXfX&XlXfXtXxX*XlXxXfXhXhXhX*X*X*X*X*X*X).*X*X*X).).*X*X&X*X*X*XxX^.                                                                                                                                                                                                                                                                                                          ",
"                                                                                                                                                                                                                                                                                                                                                                          W.3X2X#X$X$X$X@X@X2X@X@X$X=X%X$X>X6X2X$X$X-X=X$X$X$X>X$X$X$X$X%X$X$X$X=X$X2X$X$X$X2X$X>X%X%X>X=X$X%X%X%X%X$X#X$X$X>X:X#X$X=X%X%X%X>X%X$X$X3X2X>X2X$X$X2X2X$X$X$X@X@X@X%X@X%X@X@X@X2X$X$X$X$X>X2X$X$X$X%X%X$X$X$X2X$X#X%X>X>XoX%X#X#X.X#X#X#X#X%X@X#X%X@X$X@X@X@X@X#X$X@X$X@X$X$X@X@X$X$X$X#X#X@X#X%X$X#X$X#X%X#X%X%X#X%X#X#X%X%X#X%X%X$X$X@X#X#X%X#X:X%X%X%X%X.X%X%X.X@X%X%X@X%X#X$X$X$X%X%X%X@X@X$X$X2X@X@X$X@X@X%X>X@X$X$X$X$X@X@X$X>X%X%X>X#X$X#X>X>X>X#X#X#X@X$X$X#X#X:X>X%X@X@X@X2X.X.X@X%X@X@X@X.X%X%X#X@X@X$X%X@X@X@X#X@X@X.X@X%X.X%X@X%X#X%X.X@X@X#X#X@X@X.X#X@X#X#X@X@X@X<X%X2X#X#X#X2X@X@X@X@X@X@X.X@X@X#X#X@X#X2X.XXX.X#X#X2X4X| GX                                                                                                                                                                                                                                                                                                        ",
"                                                                                                                                                                                                                                                                                                                                                                          W.2X2XXX@X2X#X#XXX#X#X$X#X@X@X#X@X#X#X#X#X#X@X#X#X#X#X#X@X#X#X@X%X#X#X$X#X#X$X>X#X#X$XXX#XXX%X#X#X#X#X$X$X$X#X#X#X.X#X#X$X#X#X#X.X%X#X>X#X@X@X#X#X#X#X@X2X<X@X.X@XXX#X$X#X.X#X.X.X@X@X#X#X$X#X2X$X@X#X@X#X#X#X#X#X#X%X.X#X#X#X#X#X%X#X#X#X#X#X#X$X#X#X@X@X#X#X#X#X#X#X@X#X@X@X@X@X@X@X#X>X#X%X#X#X#X#X#X#X#X#X#XXX#X#XoX>X#X#XXX>X#X.X>X#X#X#X#X#X>X>X%X>X.X%X>X#X%X#X#X#X#X#X$X$X#X#X#X#X#X#X#X#X@X@X@X.X#X#X#X$X%X#X@X#X#X#X#X#X@X@X#X#X#X#XXX#X#X#XXXXXXX#X$X$X#X#X>XXXXXXX.X#X#X#X#X#X#X#X#X#X.X@X#X#X#X#X@X@X#X#X@X#X#X#X#X#X@X<X.X#X.X#X#X#X#X#X#X#X#X#X#X@X.X2X@X@X@XXX.X@X@X<XXX#X#X#X@X.X@X#X#X@X.X#X#X.XXXXX#X#X#X#X>X#X#X#X.X4X/.GX                                                                                                                                                                                                                                                                                                        ",
"                                                                                                                                                                                                                                                                                                                                                                          ^.3X<X#X2X2XXX#X#X#X#X#XXX<X$X#XXX#XXX@X$X#X#X#X$X#X#X#X#X#X#X#X#X#X#X#X#X#X#X#X#X#X#X#X#X#X#X#X#X#X#X#X#X#X#X#X#XXXXX#X#X#X#X#X#X#X>X@X#X#X#X%X#XXX#XXX#X#XXXXX#X#XXX#X#X#X.X#X.X#X#X#X#X$X%X#X%X#X$X@X$X@X@X#X$X#X#X%X#X#X#X%X#X#X#X%X%X#X>X$X#X%X#X@X#X$X#X#X#X#X#X#X#X@X@X@X@X@X@X#X#X#X#X#X@X%X#X#X@X#X@X%X#X#X%X#X#X#X%X#X#X#X>X%X%X#X#X#X>X#X#X.X.X.X%X#X#X#X@X#X#X#X#X#X%X#X#X.X#X#X#X#X#X#X#X#X#X#X#XXX#X#X#X#X#X#X.X#X#X#X#X#X#X#X#X#XXX#X#X#XXX#X#XXX.X#X#XXXXX#XoX#X#X#X#X>X%X%X#X#X#X#X#X#X#X#X>X>X#X#X#X#X#X#X#X#X#X#X#X#XXX#X#X#X#X#X#X#X#X#X#X#X#X#X#X#X#X#X#X#X#X#XXX#X#X#X#X#X#X#X#X.X#X#X#XXX#X#XXX#XXXXX>XXXXXXX XoX@X/.GX                                                                                                                                                                                                                                                                                                        ",
"                                                                                                                                                                                                                                                                                                                                                                          | 4X<XXXXXXX#X#XXX#XXX#X#X#X#X#X#X#X#X$X#X#X#X#X#X#X#X#X#X$X#X#X#X#X%X%X#X%X%X#X#X#X#X#XoX#X#X#X#X>X#X#X$X#X#X#X>X>X#X>X#X#X#XXX>X#X.X@X#X#X#X#X#X.X>X#X#X#X#X#X#X#X#X#X#X#X#X#X#X#X#X%X#X#X#X#X#X$X#X@X#X#X$X%X#X#X$X#X#X>X#X#X>X>X#X#X#X%X#X%X%X#X#X#X#X#X#X@X%X@X@X#X%X#X>X@X#X#X%X#X%X#X#X#X#X#X#X#X%X@X%X#X%X%X#X#X%X#X%X#X#X#X#X#X#X%X#X%X%X%X#X>X%X>X#X#X%X%X>X#X%X#X#X%X#X#X>X%X>X#X#X%X#X#X#X#X#X#X#X:X>X#X%X%X%X#X>X#X$X%X#X#X#X#X#X>X%X#X#X#X#X>X#X#X>X#X#X>XXX#X#XXX#X#X#X#X#X#X#X#X#X#X#X#X@X#X#X.X#X#X#X#X#X#XXX#X#X#X#X#X#X#X#X#X#XXX#X.X.X.X.X#XXX#X#X#X#X#X#X#X#X#X#X#XXXXX#XXXXX#XXX#X#XXX#X>X#XXX>X#X#XXX#X#X#XXXXX.X%X/.                                                                                                                                                                                                                                                                                                          ",
"                                                                                                                                                                                                                                                                                                                                                                          | 4X2X#X$X#X@X#X#X#X2X$X#X#X#X#X#XXX#X#X#X#X#X#X#X#X#X#X#X#X#X>X#X#X#X#X#X#X#X#X>X#X#X>X#X#X#X#X#X#X#X#X#X#X#X#X#X#X#X#X#X#X#X#XXX#X>X#X#X#X>X#X#X#X#X#X#X#X#X@X@X@X#X#X#X#X#X@X#X#X%X#X$X>X%X$X#X%X>X#X#X#X#X%X#X>X#X>X#X%X%X#X%X%X#X%X%X>X#X%X#X#X>X@X#X#X#X#X#X#X#X#X#X%X#X#X#X#X#X#X#X#X#X#X#X#X%X%X#X#X#X#X#X#X#X#X#X#X#X%X#X#X%X%X>X%X%X#X#X#X#X.X#X%X.X%X#X%X#X#X#X%X#X#X$X#X#X#X#X#X%X#X#X#X#X#X#X#X@X#X#X#X#X%X#X%X#X#X#X#X#XXX>X#X#X.X%X#X#X%X#X#X#X#X#X#X#X#X%X#X#X#X#X.X%X#X#X#X%X@X#X#X#X#X#X#X#X#X#X#X@X#X#X@X@X#X#X#X#X@X#X@X@X@X@X#X#X#X#X@X@X2X.X#X#X#X#X#XXX.X2X#X#X#X#XXX6X#X#XXX#X#X#X#XXX#XXXXX#X#X#X#X#X#X#XXX#X@X2X^.                                                                                                                                                                                                                                                                                                          ",
"                                                                                                                                                                                                                                                                                                                                                                          W.2X<X@X#X#X#X$X#X#X@X#X#X#X#X#XXX#X#XXX#X#X#X#X#X#X#X#X#X#X#X#X#X#X#X#X#X#X#X#X#X#X#X#X#X#X#X#X#X#X#X#X>X#X#X#X%X#X.X#X#X#X#X#X#X#X#X#X#X#X#X#X#X#X%X@X#X#X#X#X#X#X#X#X#X#X#X.X#X#X#X#X#X#X#X#X%X#X%X#X$X$X#X#X#X#X%X.X%X#X#X#X#X#X#X#X#X#X#X#X%X%X#X$X@X#X.X#X#X#X#X#X%X#X#X%X#X$X#X#X%X%X#X#X%X#X#X#X#X#X%X#X%X#X%X#X%X%X#X#X%X%X#X#X#X.X#X#X#X%X#X%X#X%X#X#X#X#X#X%X#X#X#X%X#X%X#X#X%X#X#X%X#X%X#X$X#X#X#X#X%X>X#X#X#X#X#X>X#X%X#XXX:X>X#X#X.X#X#X#X#X#X#X#X#X#X#X.X#X#X%X.X>X>X#X#X#X#X#X#X#X#X#X#X#X#X#X#X#X#X#X#X.XXX#X#X#XXX#X@X#X#X#X@X#X@X#X#X#X#X#XXX@X#XXX#X#X@XXX@XXX#X#X#X#XXX#XXX#X>XXXXXXX#X#X#X#X#XXX#XXX#X#X#X#X#XXX@X%X/.                                                                                                                                                                                                                                                                                                          ",
"                                                                                                                                                                                                                                                                                                                                                                          F 4X@X@X@X$X#X#X#X#X#X#X#X#XXX#X#X#X#XXX#X#X#X#X$X#X#X#XXX#X#X#X#X#X@X#X$X#X@X#X$X#X#X#X#X#X>X#X.X#X#X%X#X#X>X>X#X.X>X>X#XXX%XXX#X>XXX#X#X#X#X#X#X#X.X#X#X.X#X#X#X#X#X%X#X.X#X#X#X%X#X#X#X#X%X#X#X#X%X#X#X#X%X#X%X%X#X@X%X#X%X>X#X#X#X%X#X.X%X>X#X#X#X#X#X#X#X.X#X#X#X#X#X#X#X%X%X#X#X.X#X#X%X#X%X#X#X>X#X.X#X#X%X#X.X%X%X#XoX#X#X#X#X%X#X#X#X#X#X%X#X#X%X#X#X%X%X#X#X%X#X#X#X#X%X#X%X#X#X.X%X.X#X#X>X%X%X#X#X>X%X#X#X#X#X#X#X#X%X#X$X%X#X#X#X#X.X#X#X>XoX%X>XoXoX#X%X#X>XoXoXXX#X#X#X#X#X#X$X#XXX#X#X#X#XXX#X#X#XXX#X#X.X#X#XXX#X@XXX@X#X#X@X@X#X#X#X#X#X#X#X#X#X#X#X#X#XXX#X#XXXXX#X2XXX#X#X2X#X#XXX#X#XXXXX#X#X#X#X#X#XXX#X#XXX#X#X@X2X/.                                                                                                                                                                                                                                                                                                          ",
"                                                                                                                                                                                                                                                                                                                                                                          Q.2X<X%X#X#X@X#X#X@X$X#XXX2X#X#X#X#X<X#X#X#X#X#X#X#X#X#X>X>X#X#X#X#X#X#X#X#X#X>X@X#X#X%X#X#X#X#X#X#X.X#X#X.X#X#X#X#X#X.X#X#X#X#X#X#XXX#X#X#X#X>X#X#X#X#X#X#X#X#X%X%X#X#X.X#X#X#X.X#X.X#X#X%X#X>X#X#X#X%X#X%X#X#X#X#X#X.X>X#X#X%X#X%X#X#X%X#X>X%X%X%X#X@X#X#X.X#X.X#X%X#X%X%X#X#X#X#X>X%X%X#X#X%X#X#X%X@X%X#X%X#X%X%X#X.X#X#X%X#X%X#X%X#X#X%X%X%X%X.X@X#X#X%X#X#X#X#X%X#X.X#X%X#X#X#X#X#X%X%X>X%X#X.X%X.X>X#X#X#X#X#X#X>X%X#X%X#X%X#X#X%X#X#X#X>X.X#X#X#X#X#X.X#X%X#X#X#X.X:X>XXXXX#X#X#X#X%X#X#X#X#X#XXX#XXX2X2XXX#X#X#X#X#X#X#X#XXX@X#X@X#X#X#X#X@XXX.X#X#X.X#XXXXX#X#X#X#X#X#X#X#X#X#X#X#X#XXXXX#X#X#XXXXX>XXX#X#X#XXX#X#X#X#X#X#XXX@X2X^.                                                                                                                                                                                                                                                                                                          ",
"                                                                                                                                                                                                                                                                                                                                                                          W.4X.X$X@X#X#X#X$X#X#X#X#X#X#X#X#X#XXXXX#X#X#XXX#X#X#XXX#XoXXX#X#X#X#X#X#X@X#X#X#X#X#X#X#X#X#X#X#X#X>X#X.X%X#X#X#X#X#X%X#X#X#X#X#XoX:X%X#X#X#X.X%X%X#X#X#X.X#X#X#X#X#X#X#X#X#X.X#X.X#X%X#X%X#X#X#X#X%X%X#X%X#X#X#X%X%X#X#X%X.X%XoX.X%X#X%X#X#X.X%X#X%X#X@X#X#X#X#X.X#X#X#X%X#X%X#X#X%X#X>X#X#X#X%X#X#X%X#X#X%X%X#X#X.X#X%X>X%X%X#X#X#X#X%X#X#X#X.X%X#X%X%X#X#X#X%X.X#XoX%X#X#X>X%X.X%X%X#X#X#X%X#X#X#X#X#X%X#X%X:X>X#X>X#X#X#X#X#X#X%X#X#X#X%X#X#X#X%X#X#XXX:X>XXX>X.X#X#XXXXX>X:X#X#X#X#X#X#XXX#X#X#X#X#XXX#XXX@X@XXX#X@X@X.X.X#X#X#X#X@X#X#X#X@X#XXX#X.X#X#X#XXX#X#X.X#X#XXX#X#X#X#X#XXX#XXX#X2X#X#X#X#X6X#X#X6XXX#X>X<X#X#X#X#XXX#X@X2X^.                                                                                                                                                                                                                                                                                                          ",
"                                                                                                                                                                                                                                                                                                                                                                          F 2X2X@X@X#X#X$X#X#X#X@X#X#X#X#XXX#XXXXX#XXX#X#X#XXX#X#X#X#X#X#X#X#X#X#X#X#X#X#X#X#X#X#X#X#X#X#X#X#X#X>X#X#X#X#X#X#X#X#X#X#X#X#X>X>X#X#X.X%X#X.X#X#X#X#X#X%X#X#X%X#X.X%X#X.X#X#X#X#X%X#X#X#X#X%X%X#X#X#X#X#X#X%X#X#X#X#X%X%X#X#X#XXX>X%X#X%X#X#X%X%X#X%X#X#X.X.X#X%X#X%X#X#X%X#X#X%X#X#X%X#X%X#X#X#X%X#X#X%X#X#X%X#X%X%X#X#X#X%X#XXX:X#X#X#X%X#X%X#X#X#X#X#X%X%X#X#X%X%X%X>X%X%X.X%X#X#X#X%X#X#X.X%X>X#X#X%X#X.X>XXX#X%X.X%X>X#X#X>X#X>X#X#X.X#X%X.X#X#XXXXX>XoX:XXXXX#X#X#XXX#X#X#X#X#X#X#X#X#X#X#X.X#X#X#X#X#XXX@X#X@X<X#X#X#X#X#XXX#X@X#X@X#X@X#X#X#X#X#X#X#X@X#X#X#X#X#X#X#XXX#X#X2XXX#X2X#X<X#XXX#XXXXX#X#X#X#X#X#X#X#X#XXX#X#X#X@X2X/.                                                                                                                                                                                                                                                                                                          ",
"                                                                                                                                                                                                                                                                                                                                                                          W.3X@X$X$X@X@X$X$X#X@X@X#X#XXX#XXX#X#X#X#XXX#X#X#XXX#X#X#X#X#X#X#X$X#X#X#X#X@X#X#X#X>X#X#X#X#X#X#X#X#XoX:X#X#X#X#X#X#X.XoX#X#X>XoX%X#X%X#X#X#X#X#X#X#X.X#X>X#X.X#X%X#X#X#X#X#XXX#X#X#X#X#X%X#X#X#X%X#X#X%X#X#X$X#X@X#X%X#X#X%X%X#X#X#X#X%X#X#X%X#X#X#X#X#X@X.X#X#X%X.X%X#X%X>X.X#X#X#X#X#X%X#X#X$X#X@X#X%X>X%X%XoX#X>X#X%X#X#X#X#X%X>X#X#X#X%X#X%X#X#X#X#X#X#X#X#X#X>X.X#X%X#X@X#X@X@X#X%X#X#X>X#X>X%X#X$X>X$X#X$X#X#X.X#X#X>X%X#X#X%X#X#X#X#X#XoX%X#X#X#X#X#X#X#X#X#X#X>X#X.X#X%X#X#X#X#X#X#X#X#X#X#XXX#X.XXX#X#X#XXX#X#XXX#X#X#XXX@X@X$X#X#X$X#X#X#X#X#X#X#X#X#XXX2X<X$X#X#X@X@XXX#X#X#X#XXX#X#X#X#X#X#X#X#X#XXX#X#X#X#X6XXX#X<X#X2X@X$X^.                                                                                                                                                                                                                                                                                                          ",
"                                                                                                                                                                                                                                                                                                                                                                          F 4X<X@X@X#X@X#X@X#X#X$X#X2X#X#X#X#XXX#X#X#X#X#X#X#X#X#XXX#X#XXX#X#X#X$X#X#X@X#X#X#X#X@X#X#X#X#X#X#X@X>XXX#X.X#X%X%X#X#X>X>X#X#X#X#X.XXX#X#X#X#X#X#X#X#X%X.X#X#X#X.X#X#X#X.X#X#X#X#X#X#X#X#X#X#X%X%X#X#X#X#X%X#X@X#X@X#X%X%X.X#X%X:X#X#X#X#X#X#X#X#X%X#X@X@X#X.X#X#X#X#X#X.X.X#X%X#X#X#X#X%X#X#X#X#X@X#X#X#X#X%X#X#X#X#X#X>X#X#X%X#X#X%X#X#X#X#X#X#X%X%X#X%X%X:X#X%X.X#X%X#X#X#X#X$X@X%X#X%X%X%X.X#X#X#X#X#X#X#X@X@X@X#X%X#X#X#X%X%X#X%X#X#X%X.X>X>X.X%X.X#XoX#X#X#X#X#X`..X%X#X#X%X#X@X$X#X#X#X#X#X#X#X#X#X2X#X#X#X2X#X#X#X#XXX#X#X#X#X#X#X#X#X@X#XXX.XXX@X.X.X#X.X.X#X#X#X#X#X<X#X#X#XXX#X#X#X#XXX#X#X#XXX#X#X>XXX#XXX#X#X#X#X#X#X#X#X@XW.GX                                                                                                                                                                                                                                                                                                        ",
"                                                                                                                                                                                                                                                                                                                                                                          F 3XXX$X@X$X#X#X@X$X2X@X@X.X#X#X#X#X#X#X#X#X#X#X#X#X@X#X#X#X$X#X#X#X#X#X#X#X#X#X#X#X#X#X#X#X#XXX@X#X#XXX#X#XXX#X.X#X#X#X#XoX%X.X#X#X#X#XXX#X#X#X#X#X#X>X.X#X#X#XXX#X#X.X#X#X#X#X#X#X#X%X#X#X#X#X#X#X.X#X#X#X#X#X#X@X@X.X%X#X#X>X.X#X#X#X#X#X#X#X$X@X@X#X%X#X#X#X%X#X#X#X#X.X#X%X#X%X#X#X%X#X#X#X#X#X@X>X%X>X%X#X.X#X%X#X#X%X.X.X#X.X#X#X#X%X#X#X#X.X#X.X%X%X#X#X%X#X.X#X#X#X#X#X#X@X#X#X#X.X#X#X#X.X#X#X#X#X$X#X#X#X#X%X#X#X#X#X#X#X.X#X.X#X.X#XXX`.#X#X#X#X#X.X%X#X#X>X.X#X#X#X#X#X#X#X#X#X%XXX#X#X#X@X#X#X#X#X#XXX#XXX@X#X#X@X#XXX#X#X#X#X#X@X#X#X#X#X#XXX#X2XXX#X#X#X#X#X#X#X#XXX#XXX#XXXXX#XXX#XXX#XXX#X#X#X#X#X#X#X#XXX#X#X#XXXXX X@X^.GX                                                                                                                                                                                                                                                                                                        ",
"                                                                                                                                                                                                                                                                                                                                                    GXGXGXGX            m F 2X.X2X$X@X@X#X$X#X#X2X#X#X#X#X#X#X#X#X<X#XXXXX#X#X#X#X#X#X#X#XXXXXXXXXXX.XXXXXXXXX.X.X.X.X.XXXXXXX.XoXXXXXXXoXXX#XoX#XoX#XXX#XXXXXXX#XXX#XoXXXXX#X#X.X.X#X#XXX#XXXoX#XXX.X#X#XXXXXXX.X#XXX.X>X#X#X#X#X#X#X#X#X#X#X#X#X#X>X#X#XXX#XXX#X#X#X#X#X#X#X#X#X#X#X#X@X#X.X#X.X%X#X#X#X.X#X#X#X#X#X%X#X#X#X#X.X.X.X.X#X#X.X#X#X#X#X.X#X.X#X#XoX#X#X#X#X#X#X#XXXXXXX#X#X#X#X#X#X#X#X#X#X#X#X.X#X.X#X#X#X#X#X#X#X#X#X#X#X#X#X#X#X#X#X#X#X#X#X#XoX>X#X%X#X#X#X>X#X#X#X#X#X#X#X#X#XXX#X#X#X#X#X#X#X#X#X#X#X@X@X#X#X#X#X#X#X#X@X#XXX2X#X#XXX#X@X@X#XXX#X#X#X#X#X#X.X2X@XXXXX#XXX#XXX#X#X#X#X#X#X#XXX#XXX6X#X#X#X#X#X#XXXXXXXXXXX.XXXXXXXXXXX#XXXXXXX@XW.i D x p i D D D i D m D GXD GX                                                                                                                                                                                                                                                                            ",
"                                                                                                                                                                                                                                                                                                                                          GX^.^.^.W.W.W.Q.F W.F | F d F p Q.2X<XXX#X#X6XXXXX#XXXXXXXXX<XXX#X#XXX<X.X.XXX.X<X<X#XXXXX#XXX X X X{. X X{. X X X X X{. X<X X X X1X X X X X X X X{.1X].XX X X X<X X X1X,X+X+X<X X,X XoX X X X1X1X+X{.{. X{.<X1X1X1X1X X X XXX1X1X1X1X XXX X X1X1X+X+X X X X{.<X X X{.E.1X1X1X+X{.<X{.{.<X1X1X1X,X1X1X X{.,X X X,X X X1X1X1X1X1X<X1X X{.<X X+X{.1X1X1XoX X<X X X X<X X1X1X,X X X X X XXX X X X1X1X1X X X<X X X1X1X1X XoXoX XXX1X1X1X X X XXXXX1X1X1XXX XXX X XXX X1X1XoXoXXX XXXXXXX<X1XXX XXX XXX XXX XXXXXXX<X X<X1X<X X X X XXX X<X<XXXXX X XXX<X X X XXX X X.X<X X X,X X{.{. X{. X X X XoX X X X X X X XXX X X X X X X X XXX X X X X X<X X<X X X<X XXXXX X X X<X6X<X<X~.f #.#.#.Q.Q.Q.#.Q.#.~.(.~.~.).GX                                                                                                                                                                                                                                                                          ",
"                                                                                                                                                                                                                                                                                                                                          F cX3X4X3X4X3X4X4X3X3XcXxX3X3X3X6XOX<X X X X X X XXX+X X X X X X XXXXXXXXX<XXXXX#XXX X X<XXX X{.P.L.Y.L.L.L.Y.L.L.L.L.Y.Y.K.L.L.L.L.L.L.L.P.P.L.P.L.E.H.Y.L.L.L.L.I.L.E.E.L.L.I.L.L.L.F.Y.K.Y.E.E.T.R.L.L.K.S.C.E.D.R.J.K.K.K.C.E.Y.L.L.L.L.L.E.E.L.L.K.M.K.K.K.K.L.L.E.E.T.R.I.L.L.D.L.L.L.D.D.E.C.E.L.I.L.L.L.L.S.I.C.E.C.D.L.D.D.L.L.L.L.R.L.D.E.E.I.K.L.L.L.L.L.I.E.C.R.L.L.L.L.L.F.Y.K.K.T.E.K.K.L.I.I.L.E.E.K.I.K.I.L.I.E.C.I.I.L.I.L.Y.T.E.P.L.L.L.P.D.K.I.P.E.Y.H.P.P.I.P.P.I.T.E.P.P.J.P.P.L.P.P.L.L.P.P.P.E.P.P.L.R.P.L.P.R.I.I.L.L.I.L.I.I.L.L.L.P.I.L.I.L.J.I.I.L.I.P.L.L.L.P.P.L.L.I.I.I.L.J.L.J.J.J.K.L.L.L.I.I.J.J.L.I.I.J.L.I.J.I.K.J.J.A.Z.Z.J.J.J.m.x.N.Z.I.I.S.S.J.R.I.S.Z.q.V.R.L.R.<Xf                                                                                                                                                                                                                                                                           ",
"                                                                                                                                                                                                                                                                                                                                          F 3X2X2X@X.X@X2X2X2X<X2X%X2X<X<XXX X{. X X+X X+X+X X X+X{.{.{. X X XXX X.X<X.X.XXX<XXXXX<X X X[.D.C.C.C.C.C.C.C.C.C.C.C.C.C.C.D.C.C.C.D.D.D.C.D.D.T.C.T.C.C.C.D.D.C.C.0.C.0.0.C.C.C.C.C.C.B.A.C.C.C.0.C.C.C.C.C.C.T.C.D.D.C.C.C.C.C.C.C.C.C.C.C.0.C.0.D.C.D.C.0.R.V.V.C.C.0.0.C.C.C.D.D.D.C.D.R.0.0.0.C.C.C.C.0.0.V.R.0.0.0.E.D.D.D.C.C.S.C.C.D.C.C.0.V.C.C.C.0.0.V.V.0.E.E.C.V.C.R.C.C.C.D.D.C.T.E.0.C.C.C.C.0.0.0.C.R.C.D.C.C.E.0.E.D.C.C.D.C.C.C.C.D.D.R.0.C.D.C.C.T.A.C.D.R.T.S.D.E.C.E.C.S.R.C.D.D.D.D.D.S.D.C.C.S.D.D.D.D.C.D.D.R.D.R.C.D.D.C.R.R.C.D.D.R.C.C.D.R.S.R.V.R.V.R.9.V.V.V.S.C.C.9.R.C.D.D.D.D.D.D.S.D.C.C.D.D.D.D.S.R.D.C.V.D.C.C.S.D.D.D.D.D.D.D.D.V.V.B.B.S.V.S.V.9.R.V.N.S.Z.C.C.V.<Xf                                                                                                                                                                                                                                                                           ",
"                                                                                                                                                                                                                                                                                                                                          F 3X2X2X@X2X2X@X@X#X2X2X2X@X2X2X#X X X{. X X X X X X X X X X X X XXXXXXX X.X X XXXXX X XXX<X X[.L.C.D.D.A.D.D.D.D.D.D.C.T.C.T.C.C.C.T.C.D.C.T.C.T.C.T.T.A.T.T.C.D.D.D.T.C.T.E.D.D.D.D.D.D.D.D.C.C.C.T.C.C.D.C.C.T.0.T.C.C.C.C.C.C.C.T.C.C.C.C.C.C.C.T.C.C.C.C.0.C.C.D.C.C.C.0.C.C.D.C.C.C.0.C.C.C.0.E.C.C.0.C.0.R.0.0.E.0.0.0.C.C.C.C.C.C.C.C.C.C.T.0.B.C.C.C.R.0.0.R.C.0.0.C.C.D.0.0.D.B.T.D.C.C.0.T.C.C.C.D.0.E.C.T.0.C.C.D.0.T.0.C.C.C.D.C.C.0.E.C.D.D.D.C.D.T.C.T.D.T.C.C.0.C.C.D.C.C.0.C.D.D.C.D.C.T.T.C.T.D.C.T.D.C.D.D.D.D.D.C.9.C.0.C.D.C.C.C.D.D.D.C.C.C.D.D.V.V.S.V.V.V.D.D.D.D.C.C.C.C.0.C.C.S.C.C.C.C.C.C.C.C.A.C.C.D.C.C.9.V.C.C.C.C.C.C.C.C.C.C.D.D.C.C.V.C.A.V.V.V.V.V.9.9.V.V.Z.S.9.V.V.,Xf                                                                                                                                                                                                                                                                           ",
"                                                                                                                                                                                                                                                                                                                                          H 3X@X2X@X2X.X.X2X@X.X2XXX2X#X@X<X X X X X+X,X X+X{. X X{. X<X X XXXXXXX<XXXXX XXXXX X XXX<XXX[.K.A.C.C.C.C.C.D.C.C.T.C.C.T.C.C.T.C.C.C.C.C.T.C.T.C.C.T.C.T.C.C.D.C.C.0.T.C.C.C.C.C.C.C.C.C.C.C.C.T.0.C.C.0.C.C.C.0.0.C.C.C.C.0.0.C.0.C.C.0.T.0.C.C.0.C.C.T.0.0.C.0.C.C.C.0.E.0.T.C.T.C.C.C.C.0.0.C.C.0.E.0.T.C.0.0.0.C.C.E.0.C.C.C.C.C.0.C.C.C.C.C.T.C.C.C.C.0.0.0.0.0.0.C.C.C.C.C.C.D.C.C.C.C.C.T.0.C.C.C.C.C.C.T.0.0.C.C.C.T.C.0.C.C.C.C.C.C.E.C.T.C.C.C.C.T.C.C.C.C.C.0.R.C.C.D.C.T.C.C.C.C.C.C.C.D.C.C.C.T.C.C.C.D.C.C.T.R.0.0.D.C.C.C.C.D.D.D.C.D.D.C.C.V.R.D.D.S.D.V.C.V.C.D.C.C.C.V.C.C.C.V.D.C.S.C.C.C.S.S.C.C.C.S.C.C.C.S.C.C.V.C.B.V.S.C.C.V.C.C.S.C.C.C.C.C.C.V.C.S.V.V.N.9.V.V.V.S.V.S.C.R.I.f                                                                                                                                                                                                                                                                           ",
"                                                                                                                                                                                                                                                                                                                                          d 3X@X.X2X2X2X2X2X2X2X#X2X#X$X$XXX X X{. X X X X{. X{.+X X{.+X X X XXXXX X X.XXXXX<XXXXX X X X{.K.C.C.C.C.T.C.C.C.C.C.C.C.C.C.C.C.C.T.C.T.C.C.C.C.C.T.C.C.C.C.D.D.C.C.0.T.C.C.C.C.T.C.C.C.C.T.C.C.C.C.C.C.C.C.T.0.C.C.C.C.C.C.0.T.C.C.0.C.0.C.0.C.C.C.0.C.0.C.C.C.C.C.C.C.C.C.C.0.0.0.C.C.C.C.E.C.0.C.0.C.0.C.R.0.C.C.C.C.0.0.C.C.0.C.C.C.C.C.C.C.0.0.C.C.0.C.0.R.0.R.0.E.C.C.T.0.E.C.C.C.C.T.C.C.C.0.C.C.C.C.0.T.C.C.C.C.C.C.C.C.T.0.C.D.C.T.C.0.C.C.C.C.C.C.C.C.C.C.C.C.C.C.C.C.R.D.C.C.C.T.T.T.C.C.C.C.C.C.C.C.C.T.D.D.C.C.C.0.C.C.R.0.R.C.D.D.0.R.C.D.R.V.C.D.C.D.V.C.C.S.D.C.S.C.V.D.9.0.C.V.C.D.C.C.S.C.C.C.C.C.C.S.C.C.C.S.C.C.C.C.S.V.C.C.C.S.S.V.B.V.C.C.V.C.S.C.V.S.C.B.S.V.9.V.S.N.V.V.B.N.q.R.s                                                                                                                                                                                                                                                                           ",
"                                                                                                                                                                                                                                                                                                                                          d 3X<X.X2X.X2X@X#X2X@X2X#X$X#X6XXX{. X X1X X X X{. X X X X{. X X XXXXX XXXXX XXX<X<XXX X X<XXX+XK.C.C.C.C.C.T.C.C.C.C.T.C.C.C.C.T.C.C.T.C.C.T.C.T.C.C.C.C.C.T.C.C.C.C.0.C.C.C.C.C.C.C.C.C.C.C.0.C.C.C.C.C.C.C.C.C.C.C.C.C.0.0.C.0.C.0.C.C.C.C.T.C.0.C.C.C.C.0.0.0.C.C.C.C.0.C.C.C.C.C.C.0.C.C.0.C.C.0.0.T.C.C.T.0.C.C.C.C.C.C.0.C.C.C.C.T.C.C.C.C.C.C.C.C.0.C.R.0.0.0.C.C.C.C.0.T.0.C.C.C.C.C.T.C.C.T.C.C.C.T.C.C.T.C.C.C.C.C.C.C.C.T.T.C.C.C.C.C.T.C.C.C.C.C.C.C.C.C.C.C.C.D.D.D.0.0.T.C.T.C.C.C.C.C.C.C.C.T.C.C.D.D.C.T.C.T.D.R.0.R.0.D.R.0.D.D.C.C.C.C.D.D.C.D.C.C.D.V.C.C.D.V.C.S.C.C.D.R.C.C.V.V.C.C.C.C.C.C.C.C.C.C.C.C.C.C.C.C.V.V.A.V.C.C.S.C.C.N.C.V.N.C.V.S.C.C.N.C.B.V.S.B.S.N.V.V.V.V.R.q.q.R.s                                                                                                                                                                                                                                                                           ",
"                                                                                                                                                                                                                                                                                                                                          D 3X.X2X@X.X2X2X2X.X2X#X2X2X#X#X X X X X X{.+X X X+X X<X{. X{. X X XXXXXXX XXXXXXX XXXXXXX XXX+XT.C.C.C.C.C.T.C.C.C.T.C.C.T.C.C.C.C.C.C.C.C.C.C.C.T.C.T.C.C.C.T.T.C.C.T.C.C.C.C.C.C.C.T.C.C.C.T.C.C.C.C.C.C.C.0.C.C.C.C.C.0.T.C.C.T.0.C.C.C.0.0.C.C.C.C.C.C.0.T.0.C.C.0.C.C.C.0.C.C.C.C.C.C.C.C.C.C.C.C.0.C.C.0.C.C.C.0.C.C.C.C.C.C.0.C.0.0.C.C.0.C.0.C.C.0.0.0.0.0.R.C.C.C.C.C.C.0.E.C.T.C.C.C.C.C.C.C.C.C.C.C.C.0.C.C.C.T.C.C.C.C.C.C.C.C.C.C.C.0.C.C.C.T.C.0.T.C.C.C.C.D.C.C.C.C.C.C.C.C.C.T.C.T.C.C.C.C.C.C.C.T.C.C.C.C.C.C.C.D.C.C.C.D.C.D.C.C.C.9.R.D.D.D.V.V.R.C.C.C.S.C.V.D.C.D.V.V.C.V.C.D.C.S.C.S.C.V.S.V.S.C.S.C.S.C.S.C.S.V.C.V.C.N.C.V.C.V.C.C.C.S.C.C.C.S.C.C.V.C.S.C.S.C.C.S.S.9.9.q.R.9.=.p                                                                                                                                                                                                                                                                           ",
"                                                                                                                                                                                                                                                                                                                                          f 4X<X2X2X@X2X.X@X@X2X#X2XXX2X#XXX X X X X X{. X X X X X X+X X X XXXXX XXX X.X X.XXX XXXXX1XXX+XK.C.C.D.C.C.C.C.C.T.C.C.C.C.C.D.D.C.C.C.C.C.C.C.C.C.C.C.C.C.C.T.C.C.C.C.C.C.C.C.C.C.C.C.C.C.C.C.C.C.C.C.C.C.C.C.C.C.C.0.0.C.0.C.C.C.0.C.C.C.C.C.C.C.C.C.C.C.0.C.0.C.C.C.0.C.C.C.0.C.0.0.C.C.C.C.C.C.E.0.0.0.C.E.0.0.C.C.C.0.0.0.0.0.0.0.0.0.0.R.0.0.C.0.C.0.C.C.C.C.C.C.C.C.E.0.0.C.C.0.E.C.0.C.C.C.C.C.C.C.0.C.C.C.C.C.C.C.C.T.C.C.C.C.T.C.C.C.C.C.C.C.C.C.C.C.T.0.C.C.C.T.C.T.C.C.C.C.C.C.C.C.T.C.C.T.0.C.C.C.C.C.C.D.C.C.C.C.E.E.C.C.C.E.C.C.D.D.C.D.D.C.C.C.D.D.D.0.R.0.V.C.C.V.D.C.V.9.0.C.C.R.C.D.C.C.C.V.V.C.C.S.C.V.C.C.D.D.V.C.C.V.V.V.C.V.V.C.V.C.C.C.C.C.S.9.R.q.V.V.V.B.C.S.S.C.S.V.V.V.V.S.}.s                                                                                                                                                                                                                                                                           ",
"                                                                                                                                                                                                                                                                                                                                          D 3X2X<X2X2X.X2X2X%X<X2X#X2X#X@X<X X X X X X X X X+X X{. X+X X X X XXX.X<XXX.X.X<X XXX XXXXXXX{.K.A.C.C.C.C.T.C.T.C.C.C.T.C.T.D.C.C.T.C.C.B.T.T.C.C.T.T.C.T.C.T.C.C.C.C.C.C.C.C.C.T.C.C.C.T.C.C.C.C.C.C.C.C.C.C.C.0.C.C.T.C.C.C.C.C.C.C.C.0.C.0.C.C.C.0.C.C.C.C.C.C.C.C.0.C.C.0.C.C.C.T.0.C.0.C.0.0.0.0.0.0.0.0.0.0.E.C.C.E.0.0.E.0.E.E.0.E.0.0.0.0.C.C.C.0.0.C.C.C.C.C.C.C.C.C.C.C.C.0.C.C.T.C.0.E.C.C.C.C.T.C.C.C.C.C.C.C.T.C.C.C.C.C.C.C.C.T.C.C.C.C.C.C.C.C.C.C.C.C.C.C.C.C.C.T.C.C.T.C.T.C.C.C.C.T.C.T.C.C.T.C.T.D.D.T.C.C.C.C.C.C.C.C.C.C.C.D.D.C.R.R.D.D.V.C.D.0.0.9.C.V.C.C.C.C.C.C.0.V.C.0.D.D.S.C.C.C.C.V.9.C.C.S.C.V.V.C.C.S.C.S.C.V.V.V.V.B.S.S.C.S.C.C.B.9.9.9.9.V.V.S.C.C.N.V.B.V.V.S.S.q.}.p                                                                                                                                                                                                                                                                           ",
"                                                                                                                                                                                                                                                                                                                                          f 3X2X%X.X2X2X2X@X2X@X#X2X#X2X2XXX X X X X X X X X X X X X X X X X XXX X X.X X X.X.X<XXX XXX X,XK.C.C.C.T.C.C.C.C.C.C.C.B.C.C.D.D.C.C.C.C.T.C.T.C.C.T.T.C.C.C.C.C.C.C.C.C.C.C.C.C.C.C.C.C.C.C.T.C.0.0.C.T.C.C.C.C.0.C.C.0.C.C.C.C.C.C.C.C.T.0.C.C.C.0.0.0.C.0.C.0.C.0.C.C.C.C.C.C.0.0.C.C.C.0.C.C.C.C.C.C.C.0.E.0.0.0.C.C.C.C.0.C.C.0.0.0.0.0.0.0.0.R.C.C.C.E.C.C.C.E.C.C.C.C.C.C.C.C.C.C.C.C.C.C.C.C.T.0.C.C.T.C.0.0.C.C.C.C.C.C.C.C.C.C.C.C.C.C.C.0.C.C.C.C.T.C.C.T.C.C.C.T.C.D.C.C.T.C.C.T.C.C.R.C.C.C.C.C.0.E.C.T.T.C.C.C.C.E.C.C.D.D.C.E.R.9.V.V.C.0.C.D.D.V.D.R.9.R.R.9.D.R.9.C.V.C.V.R.C.C.C.C.D.D.C.S.S.C.R.0.C.C.C.C.R.9.C.C.C.S.S.C.S.C.V.V.C.B.C.C.C.C.C.C.9.R.9.9.S.V.C.S.B.B.B.C.q.9.q.R.V.,Xp                                                                                                                                                                                                                                                                           ",
"                                                                                                                                                                                                                                                                                                                                          F 3X<X2X2X@X2X@X2X@X2X2X2X#X#X@X2X X X X XXX1X X X XXX X X X<X<X XXXXX.XXX<XXX.XXX X.XXX X X X{.K.C.S.C.C.C.T.C.D.D.C.C.T.C.C.C.C.C.C.C.C.C.C.C.C.C.C.C.C.C.C.C.C.C.C.C.C.C.C.C.C.C.C.C.C.C.C.C.C.0.R.T.0.C.C.0.C.D.C.T.C.0.C.C.C.C.C.0.C.0.0.C.C.C.0.T.0.T.0.C.C.C.C.C.0.C.0.C.C.0.T.0.0.C.C.0.C.C.0.C.C.C.E.0.C.C.0.C.C.C.C.0.0.C.C.E.0.E.0.R.0.0.0.C.0.C.C.C.0.0.0.C.0.C.C.C.C.C.C.E.C.C.C.C.0.C.0.C.C.C.C.C.C.0.R.0.T.C.C.C.C.C.0.C.0.C.C.C.C.C.9.C.C.C.T.C.C.C.C.T.C.C.C.D.C.D.C.C.C.C.C.C.0.0.D.C.C.C.C.0.C.C.C.C.T.C.C.C.C.C.D.C.D.C.C.D.D.S.9.V.R.D.C.D.C.C.V.9.R.0.9.D.V.C.V.D.V.9.0.R.C.C.C.C.C.D.C.C.C.C.9.C.B.V.C.V.C.C.C.C.C.C.C.S.C.0.0.B.C.A.C.A.S.B.C.9.9.R.q.V.D.S.V.S.N.S.S.R.9.9.q.q.<Xr                                                                                                                                                                                                                                                                           ",
"                                                                                                                                                                                                                                                                                                                                          F 3X2X<X@X<X2X2X2X@X<X2X2X#X2X2X#X.X.X X X X X X X X X X X{.{. X XXX XXX XXXXX<XXX X XXX XXX X[.A.C.0.C.C.C.C.C.C.C.C.C.C.C.C.C.C.C.V.C.C.C.C.B.C.C.C.C.C.D.C.C.C.C.C.C.C.C.C.C.C.C.C.C.C.C.C.0.9.R.9.C.C.C.C.D.C.C.C.C.C.E.0.C.R.0.0.0.T.0.0.C.C.C.C.C.C.C.9.C.C.0.C.C.C.C.C.C.C.C.C.T.C.0.0.C.C.C.C.C.C.0.0.0.C.C.C.0.C.C.C.C.0.R.C.0.0.C.C.C.C.9.0.R.0.0.0.C.C.C.E.0.0.C.C.C.0.0.0.0.C.0.C.0.0.C.0.C.C.C.C.0.0.0.0.C.C.C.C.0.C.D.0.C.E.C.C.D.D.D.0.D.C.C.D.C.T.C.C.0.C.C.C.C.C.C.0.C.C.R.0.0.D.D.D.D.C.T.D.C.C.C.T.T.R.0.C.D.D.C.T.C.E.T.R.0.D.S.R.R.0.0.0.S.S.D.C.R.9.R.R.R.9.R.9.R.C.R.0.C.C.S.V.D.R.0.9.9.9.R.9.S.C.C.C.0.9.C.C.C.C.C.V.R.9.9.R.9.R.q.R.C.C.V.S.9.9.R.R.V.S.V.S.C.S.R.q.R.9.9.V.q.,Xs                                                                                                                                                                                                                                                                           ",
"                                                                                                                                                                                                                                                                                                                                          F cX2X2X2X%X%X.X2X2X%X#X2X#X#X#XXXoX.XXX X X X X X X X X XoX{. XXXXXXX<X#X XXXXXXXXX.XXXXXXXXX{.S.C.C.D.T.D.D.T.T.D.D.T.C.D.D.C.C.S.C.C.C.C.C.C.C.C.C.D.C.C.C.C.C.C.D.C.C.C.0.C.C.C.C.C.C.0.C.R.9.0.0.C.C.C.C.C.C.C.C.C.C.0.0.C.0.0.0.C.C.0.E.C.V.C.C.0.D.0.0.0.C.0.0.C.C.0.C.C.C.9.C.C.C.0.0.C.C.0.0.C.0.0.0.0.0.0.E.0.0.0.C.0.0.0.0.0.0.0.0.0.C.R.9.0.0.R.C.C.0.0.0.R.0.C.0.C.C.C.0.0.C.0.E.0.0.C.C.C.C.C.C.R.0.R.0.T.C.C.C.0.R.R.0.C.C.C.C.D.C.C.R.D.C.C.0.0.C.C.C.0.R.C.C.C.C.C.R.C.C.0.0.0.C.C.C.D.C.T.D.E.0.C.C.C.T.C.C.C.D.D.D.C.C.C.T.D.C.V.V.0.9.R.0.S.V.S.S.9.0.9.9.9.9.R.R.C.D.D.V.S.S.R.V.C.V.R.9.9.q.9.0.C.C.C.C.9.R.0.C.C.C.0.C.9.9.9.9.9.9.9.q.C.C.V.D.R.9.q.9.S.V.V.V.V.C.9.q.V.V.9.9.9.R.p                                                                                                                                                                                                                                                                           ",
"                                                                                                                                                                                                                                                                              GXGXGX  GXGX            GXGXGXGXGXGXGXGXGXD m m x GX  GXGXGXd cX<X<X.X<X2X<X<X<X.X<XXX2X<X<XXXoX<XXX XXX XoX XoX XoXoXoXoX2X2X2X2X5X2X6X2X6X2X2X2X2X2X2X6X<X,XY.Y.Y.E.Y.R.R.Y.P.Y.Y.Y.P.P.R.P.,XR.,XR.L.R.P.P.R.R.L.R.Y.Y.E.Y.L.D.E.C.R.0.Y.D.D.C.C.C.E.C.R.V.R.R.R.R.E.E.[.E.R.R.R.R.E.E.Y.R.R.R.R.R.E.T.S.L.R.Y.Y.L.R.D.R.R.E.E.L.L.L.D.R.R.R.R.E.E.E.R.E.E.E.R.E.E.R.R.R.R.E.E.0.R.R.R.R.C.R.D.E.9.R.9.R.9.R.9.R.9.R.9.R.R.E.C.E.E.D.R.E.R.R.R.E.E.E.E.R.R.R.R.R.R.E.E.R.T.R.L.R.R.E.E.D.E.D.R.D.R.E.C.R.R.D.L.Y.R.R.R.R.E.E.E.E.E.R.E.E.E.E.R.E.R.R.R.R.R.S.S.L.Y.R.R.E.T.E.C.D.C.A.D.D.C.b.D.C.R.C.D.E.R.,XR.R.R.R.R.R.R.E.P.R.E.E.1XR.R.R.R.R.,X,XR.R.,X,XP.R.R.S.S.R.R.J.S.D.R.S.D.R.S.Z.S.S.R.S.S.R.R.S.L.R.R.R.R.R.R.R.S.R.9.R.R.R.S.S.S.L.R.R.R.R.R.R.R.R.,Xr                                                                                                                                                                                                                                                                           ",
"                                                                                                                                                                                                                                                                            GX^.^.W.W.^./.^././.^./.^.^./././.^./././././.).).).).).).*X).~.,XR.I.I.I.I.I.}.U.I.].I.I.}.{.OX~.(.(.(.).).).(.(.).).(././.W.Q.W././.W.W.Q.Q.Q.W.W.W.Q.Q.W.Q.@.@.@.@.@.@.@.@.@.@.@.@.@.@.@.#.#.#.#.#.#.@.@.@.@.@.@.@.@.@.@.@.@.#.@.*.@.#.@.@.@.#.#.@.@.@.=.@.@.#.*.@.@.@.=.@.@.@.@.@.@.*.*.@.#.@.@.@.@.*.=.!.@.@.@.@.@.@.@.@.@.*.*.@.@.@.@.@.@.@.#.*.@.@.@.@.@.#.#.@.@.@.@.@.@.@.+.@.@.@.@.@.@.@.@.=.*.@.@.=.@.#.@.@.@.@.@.@.@.@.=.@.@.@.@.@.@.#.@.@.@.@.+.@.@.@.@.@.@.@.*.#.#.@.@.@.@.@.*.@.@.@.@.@.@.@.*.@.@.@.@.@.@.@.@.@.@.@.=.@.Q.@.@.@.@.@.@.*.@.@.@.*.@.@.@.@.!.=.~.*.,X1XE.[.[.P.[.P.P.+XH.E.R.R.1X~._ #.#._ f f g _ f f _ f f _ f f #.#.#.#._ #.#.#._ #.#.#.@.@.@.!.@.!.*.@.@.@.*.@.*.@.=.@.@.!.*.@.*.!.!.=.@.=.@.@.=.Q.*.@.=.@.=.@.!.!.=.!.!.*.!.!.~.=.@.#.!.f f s f f f p f f f f f F f } F                                                                                                                                                                                                                                             ",
"                                                                                                                                                                                                                                                                            i xX3X2X2X2X2X@X$X$X$X@X2X2X2X2X$X$X@X2X.X2X.X2X@X<X2X@X.X2X2X XS.S.S.S.S.Z.Z.S.Z.Z.N.N.Z.A.P._ : i e e i i i e e e i i 0 0 i 1 1 1 9 0 i i i i u m u i u i i u 0 0 0 i i 0 i i 0 i i 0 i 0 i i i i i 0 i 1 1 1 0 i e i e e i i u u e e i e i i m i i i i u u u i 1 1 1 1 0 0 9 0 9 i e 1 0 i 0 i i i 0 i 0 i 0 0 0 i 0 i 0 0 i 0 0 i 0 i 0 i u u u 1 i 0 u 0 0 0 0 e e e i e e e i u u i u u u i u u u i u u u i u p i e e 0 0 9 e 0 e i 1 e e e e e e e e e t e e i i 1 0 i 0 i i t e i i e e i e i i 0 i 1 1 e i i e e 9 e e : : e : : 1 1 e : : : 1 1 i e e : : 1 e i : + :X2XXXXXoXXXoXoXoXoXoXXX X#X5XW.p D i i i i m m i D m e e e i i e e e e 1 i 1 e e i 1 e i e i i i i u i i i i i i i m i m i i i i i 9 e e e e e i e e e e e i i e e i e e : e : i i e e @ <X,X,XOX,X,X<X,X~.,X,XR.,X,X<X/.GX                                                                                                                                                                                                                                          ",
"                                                                                                                                                                                                                                                                            i xX@X@X#X.X@X@X@X@X#X#X@X.X@X@X.XXXoXoX.X.XoX.X.X.XoX X.XoX<X{.S.N.S.q.N.S.Z.N.S.q.B.B.N.A.L.Q.i V N D M M N n D V N n V N n c c x c c z z c c c c c m c c m b v b v v c v v b c v v v v v b v v m m c v b b m v c x x m x m x b b b b M M M M x b b n b b m x c v m c m l l v c c u e m c v z h h c l c v v v c c m b v m v m m v v v v m c x c c v c c c c c c v i e x m x m c z x c v v v b c b m x m x n v v b x x M i v v v c c c c z x m c z e e x m e e x e c x z x z z z z e e x e e m x i b c c c v m c z e z z z x e e x e x x x x z e x c c c c u x x x c e h m e ).6X.XXX#X#XXXoX>X>X.X#X#X$X3X^.m n n n n N M b Z M M M M m x x e e x z z x x u z z e x v c c v b x b n N x b n b b b x x n b m n v v e z e e b x e m m m m x v b i x e x m v x c x x m e ~.q.R.S.S.S.J.J.R.q.J.q.S.S.R.~.GX                                                                                                                                                                                                                                          ",
"                                                                                                                                                                                                                                                                            D 4X@X@X@X@X#X.X@X@X#X@X#X.X.X#X.XXXoX.X.X.X.XoX.XoX.XoXoX<XoX}.S.S.S.S.N.N.Z.N.N.S.V.B.B.A.I.@.u V N N M M N N b n N n n n b v z z c c m z m c c c c c c c c v v v c b c v v v v v v m v v v v x b v b v v b v v v x b x x v x b b b b M M M x b b b b b b b c c b c m x m v c c c m c c c m c c c c v v m c l c v l m v c v c m c m c v l m x x m v c c c c c c v m m x e c x c c x c v v c c v c x x m x z m x v m x x x c v v v x x x m x c c x x x x x x x x x x c c x x c x x m e x x x x m x c c c c c c m z x c x c x x x x c x z z z z x x v c c c z c z z x z h b i ).2X#X#X#X#XXXXXoXXX.X#X#X>X3X^.l N N n M M M N x N x M M b x x x x x z e x x e x c z x c v v b b x x n x b b M x x M b m b x x x x v x M x x x b b x M x x x x x v x u x x v x v x b m e =.R.R.q.S.S.S.S.S.S.R.S.S.R.R.~.                                                                                                                                                                                                                                            ",
"                                                                                                                                                                                                                                                                            D 3X@X@X#X@X#X@X#X#X#X#X@X@X@X.X.XXXoX.X.X.X<XoX.X.X.XoXoXoXoX}.Z.S.S.N.S.N.S.N.V.N.B.V.A.A.I.Q.u V N N D N N N V n N n N N b h z z c c x x x c c c c c c v l c v v v c v v k v z l v l c l v v b m b v v v x b v v b x M x b x b b b b M x M M b x b b b b m c c c c c c c z c v c x z c c k c v c c c c c c v c m v c v c c l v v l c v v z z x c c c c c c c c c x x x x x x x m c x c v c v v c x z c x x x x m x x m x v v v v x x x x x v x c m x x x x x m x x v x c c x c x x x x m x m c c c c c b x x x x c x c x x m e x x e x x x m e e c c c c c c z z v v x c : ).2X#X#XXX#X#XXX>X#X#X#X#X$X=XW.m n M M b M M N x N N b b b x e x x i x x x e m x c c x v x x b b b b b b b x x b M x x b x b v m v v b x x m b x x M x b x m x x m v x m v v x c v x e + OXR.q.R.q.R.S.S.S.S.S.S.S.J.R.!.GX                                                                                                                                                                                                                                          ",
"                                                                                                                                                                                                                                                                            D 4X@X#X#X@X#X@X#X@X#X#X#X.XXX@X.X.X.XoX<X.X.X.X.X.X.XoXoXoX X}.S.S.S.N.S.N.N.N.N.S.B.A.S.D.R.Q.x D N D N N M V b n N N n n b x x z x z z z x z z z c c z c h v z v c v v k z x v v l l v v x x x x x x D x x x b x x x D x x x M x b b b x b x M b b x b x v z x x m e c z c c v x c c c c v v c c c c v c v c c v v c m v c v c c v v c v c c c c c c c c c c c c c v z v c x c m v v v v x x m c c z z x c x c x x x x x m x v v c x x m x x x x c x c x x x c x m x x x x x m e x x x c z m x v c c c c x c v c m x u x x c i x c x x c x c x x v c c c c c c z v z z v : (..XXX#X.X>X>X#X#X#X%X#X#X#X=XW.i n M M b M x N M x N M b m x x x x x x m x x x x x e m x x v M x b M M x b b M b x M x b x x x m x m x x x b x b m x b b b b x x v x x x x x x x x b x O |.P.S.S.S.S.S.S.S.I.q.R.9.R.S.Q.D                                                                                                                                                                                                                                           ",
"                                                                                                                                                                                                                                                                            D 4X@X#X#X@X#X@X@X#X$X@X#X#X@XXX#X.X.X.X.X.X.X X X<X<XoX.X.X.X}.Z.Z.N.S.N.S.S.N.A.N.B.A.S.D.R.Q.u M n n N N N M M V n n b n x j x z z z x z z z z z h v c h v v z x v v z z x z z v v v v l D x x b x x x x x m m x x m x x x x M b x b b b b b b b b b b b m z z x c c m x c c z m c c c b c c c c c c c c c c c c c c c v m c c v c c c v c c x c c c c c c v b c c c v l m x z x k v v c v m x x m x c z x c v v m x x x x m c z x z x c x x v x x c x z c x e x x c x x x x x x e m c x c c c c c c v c c x c c e x x x i x x c m e e x e x e x c c c c c c m x c c x c : (..XXX#X%X`.#X#X#X#X#X$X#X#X=X| m n N b M M b b M M N M b b x x x x e x e x u x z x m x x x v x M x x b M x x x b b x b b x x x x x x b x b x x x x b x m x x m x x x x m x v x x m x x : ~.R.S.S.L.S.S.S.S.S.R.q.R.q.I.#.D                                                                                                                                                                                                                                           ",
"                                                                                                                                                                                                                                                                            i -X@X#X#X%X#X#X#X#X@X#X#X@X#X.X#XXX.X.X.X.XXX.X XXX<XoXoX.X.X}.Z.N.N.S.S.N.N.A.B.S.B.A.S.D.L.!.i Z Z D M N x Z x Z M n b b b z z z z z z z z z z z v h h z l z x z z x z z x x z x l v l c x x x x D x x x x x x x x x x x b x b b b b b b b x x b b b b b m z c x x u z x c x v c c v c c c c v c c v c c c c c c v v l c l c c l m l c v c c v c c v c c c m c c c v c v k v c v v v v v c v m x x x x c c z v v x b x m v v v v c x x x c x x c m x x x x x m x c x x x x c x x x x x c c c c c c c c c x c v c x m x x x x x x x e x x x c x x m c c c c c c c v c x c : /..XXX#X.X.X%X#X#X#X%X#X%X#X$XF m n N b x V N M M x x b b b x x x e x x e x x c x z x x x x b b b x M x b x M M x x x v x x x x x x x x m x b x x x b x b x m x v x x x c m x x e x x z + ~.,XS.S.S.S.L.S.S.S.q.S.q.R.R.@.D                                                                                                                                                                                                                                           ",
"                                                                                                                                                                                                                                                                            i 4X@X#X#X#X#X#X@X#X@X#X#X@X.X#XXX.X.XXX.X.XXX.X.X.X.X.XoX.X.X XZ.S.N.S.N.N.S.N.S.B.B.A.S.D.R.Q.i M M n M N N N Z x N M M M M j z z z z z z x z z z h v h z z z z z x z x z z z z z v c v c x x x x x x x x e x x x x m x x m x M M x b b x b b b b b x b b x x z c c c c z x m c c c c c c c c c c m v c c c v c c c m c c v v v m v v m c m c x c c c c c c v c c c c v v v v v v k v v v v v c c x m c x c v v v x x x x c v v z x c z c x v c x x x x x m x x x x x z x m x x z m c c x v c c c x m c z x m c c c x e x x x u x x x x e x e m x c c v c c c c z k v z 3 : (.#X#X#XXX.X.X.X.X#X#X#X$X#X%XQ.i b M M b x N x N N M M b b x e x x x c x x u x c x z m x x x M x b M x x M x x b x M b v x x v x x x x x x x m x b x b x b x v x v m v x x x x z x z z : |.R.S.D.S.L.L.S.S.S.S.S.R.R.R.@.D                                                                                                                                                                                                                                           ",
"                                                                                                                                                                                                                                                                            i 3X@X.X@X#X@X#X#X$X#X#X#X#X.X#XXXXXXX.X.X.XXX.X.X.XoXoXoXoXoX,XJ.V.V.S.N.N.N.V.N.S.V.N.A.A.P.Q.i n M N x N M D x D n b m M b e x z x x x z z z z j z z z z x z x z z z z z x x z x z z x x c v v x x b x m x x x x m x x x x x Z x b x M x M b M b b x b b c z z m x z c c v c c b c c c v c c c v c v c c c c v v x v x x x m x m x x x x c x c x c c c v c x v c x c v v c l v v v l c v c c c c v c v c m c c v c c c c c x x c x c z x c z z l v v v v v k v l v c v v v v c v l v z k v v v v v l v v c c m c l v c c c c c c c c c c c c c c v l v v v h v x z v c c : (.#X#XXXXX.XoX#X.X.X>XoXXXoX;X| e b M b b b B b b B b n b b x z x z z x m x x x c x c x x x m x b b x M x M x b x x M x b x x v x x m x x b x x x x m x b x m v x x c x x x x x x x x v + ~.R.R.D.D.D.S.S.S.S.S.D.S.S.P.Q.i                                                                                                                                                                                                                                           ",
"                                                                                                                                                                                                                                                                            p xX@X@X@X@X#X#X#X@X#X#X@X@X#X@X.X.XoX.XoX X X<X<X.X.XoX<XoXoX}.Z.S.S.N.V.S.S.Z.N.S.Z.N.A.A.L.@.i N D n Z M N x Z x b b n b b e z x z z j z z z z z z z z j z x z x v z x z x z x x x z z z x v v v x m x x x x x x x x x x D x x x b b b b b b x b b b x b x z c c c c c c c c c c c c c c c m c c c c v c c c c v v v x m x x x c x m c m m u x c c v x v x c x x x v v z v v v v v c v v v c c v c c c c c c c c c b c c x x v x c z x x x x x v z v v k v v c v v v z l k v v k v c v v k v k v c v v c c c c c c m c c c c c c c c c c v c c c v v v k k v h z x z h v : (.#X#X>XXX%XXXoX>X.X#X:X>X#X>XW.c b b B b b l l b b b b b b v x z x z x e e x x c c x c x x v b x x M x M x b x b b x b x x x v x x x b x x x b b x x x x x x x x v x x v x v x x x x x + =.R.0.C.D.S.S.V.S.S.S.S.S.S.P.!.D                                                                                                                                                                                                                                           ",
"                                                                                                                                                                                                                                                                            D xX@X.X@X@X#X#X#X@X#X$X#X#X@X#X@XXX.X.X.X.X.X.X X XoXoXoXoXoX,XS.N.B.B.B.N.N.S.A.Z.N.N.N.N.L.@.m b N n M b M x Z D n b b b x z z z z z x x j z z x z j z z x z x z z x z x x v x z z x z v x v v x b x x m x m x m m x x m x x x Z x b x b x b x b b b b b x z c x c c c c c v c c v c c c v c c c c c v c c c c z x x x v x x x c e m c x x x x x m c c v x x x x v x v l c v c v l v v v c c c l v c m l l c m c c b c c c x x c x x z c x c z v v v v h v h v z k c v v k v v l v v h v v v l v k v k v v l v c c c c c c b c c c v c c c c c c v z k v h v z z z z v k + (.#X#XoX:XoXoXoXXXXX%X.X%X#X;XW.3 b M b b b B B b b b b n b x z z x z e x x x v z x x c x x v x M M x M x b x M x x x b x x x x x x x x x x m x b b x b x x x x v v x x x x v m x x m x t ~.R.J.A.D.D.S.S.V.V.L.S.S.L.R.!.i                                                                                                                                                                                                                                           ",
"                                                                                                                                                                                                                                                                            D xX#X#X#X#X@X@X#X#X@X#X.X#X#X#X#X.X#X#X.X.X.X.X.X.XoX<XoXoXoX}.S.V.B.V.N.V.N.N.S.B.Z.N.S.N.J.Q.u b N n V M D x x N n m b b x z z z z j x z x z z j z z z x z x z x x z x z z z v z v z v x m x v v x x b x x x x x x x x e x m x x b b b b b b b b x x b b m z z x c c c c c c m c c c c v c c c c c c v c c c c x x m x x m c z x x x x e x x z z x z x x x x m v m x v v v l v v v v c v v c c m c c c v v c c c c c c c x v v x x c x x x x z v k v k v k v k v v v k v v v c v k v v l v c v c v v k v c v c c c c c c c c v c c c c k v c c c v v l v v v v z x x l v - (.#X2X>X#X%X>X>X:XXX#X.X>X#X5XQ.e b b b b b b b b v B l n b x z z z x x x c x x z z x v x c v M x b b x b x b x b M M b M b x x m x x x x x b x x x b b x b x v x x x x b x x x x x c i t ~.R.D.S.A.A.S.S.V.R.S.Z.S.S.R.!.D                                                                                                                                                                                                                                           ",
"                                                                                                                                                                                                                                                                            i cX@X.X@X#X@X.X@X<X2X.X#X@X.X@X#X.X@X@X@X.XoXXX.X.XoXoX<XOXoX,XZ.N.N.V.B.V.N.N.C.C.N.S.V.9.L.@.i n b b m b b b n b b n b b x x z z z z z z z z z z z z z z x x z x z x v v z z v z x z x x x x v v x x x x x x x x m x x x x x Z m b b b b b x b b b b b b x x e m c c v m c c c c c v c c c c c c c v c c c c c x x x x c x x z x x m x e x x c x x z c x v x v x c v c v v v v c v v c l c b c c c c m v c c c c c c c c z x c c c x x x v l z v v k k v h v l v v k k v v k v v c v l v c c c v v v v v k c c v v c c c c c v c m v l v c c v c k v v c v v v z z z c c : (..X.X%X#X.X.XXXXX.X#X%X>X#X5X| 0 b n B b b b b b b l B b l l v h z z z z z x z z z x x x z x b x b x M x M x M x x x x b x x x x x x x x m x b x b x x x x x v v x x v x c x c x c c e t .XR.L.K.L.S.R.R.q.R.S.S.R.V.S.Q.D                                                                                                                                                                                                                                           ",
"                                                                                                                                                                                                                                                                            i 3X#X.X@X#X.X@X@X.X.X@X@X<X@X2X5XcXcXxXxX3X3X4X2X3X%X2X2X2X2X2X<X<X<X<X{.oX<X<X<X<XoX{.OX~.%XF i n b n m M n b n b b b b b N x z z z h z z z z z h z z j z z z z x z z z x x x x z z x x x x x b v x D x x x x x x e x x x x x x x b v v b b b b b b x x M m e x m c c l c c v c v c c c c c c c c c l c c c c v x x x c x x m c m x c x x c c z m x m c x c x c v v c v l k c v v v l v v m c v c v c c v m c v c c c c c z z x x x x z x v v v v v v v v l c v c v v v v c v z l v l v v v l v v v k k v c c c c c c c c c c c c c c c c c c c c k v c k v c v z x v c c : (.#X#X#X#X.X#X#X:X>X%X.X%X>X;X| 3 v b v b b b b n b b b b v v v l v z x x v z x z z z z z x x x b x M x x x b x M x x x b x x m x x x x x x x x x x x x m b b v v x x x x x x z x z x e e *X<X<X1X,X<X1X1X<X<X6X,X,X,X,X/.D                                                                                                                                                                                                                                           ",
"                                                                                                                                                                                                                                                GXp D i i i i e i e e e i i 7 3X@X.X.X.X@X.X.X2X.X2XXX.X2X3Xf p p p p t 9 9 t 7 : t t t t t + r t y t r y t y t t t t + + e e x x x x m x m c v x m c m x z x z x x x z z z z z x z z x z x x x z v v z v z v z c x z m x m x x x x x x x x x x x x x x x x x Z b v m n b b b v b x b x x x m x v c c c v c v c c c c c c c z z c c c c c z c c z v x c x c m c x x c c c c z c x c m x m v c v c b v v v v c v c v v c c c c c c l c c l v l c k v c v h v z z v x c c v c v l c v c k z v z v k v v v k v v v v c c l c v l c v v k c c c v c v z c v v h v v l v c c z v v v v v v v l v l z v h z c : (.@X#X#XXXXX>X#X#XXX#X%X#X#X;XF i v b N b B b b N N N M M B M B n N N V n M n M M M N n N V v x x x x x x x x x M z x x x x x x x v x b x x x x b x x b x N Z V D V N V V N N M b N N Z D F f f f s g g r s s g g g s s f p f f p p p p p f p F F F F |                                                                                                                                                                                                               ",
"                                                                                                                                                                                                                                              GXvXcXxXcXcXxXxXxXxX4XxXxX4X*X*X$X@X@X<X2X.X@X.XXX.X.XXX2X<XcXH S V V V V N n N b n N M m m b b b n D n V D V S S Z D n n N M x x x x x z z x z z x x z x x x z x x x z x z x z v x x x z z z z x z v v v l v h v c c x z z x z x e x x m x x x m x x m x x x x e x z m c c x c c x m x m x x x e c c l c c c c v c c c c c x z x c c c c m x x c c z v c c z x c c m c c v c c z z c z c z x c v c c c c c c v c v v v c b c v c m v v c v c c c v c v v v v v c v v c v v c v v v k c c c c c c v c h c v v v k c v v v v c v c k v v v v c v c c l v l k v h z z z z z z z l v v k c v v v v z v v z c : (.#XXX#XXX#X`.>XoXoX>X#X#X#X>X| u V V C C B B V V B B B B C C C C C S Z Z A C B C C C V Z Z x e z x x e z z z x x z z z z x m x x x v x x x b x x b b x x N S C C C V Z V V Z C C C C Z S n u i i e e e e e e e e 3 h e p 5X6X6X3X6X6X2X<X2X2X6X6X5X6XxXGX                                                                                                                                                                                                            ",
"                                                                                                                                                                                                                                              D xX2X2X.X2X.X@X@X2X@X@X.X@X@X2X@X2X@X#X@X.X#X.X.XXX.X.X.X.X3XF M M V x V b M M b b n b n b b N b M N N M M N n b n b b b x x x x x x x x v l v l c x x c k v k v z z z z z z z z h h v v z v z v v k v v z v l v c v v z v z z v z z x x x x x x x x x x x x D x e x e m c c c z z z z x z x h v c c c c c c c c c h c h c z z e z z z z z z c c c c c z c c c c c c z c c 3 h v c c c c c c c z l c c v c c c c c v c c c c c c c c c c v c c c k v v v l v v v l b b v v v v v v v c c c c c l l v v v l v l v v v v c v v v v v l v c c v v c v h v c v k v h z z z z z x l z v v c v v v v c v l z v : (..XXX#X#X#XoX#X>X:XXX#X#X$X2X| u Z N C C C C B B B V V V V V A V B C V V C C C C C B V Z A v z z z z e z z z z z e z e z x x x v v x x b x x b x b x b x M A C C V V C C C C B C C C C S n v c c v v c c c v l l h h 3 f 5X<X<X{.,X{.,X,X{.{.,X{.1X<X4XD                                                                                                                                                                                                             ",
"                                                                                                                                                                                                                                              D xX@X2X.X.X.XXX#X2X<X#X@X@X<X.X.X.X.X<X.XXX@X#X2X2X.X.X#X2X3Xd M M x Z x M M M M N n n n b b b V N M N N N V N N n M N N V x x x e x x m c v c v c m c v v v v k z z z z v z v v v v v l l v v l z v v c v z z z v v c c c c v c v v x c x x x x x x x m x x x x x x x x c c c c c c z c z z 3 e c 0 c 3 3 c z h z c e v z z z z z z e z z z z c c z c h h c k z c h h z c c u h z c c c c c c z c c c c c k c c c c c c c c c k c c v c c c c k c c v b b v l m b n l b v n n l v m c c v c v v v c c v v v v v l v v l v c c l c v v v v v k v c v k v h v k v l x z x z l v z l c v v v v v v z v x l : (..XXX#XoX>XoXXX:XoX>X#X#X%X3XW.e N N V B C V V C V V B B A B V A C V C C V B C C C C V V A b z z z e z z z z z z z j z z x b v x v b b x b x x b x b x b M A C C C A C C C C C C C C C S n c c m c c c c c v v l l v 3 s 6X,X[.{.{.{.,X<X<XoX{.,X1X X2XD                                                                                                                                                                                                             ",
"                                                                                                                                                                                                                                              D xX.X.X<X.X2X#XXXXX.X#XXXXX@X@X.XXXXX.X#X@X#X2X.X#X@X2X.X.X3Xp x Z x x Z M M M M M M M M b M M M N M M M N b M M n M n M M m x x x x x x k v v c v v v v v h h v z l x z v h v k z l v x v h v z v v k v v l v z v v c c c c c v c v x x x x m x x m x x x x x m x x e x c c c c c c c c z z z c k h c z 0 z 3 c 3 c c 3 z z z z z z x z e x z h 3 c c c k z c c c c u z c c c c v z c c c c m x c c c c c c c c c c c c c c k c c c c c c h c z k v c b n v n v b l b l n n l b v l c v c c c m v k v c v c k c v v c v v l v v v v c v v k v k v v v h k v z v x z z x x z v v v v v l v v v c v v z c : (.#X#XXX#X>XXXXX#X#X#X#X#X#X$XF m N Z V A B V C V V A C B V C A V C C B C V C B C C C C C V b z c z z z k e z e z e z z z v v x v v v x x x b x b b x x v b A C C A C C A C C C C A C C A b z z z c c z c k v h l h h 3 p 6X,X{. X{.{.,X}.,X,X{.{. XXX*Xe                                                                                                                                                                                                             ",
"                                                                                                                                                                                                                                              p 4X2X@X.X@X#X<X#X.X2X#X@X.X2X#X@X.X2X#X@X<XXX.XXX#X<XXX.X.X3Xp x x V x M M M b b M M M M M M M N n N n b n b N b M M M M N b x x x x m c v v k v v c v c c v v z x v h v c v h v v x l v c v h v k h v k h v z l k h v c v l v c v c x x x x x x x x x x x x e x e m x e c c v c c c c c z e z h k c c k z k c c c h c z e z z z z z e z z z z c c c c c z c c c c v h c c h z c c z e c c c u x c c u c c z c e h c c c c c v c c k c c c c c h c v b v v n v v b l b n l b b v v v l v m c c v v v c v v v c v l m v v v v v v v v v v c v v k h h h v z h v h h x z z z v v l v l c v c c v c v v z v : (.#XXX#X#XXX#X#X#X#X.X#X#X#X3X} m V V V V V A C V V B B V V C C B V C V C C C C B C C V V C v u z z e e c z z z z z z z z x v v v v v x b b x b x M x v v b A V A V A C A A C C C C C C A n l z l v v h v z v v h x h 1 y 6X[.,X+X[.{.,X<X{.{.1X,X+X1X<XD                                                                                                                                                                                                             ",
"                                                                                                                                                                                                                                              i 4X<XXXXX<X@XXX#X#X#X#XXX#X2X<X@X<X@X.X#X<X@X2X.X#XXX@XXX.X3Xp x Z x x Z M b b M x M b M M b M N N M M N M M b N M M M M M x e x c c v v l v l v v v c v l v v l v l v k v k v k z v v c l z l z v h v h v c v v v v c c c c v c v c x x x x x x x x m x x x x e m e e x m x c c c c c c z z z v c c k c z k c 3 0 h z c z e z z z z z z z z e z c z c c u v h c c c z k u z z c 0 c z c u z c u c c u c u c u z k z c c c c z c c z c c c z c c l v n v n v n l v v m n b v v b m v v v v v v c v l v l v l v c v v v v v v v l l v v v c b c v h v k h v k z l v z x z h v v v h v k v v c v v v c z c : (.XXXX#XXX#X#X.X#X%X%X#X#X.X%XF n V V C V V C V B C V C V V C B V B V C B C C V C C B C V C b z e c u c e z z e z e z e z x x b x v v b x b x x x b x v v M C C C C S C A C C A C C A A S M h v v h c z h z h h z z h 3 p 6X,X{.,X{.1X{.,X{.{.{.1X{.{.).e                                                                                                                                                                                                             ",
"                                                                                                                                                                                                                                              i 4X2X#X@X#X@X#X#X#X#X#XXX.X.X.X2X@X@X.X2X@X#XXX#X.X2XXX.X<X3Xp v x Z V x x M M M M M M M M M M M M N M M M M M M M M M M M M x x c v v v c v v c v l v v v c v k v z c c c v c c v h v k z v v k v v k v l v z l v k c c c c k v v x x m x x x x x x x x x x x x e x x x u x c c c c c c z z e k z 3 z h h c c c z c z h z z z h z e z z z c z c k c h c z h c c c h c z h c k c z z c e z z c c u c z k z h z z c c c c c c c c c c k c c c c c l l v b l n v n v n n l v m b b v l v c l v v c v m v v v v v v v v v l v v v m c v v v b c c l c h v v h v z z h z h x z z h v v v k v v c v c c v c v : (.XXXX#XXX#X#X.X#X#X#X.X%X%X$XQ.e Z V V V V V V V V V V C B C S C C C C V C V C V C C C B C v z z z z c e c z z z z z z z x x v v b x v b x b M b x b v v M C C C C C A C C C C C C C A S n z h z v h z l l z v z l h 2 a 2X{.{.{.{.{.+X{.{.1X{.{.{. X@Xi                                                                                                                                                                                                             ",
"                                                                                                                                                                                                                                              i 4X2X.X@XXX@X#XXXXXXXXX.X2XXX2X.XXX@X#XXXXX#X<X#X.XXXXXXX2X5Xp v B M x M M M M M M b b M M b M M N N M M M M b M M M M n M b x x v v c c v v k v v v k k k h v v c c v c k c c c k c v v v v z v k v l v z l x v v v k c c c c v c x x x x x m x x x x x x x x m x x x D m c m c v v c c c e 3 z 3 c c z h c h z 3 c c c h c h v c z z z z h k c z c c c z c c c z v c h v h c h z c z u z u c z z c c z h c c u c c v c c c k c c c z c c c c c c v n l v v v n v v v v b v c v v v l c c c v v v v v v v v v v v l l m l v c c c v c c c b c c z c k z h v z v x z z z z z h v v c v v c v c v c v x v : (..XXXXXXX.XoX>XoX#X#X#X#X#X$X| z C V C V V V V V V V V B V C B C B S C C V C A V V V C B V b c 3 k z z c z e e z e z e e x m v b b v v b b x b b b x v b b S C C C C C C A C C C C C C S M l z h h z v h h l h l z v 1 p 5X<X{.[.,X[.{.<X{.{.{.,X,X X:Xe                                                                                                                                                                                                             ",
"                                                                                                                                                                                                                                              i xX@X@X<X<X@X#X#X2X.X.X2X.XXX.XXX#X<X#X#X.X#X@X#X2X.X2XXXXXcXp x x V V M M M M M M M M x b M M M M M M M M N M N n M M M M b z x c v v v k v v v v c v v v v h c h c c c v c c c v c v k l z v h v c z v z v z v k v v c c b l v x v v x v x x x x m x x m x x x x e x e x c x z c c m c h c c c h c h e c c 3 c c z h 3 z c z u z x e z c c c h v e c 3 c k z c 0 z c c z c z c k c h z c e c u c c c c c h v z c c h c c c c c c c c c c k c c k v n l n v n l v v n b v n b b v v c v l m v v v l v v l v v v v v v c v c v c c v l m c c c h c h v h v h v h z x z z z z v v v v c c v v v c c v z c : (.oXXX>X`.>X>X#X%X#X#X#X#X#X%XQ.N V V V V V C V N V V V C B C V C V C V V C B B C C A V V Z b h z c h c z c z z e z e z x x v x v v x b x x m x x b b v v b S B S C C C C C C A C C C A S n h v h v h h h v h h v l c < p 6X{.1X{.{.{.{.{.{.{.{.[.{. X:Xi                                                                                                                                                                                                             ",
"                                                                                                                                                                                                                                              i 3X@X@X<XXXXX#X#XXX.X#XXX.X2X.X2X@X<X2XXX@X#X.X.X<X.XXXXX<XcXp b x M N x x M M M M b M M b M b N M M n N M M M M M M M M N v z x v v v c v v c v v v c v v c h z c c c c c c c c k v v v v v z v k v k v v v c v c c c c c c c c x b x v v x x x x x x m v x v c c c c c m c c c c m c c e k z z h c c c h 3 c c z k e z c k c c z z c 3 c c e c k z h c c c z c c c z z c h c z 0 h c e c c c u x c z c e c c c z c c c c c c c c z c c c c c c c v m b v l b v v b v b v b v b c v c v v v c v c v v v v l v v x x x x x x v v v v c c c v v u l z c v h h v h z z z z x z z m x x c m x m x x c c z v : (.oXoX#X#X#X#X#X#X.X.X#X#X#X:XF N Z Z V V V V V V V V V C V B V A V A V B V A C C B V C V A v h c c z c c e u z h z e z z v c x m x x v b b m x b x b x b b C C C A C A A C C A C A A A C B h h h v h x j x j j B h B , a 2X X1X{.[.{.{.{.{.+X{.{.{. X).e                                                                                                                                                                                                             ",
"                                                                                                                                                                                                                                              i xX2X@X.X<X2XXXXX2X.X2X@XXXXXXX.X#X.X.XXXXX@X<X2X@X.X2XXX@X3Xt b M M M b M b b M M M M x b b b M M M M M M M M M M M N b N v z x l v l v l c v v k v c c k c v c z z c c v c v c c c c k c h v z k v v v k h v c c c c c c v v x x x x x x x x x x x x x x c v c c v c c c c c c c c c c z k h c c 3 3 c c z h c c c v h z c h c k c c c c c v h c c c z z k 3 c c h k c c c c h z v z c e z u x e c c c c z z c c c k c c c c c c c c c c c k z k c v v v n l n v v v n v v v b v c v c c v v b v v l n v v v v x x x x x B x M v v c c v m l k z c c h c v k v x z x z z z x x x x x x x x x m c v v v : /.@XXX#XXX#XXX#XXX#X#X#X#X#X>XQ.M V V V V N V N V V V C V C C V B B A A C C V C B C C V C A v c h 0 c c h z c e c c e u z c v b v x b v v x b v v b x b x M C C C C C C C A A A C A A C C b v v h h z j j j x l j l l h p 2X,X[.{.{.,X{.{.,X{.{.,X[. X%Xe                                                                                                                                                                                                             ",
"                                                                                                                                                                                                                                              i 3X%XXX2X#X#X#X#X.XXX#X#X.X2X2XXX#X#X2X.X#XXX#XXX#X#XXXXX.X3Xt b M M M M M b x M b b M b M b b M N n M M M M M n M M n N b v z x v v v c c v c v v c c c c c c c z x z c z z c c c v v v v k c l v v v k v h v k c c v c c c v x m x x x v x x m x x x x x v v c c c c c c c z c m c c c c z z k c 3 c h h c z c c h z c 0 c z z c c c c c h z c h e v c v z c c c c z c z v h c z c c c z u c c c c c c z u c z c c c c c c c k k c c c c h c z z v c b n v b n b m b v b v v v v v v c v v v v v v v l v v v v B x x x x x x x c v v m c b v z k c c v h c v h z z x z x z x x m x m x x m x x m v b v 1 ).#X.X#X#X#X.XoX#X#X#X.XXXXX%XQ.x V Z V V N N N V V N C B V B A C C V V C B V C C C C C C A v h c z z h z h e z e z z z z m x x v v v v b x v b x b b x b M Z A C A A C A A A C A C Z C A M h h h v h j B j x l l j h u d 6X{.,X{.,X{.,X{.,X{.{.[.,X XOXe                                                                                                                                                                                                             ",
"                                                                                                                                                                                                                                              i 4X2X.X2X.X#X#X@X2XXX<X.X.X.X.X.X.X.XXX.X.X2X#XXXXX#X@XXX<X3Xy n M M N x b M M b M x b b M b b b M M M M M n M M M N N b V b x v v l l v c v v c c v c c c c c z x z z z z z z c c c z v l v v h v h h v c v c c c c c c c c v c x x x x m x x x x b v v x x c c c c c v m c u c c c c u c c 3 c z c c z c h e c v h e h z z k c k c c z z k c c c c k c h 0 c v c c c c u h c z c z z u z u c c c c c c v z c c 3 c z k h c z c v c z c c c z z c v v b l v b l v b c b v v v b v v c v c v b v v v v m m v v l x x x x x x x x v v v v v c v h c z c h v v h v x z z z z x z x x x m x x x m x v v m v 0 :X$X#X#X#X#X#X#X.X#XoX#X>X#X%XQ.x V Z N V V V V V V V V V C C A V C C C A V A C C C C A V V v h h z c c z z z e c u z e e x v b v x v b v b v m b x b b v M C A C A C A A C A A C C A A A v j h v v h x x x x h l l B m f 6X,X{.,X X{.+X{.{. X,X<X+X<X4Xi                                                                                                                                                                                                             ",
"                                                                                                                                                                                                                                              i 3X2X.X.XXXXXXX<X.X@X@XXX.X.X.X#X.X<X@X@X.X.XXX2X.X2X.X X#XcXp u x x M M b x M b M x M b b b M V N n M M M M N M n N n N V b c c v c v c c v c c c c v c c c c v e z x z z z v z c c c c c v l v v v v k v c c c c c c c c c c c x m x x c m x c x c m x v c v c c c v c c c u c u z x u z z c c h z 0 z e c c e e v h c h v z c z c c c e v c c c c z c c c c c c z k c c e z c e c c z e z z e z e c c h c c c c e v z u z z c c c c c c c u z l c b l n v v v v v b b b b b b v v x x x v x v x b b x l v b v x x x x j B j B m v c b v m v z z z z z z z z z x z x z x e x i x c x m n x m m m z m D 0 ).5X@X#X#XXX%X.X#X.X.XoXoX.X$X} 3 x Z N V N C V C V C B B B V C C C C C B C C B C C C C C C x 3 e z z z e z e z c e k e z x v v v v v v b b v x b v x x b M C C C C C C C A C C C C A C A l k z h v h j x x j j j B j u f <X,X,X<X X{.oX{.,X{.{.,X X1X4Xe                                                                                                                                                                                                             ",
"                                                                                                                                                                                                                                            GXt 3X@X<X@X2X#X#X#XXX<X#X#X2X@X2X$X3X2X5X2X5X3X2X2X2X2X2X3XxXcXH m M M M M b M M b M M M b b b M b b b n n n n n b b b N n n n v c h v v c c c c c c c z c x c v v c m x x z x v c c c c c c v z v k z k v c c h c c c c c z z c z z z z z c x x x x x x x z x x c c c c c v c z c c c u x z z 3 z c z z e z e z c z u c k c z u k z k h c c h c 3 z h c h z 3 z c z v c 3 z z u e z e 3 z e c z e c z h h c h h c z k k c h c k c c h c c c c c z k v v v v v v v v v v v v v v v v v m x x v m x v x m v v v c l x x x x x x x B c l v v c v x h z z z z z z z z z z z x z e + + + + 7 r t r + 7 r r 7 t 8 :XcXcXcXcX5X5X5X5XcXcX5XcX5XcX^.z B M B B B N V V C V C C V A C A C A V A C C C C C C V C C j 3 3 3 e z e 3 z 3 h z h z z x x x x x m b v v b b x b b b b M C C C C C C C C C C A C C A C v k h z h v B B x j j j j B e F cX5X5X6X2X2X2X2X2X2X5X6X5X5XxXi   GX                                                                                                                                                                                                        ",
"                                                                                                                                                                                                                  | W.G F F F F F F F F F F f f $X@X@X#X#X#X#X#X<X.X2XXX<X<X)._ | Q.W.W.| ^.W.^.W.W.^.W.W.W.D N N N Z M V N Z M N V V N b V v v x v v v v v c c x x x x b v z h v k k h c z c c v e c z z c v x x x c x x v v x c c v c z z v h h v h v 3 c c 3 c h l c z z z z z z z e z e h z z x z z z z z 0 k c l u k e e c e c u u e z e c c z c z h u u z z z 3 c h c c z c h c z h c h c k u 0 v c 3 k c c 0 c c u z z c c u h z c c c c u z e v v e c c z c c k z v h c z z u h c z z h z v n n b v b b b b b b b v v n c v x v v v v b b x v v v v c b B Z B B B B B B n N M M C C b l x x x z x x c c x m x e e p 2XoX<X<X.X2X<X6X<X<X2X<X6X6X6XF p p p 9 y 7 t 9 t q 9 9 7 9 1 N C B C C V C C N V C C B C C A A A A A A A A C A C C C C C C M M M V V N N N V N N N M V b x x x z x j x x h x x z z h j M A C C C A C C C C C C C C A C B C C A A A A A A A Z A HXB S S y y t 7 + + @ + 7 t r t r r s f Q.F f f f f #.f f f f f Q.F |                                 D D p D f D d F D D f H GXGX                                                                                                                  ",
"                                                                                                                                                                                                                GXcX3X3X3X3X3X3X4XxX3X4XxX4XxX3X@X<X.X2X#XXX2X#X@XXX2XXX2X<X(.e x b N N D V N D Z D Z Z S D S V N V N V N M M N N M N V V V x c c c c v v c v l z m z x c c 3 c h c c u c z 0 c 3 c k e x m x x m x m c v x v v v v v b z z h v h h z h c c c z e z k c z z e z e z z z z z z z z e z z z h z z c c l c c z c z c c x c c z c z c e c e z z e z z u v h c c z c e v k c c c c c v h c c c k c c c c k c c 3 0 z 0 z z u c u e c c z c h h h c z c c c z c h c z k c z v c u c u k c b n b b b n v b b b b b n b b v v v v v v x b v b v v v v b Z B B B B B B C B V C B C C B l m x x x m m x m m x m e e s {.N.K.L.L.L.R.L.D.N.V.R.R.R.1X_ i b V 0 v u c n b c l k 0 v v C C V V V C B C C V C C C B A A A A A A A A S A A C A A C Z C Z C C C C C C V Z V C C C A v x x z x c h h x x j z z z x h V A C C A C C C C C C C C C C C C A A A A S A A A A A A A A A S u m m D m m x b c x e z e e s 2X<X,X{.,X<X,X,X,X,X,X,X<X<X<X(.GX                            ^.xX3X3X3X4X4X4X4X3X4X2X4X4XxX/.                                                                                                                ",
"                                                                                                                                                                                                                F cX2X@X%X@X#X#X.X#X#X#X#X@X#XXXXXXXXX#X#X#X#X#X#X#X2XXXXX@X).e C C A A A C V A C C V V V Z V M M V M N V M N N M N N Z M N x c l c v c m v v m c c m v c c k c c c c h u h u h c c h c v x c x x v x x v x x x v v v v x z z z v h h z c h c h c h c k z z e z z z z c z c z u z z z c k h c c h z c z c z z u c c z c u c c h 0 z z u h c u c k c c c c 3 v h u c z u c c c k k k z c 0 c c z h c 0 c c u k h u c h u 3 c k z 0 c c c h z c u c c c c 0 z k c z c c c x u c c h c v n B v b b b M b b b B b B b x b x x m v v v v b b x b x x Z B Z B B Z B C B C B B B C B x x c c v c m v v c v c v 0 s 1XT.D.T.T.T.D.A.T.T.S.D.T.T.,X_ i v c c c v l v v v h v x z x C C C C C C C V C V B C C B A A A A A A G A A A A A A A A A C C C C C C B C C C C C C C Z b x x x x z b x h x x h v x x h C C A A V C A C C C C C Z Z C C C C A A A A A A A A A A A A A S l n M l M l c c c c l z h 4 y <XL.S.L.L.I.L.I.L.L.I.L.I.L.}.(.GX                            Q.6X6XXX X6XXXXX<X<X@X.X X X2X^.                                                                                                                ",
"                                                                                                                                                                                                                F cX<X%X@X.X.X.X#X#XXXXX#X#X#X#X6XXX<X$X$X<X<XXXXX2XXX#X2X#X).: C A A A C A S V C B V V V C V M N N V N V N N N V N N N N M m c m v c v b l c v v m c v c v k c h c k u 0 z c h k u k z c c x v x b v v v v b x v v v v x z h z h z v h h c z h h c c 3 c k c z z h 3 c e k c k u z c z z c c z c c u h c c c e e e c u h k e u u h 0 z z 3 c 3 u c k c c c 0 c z c c c u z u c c c c 0 c c c 0 u z 0 z c h c u h c e c c e c u c z c h c c v z v e z z c z z c c z c c c c z c c v b n b b b b l M l b b b b l b v v x b x b x v b v b b v b x B B B Z B B B C C C C C B C x x x c x m m c v c v v c m m f 1XD.K.K.D.D.A.D.D.A.D.D.T.0.E._ i b m c v v v v v v v v x x b V B C B C C N C B C C V V B A S A A A A A A A A A A A A A A C C C Z C C C C C C C C C C A v x h x x x h x h x x h x l x j A A V A A A C C C C C Z Z C C C Z A A Z A A A A A A A A A A A A l v l M l b c b l v v z z 2 r <XP.P.I.L.I.L.L.P.L.L.L.S.L.P.~.                              /.6XXX XXXXX XXX<X<X.X<XXX X2X/.                                                                                                                ",
"                                                                                                                                                                                                                F 3X.X2X@X.X2X2X#X2XXXXX$X@X#X2X#X#X#X#XXX<X#X#XXX2XXX#X.X2X*Xi C A A C A B C C C V V V Z V N V N Z Z M N M N M M N Z N V M x m c c v c v m l c c c c c m c 0 c u k c 3 z h c u 0 c 3 e x v x m b h h b x v h h v x b x x h z h c z c h c 0 z c c c 3 c k c z z z c h c v c h z z c u c c c 0 z c h c h h e c c c c z c c e c h h c u k c 3 u k c z c c c k c c c c c z z c c k c c h c k c u c z 0 z u c u c c c c 3 c u z z c z c v c c c h c z c c z c h z c c e c c c c c u c l b n B b b b M M M M l b l b b v b m x b v b b m x b x b m x B Z Z Z Z Z B B B C Z C Z B x x c v c v v v v v v m m x u f <XK.D.A.A.T.T.D.A.K.D.T.A.C.Y.f 0 v c z x z v z z x v x x x b V V V V B C C C C N C V V V A A A A A A A A A A A A A A A A A C C C C C C C C C C C V C A v x x z z z j B x x z x h v x h V A B A A A A A C C C C C C Z C C A Z A A A A A A A A A A A A A v c v v b l v l v v l z z k y <XP.P.L.I.I.L.L.P.P.P.I.J.S.P.W.GX                          GX/.2XXXXX X XXX XXX XXX<X<X.X<X/.GX                                                                                                              ",
"                                                                                                                                                                                                                F 4X<X.X2X.XXX#X#X#X#X2XXXXX#XXX$X<X#X$X#X#X#X#XXX@X<X@X<X.X*Xi V S V C A A C C V C C Z V V N N N N M V N V N V N N N N V M x x v m c v c c v v c v v c c m 3 c k c u c c u 3 c c z u z c c x x x j B x v x b b v v x v x h z z 3 c h z c c c k c k v c z c z h e c c z h c c c z z h z h z c z h v e c c c z c c z v h u z e h z e h z c c h z h z 0 c c c c k c c c c c c c c c k c k k c h c c c c h c h u 0 c 0 c e z e e c c e h c c c h c c z u c z u c e z c e c c e z c 3 l v b l b b B l M l b n b B n b v v x b v b v x b v v b v x x B B B B Z B C C B B B B Z C x x c c c v v v v v v v v x m f 1XD.D.T.A.D.T.A.D.D.D.D.T.V.L.s 0 v v v z l l v z v v x x z b V V V V C C N B C C C A B V A S A A A A A A A A A A A A A A A C C C C C C C C C C C C C C b z x x x z x h x x v z x x z h V A A A V B C A C C C C C C Z C A A A C Z A A A A A A A A A A C v l b v l b v v v l k v k 3 t <XP.P.K.I.L.L.P.L.R.L.L.I.J.}.Q.D                           GX/.2XXX X XXX X X XXXXXXX.X@X<X/.GX                                                                                                              ",
"                                                                                                                                                                                                                | xX2X@X#X#X#X<X2XXXXXXX#XXX#X#X#X6XXX<X#X2X<XXX#X@X#X@X@X@X).i Z A A C S V C V C V S C V V V N N M N N M N V N N n V b b V x c c v c l c v c v m c b c c c 0 c z c 3 k 0 z c h h u e z c x x c j x b x h B b x v v x v x h x x h c 3 c c k c c c h z c c c z c c c c c c c c z z c c z c v h c c h z z k c c h z 0 v z e c e u c 3 z z h c k c v h c h c z v c c c c z c c c c h c k k c k u h u h u h c c c c c z 0 z h z c h c h c k h z c h z u z c u z c c u u z e c c e e c c b b b v b l M b M b l B B n v c v v b x m v x b b x v m x x B B B B B B B C C B C B C C x x c b v c b b v v v v v v m f 1XK.A.D.T.B.D.T.A.T.D.D.T.B.P.f 9 l v v z v x l v v x x x x M C V V V V V C V V N C V V C A A A A A A A A A A A A A A A A C C C C C C C B C C C C C C Z v x z x x z x h x z x z x z x h C C C C C A C C A C C C C C C C C Z A C C C A A A A A A A A A C v b v l b l v l v l l v c k r <XP.I.J.L.L.L.L.P.L.P.L.I.J.P.Q.D                           GX/.2X<X.XXX>X XXX1XXXXXXX X X2XW.GX                                                                                                              ",
"                                                                                                                                                                                                                F 5X<X2XXX$X#X#XXXXX2X2X2XXX2X#X#X2X#XXX#X#X#X#X#X<X#X@X2X@X:XD S C Z Z V V S S V V V V Z V M V N Z N N N V M V n V n V V n m c v v v m m c v l c v c v c c 0 c 0 z c u z h u u u c c e c m v v B x h b x x h b h x v x h h z l z c c c h z 0 3 0 c k h 3 c h c c c h c c c 3 c c k z c c e c h z z k c z z c z c z c c z e z z e u z h z e c z h u z c c z c c c c c c c c c c z 0 v k v u c c c c c h k u h u u h z e u c z c c c z c c c c c z u z e z c e e z z z c e k c c e v v n b b b b b b M l b b l n b v v v v b x x b v v b b x x x Z B B Z B Z Z C C C Z C C B x x c c c v v c l v v v b c u f 1XD.A.A.D.A.A.A.D.A.D.D.A.A.[.f 0 c z l z l v v v x h v x v N C V V V V B C V B C N V C B A A A A A A A A A A A A A A A A C C C C C C C C C V C C C C C v x z z z z x x x v z x z x x h C C C C C A A A A C C C C C Z C C C A A Z C A A A A A A A A A A v l b l l v v v v l v l c 3 r 2XP.L.I.L.I.L.L.L.L.Y.R.J.R.}.Q.D                           GX/.2X<X X1X XXX<XXXXX1X>X>X1X2X/.GX                                                                                                              ",
"                                                                                                                                                                                                                F 3X2XXX#X2X2X#X<X$X$XXX$X<XXX#X<X#X6X#X#X<X2X#X2XXXXX<X2X@X).i S A C Z S V V V S V C C Z V V N N M V M N V N N N N b V V b z x c v c l l v c m v v c c c u c u u h h u c 3 3 c h c e z v c x v h x x x x b v h v v v b x h h h z h 3 c c k c c v z k e h v c c z 3 c c z h h c 3 c c h c h 3 v z 0 c z 3 c c c c c c c e c 3 z z z 0 z c h h c c z z c c c c c c c c c v c z u v 3 v u 3 0 c 0 u u k u c c c c u z u z e z c z c z c e z c z 0 z z e z z u c c u z u z z z u z u v v b b b l b M b v b b l n n b v v v v x b v x m x v b v m x B B B Z Z Z C B B Z B Z C C x x c c b v v v v b v v v v m f 1XS.B.T.A.T.A.T.A.D.A.A.D.A.{._ i u v v x l l x v x v x x x N C V V V C B V A C B C B V C A A A A A A A A A S S A A A A A C C C C C C C C C C V C C C Z b x z z z z x x x h h z x z x h C C A A C C C A A A A A C A C C C A A A A Z A A A A A A A A A A l b B h l l l l l v l h v 3 r <XI.L.L.L.L.L.L.L.L.P.R.J.R.,XQ.GX                          GX/.2XXXXX XXXXX X X6X X XXX X6X^.                                                                                                                ",
"                                                                                                                                                                                                                F 3XXXXXXXXX#X<X#XXX<X#XXXXXXX2X#X#XXX#X2X#X#X#X<X#XXX2X#X@X*Xi S S C S V S S V C V V V V Z b V N N M N N M N N N N V n N b z v c v m m c c v c v c c c c c c h z 0 z k u c h u h u z z c v v x B x l h b h x v x b v x z l h x k c c c h c k c c k c z k z u z c h c 3 c c c c c c k z c e c c c c h c c c c c c c c c z c e e c e c z e c h z c h c k c c c c c c c c c c v c h z c c c c c c h c c c u h u h h 0 c z z u z k c c z k c h v z u z c u z z e z z z u z u z z z h z n n b b B b l B M M B n b B b v x b b v x v x x m b x b x x B B Z B Z B B C C B Z B C C x x c c c v v v m l v m v b m s 1XD.A.A.A.D.D.D.T.T.K.D.D.A.,X_ m 0 l h x v h v v h x x h x x V V V V V V C V V V V V C N A A A A A A A A A A A A A A A A C C C C C C C C V C C C V C Z v x x z x x x h x x x x z x z h C C C C C A C A A A A Z C C C C C A A A Z A A A A A A A A A A A l v x l l l v m v l l v v 3 r .XL.I.J.K.I.K.L.P.L.L.I.J.S.R.Q.D                           GX/.2X<XXXXX<XXXXXXX XXX XXX X2XW.                                                                                                                ",
"                                                                                                                                                                                                                F 3XXXXX2X<X@X2X2XXX<X<X#X@X2XXX2X$X#X#X#X#X2X<X@X2XXX2X@X@X*Xi Z Z V C C V S V V V S C V C V N N N N N N N N M N n N M N V x c c c c c c m c v v c c v c c c 0 c c z 0 c u h h z c 3 z v v v x v x x v v x v v v v v x x h v l h h c c k c 3 c c v h h z c z c z e z c u z c h x z u z c c z c c z c z z z z z h c c z e e e z e c c c z c c c z k 3 v c c c c c c c c c c c z h c v z z h z 0 h u u c c 0 k u c k c e z u z z c c h z v c h c e z c c e c e c u e z e u h z u k l b n b b n n B l b n l n n n b c v v v v x v v x b v b x v x V V C Z B B Z B B B Z C C C x x c v v v v v b v c b v b D s ,XD.D.T.A.D.T.D.A.K.D.A.T.N.[.f 9 u k l z h v v v x v x x h B C C V V Z V V V V V V V V N A A A A A A A A A A A A A A A A A A A A C B A C B C B C C B C b z z z z z x z x x z x x x x h V C C C A C C C C A A A A A C Z A A A Z Z A A A HXC A A B A A A B B j B j l v l v l k v v 3 r <XI.I.L.L.I.L.P.L.L.P.Y.L.J.[.Q.D                           GX/.2XXXXXXX X6X+X XXXXX<X<X<X2XW.                                                                                                                ",
"                                                                                                                                                                                                                F 3X@X<X.XXX2XXX#X#X#X#X#X#X#X#XXX<XXX2X<X#X#X#X$XXXXXXX<X%XfXe S A A Z C C C V V S V V S V V N N N N N N N N N N N N N N M c c c m b c b c c v m v v v c c c 0 c 0 c z 3 c c u 0 z z h c x x v v v x v v v v v v v v v x x h z z k u z z h c c 0 z h u c c e z z k z c h z c e u x z z c e z z e c u c z m e c c z c e z c e z z e 3 c k z h z z c c z c c c c c z 3 v c c z z z z e e z u k c c z h h c c c c c u c c k u c k c h u z h c z c z z e z z z z z x z c x z c c z h l b l b v v v v b b b B n b m b v c v v b x b v b v b x m b x V V B C Z B B Z C C C C C B x x c l v v v v c b v c v b m f <XA.A.A.A.A.A.K.D.A.A.T.T.A.[.d 0 l v z z v z l z z x x x x x Z V V x Z x V V Z N V V B N Z A A A A A A A A A A A A A A A A A A A A A C C C C C C C C A b x x z x z z z z c x z z z z h V C A A A C A A A A C A C A C A A A A A A A A A B C A A B HXA A B B x x l B v v v v v l v c s <XJ.S.J.K.K.K.K.K.K.L.K.K.Z.[.Q.D                             (.2X XXXXXXXXX XXXXXXXXX<X<X2X| GX                                                                                                              ",
"                                                                                                                                                                                                                F xX2X.X<XXXXX<XXX<X<X#X<X2XXX@X#X<X<X#X<X$X<XXXXXXX<XXX@X2X%Xe V Z A V V S C V C V V V V V N V N N N N N N M M M N N N M V v x c c v c c v v v v c v v m c u c 0 z u h 0 z c h 3 c c 3 c v v c x v v x v v x v v x v v h h x h h c h h c c z h h c z z c e c e 3 e z c z z c e e c c c z z u u c e z z c e z e e c u c e z z u h z z c c h z c c c c c c c c c c c c h c k z z z e u z e k u c c 0 c u u h u k c h u k c c c c u c c c c z 0 z z z z z z e z z z z z z z z c c l z n n b b b b b b b b b b b b b v v v x b b m v v v x x x v x V B C B Z B Z B Z C C C C C x x m c l v c m m c m c v c u f <XK.A.A.A.D.D.A.D.A.A.A.D.N.}.f 9 h b z z c z c z z z z x x x Z C B Z Z V V V V V N V N V Z A S S A A A A A A A A A A A A A A B A B C C C C B C C Z B A b x h x z x x z x z z z z z z h C C C A A A C A C A A A A C A A A Z A A A A A A A A A A A A B B B B x x x x l v c c k v l c s <XI.I.J.L.L.L.L.K.P.L.L.K.I.I.W.GX                          GX(.6X X XXX XXXXX X6X<XXX.X.X2XW.GX                                                                                                              ",
"                                                                                                                                                                                                                F 3X<X2X@XXX2X@X2X#X@X@X$XXXXX<X2X#XXX2X#X#X$X2X<X2XXX#X<X<X*Xe V Z A Z V C V S V V A B V V N N N N N V N M V M N N N N V V v m c v c v v v v v v v c v c c c 0 z h u c z h u u u k c z c c x c v x x l h v x v v v v v x h l z z h z z h c c u c h z e c e c z u z c e u u z c c c e e u z z z c c c e c e c u c c z c c z e h u z e h z u h c 3 c h c k c c c h c c c c c e z z c z z 0 c 3 c c c k u c c c c u u c c c 0 c 0 c h z k z c h z z e z z z z z z e x z e z e z h h v n b b b b n b b b v v n b b b v v v b x v x v v b b b v v b V V C B B Z Z B x Z B V C C x x c m m v m v c c c v c v c f 1XD.T.D.A.A.A.A.A.D.A.T.A.N.[.d 1 v c c c c v c c c x z v x x C V C x V V M Z M V V V V V C S A A S A A A A A A A A A A A B A A A A C A C B Z C C C C A b h x x x z z x z x z x x z z z C C A C A C A A A C A A A A C A A A A A A A A A A A A A A A B B j j x j B x v l v l c k c l s <XP.P.I.I.P.R.P.P.P.I.L.J.P.}./.GX                          GX^.$X X X+XXXXXXX XXXXXXX<X.X6XW.GX                                                                                                              ",
"                                                                                                                                                                                                                F 3X2XXX#X@X2XXX#XXX2X<X#X<X<X<X X<X<X<XXX<X<X#X<X#X<X<X<X#X:Xe Z Z C C V C V V C C C A Z V V V V V V V V V V V N V N Z N Z n c c c c v c m l v m c c v m c e c u h c c 3 u c k c c c c c c v v x v v v b l x b v v v v v z h h c 3 z h c c c z 3 c h e c c e c z z c e z z u z e c e c c e c e e c e c e c e x c c c c e z c 3 z e z c c z z c c c v 0 c c c c z c h z z z c e e u z e 0 z z k u c u h c l u 0 h c k c u k u c c h c h k z z e c c z z 3 c c c z z z u h c e c c c b b m v m b v b m v b c b v b v v v v m x x x x x x v v v n V V V V Z x Z x M V V V Z Z z e u c u u c m u 1 u 3 3 e i s ,XS.A.A.D.A.A.A.D.A.A.A.Z.Z.P.g O + - + : : + : : 9 9 t t t u C B C Z M C V V V V V N V N C A C S A A A A A A A A A A A A A A A C A C C C C C C C C C A b v z z x x x z x z z x z x z z C C C C C C C A A C A A A A A A A A A A A A A A A A A A A A B A j B j B B x l l l k l h h 0 p 6X<X,X,X,X,X,XOX,X,X,X,X,X[.<XQ.i GXGXGXGXGXGXGXGXGXGXGX    D ).2X<X6X<XXX#X$X>X2XXX2X{.<X2X} GX                                                                                                              ",
"                                                                                                                                                                                  G H F F F F F H F F F F F F f Q. X[.,X,X+X,X+X,X{.[.+X{.[.R.R.[.+X[.P.[.[.P.,X,X[.[.R.[.,X~.e b M M M N n n n b b b b M N v x x v x x x m x x x x x x m c v u c c c m c c c c c c c c c c c e c c c 0 h c u 3 z 0 3 c c c v c l v h v h b b h v v l z k z c v c c z h h c k z c c z c c e z u u u z c e c e z c c c c c c c c u z c c u x x u u z u c c e u c h u u z u z u c u c 3 c u k u c c u u c c u c c c z c c c c u c h c c c u l c c c c u c c c c k u c u c u c c c e c u z c c e c z u c z u c c c c c c c c c l c l k c k e c m c c z z z x z z x z x z x z z z k c c c z x x x x z h e h z i H | F _ W.| } } F } } | F } } @.L.V.A.Z.A.A.Z.A.Z.D.N.Z.L.Z.m.*.@.*.*.!.!.=.!.!.*.!.*.!.!.!.F N V B C C C M N V V N V N N Z S S C A A A A A A A A A A A A A B B A C C C C A C C C C A A M h x x z x z x c c x x c x z x V V Z Z C C B C B C C C B Z C Z A Z A A A A A A A A A A A A A A B B B B C B S V V V D V C N d ^.Q.Q.Q.Q._ f #._ Q.Q._ #.f _ f Q.^.Q.Q.| } _ _ } Q.} Q._ #.F W.).(.).).).*X:X:X:X).:X*X).).G                                                                                                                 ",
"                                                                                                                                                                                GXxXxX3X3X4X3X3X3X3X3X3X-X3X=X5X XS.C.V.C.C.D.L.S.S.V.R.D.S.9.R.V.V.V.S.D.V.S.V.C.S.C.C.D.S.=.: b b M M M M b b b b b b v b z 3 z z z j z z z z z x z z x z x x m c c c c c l c z x c c c c c c c k u c c c 0 c c k k c c z h h z z c h v h j h z h z z z c u h c z k u c c h c z h c e c c z z z z u z c e c c u z z z c u c c z c c c z z c x z c u z u c c 3 h c c h h c u h c u h c u c k c c c c c u z c z z k u h c 0 c u c c u c c u u c u c u c c c c c c c u z c c u h z z e z c u e c c c u u c u c c c k c l u c u c c c c 0 e z u c c k h z h z z h z z z z z z h v m c c c z h x x h k u c z 1 ).3X3X2X2X2X2X4X4X%X=X2X2X3X4X{.Z.N.N.N.N.N.N.N.Z.M.N.N.x.Z.N.m.z.m.Z.G.G.Z.m.v.z.v.v.m.N.I.#.p C C C N Z M V N V N N V N V C S C A A A A A A A A A A A A A A A A C A C C C A C C A C A N h z v x c x x x v x x x c x x N V C B C B B B A C B B B B C B Z Z A A Z A A A C C A A A A A A A A B B B A S S S V V C Z V D ; t e 1 < : % % - ; : : ; : + t 2XXX.XXX<X XXXXX2X<X#X<X6X6XcXd o O o o @ O 6 @ o @ o @ o O < 2 e 2 2 2 4 3 h e 4 4 2 j 4 z                                                                                   ",
"                                                                                                                                                                                D 4X2X@X2X@X#X#X2X2X.X@X@X@X#X#X}.V.0.R.0.R.C.C.C.9.V.V.C.C.R.9.C.V.V.V.C.V.V.V.C.C.C.C.C.R.=.e b b b M b b b b b b b b b b z z z z z z z x z z z z z x z z z z c m c c u c c u u x u x c u z u u c c c u c c c c u u k u l c c c z h c z h v v e z u z u h z c c c c z c z c c c c u z e c u z z u c c c c c e z z u u z z e v e c u z c u c u c e c z k u c c u c 3 u h u k c c h u c k c h u u c 3 h u k 0 z u u c c k u k c c 0 c c c c c l c c c k u c c u c 0 c z 0 k u c 0 c c u c c c c u z z c c c u c u u c c l c c c c u c z c z k c c c v h v h z z j z z z z z v c k 0 u c u z z z u k c c 3 : (..X.X@X.X%XoXoX.XoX.X@X.XoX@X{.Z.N.N.N.Z.N.N.B.N.N.B.N.Z.N.N.x.m.v.l.x.U.m.x.v.v.v.v.v.v.G.@.m V C C V V V V N V V V V V V S C C A A A A A A A A A A A B A A B A C A C A C C C A C C C N z z v v c x c x x v x c x x x N V B C C C B A B C C C Z B B Z Z A A A A A A A A C B HXA A A A A A B B A C V S S V V Z V Z V e e e e 3 1 3 e e 3 j e 4 j j 7 .X{.+X X{.{.+X{.[.{.{.+X{.,X6Xs 5 ; 5 < < < < , 1 ; ; e < , , 2 4 4 2 2 4 2 4 2 2 4 4 j , ,                                                                                   ",
"                                                                                                                                                                                GX*X@X.X#X@X#X@X#X#X@X#X#X$X@XXX}.S.9.0.0.R.0.0.9.C.9.9.C.C.9.9.0.B.V.V.V.V.V.V.V.9.0.q.9.9.=.i M M b M M M b b b b v v b b x z c c z z e c z h z c c k z c z c c c c u x u z c c c c u x x c c c c v 0 u z c k z u e z 3 z z u k c 0 v z c k c c c c c c k h c c h h v c c z c z u c c k u h u u z z z u c e c c u c c u c c 0 u c u c u c u c c u c c c c u u h c u h h e c u c c c 0 z k c c u c u h u h c c z k c k c c u h c c c c c c c u c c c c c u u c c c l u c c u k c c u u z c 0 c u c c c c h c 0 c c c c u u l c c l c c 0 c c 0 0 c z k c z h 3 c c c h z 0 z c c c c c c k c k c c c c c - ).XXoXoX|.%X@X%X@X.X%X@X@XOX2X,Xm.S.A.N.A.N.N.Z.Z.N.N.N.N.Z.b.v.l.v.l.v.c.l.v.l.v.v.l.v.x.J.Q.i V C V V V N V N V V V N V V Z A A A A A A A A B A A A B A A C C C C C A C C S A A A C A b k v z v x c x x c x c x z x x B Z Z B C Z Z B C C B C C C B C A Z A A Z A A A A A A G A A A A A A C A V S V S V C C V V V N j z h 3 z h 3 4 4 4 4 3 j j 3 7 oX}.}.+X X{.{.{.{.{.+X{.{.{.>Xd % 5 5 < 5 < < < < < 5 < 2 < 1 4 4 4 4 3 4 4 4 4 4 4 4 4 4 4                                                                                   ",
"                                                                                                                                                                                GX*X@X.X#X@X#X#X#X$X#X#X#X%X<X#X{.S.7.R.9.9.9.0.C.9.C.C.R.9.9.0.C.V.V.8.V.V.V.V.V.0.9.R.9.R.=.t x M M M M b M M b b M b v b v z h z h 0 h c h c h h e z c e c c z u c c u x u c c c m c c c c c c c c c h c 0 u u c c z c u z z k c c c h c u c c c k c c c c c c c c e e e c e c c z 0 c c c c u z u z z c c c h u k c c c c u l c l c l c c v c c u c h u k c c 3 u c u c c k u h c c u c u k h c u c c k c u u c u c u h c c 0 c c u u c c c c u c c 0 l c c u c c u c c u c e z z c v 0 c c c h u h c u c c 0 c c k l c u c u l u c c c c u c z z c h c c c c c z c h c v k c c u l u l c c c c l c 3 O (.XXOX%XoX%X.X|.oX@X|.oXOX@XoX}.Z.N.N.N.N.N.N.N.N.N.N.N.Z.Z.N.v.6.l.v.x.c.v.x.v.l.x.v.c.x.J.*.p V C V V V V N V V N N V N C Z A A A A A A A A A A A A A A A C C A A A C C A B A B A C S M h l v z z x x x x c x x z x x B B Z Z C C B Z B B Z Z B B Z B A Z A A A A A A A A A A A A A A A A S V A V C V S V V S V V N z z 3 3 3 3 3 e e 4 e j 4 j 3 r @X].I.].+X]. X{.{.+X X X X{.#Xs % 5 5 < < 5 < < < < < < < < 2 4 4 4 4 4 4 4 4 4 4 4 4 4 j ,                                                                                   ",
"                                                                                                                                                                                GX*X@X<X@X#X#X#X#X#X#X#X#X@X@X@X{.S.V.V.0.0.9.0.9.C.9.9.0.C.9.R.C.9.V.V.8.V.V.V.V.9.9.9.9.R.~.i M N M x N x b M b M b b M b z h c h z z c c 3 c c h c c c h u z c z c z u x x c c u c c c c c c c c c c c c c c z c z u c e u z c c c k z k k k c 3 c c c u v c c z z c c z u z e c c c u h u h z z c z u c c u k c u c u c u c u c u c c c c 0 m c c c c c 0 c u c c k c k u c c h u h 0 z u c u c z k c u c c c z k h c c u k u c c c l c c c u l c 0 c c u c c u c c c c k c u z z c c k u e 3 c k u u h k c c c c u 0 c l c 0 c c c 0 u l l u c c 3 z c c c c c c c c z k v c c c c c c l c l c c c l - (..XOXoX%X.X|.%X%XoXoX%X.X.X.X,XZ.N.N.N.A.A.A.N.Z.N.N.b.N.b.N.x.v.l.z.v.c.m.z.v.x.c.6.l.5.m.Q.p V V V V V n V N N V N V V V A C S A A A A A A A A A A A A A C C C A A A A C C C B A C A M h v v v v x x z x x x c x x x B Z B C C B B Z B C C B B Z B B Z A A A A A A A A A A A A A S A A A V A V A V C S C S V V S V 3 h h h 3 3 e 3 e e e 3 z 3 3 8 6XI.].].+X{.{.{. X]. X+X].{.#Xa % 5 ; < - 5 < ; < < < 5 5 < 2 4 4 4 4 4 4 4 4 4 4 4 4 4 j 4                                                                                   ",
"                                                                                                                                                                                D *X@X@X#X#X#X@X#X#X#X#X#X$X<XXX{.S.V.V.9.0.0.R.9.C.C.0.0.9.C.9.V.C.V.8.V.V.V.V.V.V.9.9.q.R.=.p M M M M M M M b b M M b b b x z z c h k c z v h c c h z c c z c c u c u x u x u c m c c c c c c c c c c u c k u u c z u c z z c c k h c c c c c k c k c c l h c c k c z z u z z e c u c c c c c c u c u x c e x c e k k k c k c u c c c c u c c u c u c k e z c h c h u u c h k u u c c c c k h h k u c c 0 c k k u c u u h u c c l u c c u c u c c c u c c c c c c c c u c h u z z u u e c c k u c c c u c u c c u c c c c l u l m c c c c c u h c c c k c z c v c c c c c c h k k c c c c c c u c c c u - (.|.%XoX|.@X2X<X|.%X%XoX%X.X.X}.U.N.N.Z.N.N.N.A.N.N.N.Z.Z.N.N.v.x.v.v.c.v.c.v.l.l.v.v.x.6.Z.Q.D V C V V V V V V N V V N V C C S A A A A A A A A A B A A A B C C A A A B A C C A A A A C N h v v z x m x x x x x m z x x B Z Z B C C B C Z B C C Z B B Z Z Z A A A A A A A A A A A A S A A A V A A V S V V V V V V C N h h h 3 h h 3 3 3 3 4 e 3 3 e 7 #X].Y.Y.].[.+X+X].+X X{.{. X#Xy % 5 ; < - < < < 5 5 < 5 5 < 0 4 4 4 4 4 4 4 3 4 3 4 4 4 4 3                                                                                   ",
"                                                                                                                                                                                e ).2X<X2X.X#X#X#X#XXX#X#X@X@XXXR.9.9.9.9.0.9.9.0.0.9.0.9.C.C.V.8.9.V.V.9.V.V.V.V.V.V.V.9.R.*.t M M n M M M M b M b M M b b v h c k z c c z h c z c h c c z u c u x u c u x u z u v c c c c c c c c c c u c c c h z z u c e z e v z k c k k c c k c 0 h c k c c z h z c z z u u c e c c c u k c c e x c u c c e h c c c c k c l c u c c c u c u k c u c k u u k c u c 0 c c u z z k c k c u c u c u u h c c c u c 0 u l h u c c c u c u c c c c u c u c c c l c c c c c k c c c c c c c 0 c l u c u c c 0 c c c l u u c c 0 v l c u c 0 h u c 0 c c c h c c c c c c c c c c c u c c c c c c c c v c c c u - ).oX@XOX%XoX|.oX%XOX%XoXoX.X.X{.m.N.N.b.Z.N.N.N.N.b.N.N.N.Z.b.v.l.v.c.m.v.c.v.v.v.l.l.v.6.G.@.i Z V V N N N N N V N V N V V A A A A A A A A A A A A A A A A A B A A A C C A C A A B A C M z v v z x x m c x x c x z x x B B C C Z B C C C Z C B Z Z C C Z A A Z A A A A A A A A A A A A A A C A B V S C V C V C V S V 3 h h 3 h e 3 e 3 3 e 3 e 1 e 7 <X}.P.I.Y.+X[. X+X+X X]. X{.#Xy o 5 5 ; < < < < 5 5 < < < < 0 4 4 4 4 2 4 4 4 4 4 4 4 4 j 4                                                                                   ",
"                                                                                                                                                                                i 4X@X2X#X@XXX#X#X#X#X#XXX@X@X2X,XR.R.9.R.0.R.0.0.0.R.0.R.C.C.V.V.V.8.V.V.C.C.V.V.V.V.9.q.R.=.e b M M M M b b M M b b b b b x z e c z h h c c e 3 c e c z k z c x u x c x u c c c c c u c c c c k c c c c l 0 c c u c z z e e c 3 0 c c c c v 0 c c c c c c z h c u k z u z z z c c u c c z c 0 c z u u x e x c u c c u u c u u c l c u c c c c c c c c k c c c k c c c k u c z u c u c c h c h c h c k c u c u c c c u c c u c c c c c u c u c c c c c u c c u c u c c c u k u u c c u v u c c c k c c c c c 0 c c c c m l c u l c m l c c c k u c c c c c c c c c c c c c c c c k k c c c c c c c c l 0 : ).|.OX@X|.oX<X%X%X<XoX@X%XoX.X{.Z.Z.N.N.N.N.Z.N.N.Z.N.B.m.N.N.x.l.v.x.c.c.v.l.z.x.v.6.l.l.I.!.D V V M V Z N V V V V V N N C A A A A A A A A A A A A A B A A A A A B C C C C C C C C A C M z v v v z x x x z c x m z x x B Z B C C C C C Z B B C B Z B C Z A A A A A A A A A A A A A A A A A A A A V V V S V V V V S V h h h 3 3 h 3 3 3 3 3 j 4 3 e t @X].H.Y.].].+X X].{. X{.+X}.6Xd % 5 5 5 ; < 5 < < 5 < < < 5 2 4 4 4 4 4 2 4 2 4 4 4 4 4 4 j                                                                                   ",
"                                                                                                                                                                                D )..X@X.XXXXX#X#X#X#X2XXX2X@X@X{.S.0.9.9.C.0.0.0.R.0.R.0.0.9.C.9.8.V.V.9.V.V.V.V.V.V.9.9.R.=.e M M M M M b M M M b M v b b v h c c h c z h z k h z h z z z z z e c c c u c e c u m c c c c c c c c c u c u l u c e z u u z z c c c 3 c c z z 0 c k 3 c h z e c z z z z e c z e e z c c c u c c c u c z c c u z 0 c c c c c c c c c c l c c 0 c c c c c u c u e e c e 0 c c u 0 k 0 z h u c u u c u c u c u c c c c c c c u k c c u u c l u c u u c u l c c c c c u c u l c c c u c c u c u u c c c u c c u u c u c c c m c m l c c k u u c u v k z z z c c z c c z c h z h c c c u z z k u v c c c c c m - ).oX@X@XOX@X%XOX%X|..X@X.X.X.X[.m.B.N.N.Z.N.N.N.N.N.A.N.Z.N.N.x.x.v.v.v.v.c.v.l.v.z.c.v.6.I.@.i M V D Z N Z N Z N V V V B C A A A A A A A B A A A A A A A B A C C C C C C A A B A A A Z n z h v l z x x x x x m x x x x B C C C C C B C B B C C B C B C A Z A A A A A A A A A A A A A A A A V S C V C V S V V V V S V h z h h 3 3 k 3 3 3 3 3 e j z r .XI.I.H.I.].].].+X+X].].{.].#Xs ; > < < 5 5 < < 5 5 < > < 2 0 4 4 4 2 2 4 2 2 4 4 4 4 4 j j                                                                                   ",
"                                                                                                                                                                                m *X@X.X2X#X#X#X#X#XXXXX.X.X2X.X,XL.0.0.R.0.0.9.0.0.9.0.0.9.C.V.V.V.V.C.C.V.V.V.V.V.9.V.V.q.=.p b M n b M M M M M M v b b b x z h z z h z z h z z k h v c c c c x m c x m c c c c c c c u c c c l m c c c c u c c k v z c h c h c 0 c c 0 k k v c c c k z c z z c c k c k c v v c c c c c v c c c c c c c c c c v k c u c c c c c c c c c c c c c u c u k c k k c k c c c 0 v k c c c u z c v k c c k c c c c l c c v c c c c c l c c c c c l l m c c c c c c c c k l c u c c c c c l c c l c c k u c l c c k c u l u l l c c l c c c c c u u c l z v z z c c c k v k c c c c z c c z z c c 3 c 0 c c c c : :X@X%XOX@XOX@X%X%X<X.XoX.X.X.X{.Z.N.Z.N.Z.B.Z.N.N.N.A.N.N.N.N.v.6.l.c.v.c.v.c.v.c.v.c.c.v.U.Q.i V N N Z Z M Z N Z N V V B C A A A A A A A A A B A A A A A A C A C C C A C C C A A A A A M h z v v v x z z x x x x z x B B C B C C C C Z C C C B C C B C Z A A A A A A A A A A A C A S A A A S V C V S V V C C V V V V 3 h h 3 h 3 3 e 3 h 3 3 4 j e y .XI.}.I.].Y.I.].[.]. X X{. X2Xs 1 5 , ; < < 5 5 < < < < 5 < < 4 4 4 2 2 j 2 j 4 4 4 3 4 2 j                                                                                   ",
"                                                                                                                                                                                i *X@X.X@X@X.X2X<X2X#X#X#X#X$XXX{.L.C.C.C.R.0.0.0.C.R.0.0.C.0.C.V.V.V.C.V.V.V.V.C.8.9.9.V.C.=.p b b N b b N b n b n b b b b v x h v z z 3 c e z 3 c z c z c c c c m x c c c c c c c c c c c c c c c m c c c c c c c c u k c 0 z 3 c c u h c c c k h k c z z e z e c c u c c c u c c u c u c u c c u k c c u c c c c v k c c c u u c u u k c m c c c c c c c c 3 c c c u v 0 k u v 0 u c u c c c c c c c c c c c c c c c u c c c c c c c c c c c c c u u u u l u u k u c u u u c u c c c c c u c c c c c c c u c c k c c c c c c c m l c u c c l m c u c c c z z z u z z e c z u c k v c c e u c m c c c x : ).oXOXOX%X@X.X@X.X@XoXoX.XoX.X{.m.Z.N.N.M.N.N.N.N.N.N.v.N.N.N.v.l.l.v.v.c.c.c.c.v.c.c.v.z.G.Q.m V V V V V S V D V V B B N C A A A A A A A A A A A A A C A C A C C C B A C C A C C C A C M z h v v v z x x x x x v z x z M C V C C N C B C C C B C V C V V A A A S A A A A A A A A A G A A C C C C B A B B C Z C B A V h k h 3 3 3 z h 3 3 3 3 j h 3 s #XI.].[.].I.].].I.].{.}.}.}.2Xa - 5 < < ; ; < < < < < < 5 2 2 0 2 2 2 j k 2 2 > l > j 2 2 4                                                                                   ",
"                                                                                                                                                                                m ).@X@X.X@X.XXX#X#X#X#X#X#X@X#X{.D.0.C.0.0.0.0.0.C.C.0.0.0.C.0.V.C.C.V.C.V.C.V.C.8.0.0.9.R.OXt n n n n n n n n n n n M b v h h z h c z c c c h z z c 3 e z c c c c c c m c c c m c v c c m v c c c c c c c c c c c c c c c c c z z z c z z z z h v z z z z x z z z z c z c c z c c c c c c v z c c c c h v c c h v z v c c c c c c v c c v c c m c c c z z c v z z z z z z v c z v l c c l v c c c c v v c m c l m c c c c c c c c c c c c c c c c c c c u u c u c u c c c c 0 z z c z c c c c h c k u c z z h k c c v u c 0 m c c c c c c u l z c c x c e x e z z z z x z z x c c c c c x z z c c c c x < *X%X<X%X.XoXoX.XoXoXoXoX.X.X.X{.Z.N.N.N.N.B.A.N.N.N.Z.N.N.Z.N.x.x.v.x.c.v.c.c.c.c.6.v.c.v.U._ m N V Z V V V C C V V C C B C A A A A C A C A C A C A A A A A C C C C A C A A C C A C A C N z x v z v z z x x h v x z x z M C C C C C C C C V N C B C B C A A S A A A A A A A A A A A Z Z A C C C C C Z A C C B Z B A B 3 h h h 3 3 h 3 j e 3 3 3 k u a XXI.I.H.H.I.I.Y.].}.].{.{.{.#Xs - 5 5 ; < , , < 5 < 5 2 5 < 4 4 2 2 2 2 2 2 j l > 2 2 l 2 j                                                                                   ",
"                                                                                                                                                                                i ).2X2X#X#X#X#X#X#X#X#X#X#X<X<X,XS.C.C.0.0.C.0.0.0.0.0.R.0.R.0.V.V.9.C.9.0.7.9.9.9.9.0.9.R.~.p V n b b b M M M b n b b b b v h h z z z z 3 z z l z 0 k c v c c x m c c c c c u l c u c m v m l c c v l m 0 c u 0 c c c c c k c z z h l c c e h z z h z z z l v c c c c c c c k c c l l l h l l h v v v v l v l k v h c c c c v c c l c k v c c c k z c 3 c c e u z c c c v l c c c c c v l l l c u 0 l 0 c c u u c u u c c u c c u u i u u c c l u c v l l l 0 l c l l k l v 0 u z c c u h e c e u 0 k e c z c 0 u v c m c l c k c c c m l c m c u e e u u e e u u z u u c x c c c c c m c z c c c c b u : *X%X@X.XOX@XoXoX.X.X%XoXoXoX#X,XZ.N.N.N.N.m.N.b.N.b.Z.v.Z.N.N.x.v.l.v.v.c.v.v.6.c.v.c.v.v.m._ D x Z M Z V Z B V V V N V n V A A A A A A A C A A A C C A C A A A C C C A A A A A C A A C N x h x z z x z x x x x x x z j n Z C C C V B C V C C N V V V C V A A A A A A A A A A A A A A A C C C Z C C C C C C C V Z C V 3 h h 3 h 3 3 h 3 h j j j 3 0 s <XI.I.P.].H.}.}.].}.}.]. X X2Xs - < 5 ; < < < 5 > 0 > 5 5 < 2 2 4 j j j 2 2 j < l 2 2 > l >                                                                                   ",
"                                                                                                                                                                                i ).2X<X<XXXXX2X#X#X#XXX#X#X$X X{.D.C.0.0.R.0.9.0.R.0.0.0.0.9.0.C.9.C.C.V.R.0.9.V.C.R.0.9.R.~.p V n m c m m b m D m n m m c e l 3 u e 0 3 3 1 1 1 1 3 3 1 1 1 u u i u u u u u 0 i u u i 0 i 0 i u u u 0 0 0 0 0 u 1 1 u 1 1 1 1 1 1 1 1 1 ; 1 1 1 1 e e e e e u e u u u m u u i u u u l u m m u u u 0 0 1 1 1 3 1 1 1 1 1 : ; 1 1 1 < < : 1 ; 1 1 1 1 1 1 i 0 u e u 3 i 0 i i 0 u u 0 u u i i 0 u u i i i 0 e 9 9 0 i 1 e 9 1 1 : 1 1 0 1 1 1 : : 1 : 1 1 1 : 0 1 : 1 : : 9 1 0 1 1 : : : 1 1 ; : 1 < 1 1 1 : : 1 ; - : - ; ; 9 9 1 0 < : - : - : : : : e e e e 9 1 : 1 : : ; ; 1 1 0 1 i 1 1 e 1 u u i i + *X$X<XOX<XOXoX XoXoXoXoXoXoXoX}.Z.N.Z.Z.N.Z.Z.N.Z.Z.N.Z.N.b.b.6.x.v.z.c.v.c.c.v.c.v.v.c.c.U.#.i b m D V D Z D V N D D N D S S S A A A A A A C A A A A A A A C C C C C A A A C C A A A C N j z j h z x x z z z z z h z 4 V V V C C C A C C C C C C C C V C A A A A A A A A A A A A A A A C A A C A C Z B C C C C C C C 4 h 3 h 3 c 3 3 z e h 3 3 l 0 d 6X].]. X{. X X X XOX}.}.}.}.2Xs - 5 5 5 < 2 < > 0 < < 2 < < 2 2 4 2 4 2 > l 2 j 2 2 j l > j                                                                                   ",
"                                                                                                                    GXH H GXH F H F H F F F H F F F F F F F F F F F F F F F d F p :X#X#X@X#X#X$X#X#X#X6X#X2X2XXX{.I.K.K.L.L.L.L.L.L.L.L.R.S.I.S.L.L.L.L.D.L.K.L.J.Z.L.S.R.R.OXf F f F d d d d d d d d d f f f f d } f F f F } F } F | } } } F } F f } F f } } F } } } } } } } F } } F } f } F { F } _ } F } f } F F _ F } F F } F f f F } F F } F } F } } } } F } } } } _ F { } } } } } } } } } F } } } F } } } } } } } } } } } } } } } | | | } } | | | } | | | | | } Q.| } | | } } } } } } } | } } } } } } } } | | | | | | | | Q.| | Q.Q.W.W.Q.W.W.W.W.W.W.Q.W.W.W. .Q.W.Q.Q.| Q.| | Q.} Q.W.| Q.W.Q.| W.W.W.| W.| Q.Q.Q./././.W.#._ #._ #._ _ _ _ #.f _ f _ _ _ _ _ f _ _ f _ _ _ #._ _ f <X[.}.I.P.I.}.I.I.I.I.I.P.I.I.I.A.A.A.A.Z.A.A.Z.A.A.Z.A.A.A.A.v.l.v.v.v.c.v.c.v.v.c.c.v.x.m.@.s f d f f f f } f f f d d d H D S A A A A A A A C A C A C A b B x B B B M M M M M M M M M M C C V C C V V V V C C V C V V V V V V V V B V V V V V N V A B A A A A A A A A A A A A A A A A A A A A C A C C C V C C C Z V 3 l h c 3 h h z h z 0 3 e k c p /.Q.Q.Q.Q.| } | } #.Q.Q.W.!.(.p 2 < 2 2 2 4 4 0 2 2 2 2 < < 2 2 j 2 2 2 j 2 j 2 0 < > 4 4 2                                                                                   ",
"                                                                                                                  GXxXxX3XxX3X3X4X3X4X4X-X4X3X3X3X3XxXxXxX3X3X3X3XxX3X3X3X3X3X4X2X#X#X#X$X@X#X#X#X#X#X#X#X#X#X#X.X X<X X X X X X{. X X X[.}.oX<X X X X X X X X X<X X X<X,X,X2X3X5X6X=X$X3X2X3X3X3X3X3X2X3X3X2X3X5X5X5X5X5X5X5X5X5X>X$X;X=X;X>X$X2X5X$X2X$X$X$X>X%X%X%X$X$X$X>X#X$X$X#X>X>X5X6X>X>X5X;X>X6X5X5X5X5X5X3X5X5X5X>X5X5X5X5X5X5X2X2X2X>X$X$X$X$X$X$X>X$X$X$X$X4X2X$X>X$X$X$X$X=X$X$X5X6X5X5X5X5X5X6X6X5X>X$X5X5X>X>X>X$X2X5X2X#X>X6X>X2X$X#X6X>X>X#X>X$X#X$X#X%X>X#X#X2X2X2X6X$X>X>X2X>X5X$X>X2X6X>X6X>X>X6X>X6X#X>X>X6X2X>X#X2X>X$X@X#X#X#X#X$X#X#X#X$X%X2X2X$X2X>X>X2X5X>X5X5X2X2X2X5X2X>X>X>X6X5X6X>X$X$X$X%X2X2X2X X}.I.}.}.}.,XI.I.}.R.,X[.{.,XI.I.I.[.}.I.I.,XI.U.U.I.}.[.I.L.S.Z.Z.m.Z.A.Z.Z.A.Z.Z.M.M.m.A.A.A.A.A.A.A.A.A.A.A.A.A.A.A.A.v.v.c.c.v.m.v.c.v.c.v.v.x.x.m.x.=.j.j.j.U.'.j.j.'.].].'.U.OXQ.D Z V A A A A A A C C A C C A v x h j x l x x x x h h x x x b C V C S S A V Z Z C A C C S S V N V V N V V V V N V N V N B A A A A A A A A G A A A A A A A A Z A Z A Z Z S S C V C V Z Z A j h z 0 c 3 u e h k z c z k v 3 1 9 9 0 : : : - - - : : 1 1 1 3 j 3 h j h 3 h j l j 0 0 k l 4 j > l j l < l < 2 2 j j j j 2                                                                                   ",
"                                                                                                                  GX4X%X2X2X2X2X<X2X%X2X@X4X2X2X@X2X2X#X2X@X2X@X2X@X$X2X2X.X%X@X.X2X#X#X<X#X#X#X6X#X#X#X2X#X#X#X2X.XXXXX<XXX<XXX.X<X#XXX#X<X<X.X<X#X<XXXXX2X<XXX XXX<X#XXX#X<X2X#XXX@XXX.X.X#X.X.X.X@X#X#X2XXX#X%X#X#X#XXX#X#X#X#X#X#X#X#XXX#XXX#X#X#X#X$X#XXX#X.X#X#X.X#X.XXX#X#X#X#X#X@X#X#X#XXX#X:XXX#X#X#X#X.X.X#X#X#X@X#X.X2X#X#X#X#X.X#X#X#X#X#X#X#X.X.X#X#X#X#XXX.X.XoX.X.X@X.X.X.XXX#XXX.X.X#X.X.X.X@X.X#X.X#XXX.X#X#XXX#XXXXX#X%X#X#X.X.X.X X#XXXXXoX.X.X.XXXXX.X.XXX#XoXoX X#XoXXXoX>X.X@X#X.X#XXX#X#X#XoX#XoX XXX.X#X#X.X#X.XXXXXXX.XXXXX#X.XXXXX#XXX#XoX.X#XXXXXoXXX.X.XXX#X.X.X.X.XXX.XoX#XXXoXoXoXoX.XoX.X.X.X.XXXOXI.U.J.J.G.J.G.J.J.J.J.G.J.J.m.z.x.v.m.x.m.x.m.U.m.x.m.Z.m.N.m.N.N.x.N.m.Z.N.N.m.Z.N.N.N.Z.A.L.A.A.A.K.A.A.A.A.A.K.D.A.K.m.v.v.v.v.z.v.v.v.v.v.x.c.x.x.m.+.+.+.%.*.*.+.u.*.*.d.+.d.s.Q.D A V A C A A A C A C A A C A b j x h b x v v h x x x x v x M C V Z C C C Z Z Z Z Z C C Z C V V N V V N N N V V B V N V B B A A A A S A A A A A A A A A A A Z Z Z A Z Z C Z Z Z Z V Z V A 4 h k v h c k e k c h e k h z z h k k u h u 3 k c 0 3 3 3 3 z z h j j j 3 3 j k 0 j j j 4 k 4 j 2 2 2 < j > l 2 j j 2 2 j 2                                                                                   ",
"                                                                                                                  GXxX2X@X2X%X%X@X2X@X2X%X2X2X2X2X2X@X2X@X2X.X2X#X#X#X#X%X2X2X@X2X.X#X#X2X#X#X#X#X#X#X#X#X#XXX2XXX2X<X#X@XXX#X#X#X#X<XXX#XXX#X<XXXXX#X XXXXXXXXX<XXXXXXXXX<X.X<XXXXX.X.X@X.XXX#X.X.X.X.X.X.XXX@X.X>XXX#X#X#X#XXX#XXX#XXX#XXX#XXX#XXXXX#X#X#X#XXX.X.X.X.X#X#X#XXXXX#XXXXX#X#X.X.X.X#X#X#XXX%X.X#X@XXX#X.X#X#X.X.XXX.X.X#X.X#X#X.X.X#X#XXX#X#X#XXX.X#XXX.X#X#X#X#X#XXX.X@X.X#X.X@X#X#X.X#X#X#X#X#X#X#X.X@X.XXX#XXX#X#X#XXX.X.X.X.X.X.X.XXXXXXX:X.X.X.X.XXX.X.XoX.X#X.X.X.XXXXXoX`.#X.X.X.X.X@XXXXX#XoX#XXXXXXX.X.X.X.X.X.XoXXX#XXX.XXX.X.X.XXXXXXXoX.X.X.X.X.XoX>X.XXX.X.X.X.X.XXX.X.X#XXXoXXXoXXXoXXX.XoX.X.X@XXX}.I.U.J.J.J.J.Z.J.J.J.J.J.J.Z.N.v.v.v.z.m.z.x.x.x.x.x.x.x.m.v.Z.N.N.Z.Z.N.N.N.M.N.N.N.N.M.Z.A.A.A.A.A.A.A.A.A.D.A.A.K.b.A.v.c.v.v.v.v.v.v.c.x.c.v.v.m.x.m.+.+.*.+.+.d.+.u.d.+.+.%.*.=._ i A A A A A A A A C A A C A A v x h b h v h v x v h v v x x M A Z S V Z Z Z Z C Z C C C V S V N N V V N V V V V V V V N B C A A A A A S A A A A A A C G A A Z A Z A Z A Z S C C Z Z A V A 4 h c h c c 3 h c h z z h c c h u c 3 c 3 h 3 3 k 3 c z z 3 e 3 z 3 h h j h z j j j j j j j 2 l 2 j 2 l 2 j 2 2 j 2 j 2 2 j                                                                                   ",
"                                                                                                                  GXxX3X$X$X%X@X%X%X%X%X%X%X2X@X2X2X@X@X@X@X@X@X#X#X@X2X@X2X2X@X@X.X.X@X2X2XXX#X#X#X#XXXXX#X#X#X#X#X#X#X6XXX#XXX#XXXXXXXXX6XXX>X X<X#XXXXXXXXX#X@XXXXXXXXX#XXXXXXXXXXX#XXXXX#XXX#XXXXX#X#X#X.X#XXX#X.X#X#XXXoX#X.X#X.X#XXX.X#X#X#XXX#X.XXX#X#X#X#X#X#X#XXX#XoX#X.XXX#X.X.X#X#X#X#X#X.X#X.X.X#X#XoX#X.X#X.X#X.X#X#X#X#X#X#X#X#XXX#X#X#X.X#X#X#X.X#XoX#XoX#X#X.X#X#X.X@X#X#X.X@XXXXXXX#X#X#XoX#XXX#X.X#X#X#XXX:XXX.X#X.XXX#X#XoX#X.X.X#XoX:XXX.X.XoX#XXX.X#XXXXXoXXXXXXXoX.X.X.X>X.XXX@X.X.X.X.X`.#XXXXXXXoXoX#X.XXX`..XoX.X.XoX#XoXXX#XoX:XXXoXXXXXXXXXoX.X#X>X`.#XoXoX#X.X#XXX.X.X.X#X.XXXXXoXXXXXXX.XoX.X.X.X.X].I.I.J.J.G.J.J.G.I.J.I.J.J.m.m.m.x.x.m.x.x.m.x.x.m.x.m.x.m.m.N.N.b.b.N.N.N.N.b.M.N.N.N.N.A.A.A.A.A.K.M.D.A.A.M.A.A.A.A.A.x.z.v.x.m.v.v.v.v.m.v.v.z.v.v.m.+.+.d.*.d.d.*.d.d.d.d.+.u.j._ m C A A A A A A A A A A C C S b v v b x x h b h x h x h v x M A V C C Z V V C Z Z V Z V C V C V V V V V V N V V V N V N C V C A A A A S A A A A A A A A A S A Z Z Z Z Z Z S Z Z Z Z Z C A 4 h v k h c z c h z h c c c c c c h c 0 h c c c 3 3 h k k 3 h 3 3 j 3 z j 3 j k j 0 j k 2 l j < j j 2 l j 2 0 j j 2 j < l j                                                                                   ",
"                                                                                                                  GX4X2X@X@X@X$X<X%X@X2X@X@X%X2X$X@X2X@X@X<X2X@X#X#X#X.X@X.X@X2X.X2X2X.X.X.XXX@X#X#X#X6XXX#X#X$X#X2X<XXXXXXX>XXX2XXXXX2X#XXXXXXX XXXXXXX#X<X<X#XXX#XXX#XXX#XXX<XXX>X#XXX#XXX.X#XXX#X#XXXXXXX#XXX.XXX#XXXXX#X#X#XXX#XXXXX#XXXoX#X.X#XXX#X#XXX#XXX#X#XXX#X#X#X#X#X#X.X#X#X.XoX#X#X#X.X#X.XXX#X#X#X#X.X#X.XXX#X#X#X#X.XoXXX#X.X#XXX#X.X.X#X#X.XXX#X.X#X#X#XXX#X#X.X#X#X.X.X#X@XXX@X.X#XXX#X#XXX#X#X#XXX#X#X#X#XXXXX.X#X#X#XoX#XoXXXoXXX#XoXXXXXoX#X.XoX#XoXoX:XoXXXoXXXoX#X.X.X.X#X#X.X@XXX.X#X.X>XXX#XXX#X#X#XXX.X#X>X.X#X.XoX#X.X#XoX.X.XXXXXXXXXXX:XoXXX.XoXoX#X.XXX#X#X.XXX.X.X.X.XoXXXXXXXXXoXXXoXoXXX.X.X.X<XOXI.G.J.J.I.J.J.I.I.J.G.G.I.J.m.x.m.Z.m.m.m.x.m.m.x.m.x.x.Z.Z.v.Z.N.Z.N.M.Z.b.Z.N.B.M.N.B.b.Z.K.A.T.A.A.K.A.K.A.A.K.A.A.A.6.v.v.c.v.v.v.v.z.x.v.v.v.x.m.x.+.+.%.+.d.+.+.*.+.*.d.*.d.*.Q.m C A A A A A A A A B A A A A B v v h x x v h x x b j B x v N A C Z V Z C Z C V Z V C V S V V N N V N V V V V V V V V V V V V A A S A A A G A A A A A A A Z Z Z C C Z S Z C Z Z Z Z Z V S 3 h h v h l z k c k c z 3 c h 3 c c 3 h z h c k c h v z 3 3 z z 3 h j j 3 h j 4 j j j j j 2 2 2 j 2 j < j j 2 < j j < < 2 j                                                                                   ",
"                                                                                                                  GX-X2X@X2X$X@X<X@X@X%X@X2X@X2X@X2X.X2X2X.X#XXX#X#X#X2X@X@X#X#X.X<X%X.X#X#X#X2X#X#X#X#X<X#X#X<X#X#X#X>XXXXXXX6X#X#XXXXXXX#XXX<X#X<X<XXXXXXXXX X#XXX<X#XXXXXXXXXXXXXXX#XXX#XXXXXXX#XXXXXXXXXXX#X#XXX#X#XXX#XXXoXXXXX.XXXXX.X#XXX#XXX#XXXXX#X#X#XXXoX#X#X#XXX#X#X#X#X#X#X.X>X#X#X#X#X#XXXXX#X#X#X.X#X%XXX#X%X#X.X.X#X#X%X.X#X#X%X#X@X.X#X#X#XXX@X#XXX#X#X#X.X#X#X.X#X#X#X.X#X@XXX#X#X#XXX#X#X.X#X#X#XXX#XXX.X#X#X#X#XXX.XXX#X#XXXXXXXXXoXoXXXXXoX.X.X.XXX:XoXXXXXXXXXoXXX#X.X#XoX#X.X.X.X#XoX.X#X.X.XoX#X#XoXXXoXXXXX#XoX.X.XXX.X#X#XoXoXXXXXoXXX.X.X.X.X.XoX.XoX#XoX#XoX#X.X.X.XoXXXXXoXoXoXXX XXX XoX.X X.X.XXX}.I.I.J.J.J.J.J.H.I.J.I.J.J.G.m.x.x.m.x.x.m.m.x.x.m.x.x.x.m.Z.Z.b.N.N.N.B.N.b.N.b.b.Z.A.B.Z.A.A.D.A.T.A.A.A.M.A.A.K.A.K.A.c.v.v.v.v.v.z.v.l.v.c.v.v.v.b.Z.+.*.d.d.+.%.+.d.%.j.d.d.u.j._ D C A A C B S A A A A A A A S M h x h v x x h v x h x h x x N A C Z Z Z Z Z Z V Z Z C C V S V N N V N V N V V n V V V N V V C A A S A A A A A A A A A A Z A Z C Z S Z A Z C Z Z C V C V A j v k l z z h k h c h h c e h c h 3 z z 3 z 3 z z h h z h z h h j j 3 h h 3 3 j k 4 k j 2 j j j j 2 2 j 2 2 2 j 0 j 2 2 2 2                                                                                   ",
"                                                                                                                  GX4X@X@X@X@X@X%X@X@X%X@X@X%X@X2X2X.X.X#X.X2X2X@X@X#X@X.X2X#X2X2XoX@X2X2X#X#XXX#X#X#X#X2X#X#XXXXX#X<XXX#XXX#XXXXX#X<X#XXX6X#X>XXXXXXXXXXXXX X6X<X#X<X#XXXXXXXXXXX#XXXXX#X#XXXXXXX#X#X.XXXXX.X#XXX#X.XXX#XXX#X#X#X#X#X#X#X#XXX#XXX#XXX#XXX#X#X#X#X#X#XXX#XXX#X#XXX#X#X.X.XoX#X#X#X#XoX#X#XXX#X#X#X.X#X.X.X#X.X#X.X#X.X#X#X.X.X#X.X#X#X.X.X#X.XXX#XXX#XoX#XXX.X#X#X.X.X#X.X@XXX@XXXXX#X#X.X#X#X#X#X.XXX#X#X#XXX#X.X#X#X#XoXoXXXoXXXXXXX XXXoXoXoXoX.X.X%XXX#XoXXX:XoX#XXX.X#X.X#XoX#X.X#X#XoX#X.X.X.X#XoX.XXXXXoXXX#XoX#X%XoX#X.XoX.X.X#XXXXX:XoX.X.X.XoX>XoX.X#XXX#X.XXXXXoX.X.X#XoXXX#XoXoX.XoX.XXXXXXX.X.X.X<X}.U.U.I.J.K.J.J.I.U.J.I.I.J.I.m.m.m.m.m.m.m.x.x.m.x.m.Z.m.m.Z.Z.Z.N.B.M.N.N.A.N.Z.B.B.b.M.A.A.K.M.A.A.K.T.A.D.A.M.A.A.A.A.c.l.m.c.x.v.v.v.v.v.x.v.z.v.v.m.+.d.d.d.*.+.d.u.+.+.*.*.+.s.} D C C A A A A A A A B A A C S M v x v x l x x x B b x x z x M A C S Z Z V V Z S V S C S S S V N V N V V N V V N V N V N N V C A A A A A A A A A A A A A Z Z S Z Z C Z Z Z C C C S Z C V A 4 h l z h l l l z h z z h z c c 3 c z 3 z 3 z h h z h h h h h j 3 h z 3 j j z 4 j j k j k j < 2 2 l 2 2 2 2 l 2 j 2 2 j 2 j                                                                                   ",
"                                                                                                                  GX-X2X@X$X@X@X%X%X%X%X@X%X%X2X@X@X#X#X#X#X#X#X@X#X$X#X@X@X$X#XXX#XXX2XXX#X#X2X#X#X#X#X<X#X#X$X<X2X#XXXXX#X<X#X#X6XXXXXXX#X#X#XXX<XXXXX6XXXXX#X#X#XXXXXXXXXXXXXXX#XXXXXXX#XXXXXXXXX#XXXXX#X.XXXXXXXXXXXXXXX#XXX#XXXXX#XXX#X#XXX#X#XXX#X#XXX#XXX#XXX#XXX#XXXoX#XXX.X#XoX#X.X#X.XoX#X%XXX#X#X#X#X.X#X#X#X#X.X.X#X#X.X#X%X#X#X.X#X#X#X.X#X#X#X@X.XoX.X%X#X#X#XoX#X#X#X.X#X.X#X#XXX#X#X#X.X#X@X#X.XoX#X.X#X#X#XXX.X#X#X#X#X.XoX#XXXoX#X#X:X#X.X%X.XXXXX>X.XXXXXXX#XXXXXoXXX.X#X.X#X#XoX.X#XXX.X.X#X#X.XoXoX#X#X`.>XXXoX#X.X#XoX#X#X>X`..XoXXXoX#XoX#X#XoX#X.X#X.XoX.X.X.X#X@XXX.X#XXXoX#XoXXXoXXX.X X.X X.X.X.X.X.X XU.J.I.J.I.J.J.I.J.J.U.I.I.J.m.x.x.x.x.x.x.m.m.x.m.x.U.m.v.M.N.b.M.B.N.N.M.B.Z.B.M.b.N.N.B.A.A.A.T.K.A.T.A.A.A.D.A.K.A.A.z.v.v.v.x.v.c.m.x.v.m.x.v.x.m.x.d.+.d.1.u.+.1.*.d.d.*.d.*.*.@.D A A A A A A C C A A A A A S N x h h b x x x x j x x x x z M A V Z Z C S C A A C A C C Z C V N V V V N V V N V V B V V V V C A A A A S A A A A S A A A S A A Z Z Z A Z S Z Z Z C A S Z C 3 3 c c c v 0 c k h c c c 0 v c 3 c 3 z z h h z h h h z h z h h 3 j 3 j h h h l j l 3 j l < j 2 j 2 l 2 2 2 j 2 j 2 j j 4 z                                                                                   ",
"                                                                                                                  GX4X@X@X@X@X2X%X<X2X%X%X@X%X=X2X@X$X#X#X$X#X$X$X#X#X#X@X#X#X#X@X#XXX#XXX#X#XXX#X#X<X2X$XXX#X<X#X#X<XXX#X#X#X#XXXXXXXXX#X<X<XXXXX#X#X<XXXXXXX#X#XXXXX6XXX#XXXXXXXXXXXXXXXXX2XXXXXXXXXXXXXXXXXXXoXXXXXXXoXXXXXXXXX#X#X.XXX#XXX#XXX#X#XXXXX#X#XXXXX#XXX>X#XXXXX#X#X#X#X#X.X#X.X#X.X#X#X.X#X.X.X#X#X%X.X#X#X#X#X.X.X#XoX#X.X#X%X.X#X#X%X#X#XXX.X#X#X#X#XXXXX#X#X#X.X#X.X#X#X#XXX@X#X.X#X.X#X.X.X#X.X#X#X#X.X#X#X#XXX#XXXXX#X#X#XoXXX#XoXXXoXoXXX.XXX#X`..XXXoX.XoX:X#XXX#X.XoX#X.X.X#X.X#XoX#X.X.X.X#X>X.X.XoX>XoXXXXXoX#X#XoXXXoXoX>X.XoXXXoX.X#XoXXX#XoX#X.X.X#X.X.X.X.X.XXXXX.XoXXXoXoXoXXX.X XXX.X.X.X.X X XXX{.J.J.I.J.H.J.J.U.I.H.I.G.I.J.x.x.Z.m.Z.m.m.m.x.m.m.m.x.m.m.N.Z.N.N.Z.N.N.b.N.N.N.B.Z.Z.N.A.A.A.A.A.A.A.A.K.A.A.A.T.A.K.A.v.v.v.v.m.m.v.v.v.v.c.m.v.v.v.z.+.*.+.d.*.+.*.d.+.d.%.d.+.t.Q.D Z A A C A C C C A A A A C A N x x x h x l x x x x x x x x M S C Z A C S C A C A A C C C C V V V N N V N V N V N N N V V V C A S S A S A A A A S A A A S A A Z Z S Z A Z S Z Z C C A C Z 3 z c c c k u k c c z c k h c c k h c 3 3 z z h z h z h h h j j 3 h j j h j h j j j j j j l j j j 2 2 l 2 2 j 2 j j 2 2 3 j                                                                                   ",
"                                                                                                                  GX4X$X@X@X@X@X%X@X%X%X2X@X@X<X@X@X$X#X#X$X#X#X#X#X#X@XXX#X#X#X#XXX#X#X#X#X#X#X2X#X#X#X#X#X#X#X#X#X#X#X<X#X#X#XXXXXXX6X#X<XXXXX<XXXXXXXXXXX6XXXXXXXXXXX6XXXXX6XXXXXXXXXXXXXXXXX#XXXXXXX X.XXXXX#X#X#XXXXXXXoX#X#XXXXX#X#X#X#XXXXX#XXX#X#XXXXX#X#X#X#XXXXX#X#XXXXX#XXX.X#X#X%X.X#X#X.X#X.X#X#X.XXXoX#X#X#X#X.X#X#X#XXX#X#X#X#X.X#X#X#X#X#X.X#X#X#XoXXX#X#X#X#XXX#X.X#X#X#X.X.X#X@X.X#X#X.X.X#X#X#X#X.X.X#X#X#XXX#X#XXX#XXXXX.X#XXXXX`.>X.XoXoX.XXX.X.X.X.X.X.X%X.X.X.X.X%XXX#X.X.X#X.XoX#XoX#X.X#X#XoX.X.X.X.XoX.X.X#X.X#XXXoXXXoXXXoX#X#X.X.X.XoX#X#X.X.X#X.X#X#X.X%XXX#XXX.X.X#XoXXXXXoXoXXXXXoX X.X X.X<X.X.X}.H.J.H.K.I.J.H.H.I.J.J.I.I.J.m.U.m.m.m.Z.m.m.Z.m.x.x.m.x.x.N.N.B.A.N.Z.Z.A.B.Z.N.Z.b.A.Z.N.K.T.D.A.T.A.A.A.T.D.A.A.T.K.K.c.v.v.v.v.v.v.v.v.v.v.v.v.v.v.m.+.d.d.d.%.+.d.+.d.u.u.+.t.*.@.D Z Z A C A C C A A A A C C C B h B x b b h x x x x x x x x b C C S Z V C C A A C A C A V C V N N N V N V N V V N V V V V V A A A A A S A A G A A A A A S S A Z Z Z Z Z Z Z Z Z S A S V S 3 z c c c c c c c c 0 c k c c c c c c c c z h z h h h z h h h j h 3 j h h h h h h j l l j 2 j 2 j 2 j 2 2 j 2 2 j j j 2 j ,                                                                                   ",
"                                                                                                                  GX4X@X$X@X$X@X%X2X<X%X@X@X2X@X2X#X#X#X#X#X#X#X$X#X$X#X@X2X#X#X#X#X#XXX#XXXXX2X#X#X#X#X<X#X#X$X<X$X<X>XXX>X#X<X#X#X#XXXXX>XXX<X#X#X<X#X<XXX XXX6XXXXX#XXXXX#XXX#XXXXX#X#XXX#XXXXXXXXXXXoX>XXX#XXXXXXXXXXX#XXXXXXX#XXXXX#XXXXX#X#XXX#XXXXX#X#X#X#XXXXX#X#XoXXX#X#X#X#XXX#X.XXX#X.X#X#X.X#X.X.X#X#X#X#X#X#X.X#X#X#X.X#X#X.X#X#XXX#XXXXX#X#X@X#X.X#X#X#X#XXX#X.X#X#X#X#X.X.X#X#X#X.X#X#X.X#X#X@X.X#X.X#X#X#X#X#X#XXX#X#XXXXXXX:XXXXXXX#X.XoX#X#X.X#X.XoX#X#X#XoXXXoX#X.X#X.XXX.X.X#XoX#XXX.X#XoX#XoX#X.X.X.X.X>XoX#X.X.X.XoX#X#X#XXXXX#X#X.X.X.X#X#X#XoXXX#XoX.X#XoX#XoX.X.XXXXXXXXXXXoXXXXXoX XXXXXoXXX.X.X.X.X XoXI.J.J.I.U.I.I.I.I.H.I.I.U.J.x.m.Z.m.x.m.m.m.x.m.Z.m.m.x.m.m.Z.M.N.A.b.b.B.Z.b.A.B.N.A.B.A.M.A.M.A.K.A.D.M.M.A.K.b.K.A.A.x.v.v.v.z.v.x.v.v.z.m.v.x.x.x.l.+.d.u.+.d.+.d.*.+.*.d.+.+.a.Q.S A A Z A C A A A A A A A C C B j j j B h x x h b x x x c z b Z C Z A A C A A A A A A C S S V N V V V V V N V N V N N N N V A A A S A A A A A A A A A A S A S Z Z S Z Z Z Z C S C Z Z Z Z 3 3 v c c c l 0 c c h c v 0 c c c h 3 z c z z h z z z h h z j j 3 z h h j h h h h h j j l l 2 j 2 2 l 2 l 2 2 j 2 2 2 2 j 2                                                                                   ",
"                                                                                                                  F 4X@X@X@X#X#X.X@X2X@X#X2X@X@X2X#X#X@X#X#X$X@XXX#X#X#X#X#X2X#X@XXX#XXX#X2XXX#X2XXXXX#X2XXX#X#X2X<X$X#X#X2XXXXX6X#XXX#X#X<XXX<XXXXXXX#X<XXX<X#X#XXX#X<X2XXXXXXX#XXXXXXXXXXXXXXXXXXX.X#XXXXXXXXXXXXXXX#XXX#XXXXX#X.XXX#X#XXX#X#XXX#XXX#XXX#X#XXX#X#X#XXX#XXXXX#X#X#X#X#X#X.X.X#X#X.X#X#X#X.X#X#X.X#X.X#X#X#X#X#X.X.X#X.X#X#XXX#X#X#X#X#XXX.X#X#XXX#X#X#X#X#XXX#X#X.X#X#X#X#X.X.X#X.X.X#X#X#X.X#XXX#X#X#X#X#X#X#X#X#XXX#X#X.XXX.X.X#X#X.X#X#XoX#X.X#X.X.X.X.X.X.X#X.X#XoX@XXX.X#X.X.X.X.XXXXX.X.X.X#X.X.X#X.X@XXX#XoX#XoX.XXX.XXXoX.XXXXXXXXX.X.X.X@XXX@X.X.X.X.X#X#X.X.X.X.X.X.X.X.X.X X.X X.X X.X.X X.X.X.XXXXX}.I.U.I.I.G.I.I.J.J.J.H.I.J.J.m.x.m.x.m.m.m.m.x.G.x.m.Z.m.N.Z.S.B.N.B.A.N.Z.B.Z.Z.B.A.b.Z.B.A.K.A.A.K.M.D.A.A.A.A.M.D.A.K.c.v.v.v.v.6.v.v.v.v.c.v.v.v.v.l.+.*.d.d.1.1.d.+.*.1.d.%.*.z.Q.D S Z Z A Z Z A S A C A A A V b l v v x l v x x x x x x x x M C A A A V C A S A S C S C V S V n V N N B N V V V V V V N V V V Z Z A A S A S S A A A S A A A S A C C S S Z A Z S A A A A A 3 k v c v c c c c u v c c c c c c h c z 3 c c h x h h h z h j h j h h 3 h h z h j k h h j h 4 4 3 3 4 j 4 j 4 j 4 j 2 j 4 ,                                                                                   ",
"                                                                                                                  p -X@X.X2X#X#X2X@X@X@X@X@X@X2X#X#X$X#X$X#X#X@X#X#X#X#X#X#XXXXX#X#X#X#X#X#X#X#X#X#X#X#X<XXX@X<XXX#XXX#X#XXXXX#XXX#XXX#X#XXXXXXXXX#X<X<X#XXX#XXXXXXX#XXXXX#XXX.XXXXXXXXXXXXXXXXXXXXXXXXXXXXXXX#XXX#XXXXXXXXXXXXX.XXX#X.X.X#XXX#X#XXXXXXX.X#XXX#XXXXX#X.XXXXX@XXX.X.X.X.X.X@X#X.X#X#X.X.X@X#X.X.X#X#X#X#X.X#X.X.X#X#X.X#XXX#X#XXX#XXX#XXX#X#X#X.X#X#X#XXX#XXXXXoXXX#X#X.X.X#X#X#X#X#X#X#X.X.X@X#X#X#X.XXX#X.X#X.XXX#X#XoX.XXX@X.X.X.XoXoXoX#X#XoX.XXX.X#X.X#X#XoXoX.XoX#XXX.XXX.X#X#X.X.XXX#X.X.X#X.X.X#X.X.XXX.X.X#X.XXXXX.XXX.XoXoXXX.X.XoX.X.XXX.X.XXX.X.X.X#X.X.X#X.X@X.X.X.X X.X.X.X.X.X.X.X<X X.X.X.X XoX X}.I.J.J.J.J.J.J.H.J.J.J.H.}.J.m.m.Z.m.Z.Z.m.Z.m.Z.m.m.m.m.v.m.N.B.Z.A.N.A.b.A.b.N.B.N.A.b.A.b.T.A.A.A.A.T.A.K.A.K.A.A.K.Z.v.l.v.x.v.v.l.v.v.m.v.z.v.v.v.z.+.d.d.d.+.*.d.d.+.+.+.d.d.d.Q.H A Z S A C C C C C V Z A V A b h v v x l l h b x v v v v x M C A A A A A A C A A C C S S S V n N V V B V B B N N B N B V V N V Z A S A A S S A A A S S S A A A S V Z Z Z Z Z A Z C C C C 3 3 0 0 u c l c c c 0 u c c 0 u c c c c c c c z z h v v h h h h h x j k l h h h h k k h h j j 4 4 2 j 4 j 4 2 j j 3 3 j 2 j                                                                                   ",
"                                                                                                                  H 4X@X2X.X#X#X.X.X@X@X@X2X@X2X2XXX#X#X#X#X@X#XXX2X#X#X.XXX2X@X@X@X@X#XXX@X#X2X#X#X#X#X$X#X#X#XXXXXXXXXXXXXXXXXXXXXXX<XXXXXXXXXXX<XXXXXXXXXXXXXXXXXXXXXXXXXXX XXXXXXXXX.X.XXX.X.XoXXXXXXXXXXXXXXXXXXXXX#XXXXX<XXXXX.X.X.XXX.XXXXX.XXX#X@X.X.X.X.X2X.X@X.X@XXXXXXX.X#X#X#X.X@X@XXXXX#X#X.X#X#X#X#XXX#X#X#X.X#X#X#X#X%X#X#XXX.X#X.X#XXX#X#X#X#X#XXXXX#X#X#X#X.X>X#X#X#XXX#XXX#X.X.X#X#XXX#X.X@X.XXX#XXX#XXXXX.X.X#X#XoX.X#X.X.X.XXXXXXXXXXXXXXXoX.X.X.X.X.XoXoXoXXXXX.X.XoXXX.X.XoX.X.X.X.X.X.X.X.XoXoXoX.X.X.XXXXX>XoX.X.X.X.X.XXXoXoXoXoXoXoXXX@XXX.X.X.X.X.XoXoX.XoX.X.X.X.X.X.X X X.X X.X.XoX.XoX.XoX.X XoXXX}.I.I.I.G.I.J.I.I.J.H.I.G.J.J.v.x.m.m.m.x.x.Z.m.Z.x.m.Z.b.m.M.Z.A.A.B.Z.Z.b.N.A.B.M.b.Z.Z.A.A.A.M.A.T.K.A.A.A.A.K.A.A.A.A.c.v.v.v.v.x.v.x.v.x.v.x.v.v.v.x.1.+.+.d.d.*.+.+.%.d.d.d.d.a.Q.H S A S A V C B N N n b N C C l l M v M n n n B M n n M b v n V A A S S C V A V S B V V V S V S S V N S Z Z A C C S A S V N V V A A S S S S S S S S S S S S S S S S S S S S S S S S A A S ; 1 3 0 u v c 0 0 u c 0 c 0 l c c c c m u m c k 0 c 0 k h h h k k h v l v l k h h h k j j 3 < 3 3 2 2 2 4 2 j 4 j 2 4 3 4 <                                                                                   ",
"                                                                                  GXW.F F F W.F F | F F F | F F F f %XXXXX.XXXXX@X<XXX<XXX.X@X<X#X#XXXXX2XXX@X<XXX#XXX#X2XXXXX.XXX<X<XXX<X.X<X XXX XXXXX X X<X X<X<X{.<X X{.<X X1X X X<X X1X<X<X{. X+X X X1X{.{.{.1X{.{.{.{.{.<X{.{. X{.<X X X X X X X X X{. X X X<X X{. X X X X X X X X X<X X X X X X X X X XXX X X.X X X X.XXX XXX X XXX X X X XoX X XXX X XXX X X X X XXX XXX X X XoX XXX XXXoX X XXX X X X XXX X X.XoX XoXXX X XXXoX XXX XXXXX X X XXX X X X X X XoX X X XoXoX+X XoX X X X X XoX X X X X{.oX{.{.oX X X X X X]. XXX]. X{. X X X X{. X X X X X X X{. X X X{. X].]. X X X X{.{. X{. X{. X X{. X}. X{.{. X{. X{.{.{. X{.{.{.{.{.{.{.{.{.{.{.{.{.{.{.{.{. X X X X}.J.I.G.K.J.J.I.I.J.I.I.I.J.J.Z.m.Z.Z.m.J.m.m.Z.G.G.Z.x.m.N.Z.D.Z.A.M.B.A.A.B.A.A.Z.A.N.Z.A.A.A.D.A.A.A.K.T.A.A.A.A.A.K.A.v.v.v.c.v.v.6.v.v.v.v.v.v.v.5.z.+.+.d.+.+.1.1.d.+.+.+.+.d.+.*.f H H D p D D D H d H d p d p i i p p p D d p p p D d p p t p F F d H p p d d H p d H d D d H H d F F H H d H d p H d d d H d F d f H d d H d d F F F H F H F F H F H d D F p H F F d F p y y 9 y y y y p p y y y p y y y y y y y t t t t y y y p y p y y i y p i p y a p y p i y p p t 9 9 t 9 9 t 9 y 9 q t 9 9 t 9                                                                                   ",
"                                                                                  GXxXxX3XcX3X2X4X3X2X3X3X5X5X5X5X6X2XXXXXXXXXXXXXXXXXXXXX.XXX.XXX#X@XXXXXXXXX.X#X#X@X#XXX#X#XXX<X}.[.[.[.[.}.P.P.P.P.P.P.P.P.P.L.L.K.L.L.P.L.L.I.L.K.L.L.L.L.I.Y.L.K.L.L.I.L.L.K.K.L.L.K.S.I.L.P.L.P.L.P.L.P.L.L.P.P.L.I.L.I.I.I.I.L.I.L.I.L.J.L.P.I.P.P.L.I.I.P.P.P.P.K.P.P.P.I.P.P.I.P.I.I.I.P.P.I.P.P.I.P.P.I.I.I.I.P.I.I.I.P.P.I.P.P.P.I.I.H.Y.I.I.P.[.P.I.I.P.I.I.I.P.I.P.I.[.I.I.}.I.I.P.Y.I.P.I.P.I.P.I.P.P.}.P.P.P.P.P.P.P.P.P.P.I.P.P.H.P.I.I.L.L.L.P.I.I.P.L.H.P.P.P.P.L.P.P.L.P.P.L.[.K.L.P.P.L.P.L.K.P.I.L.I.L.L.P.I.P.K.P.K.L.I.I.Y.I.I.L.L.I.P.I.L.I.L.I.K.I.I.L.J.L.S.L.J.L.L.I.K.I.I.I.L.I.P.I.L.I.I.I.I.L.J.J.I.I.J.J.J.I.P.I.J.Z.S.Z.Z.S.A.A.A.S.A.A.S.S.A.A.A.A.S.A.G.A.A.A.J.S.A.A.A.Z.Z.Z.A.N.Z.N.B.A.B.b.A.B.A.A.A.A.D.D.A.A.A.A.M.A.A.A.B.A.A.A.A.v.5.v.6.l.x.6.v.v.v.v.x.v.v.6.v.b.b.m.Z.m.Z.v.J.Z.A.m.Z.B.v. X5XlXxX5XxX5X=X5X=X=X=X=X>XxXcX5XcX3XxX5X3X3X3X5XxX5XcX;X=X=X=X5X3X5X;X5XcX3X5XcXcXcX>X;X5X3X3X;X>XlX>X3X3X3X5XxX5X5X>XlXcX5XcX>XxXcX5X5XcX>X;X;X%X;X;X>X;X;X>X;X>X3X5X3X3X2X3X=X>X3X3X>X5X3X=X5X5XcXcX5X3XcX5XcXxX5X5XcXcX>X5XcX5XcXcXcXcXcX5XcXcX5XcXcXcXcXcXcX5XcXcXcXcXcXcXcXxXcXcXlX3X-X;X;X;X;X;X3X=X;X3X=X=XlXcXF                                                                                 ",
"                                                                                  D xX<X2X2X.X2X2X<X2X<X#X#X2X#X6X<X XXXXX X X XXX X X X.X X XXXXXXX<X#X2X#X2X.XXX#XXX#X#X#XXX X{.L.V.A.S.D.A.S.A.A.A.D.B.A.B.C.B.V.V.C.C.C.0.C.V.B.V.C.8.C.C.C.B.B.B.B.B.C.B.B.S.C.V.V.S.C.V.V.V.V.V.C.V.C.C.C.B.B.C.S.C.A.C.B.C.C.C.C.C.C.C.C.A.A.B.A.A.A.D.B.D.B.D.S.D.A.S.S.S.S.D.S.C.C.S.C.D.C.S.S.S.S.A.D.D.D.S.L.S.S.S.S.A.A.S.S.S.S.S.S.A.A.D.S.S.S.S.D.S.D.L.D.M.D.A.A.D.S.D.S.S.D.S.S.A.A.A.S.S.D.A.S.A.V.N.V.S.N.S.N.Z.N.S.N.S.V.V.V.B.N.S.N.V.V.V.C.C.C.C.C.b.B.N.V.N.V.V.V.S.N.V.V.A.A.B.C.V.V.V.V.b.B.N.B.V.B.B.B.b.B.N.N.V.C.V.V.N.Z.V.C.V.V.N.V.N.V.V.V.N.B.V.V.N.V.V.S.V.V.V.N.B.N.V.V.V.V.N.N.V.V.V.V.V.N.N.V.V.V.N.V.N.S.D.Z.N.S.B.N.N.Z.N.N.Z.N.Z.N.N.N.S.A.A.A.A.Z.A.A.A.D.Z.S.Z.B.A.Z.S.A.A.A.A.Z.Z.A.Z.A.Z.B.A.A.A.Z.A.A.A.A.T.A.T.D.A.D.A.A.A.A.Z.v.v.x.v.v.v.v.v.v.v.l.v.v.v.b.x.v.v.6.b.6.v.6.N.q.6.b.6.b.6.I.#XXX.X XXXXXXX.XXX#XXXXX#X.X.X#X#X#X#X#XXX#X#X#XXXXXXXoX#X#XXXXX#X%XoX#X#X@X%X.X#X`.%XoX#XXXoX>XXXXX>X#XXXXXXXXXoX>XXXXXXX#XXXXXXX XXXXXXX].#XXX>XXXXXXX#X#XXXXXXX#XXXXXXXXXXX#XXX>X#X#X#X#X#X#X#XXXXXXX.X.X.X.XoX>X#XXX#X#XXXXX#XXXXXXXXXXXXX>XXX>XXXXX#X#XXX XXXXXXX>XXXXX>XXX#X#XXXXXXXXX#X#XXXXXXX6X>X6X#X6X<X6X5X|                                                                                 ",
"                                                                                  d 3X<X<X2X.X@X@X@X%X@X#X2X@X#X#X#X X XXX X X X X XXX X X X XXXXXXX@X#X#X#X.X2X#X#X#X#X#X#X@XXX{.S.C.C.S.C.C.C.C.B.B.C.B.C.C.C.C.C.C.V.V.B.B.C.B.C.V.B.B.B.B.C.V.C.C.V.C.V.C.C.C.A.S.C.B.C.C.V.C.C.D.V.C.V.V.C.C.V.V.V.V.V.C.C.V.V.V.V.V.V.V.V.C.C.C.C.B.C.C.C.B.C.B.C.B.C.B.C.C.C.C.C.D.A.S.A.C.S.S.C.B.C.C.S.D.C.V.C.C.V.C.C.C.C.B.N.V.B.S.C.Z.S.C.C.V.C.C.C.V.V.C.B.B.C.S.S.C.C.V.V.C.C.V.C.A.C.S.S.S.V.S.S.N.C.V.V.C.V.S.V.V.V.N.C.C.C.V.C.B.C.C.C.V.V.V.V.9.V.B.9.V.V.C.V.8.V.V.V.V.V.C.C.V.B.C.9.V.C.C.C.C.C.C.C.V.V.V.V.V.V.V.V.0.B.C.B.B.B.0.C.C.N.C.C.C.C.V.8.V.V.V.C.V.V.V.V.V.V.B.C.B.C.B.V.V.V.S.S.V.S.V.S.C.S.A.A.S.B.B.S.C.S.B.V.N.Z.N.A.N.b.Z.N.N.Z.Z.N.N.S.Z.A.A.C.A.A.D.Z.Z.Z.A.Z.Z.A.A.Z.A.A.N.A.B.S.A.B.A.A.A.B.A.A.A.B.A.D.A.A.B.A.C.A.A.A.Z.A.A.Z.Z.v.v.v.v.v.v.v.v.v.v.v.v.v.v.v.v.v.7.v.6.6.6.b.N.6.v.7.6.b.b.I.XX XXXXXXXXX#XXXXX#X#X#X#X.X#X#X#X#X#X#X#X#X#XXX>XoXoX#X#X>XXX#X#X#X%X#X#XXX#XoXoX>XoX>X#X#X>XXXXXXX`.>X#X#XXXXX#X#XXX#X#X.XXXXXXXoXoXoXXXXXXXXXoX X>X`.XX>XoX#X#X#XXX#XXX>X#X#XXXXXXX>XXXXX#XXXXXXXXXXXXX.XXXoX#X>XoXXX#XXXXXXX#XXXXXXX>X X#XXXXX>XXXXX#XXX#X>X#XXX#X#XXXXXXX<X X>XXXXX<X>X<X>XXXXXXXXXXX X X#X<X<X5XQ.                                                                                ",
"                                                                                  H cX2X#X#X2X.X@X@X@X2X2X@X2X$X$X#X.XXX X XXX XXX XXX XoX X X XXXXX#X#X@X<XXX.X#X#XXX#X#XXX2XXX{.S.C.S.C.C.S.S.S.V.C.B.C.C.C.C.C.B.C.B.V.V.B.B.C.B.C.B.C.B.C.B.S.V.V.S.V.S.B.C.C.B.V.C.C.C.B.C.C.C.S.V.S.V.C.V.V.V.C.V.C.S.C.S.N.V.V.S.V.V.V.V.V.S.V.S.C.C.S.V.C.V.S.V.B.S.V.S.S.S.C.S.C.C.A.C.A.B.S.A.A.A.D.A.S.S.V.S.C.S.V.S.A.B.S.A.C.A.C.C.A.A.C.A.V.S.S.C.A.S.C.A.C.A.D.C.B.S.A.C.B.B.A.B.A.A.A.C.A.A.A.C.C.S.S.S.V.C.B.C.A.C.B.A.B.S.V.V.B.C.V.C.V.V.V.B.V.C.B.V.A.V.V.V.B.B.V.V.C.V.B.B.V.B.B.C.C.N.V.B.B.B.C.B.B.V.V.V.V.V.B.B.B.B.B.B.B.A.A.B.B.C.S.B.C.N.V.B.B.V.V.V.V.C.V.C.C.V.C.B.A.S.C.A.N.C.A.C.S.S.Z.Z.S.S.A.D.A.A.A.A.A.A.A.V.S.N.Z.N.Z.N.N.Z.Z.N.N.Z.N.N.A.B.A.B.A.A.A.A.S.A.S.N.A.A.A.A.A.A.D.N.B.A.B.B.A.N.A.A.N.N.A.D.B.S.A.A.T.A.D.A.A.A.D.A.A.D.N.v.6.c.6.v.x.v.v.v.v.v.v.v.v.v.N.v.v.v.v.b.6.6.b.6.b.v.6.b.6.P. XXXXXXXXXoXoXXXXXXXXXXX#X#X#X#X#XXXoX>X#XXXXX#X#XXX>X#X#XXXXX#X#XXX#X#XXX#X#X#X>X.X.XoX#XXXXXXXXXXX>X.X#XXX>XoX#XXXXX#XXX#XXX XXXXXoXXXoXXXoX XoX XoX+XoXXXXXXXXX#XXXXX XXXXXXXXXXX XXXXXXXXXXXXXXX>XXX#X#X#X>X#XXXXXXX#X#X>XXXXXXXXX#XXXXXXXXXXXXX>XXX#X#X#X#X#X#XXXXX>X#XXX>XXXXXXXXX X>XXXXXXXXXXX<XXX6XXXXX2X2XxXF                                                                                 ",
"                                                                                  GX3X2X#X$X2X#X2X@X2X#X2X#X@X$X#XXX XXX X<X XXX X XoX XoX X X.XXXXX#X.X2X.X.XXX#X#X@X#X#X#X@XXX{.J.B.C.B.C.S.C.C.B.B.C.0.B.C.C.C.C.V.C.V.C.V.C.C.C.B.C.C.C.8.C.C.B.C.B.C.V.C.N.C.B.C.B.C.V.C.V.V.C.N.S.B.B.C.B.C.0.C.A.A.C.A.B.C.V.0.B.C.B.C.B.C.S.B.A.C.B.S.C.V.C.C.C.V.C.S.C.B.C.B.V.S.S.C.C.V.S.C.S.C.S.S.S.C.B.S.C.C.N.V.S.S.C.V.S.C.V.C.S.S.C.S.V.S.C.S.V.V.C.V.S.B.V.S.C.S.C.C.V.V.C.V.V.C.N.V.C.N.S.V.V.V.S.V.N.C.V.V.S.B.V.C.C.B.C.V.V.V.C.C.V.S.N.N.V.V.B.B.V.V.V.V.V.V.V.V.V.V.V.V.V.V.V.V.V.V.V.C.V.C.C.V.V.B.8.V.B.V.B.V.B.B.8.V.V.V.V.C.N.S.N.V.N.N.V.V.V.V.V.V.V.C.V.V.V.V.B.C.C.C.N.V.C.S.V.C.S.S.C.S.S.A.S.S.A.D.A.B.C.T.B.A.B.N.N.V.N.B.N.N.N.N.N.B.N.N.N.B.D.D.A.Z.A.A.Z.A.A.S.Z.A.A.B.A.A.A.N.N.B.A.S.B.A.A.N.S.A.C.A.B.A.A.A.B.T.B.A.B.A.A.A.A.B.A.S.v.v.v.x.v.6.l.v.v.v.v.v.v.v.v.6.v.6.v.6.6.N.6.b.6.7.b.v.b.v.J. X#XXXXXXXXX>XoX.X#XXXXX#X#XXX#X>X#XXX#X#X#XoX#XXX>X#X#X#X#XoX>X#X#X>X.XXXXX#X#X>XXXXXXX#X#XXX#XoX#X#X#X#XXX#X#XXXXXXXXXoX>XoXXX XXX+XXXXXXXXXoX`.XXoXXXXX X X>X>XXXXXXXXX>X>X XXX X>XXXXX#X#XXXXXXX>X X>XXXXX>XXXXXXXXXXXXXXXXXXXXXXX>XXXXXXXXXXX>XXXXXXXXXXX6XXX>X6XXX X>XXXXX1XXXXXXX>X>X<X#XXXXX#X>XXXXX<X>X#X#X5XF                                                                                 ",
"                                                                                  F 3X.X#X@X#X@X#X2X@XXX#X2XXX2X2XXX X X X X X X XXXXX X XoX X XXX#X#X#X#XXX2X#X#X#XXX#XXXXX#X.X XZ.C.B.C.C.C.C.C.C.C.B.B.C.B.B.C.B.V.B.V.8.B.C.B.B.0.C.B.B.V.V.C.V.V.C.C.C.C.V.C.C.V.C.S.C.V.V.V.V.V.V.B.C.B.C.C.B.B.V.C.C.B.V.V.B.C.B.C.C.C.B.B.B.C.C.S.V.V.C.C.B.C.C.B.C.B.C.C.N.C.B.V.V.N.S.B.S.S.C.V.C.C.V.V.C.N.C.V.C.C.C.V.V.V.B.N.C.V.S.V.C.C.C.C.N.C.V.N.V.C.C.C.V.N.C.N.V.V.C.C.V.C.C.V.C.S.B.C.V.C.C.N.C.C.S.V.C.B.V.B.0.B.C.V.C.C.N.V.S.V.V.C.V.V.C.V.N.V.V.V.0.B.B.V.V.8.V.V.V.C.9.V.V.B.V.V.V.V.8.C.9.9.V.C.C.0.B.V.V.8.V.V.V.V.8.V.V.V.V.C.V.V.C.V.V.V.V.V.V.V.B.B.V.V.A.V.A.B.V.V.C.S.B.C.C.N.V.V.N.V.N.C.N.B.C.B.A.A.C.T.B.B.A.B.N.B.N.N.N.B.B.N.N.N.N.B.B.N.A.Z.N.B.A.Z.A.Z.D.Z.S.A.A.V.A.V.A.B.B.V.A.B.B.N.B.A.N.B.B.B.A.A.B.A.A.A.A.A.A.A.A.A.B.A.A.N.v.6.x.v.v.v.v.v.v.v.v.v.v.v.x.v.6.b.6.v.6.6.6.v.7.v.6.N.6.v.I. X#XXXXX#XoXoX.X>X#X.X#X#X#X#XXXoXXX#X#XXX#X#X#X>X`.oX#XXX.XXXoXXX.XoX#X.XXX#X#X`.XXXX#XXXXXXX#X.X.X.X.XoX#XoXoX#X#X#X#X>X`.oXXXoXoXoXoXoX+XoX>XXXXXXXoXXX X>XXXXX#X X>X XXXXXXXXXXX XXXXX<XXX>XXXXXXXXXXXXXXX XXXXX>XXXXX>X>XXXXXXXXX XXXXXXXXXXX XXX XXXXXXXXXXXXXXXXX#X#XXXXX>XXX#XXXXX X>XXXXX6X#XXXXXXXXX#X<X.X6XF                                                                                 ",
"                                                                                  d 3X2X<X2X#X2X2X#X#X2X.X2X#X2XXX<XXX XXX X XXX XXX X XoX X.X.X<X@X#XXX#X@X#X#XXX@X#XXX2X.X@X@X{.J.B.C.C.C.A.B.C.A.C.B.C.V.V.V.C.V.V.B.B.B.B.B.B.C.B.B.B.B.V.B.N.C.S.B.N.V.S.C.V.C.C.C.C.N.N.V.N.C.V.S.C.N.C.N.B.C.C.C.V.V.V.B.V.B.A.C.B.B.B.B.B.V.B.C.C.V.V.V.V.A.V.B.B.C.N.C.V.V.S.S.A.S.S.C.C.C.A.V.C.B.S.V.S.C.S.C.N.V.V.C.N.C.N.S.C.C.V.C.C.N.C.N.V.B.N.C.S.V.V.S.C.V.C.S.V.C.N.C.N.V.C.C.C.S.C.S.S.C.C.N.C.S.C.C.C.C.B.V.B.B.C.C.B.B.C.C.N.V.N.C.C.V.V.N.C.V.C.V.0.B.0.B.8.V.9.V.8.C.C.C.B.B.N.V.V.V.V.C.C.V.V.V.8.V.V.V.V.7.V.8.8.V.8.V.8.V.V.V.V.V.V.N.V.N.V.V.N.V.N.V.B.B.B.B.B.A.C.C.S.C.V.S.V.C.V.C.C.V.S.S.N.V.V.A.B.B.A.A.N.A.A.A.B.N.N.N.N.B.N.N.N.N.B.B.N.A.N.B.Z.D.S.B.A.B.A.N.N.N.D.N.B.A.B.V.A.N.B.B.A.N.B.B.B.B.B.N.N.Z.B.N.A.A.A.A.A.B.A.Z.A.Z.N.A.Z.v.v.v.v.v.v.v.z.v.m.v.v.m.v.v.v.N.v.N.6.7.7.6.v.6.6.v.7.v.N.I. X#X#XXXoX#X.X#XoX#XoX%X#X#X.X:X.X.XXX#XoX#X.X#XXXXXXXXX#XoX#X#X#X#XXXoX#XXX#X.X.X#XXXXX>XoX>X.X.X#X#XXX#X#X.X#X#XXX#X#XXXXXXXXXXXXXXXoXXXXXoXXXXXXXXXXXXXXXXXXXXX XXX XXXXX>XXXXX>X>XXXXX>XXX>X>X>X XXXXX+X X>X>X XXXXXXXXXXXXXXX XXXXXXXXXXXXXXXXXXX>XXX>X>X XXXXXXXXXXXXX>XXXXX#XXXXX>X<X<XXXXXXX<X XXX#X#XXX<X.X2XF                                                                                 ",
"                                                                                  D 3X.X#X>X.X2X#X2X2X@X2X#X2X#X2XXXXX X XXXXX XXX X X.X X<X X.XXX#X#X@X#XXX#XXX.X2XXX.X2X.X<X.X XS.A.C.C.C.A.C.A.C.B.C.C.V.B.V.C.V.8.B.B.B.C.B.C.B.C.B.B.B.B.B.C.V.C.V.V.C.C.N.V.B.N.V.V.V.C.N.V.N.C.V.V.C.V.V.C.B.B.A.V.V.N.V.V.B.B.B.C.C.B.C.B.V.C.C.N.C.S.C.C.V.C.B.C.B.C.V.C.S.B.V.C.V.C.S.S.S.V.V.V.V.C.C.B.V.N.S.C.C.S.C.C.V.C.C.S.V.C.N.V.C.S.V.C.V.C.S.C.C.C.N.V.B.V.C.C.S.V.B.S.C.V.S.B.V.S.V.C.N.V.V.V.C.N.V.N.B.V.B.B.B.B.C.B.C.V.V.N.V.V.C.N.C.V.V.V.N.V.V.B.0.C.B.V.C.C.V.V.V.8.V.C.B.V.V.B.V.V.V.9.C.9.V.V.V.8.V.V.8.V.V.V.V.V.V.V.V.V.C.N.N.V.V.B.V.N.C.B.V.B.V.B.C.B.C.B.C.B.C.B.V.C.V.C.N.C.V.S.N.N.C.S.S.N.C.C.D.B.A.B.A.B.B.B.N.b.B.N.N.B.N.N.N.N.N.N.N.B.B.N.N.N.B.N.A.N.A.Z.N.N.B.V.B.A.B.B.B.B.N.N.C.N.N.N.B.N.A.S.B.A.S.B.Z.N.A.A.A.A.A.A.D.N.Z.N.v.6.x.v.v.v.c.v.v.x.c.x.c.v.v.v.v.v.6.v.v.6.6.6.7.6.7.6.v.v.I.XXXXXXXXXX#X#XXX#X#X>X#X#X#X#X>X#X.X#XXX>X.X#X.XXXXX#X#X#X#XoX#XXXXX#X#X#XoXXX.X.XoX#X#XXXXX`..X.X#X#XXX#XXX#X#X.X.XXXXXXXXXXXXXXXXXoXoXoXXX XoX+XXXXXoXXXXXXX<X>XXXXX>X#XXXXXXXXX+XXXXX XXXXX X XXX X>XXX>X X>XXXXX>X XXXXX>X XXX>XXXXXXXXXXXXXXXXXXXXX XXXXXXXXXXX>XXXXX>XXXXXXXXXXX6XXXXX#XXX#X#X#X>X6XXX<X>X X.X2XF                                                                                 ",
"                                                                                  d xX<XXX@X#X#X2X.X.X2X2X.X2X.X2XXXXX X XoX XoX XXX XXX X.X X.XXX#X#X#XXX2X#X@XXX#XXX#X#X#X@XXX XL.A.C.C.V.B.B.B.C.B.C.V.C.V.V.B.C.V.B.B.8.B.B.B.V.B.B.B.0.B.B.C.S.N.C.C.S.C.V.N.V.V.C.N.V.N.V.N.V.C.C.V.V.C.B.V.V.B.C.V.V.N.B.B.B.B.0.B.B.B.B.B.B.A.B.V.C.C.C.V.C.B.C.B.C.B.S.B.S.S.N.V.C.B.S.C.C.N.C.C.N.C.V.V.N.V.B.V.C.C.S.B.V.S.V.N.C.C.V.C.C.N.C.C.N.C.V.S.N.V.C.S.C.V.C.V.C.S.V.V.V.S.N.C.S.C.B.C.V.V.C.C.B.V.V.C.C.V.B.B.B.C.C.B.A.V.C.V.N.C.V.C.V.S.C.V.V.V.C.B.C.C.0.9.C.C.9.V.V.V.V.V.V.N.C.B.B.B.V.V.9.V.V.V.C.V.8.9.V.V.V.8.V.8.V.8.8.V.V.N.V.V.V.V.N.N.V.V.C.V.V.B.V.B.A.B.C.C.V.V.C.N.C.V.V.N.N.C.N.N.S.C.V.N.S.C.A.D.B.A.B.B.A.B.N.N.B.N.7.N.N.B.N.N.N.N.B.N.N.N.N.B.N.N.Z.N.N.B.Z.B.A.B.B.A.N.B.B.B.B.B.N.B.B.B.A.B.C.A.N.A.B.Z.A.Z.B.A.A.A.B.A.A.A.Z.A.v.6.x.6.x.v.v.v.v.v.v.v.v.v.v.v.v.6.v.6.6.6.6.7.6.6.6.6.6.v.I..X.XXX#X#X#X#X#XoX#X#X#X#X#X#X#X#X.X#X#X#XXX.X#X#X#XoXXX#X#XXXXXXXoX#XoX>XoX#XoX#XoX#X#XXX#XoX#XoXXX#X#XXX#X#XXXXXXXXX#XXXoXXXXXoX+X>X`.XXXX X XXX XXXXXXXXX XXX1XXXXXXX X>XXX XXXXXXX>X>X X XXXXXXX>XXXXX>XXXXX+X>XXXXXXXXX6XXXXXXXXXXXXXXX+XXX X>XXXXXXX>X XXX XXXXX XXXXX+X>X#XXX#XXXXXXX#XXX#X6XXXXXXXXX<X>X XXX2XF                                                                                 ",
"                                                                                  H xX2X2X#X#X2X.X2X2X2X.X2X.X2X#XXXXX X XXX XXX X XoX X X X X.XXX#XXX#X.X.X#XXX#X#XXX@X@X<X.X2X{.A.C.C.C.V.B.B.C.B.B.B.N.V.N.B.C.B.N.V.B.C.B.C.B.C.B.C.C.B.B.B.V.C.C.V.C.N.V.B.C.V.N.N.V.V.N.C.C.V.N.V.N.V.N.S.B.V.V.B.B.V.V.V.B.B.C.C.B.C.B.B.0.B.0.C.C.V.V.S.V.S.C.B.C.B.V.C.C.C.C.S.S.S.S.C.S.C.S.C.C.S.V.C.C.C.S.S.C.S.C.C.V.C.C.C.C.S.C.C.V.S.V.C.S.V.V.C.C.V.C.B.C.N.S.V.N.C.C.V.B.C.C.C.V.V.S.V.V.C.C.V.C.C.C.C.V.V.V.C.0.B.C.B.C.V.V.C.C.V.C.S.N.C.C.N.V.V.B.B.0.B.C.B.C.C.V.C.V.V.8.V.N.V.N.V.V.V.V.V.V.C.V.V.V.8.V.V.V.V.9.V.V.V.V.V.V.V.C.N.C.V.N.N.N.V.C.V.N.N.V.B.B.C.B.V.B.B.B.C.C.S.V.V.C.N.S.C.N.S.V.C.N.S.B.C.A.C.C.C.C.C.A.A.D.N.N.N.N.N.B.N.N.N.V.N.B.B.B.B.B.B.B.B.D.N.N.B.B.N.B.N.N.B.B.B.N.N.N.N.B.A.N.N.N.N.N.N.N.A.N.A.Z.B.A.B.A.A.A.A.A.N.B.Z.B.v.6.v.l.v.v.z.v.l.c.x.v.c.x.v.v.v.v.N.6.N.v.6.v.6.6.N.6.N.b.U.XX#XXX#XXX#XXX#X>X#X#X#X#X#X#XXX#X#XXX#XXX#X#X#X#X#X#X#XoX#X>XoXXXXXXXXXoX#X#X#X#XXXXX#X#X#X#XoX#X#XXX#X#XoX#XoXXX>XXX#XXX>XXXoXXXoX XXX XXXXXXXoXoXoX XoXXXXXXX>XXXXXXX XXXXX>X#XXXXX XXXXX>XXX+XXXXXXXXXXXXX XXXXXXXXXXXXXXX X>X1XXX>XXXXX>XXXXXXXXXXXXXXX6XXX>X XXX>X X>XXX6X#XXXXXXX#X<XXXXXXXXXXXXXXXXXXX>XXXXX5Xd                                                                                 ",
"                                                                                  d cX2XXX#X.X2X2X@X2X.X@X2X2X.X#XXXXX XXX X X XXX X.X XoX,XoX X#X#XXX#X#X#X#X#X#X#X#X@X.XXX#XXX XK.A.B.C.8.B.B.C.N.C.B.C.V.V.B.B.V.V.B.B.B.B.B.B.B.B.B.B.C.B.C.B.V.C.V.N.V.C.V.V.V.V.V.V.N.V.C.S.B.V.V.V.V.C.V.C.V.N.V.V.N.V.V.B.B.B.C.B.B.0.B.B.B.0.V.B.C.V.V.V.C.V.B.B.C.C.V.V.V.C.V.N.C.B.V.N.S.S.C.V.V.C.N.S.C.S.C.C.C.C.S.S.C.C.C.C.V.C.S.C.C.S.C.N.C.S.V.C.V.V.S.C.S.C.B.C.V.C.V.V.S.V.V.S.V.C.V.V.V.C.V.V.V.9.C.9.B.V.V.0.C.C.0.0.C.V.A.V.C.C.N.C.V.B.V.V.V.C.0.B.0.C.0.8.C.C.9.C.9.V.C.V.N.V.V.V.N.V.C.V.9.V.8.8.V.8.V.N.9.8.V.V.V.V.8.V.V.V.V.V.N.V.N.V.V.N.V.V.V.N.C.B.B.B.B.C.B.N.V.S.V.N.C.C.C.C.N.V.S.S.N.V.N.S.B.C.B.B.D.B.C.V.N.B.N.B.B.N.N.b.7.7.b.N.b.N.N.B.B.B.b.B.N.N.N.B.N.N.B.N.A.B.B.B.B.B.B.B.B.N.N.B.A.C.N.B.B.A.B.S.B.A.A.Z.Z.A.B.A.A.A.B.A.A.D.b.6.x.v.x.x.v.v.z.v.v.v.z.v.6.v.b.v.6.6.6.6.7.7.6.7.6.7.7.v.I.XX#XXX#XXXXX#X#X#X#X#X#X#X#X`.>XXX#X#X#XoX#X.X#XXX.X#X#XXXXXoXoXXXXX#XoXXXXX#X#XXX#XXX#X#XoX#XXX#XXX#XXXoXXX#X#X`.XX>XXXXXXXoXoXXX XXXXX`. XXXXXXXoX XXX X XXXXX XXXXXXX>X<XXXXXXXXXXXXXXXXXXXXX>XXX>XXXXXXX>X+X>X XXXXXXX+X>XXXXXXXXXXXXXXXXXXXXXXXXX#X>X+XXXXXXXXXXXXXXX>X XXX<XXX<X#X#XXX6XXXXXXX#XXXXX6XXXXXXX#X5XH                                                                                 ",
"                                                                                  D cX<X2X#X#X@X@X2X@X2X@X@X<X2X#X#XXXoX XoX.X X XXX XoX XoXoX.X<X#X@X#X#X#X#X#X#XXX@XXX.X2X.X#X<XD.B.V.V.C.B.C.B.B.B.B.C.N.B.V.V.V.N.B.B.C.B.B.B.0.0.B.B.B.B.B.C.S.V.V.N.V.N.V.V.N.N.V.B.S.V.V.V.V.N.V.N.B.N.V.V.V.N.C.V.B.V.V.8.B.B.B.C.B.B.B.0.B.B.V.V.V.C.N.C.B.C.S.S.B.V.B.C.S.S.C.S.B.S.S.S.C.C.S.N.C.S.V.C.N.B.S.C.S.C.C.V.C.C.S.C.S.C.S.C.S.C.C.C.V.C.C.N.C.V.C.N.V.C.V.S.B.V.N.C.C.C.B.C.V.C.B.C.V.9.V.V.C.C.V.C.V.V.V.C.B.C.C.B.C.V.C.C.V.V.C.B.C.B.B.V.B.B.0.B.C.B.C.C.C.V.C.V.V.V.V.V.C.N.V.V.V.V.9.V.V.V.V.V.V.V.8.8.V.V.V.V.8.V.V.8.V.V.V.V.B.V.V.B.S.V.C.N.N.V.V.B.C.B.C.B.C.B.V.B.N.V.V.S.V.V.C.V.N.V.B.S.S.V.B.A.B.B.B.C.B.B.V.B.B.N.b.N.N.N.N.N.N.N.7.N.b.B.7.B.N.N.N.B.N.N.N.B.N.B.B.B.B.B.B.B.B.B.B.B.B.C.N.N.N.N.B.B.S.N.A.b.Z.B.A.Z.A.A.A.A.Z.A.N.A.v.x.x.6.v.v.x.v.v.v.v.m.x.v.v.v.v.6.v.6.N.N.6.v.6.v.6.6.v.x.J.<XXXXX#XXXoX>X#X#X#X#XXX%X#X>X.X#X#X#XoX>X.X#X.X#X#X#X#X#XXXXXXX#XXXXXXX#XoXoX#XoX#XoXXX#X.XXX#XXX#XXX#XXXoX>XXX>XXXoXoX>XXX>XXXXXoXXX X>XoX+XXXXX XXXXXXX X>XXX X>XXXXXXXXXXX X>XXXXXXXXXXXXX>XXXXX+XXXXX>XXXXXXX XXXXXXX>XXXXX X>X XXXXX X>XXXXXXXXXXXXXXXXXXXXX>XXXXXXXXXXXXX>XXX#X#X#X#XXXXXXXXXXX6X#XXXXXXXXXXX5Xf                                                                                 ",
"                                                                                  d cX$X2X2X2X#X#X<X$X#X2X#X2X2X.X.X<XXX X XoXoXXX XXX XXXXXXXXXXX#X$X#X#X#X$X2X#X#X#X#XXXXX#X#X XK.B.V.A.9.V.V.B.A.V.B.V.B.B.V.0.V.B.C.C.V.V.B.C.B.C.C.C.B.B.C.S.C.A.C.S.C.C.C.C.C.C.V.B.C.V.V.V.V.V.V.V.V.V.B.V.V.0.8.8.B.V.B.V.B.B.C.0.B.B.B.C.B.B.V.V.V.V.8.C.C.C.C.C.S.C.A.C.C.N.A.C.S.B.C.A.C.D.C.C.B.B.C.C.A.S.V.S.D.D.C.D.C.C.D.D.0.C.C.C.C.C.0.C.C.V.V.V.C.S.V.C.C.C.C.V.9.C.V.S.C.A.C.C.C.0.0.0.9.9.C.C.C.C.C.C.B.C.C.C.V.8.V.V.V.B.0.V.C.C.A.C.C.C.A.V.C.C.C.8.8.0.B.0.8.C.C.C.V.V.V.V.B.C.C.9.V.V.0.C.9.C.9.C.C.0.B.C.V.8.V.C.0.B.8.B.0.V.B.B.8.V.V.C.V.V.V.V.B.B.B.C.C.V.V.B.C.C.V.C.V.V.V.V.B.C.C.A.B.B.V.V.V.N.B.V.N.N.S.C.8.B.A.A.N.V.N.7.N.6.b.b.0.B.B.b.N.7.V.N.8.b.B.V.B.A.C.B.B.A.B.B.B.B.B.B.B.B.B.A.N.A.b.A.B.N.B.A.B.B.B.A.D.D.C.T.C.T.B.A.A.B.A.A.N.v.x.x.v.v.v.m.x.c.v.x.v.x.v.v.6.q.N.N.6.6.7.6.6.6.6.b.6.m.I.XX#X#X#X#X#X#X%X#X#X#X#X#X#X#X#XXX#X#XXXXX#XXXXXXX#XXXXX#XXX#XXXXXXXXXXXXXXXXX#XXXXXXXXX#XXX#X.X#X#XXX#XXX#XXX#X#X#X#X#XXX#X.XoXoX X X.XXXoXXXoXXXoX XoXoX XXXXXXXXXXX>X XXX>XXXXXXXXX XXXXX<XXXXX>XXXXXXX+X>XXX X>X X X#X>X#XXXXXXXXXXXXXXXXXXXXXXXXXXXXXXXXXXXXXXXXX X#X XXXXXoX>XXX#X X>XXXXX6XXXXXXXXXXXXXXX<X<X3Xp                                                                                 ",
"                                                                                  D cX2X<XoXXX#X#X$X2X#X$X@X.X@X.X2XXX XXXXX XXXXXXXXX X XoXXXXX#X#XXX#X$X@XXX.X#X#X#X#X#X$X#XXX XI.B.C.C.B.B.N.V.B.A.C.A.B.B.V.B.V.B.N.V.B.V.V.N.B.N.B.N.S.B.B.C.A.S.N.N.A.B.C.V.N.V.V.B.C.C.C.B.V.V.C.C.V.V.V.C.0.V.B.7.V.B.A.B.V.0.B.A.N.B.B.V.B.N.N.V.V.V.C.C.C.V.N.B.C.C.S.S.C.C.V.C.S.S.C.N.S.C.D.V.V.V.V.C.C.A.V.V.D.C.C.C.C.C.C.A.C.C.C.C.C.C.0.C.C.C.C.C.V.C.V.V.V.C.C.9.C.9.C.C.B.B.C.9.C.R.0.0.0.C.9.9.9.0.V.8.9.V.C.C.C.V.V.C.C.V.B.C.C.C.V.9.9.9.9.C.C.9.V.V.V.V.V.C.8.9.9.V.C.V.8.V.8.C.9.C.V.V.V.C.0.9.C.8.8.8.0.8.9.V.8.B.B.C.V.C.C.9.C.C.C.8.N.9.9.C.V.V.V.V.0.8.C.V.V.V.V.8.B.C.0.B.C.B.B.B.B.V.V.B.V.V.N.V.V.V.V.V.B.S.B.N.V.B.c.b.b.b.6.b.M.8.6.b.6.b.b.N.6.8.6.6.6.6.6.B.6.c.b.B.B.b.b.B.C.B.b.B.B.b.B.b.b.N.N.A.B.B.B.B.T.B.N.B.B.B.b.B.A.M.Z.N.Z.A.q.v.v.v.v.x.v.v.v.v.v.v.m.v.v.v.b.v.v.v.v.v.6.7.v.7.6.v.N.x.I.XX#X#X#X>X#X#X#X#X#X#X>X#X#X#X.X#X.X#X#X#XXX#X#X#XXX#X#X#XXX#XXXXXXXXXXXXXXXXXXX#XXXXXXX#X#X.XXXXXXX#X#X#X#X#XXX#X#XXX#X#X#X#X.XXXoXXXXXXXXXoXXXXXXXXXXXXXXXXXXXXXXXXXXXXXXX+XXXXXXXXXXXXX+XXXXXXX X>X+XXXXXXXXXXXXX X XXX X XXXXXXXXX XXX#X#XXXXXXXXXXXXX#XXXXXXX#XXX>XXXXXXXXX XXXXXXXXXXX XXXXXXXXXXXXX#X#X<X2X2X3Xd                                                                                 ",
"                                                    GXD GXp D H GXD p D D GXH D p } cX>X5X5X5X5X5X5X5X>X5X5X>X5X5X>X#X>X>X6X>X6X>X$X#X>X>X>X>X>X>X5X>X>X5X>X>X>X6X5X>X2X>X5X>X>X#XI.D.A.D.D.T.D.K.A.D.T.A.T.K.D.D.D.K.A.K.D.D.K.A.K.K.T.K.D.K.D.T.A.D.K.D.D.K.D.T.D.D.T.D.T.D.D.D.D.T.D.T.D.D.T.D.T.T.D.D.T.D.D.K.D.T.T.A.K.K.D.T.D.K.D.D.D.D.D.T.D.D.D.D.D.D.D.D.D.D.K.D.K.K.D.D.D.L.D.R.D.K.D.D.T.T.C.R.Y.Y.,XE.Y.Y.1XY.E.1XY.E.E.Y.E.Y.Y.Y.Y.R.Y.Y.P.Y.R.Y.L.Y.P.Y.Y.L.D.L.D.T.T.T.D.T.D.T.T.D.R.Y.D.T.D.D.D.T.D.T.D.D.D.D.S.C.D.D.D.C.C.T.D.D.D.D.D.S.S.D.D.D.S.D.D.D.T.D.D.T.T.T.C.C.C.T.A.D.C.T.D.D.D.D.D.C.T.A.C.C.C.D.T.D.A.T.C.D.T.D.D.D.T.T.T.T.T.D.D.T.T.D.T.D.T.T.T.T.T.D.T.C.T.D.B.B.B.B.C.V.S.C.S.A.S.B.V.A.A.A.D.K.+X+X+X[.+X+XY.].+X+XY.+XY.+X+X+X+X+X+X+X+X+X+X+X+X+X].+X+X+X+X+XY.+X+X+X+XY.+X+X+XY.+X+X+X+X+X+X+XY.+X+XY.+XY.+X+X+X[.Y.Z.x.v.v.v.x.c.v.z.v.x.c.m.v.v.v.v.N.v.N.6.N.6.v.b.v.N.7.6.v.}. X#XXX#X#XXX#X#X#X#XXX>X#X#X#X>XoX>XXX#XXX#X#XXXXX#X#XXX#XXXXX XXX X XXXXXXXXXXXXXXX>X+X.X.XoX X X XXXXXXXXXXX X X X XXXXX XXXoXXXXXoXXXXX XoX X XXXXXXX X X+X>XXXXX X X+XXXXXXX X X X XXX>XXX X+XXXXXXXXX>XXXXXXXXXXXXX X X X X1XXXXX X X X X X1XXX X XXXXXXXXXXX XXXoXXXXXXXXXXXXX XXXXX X X>XXXXXXXXX<X>XXX#X<X@X2Xf f D f H F f F F F F F F f H GX                                                  ",
"                                                  GXtX4X2X4X4X*X4X*X).*X*X=X4X4XfX:XK J ^ ^ ) ^ ) ^ ^ ) ) ^ / P ^ ) ^ ) ) ^ ) ^ ) ^ ) ^ ^ ) ^ R ^ ^ ) / ) / ^ ^ ) ^ / ^ ) / ^ ) ^ t.f.2.p.2.2.2.2.2.2.2.2.p.2.2.p.p.p.p.s.i.2.i.2.i.<.r.2.i.i.d.i.2.p.2.i.p.2.,.2.,.d.i.i.2.2.1.2.2.2.2.2.2.1.1.1.1.1.2.2.2.i.2.p.2.2.3.2.u.2.,.2.2.<.2.,.1.p.2.2.2.c.2.p.p.p.l.p.2.l.p.2.2.p.2.p.p.p.2.2.1.1.p.2.2.l.p.a.] ` ] ` ` ` ` ` ` W W ` ` ` ` ' ` ' ` ` ` ' ` ` ` ` ' ' ` ` ' e.p.5.5.5.2.1.1.5.2.2.5.2.2.2.1.2.2.2.2.1.1.2.2.l.2.2.p.2.2.2.2.1.2.2.2.1.1.1.1.2.2.2.1.1.2.2.5.2.1.2.1.3.1.2.2.2.2.1.1.3.1.1.1.1.1.2.2.2.2.2.2.2.1.1.3.1.2.2.2.1.2.1.1.2.2.2.2.1.3.2.1.2.2.2.p.2.2.2.2.2.2.4.5.4.2.3.1.v.v.6.7.v.x.N.x.N.v.N.v.N.b.N.K.! R ^ R R R ^ ] ] ) R ] R ) R ) ] ) R ) ) R ] ] ) R ( U ) ] ] ) ] ) ] ) ) ] ) ) ] ` ` ) W ) ] ) ] ] ` ) ] ` ] ) ` ] ] ) ~ s.m.x.v.x.m.v.c.v.v.z.z.v.l.x.v.b.v.N.b.N.v.N.6.N.N.N.b.N.b.Y. XXXXXXXXXXXXXXXXXoXoXXXXXXXXXoX X XXXoXXX XXX XXX XXX XXX XXXXXXX XXXXXXXXXXX XXXXX XXXXXXX{.{.+X[.[.}.[.+X[.+X}.+X}.[.[.[.+X{.+X X{.{.{. X{.}.+X].{.{.{. X X]. X XoXoXXX X XXX+XXX XXXXX XXXXXXX>X XXXXX+XXXXX XXXXXXX+XJ.K.K.I.P.Y.Y.[.P.Y.K.Y.Y.P.[.+X X X+X X X X{. X+X X{. X{. X X6XXXXX XXX XXXXX X XXXXXXX<X.X2X3X5X2X4X2X4X2X2X2X2X2X2X3X3X/.GX                                                ",
"                                                  D ).2X<X2XXX<XXX2XXX#X<X.X2XXX>X>XU U U U P P P P J U J J J U P P K L L L L L P P P P P P J U / L U Y U J U J P U P J ..J U P K ` k.<.,.i.i.;.e.r.u.e.u.;.;.u.:.;.e.;.r.e.e.e.;.e.e.e.e.r.e.e.e.;.;.;.;.;.;.e.;.e.e.e.e.e.;.;.;.>.;.O.>.>.o.>.;.O.;.>.-.o.;.o.-.;.o.-.o.e.%.e.;.w.o.e.;.o.i.,.,.<.;.;.,.;.,.,.,.,.;.,.>.,.,.;.,.;.,.>.>.,.,.>.<.,.2.p.[ T T Y T Y Y Y T Y Y Y Y Y Y Y Y Y Y Y U U U Y U U U U Y Y J T ` e.3.,.u.e.;.+.;.,.;.,.o.o.,.,.e.,.;.u.;.,.,.;.,.;.;.,.,.o.>.;.,.,.e.,.e.;.,.,.,.u.,.u.,.<.,.;.,.;.;.;.>.,.,.;.:.;.>.>.,.>.,.,.,.;.>.,.3.<.;.,.,.>.<.,.,.;.,.>.>.,.,.3.>.,.;.>.;.,.,.;.<.<.<.<.<.>.,.>.,.,.<.,.,.,.,.O.c.v.x.x.q.6.6.5.6.6.q.5.5.6.6.I.E / / P P P L L I U P J P L J L P P P P U P P L J J J J J U J J L U J Y U K U K J K Y K Y Y K K Y K K Y K K K Y Y Y Y K T k.m.v.c.v.z.v.m.z.v.m.v.m.z.v.v.v.N.v.N.v.v.N.v.N.N.v.b.N.N.J. XXX X XoX XXX+XXX X X X X X X X X X X X{. X X X X X X X X X X XXX X X X XXX XXX XXX X XoX X}.I.K.I.I.K.L.L.L.K.L.I.K.I.K.K.I.[.].{.{.].{.].+X[.[.[.[.[.{.[.}.{.{.{. X X X X X XXX X+XXX X XXX XXX X+X>X XXXXXXX XXXXX+XI.A.B.0.D.B.B.A.T.B.B.T.A.A.M.K.+X{.{.}.}.}.{.{.{.{.].+X{.{.{. X+XXXXX X X X X X X X X X X X{.XX<X<X X X XXX XXX<X<X X<X X<X/.i                                                 ",
"                                                  D ).@X@X.X.X.X.X@X@X#X#X#X#X2X>X`.K U ..P P P P P J U U U U P P P L / L L L L U J J L U U U U L L J J U U U J L J U U P P I U Y ' i.2.i.u.i.i.r.i.i.i.i.i.i.e.r.y.e.y.r.e.y.t.y.e.e.r.r.w.e.e.w.e.w.e.w.e.e.e.w.o.&.e.e.w.w.$.X.-.o.-.;.>.-.o.o.X.o.X.o.o.-.$.$.e.e.e.e.w.w.t.e.e.w.w.;.o.i.:.u.i.i.u.u.r.u.i.u.u.u.u.i.,.,.;.,.2.u.i.i.,.,.u.<.3.;.i.[ T U U Y Y Y Y Y Y L Y Y U L U I U L L P P U P P P P I U U U Y ` e.o.o.o.o.;.;.,.o.;.o.%.e.;.o.e.u.o.e.e.;.;.o.o.o.o.e.o.o.e.a.u.,.e.u.u.u.u.,.,.,.u.e.u.u.,.;.,.;.,.e.e.e.;.u.:.:.r.i.;.u.;.;.;.u.u.e.i.;.;.;.;.i.;.;.:.,.;.;.:.;.>.;.,.;.;.,.,.>.;.;.;.e.,.e.<.;.:.;.>.;.;.;.>.,.o.O.n.x.5.6.x.x.x.6.x.v.x.6.v.x.5.I.^ / { P P P J P P P P P J P P P J P P P U J P J P P P P J J J J L J J J J J U J J U U J J J J J U U U U L L Y U Y J J J R k.G.c.m.z.c.m.c.m.c.c.c.c.v.z.x.b.b.N.v.7.N.v.b.N.b.N.N.v.v.J. X X X X X X X X X X X X X X X X X X{. X<X X X X X{.<X X{. X X X X<XXX X X X X X X X XoXXX X+XI.K.T.K.L.T.L.L.Y.K.D.K.D.K.K.K.[.[.[.[.[.I.[.[.[.[.[.[.[.}.}.{.{.{. X{.{.].{.{.{. X X{. X XXXXXXX XXXXX X+XXXXXXX X XXXXXY.B.B.T.C.T.T.B.B.B.B.B.0.8.V.A.P.[.[.[.{.+X{.+X+X{.}.}.[.}.{. X X X X X XXX X X X XXX X X X X X<X<X X X X X X X<X<XoX X{.<X(.i                                                 ",
"                                                  GX).<X@X.X@X2X@X@X#X@X#X#X#X@X>X`.J U U U P P J J P P J U P P P P L L L L L L U U U J U U U J U U L L L L L L L U U J J U U U ^ ` a.u.u.u.,.i.i.i.u.e.,.u.u.a.r.r.e.y.y.e.e.e.y.;.e.;.w.e.e.e.e.e.;.e.e.e.%.%.%.%.$.$.$.&.e.%.o.o.X.o.X.o.o.o.o.o.o.-.o.o.%.e.e.e.$.o.$.%.e.w.$.e.e.e.$.o.a.;.u.<.u.u.i.,.u.,.u.<.u.,.,.,.<.,.,.,.,.u.,.,.<.,.:.:.r.h.k.T Y U U U Y U U L L L L U U U I I U / I P I I U U I I P I U J ` r.t.u.u.%.%.;.+.o.%.,.o.u.e.+.o.+.;.o.o.o.u.u.u.e.o.o.o.o.+.a.,.,.+.,.;.+.,.+.,.,.+.u.u.,.u.o.;.e.+.e.,.u.u.;.;.;.;.;.e.,.u.;.,.;.;.,.;.u.;.,.,.;.,.,.>.,.;.,.,.;.:.;.;.;.;.,.;.>.+.;.,.;.;.,.,.;.,.:.;.;.:.,.,.;.,.,.c.x.x.6.x.6.x.x.x.x.x.x.c.v.v.J.] P P U P P U P P / J P / P P J P P I P P ..P P P P J U U U J U P J J U J J J U J J J J J L K J U Y Y J U J L J J J U J T k.m.z.z.m.m.c.m.z.m.z.c.m.c.m.x.m.N.v.v.b.v.N.v.N.v.N.v.7.N.I. X X X XXXXX X XXXXX XXX XXX XXX X X X X X X X X X X X X X X X X X X X XXX X{.XX X X XXX#X X{.I.Y.L.K.K.K.L.T.K.K.K.K.K.K.P.Y.}.[.[.[.[.[.[.[.].].+X].[.[.[.}.{.{. X]. X X{.{. X{. X{. X XXX1X X>X X XXXXX>X+XXXXXXX+X+XP.M.B.B.B.B.8.8.B.B.B.B.B.B.B.T.Y.[.[.[.}.[.}.}.{.+X+X{.[.[.{.{. XXX X X X X X X X+X X X{. X X X X X X X X X X X X X{. X<XXX).GX                                                ",
"                                                  GX*X2X2X.XXX#X2X@X@X#X#X@X#X#X>XeXJ U ..U I ..P P J P J U P P L L L L U U P L U U P U J P U J L J L L J L P L U U U U U P U U L ` y.,.i.<.:.i.i.:.<.<.i.i.2.i.r.e.e.e.e.e.y.e.r.w.r.w.y.r.w.r.;.w.e.$.e.w.w.%.e.$.%.e.%.$.$.$.o.o.o.O.o.o.o.X.X.o.o.o.o.o.e.e.e.$.e.%.e.$.e.&.$.%.$.%.%.o.i.,.<.u.<.<.u.;.;.,.,.;.,.i.,.u.,.<.,.<.<.,.i.u.<.u.i.:.:.h.[ T U Y Y U U U U L L U U U L L I U I I U P I I I I ..I I I I Y ` y.u.;.,.;.o.e.e.e.o.e.;.u.%.e.%.e.+.%.u.;.o.%.o.+.%.+.o.,.e.u.u.,.,.u.,.u.,.;.,.,.,.;.e.u.,.;.;.,.e.;.,.;.,.;.u.,.;.,.;.,.;.,.e.,.e.,.,.;.,.;.;.,.;.,.;.,.;.,.;.,.e.,.,.;.,.e.,.u.;.,.;.,.,.>.,.,.;.u.u.;.u.;.,.;.,.O.m.x.x.x.x.x.x.x.x.x.x.x.x.v.c.I.R J P L L { L L J P / ....I P P P P P P P P P P P U J J U J U J J J J J J J U J U J Y J L L L / L L J U L L L L L / / U R k.m.v.x.m.c.m.n.c.c.m.c.z.c.z.v.v.v.N.N.N.6.N.N.v.N.b.N.N.N.].{.XX XXX X X X X{. X X{. X X X X{. X X X X{. X<X{.{.{. X X+X X X X X XXX X XXXoX X X X X X X}.P.K.A.K.T.K.K.K.K.K.K.L.L.K.K.K.Y.].[.[.I.Y.[.[.[.[.P.+XI.].[.{.{. X{. X{. X{. X{.{.{.{. X+XXXXX>X X XXXXXXXXX XXX X X>X XP.A.0.B.C.B.B.B.T.B.B.B.B.B.A.K.[.}.[.}.[.}.}.+X{.}.}.{.+X{.{.{. X X X X X X X X X X X X X X X X X X X X X X X X X X{. X X<X).GX                                                ",
"                                                  D ).%X#X#XXX#X.X#X#X#X#X#X#X#X#X>XK J P P P P ..U U U U U P P L P L P U J L L U U U U U U U U U P U J P P U P P U P U P I U P J ` k.e.,.i.;.:.;.<.<.,.i.i.u.i.a.e.t.w.r.r.t.w.w.r.y.r.y.w.w.e.o.e.e.w.e.w.e.%.%.e.e.%.%.$.%.$.X.o.X.o.o.X.o.-.o.o.o.o.o.o.;.$.e.%.e.o.e.e.e.w.e.%.%.&.%.o.a.,.i.,.i.,.<.u.<.u.u.:.,.u.<.u.i.,.<.,.<.u.<.i.,.,.i.>.2.,.k.T U I U ^ Y / Y / U L L U U U U I U U U I I I I P P I / I L Y ` t.o.,.%.e.o.u.o.,.%.e.u.,.%.%.,.%.u.e.%.,.%.,.+.%.%.+.o.e.u.u.+.e.,.u.,.,.;.,.,.+.e.u.,.u.e.,.o.,.;.;.;.;.;.;.,.e.,.e.e.;.,.;.+.e.,.;.%.,.e.,.;.,.;.,.,.;.,.;.;.,.%.u.;.u.;.,.u.;.,.;.,.;.,.;.,.;.u.,.u.;.u.;.e.;.,.,.m.x.x.x.x.x.x.x.x.6.x.x.x.x.l.I.) J J J L / / { P P P P ..P P P P P P I ..I I P P ..P P U U J J J J J J J J J J J / J J J / / / L L L / L L L J L L / ^ T k.n.m.x.z.z.m.c.c.n.c.n.z.m.z.v.m.N.b.N.7.N.v.N.N.N.b.b.7.v.[. X X X XXX XXX X X X X X X X X X X X+X X{.<X X1X X{.{.{.{. X X X XXX X XXX XXX XoX X X XXX X+XH.K.K.T.L.K.K.L.L.L.K.K.L.K.I.P.[.P.[.[.].Y.[.[.].[.[.[.[.[.}.{.{. X X X{.{. X]. X X{.]. X X XXXXX>X X X X X XXXXXXX X>X+XP.Z.B.B.B.C.B.B.B.B.B.B.B.B.A.A.P.[.}.[.{.[.{.}.}.}.}.+X{.[.{.{. X X X X X X X X X X XXX X X X+X X X{.oX X X X X X{. X X{.<X(.GX                                                ",
"                                                  m *X@X#X#X#X.X#X@X@X#X@X@X#X#X#X:XK J P P P P U U J J J P P J L L L L L U L U J U J J U U P J U J U U P P P P P U P P I I U U K ` k.e.i.i.i.,.i.i.r.i.i.i.,.u.t.e.r.w.r.w.r.r.r.r.w.e.r.e.r.w.e.w.e.e.e.e.$.%.&.%.$.e.%.%.$.o.o.-.o.o.o.o.O.o.o.o.X.-.-.o.e.$.w.w.e.e.t.w.e.&.%.$.$.e.w.o.e.u.,.u.u.;.,.u.u.<.<.u.,.,.;.,.,.<.,.<.,.u.u.,.u.r.,.,.:.,.k.T I U Y L / L U U U U U L U U U I I I U U U I I I I I / I I Y ' e.u.o.+.o.;.e.e.e.;.u.%.,.,.o.+.;.%.e.u.%.,.%.e.u.%.o.o.+.o.a.,.,.,.,.,.u.,.,.,.e.,.,.e.u.u.u.,.o.,.u.;.,.u.o.o.,.,.;.,.;.e.,.e.u.e.u.u.;.,.;.,.%.,.;.;.u.,.;.,.u.,.;.,.o.,.;.o.,.;.u.>.,.;.,.;.,.,.e.e.,.u.,.,.;.i.O.m.x.x.x.v.x.x.x.x.x.q.x.v.x.c.I.R K J P J J J / P I ..I P P P P ..P P P I I ..P P P P P ..U U ..J J P J J J P J J J ^ J / J J J J L L J L ^ J U K / L J T F.c.m.z.x.m.c.z.m.z.m.c.m.z.v.v.N.v.N.N.v.6.N.N.v.v.N.N.N.v.I. X XXX X X X X X X X X X X X X X X X<X X X<X X{.{. X<X X X1X X X X X XXX X X X X X X XoXXX{.{.I.L.K.K.K.T.K.D.K.K.L.S.L.L.K.K.P.[.[.[.[.[.[.[.[.[.[.[.[.[.}.{.{.{. X].{.{.{.{. X X X X X X XXXXX X X1X>X X>X XXX X XXX XP.A.B.V.B.0.B.C.B.T.b.B.T.B.Z.T.[.+X}.[.[.+X}.}.[.{.[.{.[.{.{. X X X X X X X X X X X X X X X XXXoX X X X X X XoX X X{.{. XXX(.GX                                                ",
"                                                  i *XoX#X.X#X#X#X#X@X#X#X%X#X#X:X:XT J I P P P P P P J U P U U P P U P U L L U J U U J J U U U U J U J U U U U U U U U U P J U J ` a.r.i.u.i.i.i.i.e.i.r.u.,.i.i.;.e.e.y.e.w.r.r.w.:.w.w.w.:.r.;.w.e.%.&.e.t.$.e.$.%.&.e.%.%.$.o.o.o.o.o.O.o.o.-.o.o.o.o.o.e.e.e.$.e.w.$.w.w.e.e.%.%.%.%.o.e.<.,.,.<.,.i.,.,.<.,.;.;.i.,.u.,.,.;.,.<.,.,.i.<.u.,.<.,.p.k.T I U I L / Y / U I I U I U I U I I I I I I I I P I I I I U ^ ` y.e.,.t.e.o.o.;.e.;.%.u.%.e.e.e.e.o.+.o.;.u.o.o.e.o.;.u.o.;.u.,.;.+.,.,.e.,.+.,.,.u.+.+.u.u.o.%.,.,.o.;.,.;.,.;.,.,.e.u.,.e.,.,.+.e.,.,.;.u.o.;.+.e.,.u.,.;.,.;.;.,.;.,.e.e.+.,.e.+.e.,.,.,.,.;.,.,.u.u.;.;.u.;.,.>.,.v.x.6.x.x.x.x.x.x.q.x.x.l.v.c.[.) J P J P J / P P P P ..P P P P P P P P P ..P P P U P ....U J J J J J J J J P J J J J J J ..J / / Y J ^ L L L L L L L L T F.g.c.v.m.z.c.z.m.m.z.c.c.n.c.c.Z.v.v.N.v.N.v.6.N.N.N.N.6.b.].{.XX X X X X X X X X X X X X X X{. X X X{. X X X X{. X{. X+X<XXX X X X XXX XXX{.oX X X XoXXX{.H.K.K.K.K.K.L.K.K.L.D.K.K.K.L.K.[.[.].[.Y.[.].].[.[.[.].[.[.}. X X X{.{. X X{. X XXX+X{. X+X>XXX+X>X X>X X>X XXX+X X1XXX X[.Z.B.B.b.B.B.B.B.B.B.b.B.B.A.K.Y.}.}.[.[.}.[.[.[.[.[.}.[.+X}. X<X X X X X X X X X<XXX X X X X X{.{.oX X{. X X}. X X{.oXoX<X(.b                                                 ",
"                                                  m *X@X#X#X.X#X#XXX$X@X#X#X#X#X>X:XK J ..P P P ..U U J P J U P L P P L P P P J U U J U U P J U U U U J U J J U J U U U I P U U Y ` a.i.i.e.,.e.u.e.i.i.r.i.u.i.a.;.e.e.e.r.w.t.w.r.e.e.r.;.w.;.;.e.e.w.e.e.e.%.%.e.e.$.e.&.e.$.o.o.X.o.-.o.o.X.O.X.o.o.o.$.e.$.e.e.$.e.%.e.%.e.$.%.$.t.$.o.i.u.e.<.u.;.;.,.u.;.<.u.,.i.,.,.,.;.,.,.,.i.u.,.u.<.i.,.,.i.k.T I U Y / / L / I U I I I I U U U U I U I U U I P I P / / / / ` y.u.;.e.;.u.;.+.o.;.u.o.u.%.+.%.u.u.o.e.+.%.e.+.e.u.o.o.o.,.u.u.,.e.,.,.,.,.,.+.;.u.u.u.u.u.,.;.;.;.;.,.o.u.;.u.e.,.;.;.e.+.;.u.;.u.e.e.,.,.;.;.;.,.e.e.e.,.o.,.u.o.;.;.,.e.e.;.u.e.,.;.;.,.;.,.,.;.;.,.u.,.;.,.;.u.+.m.v.6.x.v.x.x.q.6.l.x.l.v.v.c.Y.R J P J J / / ..P P P P P P P P P P I ..I ..P P P ..P U U ..J J J J J J J J J ..P J J P ^ P L J Y J J Y J J L L J L L J ^ k.n.c.c.z.m.x.z.n.c.c.z.m.z.v.m.b.N.N.v.N.v.N.N.v.N.b.v.N.N.I. X X X X X X X X X X X X X X X X<X X X{. X X X,X{. X<X{. X<X+X X X X XXX X X XXX X X XoX X X{.P.K.K.K.T.K.K.K.K.K.L.K.D.L.K.P.P.P.[.[.[.I.[.+X[.[.[.[.+X[.[.].{.{. X X X]. X{. X]. X{.{. X XXXXX X X XXX X XXXXXXXXXXX1XP.b.B.B.0.C.0.b.B.B.B.8.B.B.A.A.+X[.[.[.[.[.[.[.[.{.}.[.[.}.{.{. X X X X X X X X X X X X X X X XoX X{. X XoX X X X{. X X X<X/.D                                                 ",
"                                                  D *X.X#X#XXX.X2X.X#X#X#X#X#X#X>X>XK K J J P P U U U U P P P P P J U U L J L P U J U U U J U U J U P P U U P P U U U U U U U U K ` a.r.a.e.r.i.:.i.u.i.r.i.,.i.r.e.r.w.w.y.e.e.r.e.e.r.e.-.e.e.;.$.e.;.%.e.t.%.%.%.&.e.e.$.%.%.-.o.o.o.o.X.O.-.o.o.o.o.o.o.e.w.e.%.e.$.w.e.$.w.%.e.&.%.$.o.i.,.<.,.u.<.u.,.,.,.,.,.,.i.,.,.u.,.,.,.,.<.<.r.u.<.<.<.,.i.k.T I / / / / L U U U U U U U I I U I I I I I I U U P I P / P ^ ' y.e.,.u.e.u.o.e.o.u.e.%.u.+.e.e.+.o.e.%.%.,.%.o.e.,.e.e.+.o.u.u.,.,.u.u.,.,.,.+.;.u.,.u.e.a.o.,.;.o.;.,.;.e.,.;.,.;.e.;.,.;.,.u.e.u.,.,.,.;.+.,.;.,.,.,.;.,.;.,.e.u.u.u.,.;.u.,.e.u.;.,.,.;.,.,.;.,.u.e.u.,.e.,.;.;.,.c.v.x.x.x.x.x.l.x.6.x.l.x.v.l.Y.Y Y P P ..P P U ....U U P P P P P P P ..I P ..P P J U ..U J J J J J J J J J J P J J J J J L J J Y J Y J Y ^ L J U J L L ^ H.c.z.z.c.z.m.v.v.c.n.m.c.c.z.x.m.N.x.N.v.N.v.b.v.N.v.b.7.v.I. X X X X X X X X,X X X X X X X X X X{. X X{. X X{.{.{. X{. X{. X X X X XXX XXX XXX X X X X X{.I.L.K.K.K.T.K.T.K.K.L.K.L.K.K.K.P.[.[.[.[.[.I.[.[.[.[.[.[.].[.}. X{. X{.]. X X X{.{. X X{. X X>X XXXXX XXX>XXXXXXX X XXX+X[.N.b.8.C.6.B.b.T.b.0.T.B.B.A.K.P.[.[.[.[.[.}.}.[.{.[.}.}.}.{. X X X X X X X X X X X X X X X X XoX{. X X{. X{.oX X X X{.{.@X/.GX                                                ",
"                                                  i ).@X#XXX#X#X#X@X#X#X#X@X@X#X>XlXT J P J I ..U ..P P P P P U U U U P L U U L U J U U U J U U J U U J J U J U U P U P P U U J J ' a.e.i.e.u.i.i.e.e.r.u.i.u.i.a.e.e.r.e.r.r.e.e.e.e.e.e.e.;.e.e.e.o.e.e.e.$.e.e.e.%.e.%.%.%.%.o.o.X.o.o.o.o.o.o.o.o.X.$.%.$.e.$.e.o.;.e.%.%.e.e.$.e.$.-.o.u.,.,.u.;.,.,.<.u.e.u.e.,.u.u.,.,.,.,.,.,.,.,.,.<.,.<.<.u.u.k.T Y Y / Y / L U U U U U U U U U I I U I U I U U I I P / P L Y ` t.;.>.e.;.o.e.%.;.u.o.u.%.e.%.e.%.u.,.e.,.,.e.e.%.e.o.o.;.,.u.,.,.,.,.,.,.,.,.,.u.u.e.u.+.u.;.;.;.,.+.;.;.,.;.,.;.o.,.,.;.,.;.>.,.;.;.;.;.;.;.;.;.;.u.u.u.e.,.e.+.,.o.,.e.u.u.;.,.;.u.<.;.<.:.:.<.;.,.,.;.;.,.;.,.;.+.m.x.x.v.6.x.x.6.6.v.x.x.x.x.c.[.R J J L U P P ..U U ..P P P P ..P P P P P P P P P J J J J J J J J J J J J J J J J J J J J J ^ Y J J J J J J L J K U L J T k.c.c.z.x.z.z.z.z.c.z.z.z.n.c.v.N.v.N.v.N.v.N.N.N.N.N.N.7.Z.I.{. XXX X X X X X X X.X X X X X<X{. X<X X X<X X{. X X X X X X<X X XXX X<X X X+XXX X X X XXXXX+XI.K.K.K.K.K.L.T.L.K.K.L.K.K.Y.I.[.[.[.+X].[.].[.[.].[.[.+X[.[.{.{.oX}. X X X X X X{. X XXX XXX+XXX>X+XXX X+XXXXX1X XXX X>X[.N.B.B.B.B.0.0.0.B.B.B.B.B.B.A.P.[.[.[.[.}.[.[.}.[.[.[.}.{.{.{. X X X X X X X X X X X X X X X X{. XoX{. X X X X X{. X X<X<X/.GX                                                ",
"                                                  D *X2X#X#X.X#X#X#X#X#X#X#X#X@X#X>XT U P P P P P P ..P P P P P J J P J P U U J U U J J J J J J J J J U U J U J P P U U U U U U Y ` s.a.i.e.u.e.a.i.i.u.t.u.e.a.;.;.w.r.y.e.y.w.r.e.e.:.e.e.e.%.e.e.w.e.e.e.t.%.e.%.e.%.e.%.$.o.o.o.o.o.o.o.o.o.X.o.X.%.$.%.$.%.%.w.w.w.w.w.w.w.$.w.w.w.w.-.a.u.;.,.i.i.u.,.i.i.i.u.e.u.,.,.,.u.,.,.,.;.,.<.,.<.<.<.:.h.k.T / / U / / Y U U U U U U U U U U U U U I U I I I I I / I I Y ' k.e.;.;.o.u.o.+.;.o.e.e.e.+.o.+.e.e.%.%.;.%.,.e.e.o.%.%.o.,.u.+.,.,.u.u.,.+.u.,.,.e.+.u.,.,.;.;.,.>.,.;.;.e.,.;.,.u.,.+.e.,.,.u.u.u.e.e.e.e.;.;.:.e.,.o.e.;.u.e.u.;.u.o.e.u.;.,.;.u.,.;.,.;.;.;.;.,.e.e.e.u.;.e.e.>.3.z.c.v.x.x.x.x.6.x.l.x.x.x.l.c.Y.Y J J U P P P P P U U P P P ..I P P P I P ..I P P U ..J U J J J J J J J J P J J J J J J L J J L / K ^ J J / L J J J U L T F.n.z.c.n.c.c.z.z.z.c.c.n.c.z.z.N.N.N.N.v.v.N.v.Z.N.v.N.v.N.I.{. X X X X X XXX X X X X X X X X{.{.{.<X{.{.<X X+X<X X,X{. X X X XXX X{. XXX X XXXXX X X XoX}.K.K.L.L.K.L.K.K.L.L.D.L.D.K.K.I.[.[.[.P.[.I.+X[.[.+X[.[.].+X{.{. X{. X{.{.{. X]. X{. X XXX XXXXX XXX X6XXX XXXXX+XXXXXXX X+XN.B.B.B.C.B.B.b.0.B.B.B.8.B.T.P.[.{.}.[.[.[.[.[.{.}.}.}.}.+X X<XXX X X X X+XXX X X X X X X X{.oX{.{. X X}.{. X{. X X X X<X(.GX                                                ",
"                                                  D ).2X#X#X#XXX.X#X#X#X#X#X#XXX>X:XK J P P ..I I P P I J P P P P U U P P P U U J U U U J U U U J U U J J U J U U P U U J U U J K ` a.t.i.a.e.i.e.e.i.r.u.i.u.i.t.e.r.w.e.e.y.e.e.e.e.e.e.e.e.%.e.w.e.e.w.t.w.%.&.e.e.&.%.$.e.-.o.o.o.w.o.$.X.o.%.%.o.o.%.o.o.;.%.e.e.e.e.e.$.e.%.$.e.%.$.o.e.u.i.,.u.,.i.u.u.u.u.e.,.i.u.u.;.,.,.,.,.u.<.u.,.u.:.:.3.4.k.T / Y U L / L I U U U U U U I I I I U U I I I I P I I I P P Y ` t.%.%.+.;.o.%.e.%.e.+.+.e.e.e.u.%.%.+.,.%.+.%.+.o.u.e.;.,.;.u.e.,.;.,.,.;.e.,.u.,.u.u.u.u.u.;.;.;.;.;.;.,.;.,.;.;.;.e.u.e.e.%.u.;.e.+.u.+.e.+.,.;.:.,.,.,.,.o.,.;.,.;.u.,.;.,.%.,.,.e.,.,.,.,.,.,.;.u.u.u.e.u.u.e.u.,.l.v.x.x.6.x.x.c.x.q.6.v.x.c.c.[.K J J J P P P P J U ..U I ..I ....I P ....I ..I ..U ..U ..J J J ..P J J J J J J J P J J U L J J / J J Y J J L P J U J L T k.s.f.z.z.z.n.c.z.n.z.z.c.z.z.x.Z.x.N.N.N.N.v.N.v.N.N.N.N.m.I.{. X<X X X X X X X XoX.X,X{. X X X X X X X{.{. X X X X X X,X XXX X X X X X X X X X X X X X X[.L.K.K.K.K.K.K.Y.K.L.L.L.L.D.K.Y.[.I.Y.[.I.[.[.[.[.I.[.[.[.}.].{.{. X{. X X X X X X X{.+X].+XXXXXXX XXX+XXXXXXXXX XXXXX X X[.N.0.b.B.0.b.B.B.B.b.B.B.b.B.K.P.{.{.}.[.{.}.{.}.{.{.{.[.{.{.{. XXX+X X XXXXX XXX XXX XXX X{.{. X}. X{. XoX X X X X X X X<X/.GX                                                ",
"                                                  GX&X$X@X@X6X#X@X@X@X$X#X#X#X#X>X`.....I I I ..P P I P U P P U U U P I P U U J ..U J J U U P P J J U J P P J U J U P U P P P P J ` y.;.i.;.i.e.e.i.i.t.,.u.i.i.r.r.r.e.e.e.e.e.;.e.e.e.e.e.r.t.e.%.e.e.e.t.e.e.e.&.%.e.%.%.w.e.;.o.$.%.o.X.$.o.o.o.o.o.o.o.o.-.$.e.%.%.o.e.$.o.o.X.o.X.o.%.a.i.u.u.u.u.i.u.u.u.u.,.e.i.,.u.u.,.u.,.,.u.u.2.e.,.,.,.<.i.k.T Y Y U U U U L L L I U U U U L L L L U L U U / L / U P / I Y ` h.-.:.%.,.o.e.%.%.;.+.e.%.e.%.u.%.,.o.%.u.+.+.e.%.u.+.;.,.u.u.;.u.,.u.,.u.,.,.u.,.,.u.u.u.u.%.;.e.,.e.,.>.;.,.,.,.e.;.e.e.e.;.,.>.,.>.<.,.>.;.e.u.,.;.,.;.e.,.u.;.u.;.e.+.;.,.,.e.,.u.;.;.u.e.;.;.e.u.,.;.:.,.,.e.,.O.l.x.x.x.x.x.v.v.x.v.6.x.l.v.z.Y.] J U L U J P P P J P P ..I I I I ..P P P P P ..P J J ..P J J J U P J J ..P ..U J J I ..P P P J J L ^ J J L / J J J Y J T g.g.s.z.z.n.z.s.s.z.g.n.z.s.z.x.N.N.b.Z.x.v.x.Z.v.N.N.b.v.v.I.+X X X X X X X X X XoX X X{. X<X{. X X X X X,X<X{.{. X X X X<X X X{. X X X{. X X XoX X X X X{.I.A.L.K.D.K.K.L.T.L.P.L.L.S.P.P.[.[.[.[.[.[.[.[.[.[.[.].[.[.[.{. X{. X X X X X X X XoX X{.{. X XXXXX X X X1XXXXX X X<XXXXX}.N.N.N.N.V.V.V.C.C.V.V.C.B.N.K.P.{.[.[.[.[.[.[.[.[.{.}.}.{.{. X X X X X<X X X X X X XXX X<X X X X{.oX{.{. X X X XoX{. X X.X/.GX                                                ",
"                                                  GXfX$X>X5X6X6X5X5X5X5X5X>X5X6XlXeXw ..........................J ........J J J ....J K J ......J J J U P P U J J U J U J J P P Y ' a.;.,.u.e.e.u.e.r.u.,.e.a.e.;.;.e.e.;.-.;.;.;.;.;.;.;.-.e.e.;.;.w.$.$.$.%.$.%.w.%.%.$.t.e.$.>.o.o.o.o.o.O.o.$.o.o.;.X.O.%.%.$.t.e.e.w.o.o.e.%.e.%.$.%.o.e.u.u.u.i.i.u.u.u.u.u.u.u.u.u.u.u.u.,.u.,.,.,.u.,.u.,.,.u.d.k.T Y Y Y U Y Y Y U Y Y U U U U L / U / / Y / / Y / Y Y I I Y ^ ` :.:.-.e.e.e.+.u.,.%.u.o.u.e.+.%.,.e.+.+.o.%.e.%.u.o.e.o.o.;.u.,.,.;.,.;.,.,.,.,.,.,.,.;.,.>.u.r.r.e.,.,.u.;.;.;.,.,.;.,.e.u.;.,.u.;.,.,.;.;.,.;.,.,.i.u.u.e.;.;.,.;.,.e.e.,.;.e.,.;.;.u.i.r.i.i.u.i.e.u.i.e.;.;.;.,.+.l.v.x.x.x.x.x.l.c.x.v.l.x.v.c.[.T J U J P P P P P P J P I ....P { ..P ..J P ......J ....J J ......J P ........J ..J ......P J J J L L L Y J L J J J Y J Y `.H.].H.H.].H.].H.H.H.H.H.].H.H.Z.N.N.Z.v.N.N.N.N.v.N.N.N.m.I. X XXX X X X X{. X X{.{. X X{.}.{.{.}. X[.}.}.{.{.{.{.<X X,X{. X X X X X{. X X X X X X.XoX{.{.I.K.L.P.L.L.I.I.I.R.R.P.P.I.L.I.+XY.[.].[.[.{.+X}.[.].+X{.[.[.+X].}.<X X}.].{.{.{.{.{.}.{. X X X XXXXXXXXXXXXX XXXXXXXXXXXI.q.Z.S.J.S.V.R.D.K.L.S.K.S.m.K.[.[.[.[.}.{.[.{.[.}.}.[.[.{.}. X<X<X X X X X X.XXX X X XXX XoX X XoXoX{.oX XoX{. X X X X X.X!.GX                                                ",
"                                                    |  . .k. . . .[  .[ k. .'  .( `.{  .{  . . . . .{  . .eX . .{  . . . . .{  . . .eX . . . . .{ ..U P P P P P U J P U U U P I K ` a.;.,.e.e.a.e.e.u.t.u.i.,.;.h.2.3.2.,.d.1.,.,.,.1.2.2.1.i.>.e.e.e.e.t.e.e.e.e.e.e.e.e.%.%.,.>.O.3.O.o.o.+.;.o.>.o.O.O.o.%.&.&.&.%.$.$.%.&.t.%.j.k.k.&.&.%.u.u.i.i.,.u.u.u.u.i.,.u.u.u.u.u.a.u.,.i.i.u.i.i.u.i.,.d.u.y.] R ( ) ( Y ) ) ) ) ) ] ^ ) ) ) ) ) ) ) R ) ^ ) ) ( Y R ( Y Y ' r.-.:.;.o.;.;.o.%.,.o.o.o.;.e.e.%.%.+.o.u.;.o.+.e.%.;.o.u.,.i.,.u.,.,.,.u.,.,.,.,.u.u.,.,.u.&.&.*.%.o.o.X.o.%.%.o.o.&.%.%.%.+.o.+.>.,.,.>.,.>.>.,.,.3.3.+.e.,.,.%.,.e.,.u.;.u.,.;.;.,.>.,.3.3.3.3.+.>.>.,.>.,.o.+.+.O.l.v.x.v.v.x.x.v.v.v.x.x.v.c.v.I.R J U P P P P P P P P P ..I I  . . . . .{  .{  . .{ {  .{  .{  .{  .{ { {  . .{ {  . .{  ...J U J J P J J J / J U J U U K ) ) ) ) ` ` ` ` ` ` ` ` ` ` ' $.G.N.q.Z.N.v.N.m.Z.N.v.N.B.Z.J.[.{.+X[.[.}.}.}.[.}.[.[.[.[.{.}.@X$X2X2X2X2X6X2X2X2X2X@X2X3X2X,X}.{.{.}.+X}.[.{.+X}.{.{.[.[.,X X<XXX<X6X6X<X1X6X6X<X<X6X<X,X1XP.[.P.Y.[.[.Y.[.P.Y.I.I.I.I. X@X@X2X2X6X2X6X>X@X2X6X#X@X$XoX{.{.{.+X1X{.{.+X{.{.{.{.{.+X1X}.OXOXoX<X<X<X,X<X<X<X,X<X<XoX}.[.[.[.[.[.[.+X[.[.+X+X[.P.[.<X2X=X4X3X3X4X3X4X3X4X=X3X3X4X=X6X<X X}.{.oX X X X X X XoX X X.X/.GX                                                ",
"                                                    { J Y Y / I J P / / U I J K J ..zXeXyX8XwXwXdXwXwXyXyXdXdXyX8XeXdXdX8X8X8X8X8XeX0XeX8XwXdX8XeX..P P P P P I P P P P P P I I J [ t.,.<.e.u.e.u.a.u.i.i.u.u.,.Y.b.D.A.A.B.N.N.N.Z.A.A.A.M.T.v.e.i.i.r.i.i.t.a.a.e.y.a.a.;.,.Y.T.T.D.T.D.L.D.A.Z.A.D.A.K.J.OX%X%X%X:X%X:X%X:X|.%X:X;X;X=X%Xj.a.i.d.a.a.a.d.u.a.i.a.a.d.a.a.a.a.a.s.s.d.s.a.d.s.d.s.s.1.f.k._.].k.F.k.k.k.].k.k.].k._.H.k.k.k.k.k.k.F.k.k.k._.F.k._.g.k.y.p.d.a.s.a.a.a.a.s.a.a.s.a.a.d.d.a.a.a.a.a.s.s.a.a.d.a.d.s.s.s.n.s.f.n.g.c.f.f.s.s.f.s.s.j.{.2X>X$X@XoX.XoX.XoXoXoXoX.X#X#X}.G.N.b.Z.M.A.A.A.Z.A.b.B.b.Y.u.,.u.u.,.u.;.;.u.u.u.u.u.u.,.v.D.M.A.Z.m.v.m.b.b.Z.b.M.A.m.m.b.v.l.c.l.v.x.l.l.v.c.x.c.b.c.H.R J U P P P P P P P P P I ....eXeXyXwXwXwX0XeXeXeXwXwXeXwXyXwXeXyXeXwXwXeXeX8XwXeXiXiXwXzX....U L J / P J L / / U J U J Y Y U T Y K Y L Y Y Y Y J / ^ K ` I.N.N.m.N.Z.b.N.N.Z.Z.S.A.N.m.K.J.L.K.L.S.S.L.S.A.L.K.K.D.{.f t 9 y y y p p y t t t p t 7 g <XZ.S.A.A.L.A.J.A.K.K.Z.A.J.J.~.8 y t y y g a s s r g y y y r ].L.K.A.L.Y.K.K.K.P.K.K.K.K.I.!.7 p p f F F F f F f F d t y 8 OXG.Z.J.A.S.J.Y.K.D.J.S.J.Z.J.@.r + r t s p y p p y s y r + r OXm.T.K.A.L.A.A.A.K.A.K.S.N.}.g 9 t t t t t y t i y t t t 9 a 2XoXoX X X X X X X X XXX X X2X!.GX                                                ",
"                                                    { L I / / / I / P P / / P P U ..8X8X8X8X8X8X8X8X8X8X8X8X8X8X8XdX8XdXdXdXdX8X8XyX8X8X8XyX8XyXeX....I I P I P P P P P P ..I ..J [ k.t.,.u.i.u.u.u.i.u.u.2.u.,.A.B.V.V.8.V.8.V.V.8.8.B.V.7.C.x.e.i.i.t.r.y.r.r.r.r.r.y.r.i.,.A.A.B.B.C.B.B.B.B.B.B.B.B.A.L.oXfX&XfX&XfX&XfX&XfXfXfXfXgXgX=Xj.a.a.s.a.s.a.a.a.a.a.a.d.a.a.d.d.s.s.d.s.d.s.s.a.s.s.p.p.d.a.s.s.a.i.a.s.s.s.p.a.f.h.g.h.s.s.s.p.s.g.a.s.s.s.d.a.a.s.i.a.p.a.i.a.d.d.a.a.i.a.a.i.p.a.i.a.i.a.a.a.i.a.t.u.y.a.u.u.a.i.a.d.s.s.f.c.s.s.g.g.f.f.f.g.f.f.s.].xX;X$X$X=X=X%X=X%X%X%X=X=X=X2XoXZ.8.B.B.B.B.N.b.B.8.B.b.V.D.2.;.r.<.e.<.i.u.e.i.e.e.i.u.;.A.A.b.N.Z.N.x.N.N.v.Z.N.N.N.x.Z.x.x.x.c.x.l.v.v.6.c.v.c.v.c.v.Y.R U U J P P P P P P P P P ..w eX8X8X8XwXwX0X8X0X8XwX8X8X8XwX8XwXdX8XeX8X8X8X0XeX0X8XwX0XwX{ ..P L J / P L J J / U U L P U U U U U U U U Y U Y U J Y Y Y ' I.N.Z.N.N.v.N.N.Z.Z.N.Z.Z.B.A.A.D.C.D.C.A.A.A.A.A.S.D.D.B.[.g 1 0 v v u v m c c z c c h u r {.N.b.N.N.N.B.A.A.A.B.A.A.N.Z.~.O m v c v m x c m c c m l u 9 |.J.Z.A.A.A.K.D.A.A.T.A.A.A.I.f e e e e e i k u k u c e 3 e @ <XB.C.N.A.B.S.N.S.A.Z.S.S.A.J.@.e i x b m m b m c m m x m m t OXN.D.B.B.B.T.B.Z.B.B.B.B.B.}.s u c v v c v c c v k c c c c 9 xX XoX.X X.X X XXXXXXXXXXX X2X/.                                                  ",
"                                                    { J Y I / / P I I / P P P P J ..wX8X8X8X8X8X8X8X8X8X8X8X8X8X8X8X8X8X8X8XdX8X8XyX8XyX8X8X8XwXeX..P P I ..P ..P P P P P P P P K [ t.u.,.u.u.u.u.u.u.d.u.u.u.,.b.8.V.8.9.8.V.V.V.8.B.7.8.7.B.c.;.i.u.r.r.r.r.y.r.y.r.r.t.r.:.K.A.V.B.B.V.B.V.C.C.B.C.B.B.J.%X*XfXfXfXlXfXfXfXfXfXfXgXgXgX;X*.s.a.a.j.a.d.a.d.j.a.a.a.a.a.d.a.s.d.s.i.a.s.d.a.s.s.i.i.s.p.s.s.d.s.s.s.p.p.a.s.p.h.g.s.s.a.p.d.s.g.s.s.a.d.s.s.d.d.s.i.a.a.p.a.i.i.p.a.p.a.a.d.a.d.d.i.d.i.a.a.a.a.i.i.i.a.a.a.u.a.a.p.s.c.s.s.f.s.c.g.g.s.f.f.s.g.z.oX;X;X;X=X=X=X=X2X=X=X%X%X=X=X=X XZ.B.B.8.B.B.B.B.8.8.B.8.N.T.2.<.;.;.i.e.<.i.e.r.u.i.e.e.;.M.Z.N.N.N.N.N.N.N.N.N.N.N.N.Z.Z.l.x.c.x.6.v.5.v.c.c.6.v.v.c.c.].R L U U P P P I P P P P P P ..zX8X8X8X8X8X0X0X8X8X8X0XwX0XyX0X8X8XwX8X0XwX8X0XwX0X8X0X0XwX{ ....L J / J / L L L U J L P U U U U U U U I Y U Y I L / Y / ` Y.N.Z.N.N.N.Z.b.b.N.Z.Z.Z.Z.A.D.B.A.A.D.A.A.D.A.A.A.D.D.A.,Xs 1 3 k x k v h c c m c c v u t {.b.A.B.b.N.A.A.B.B.A.D.B.N.Z.|.: c v c l z z c v l v l l c + ~.K.A.D.A.D.A.A.A.D.D.A.D.A.P._ e x x e x e c v v v c x z c @ <XN.C.B.B.B.B.B.B.N.B.N.N.S.J.@.: e m v u c c c v l c c x u + oXZ.A.A.B.b.B.B.B.A.B.C.C.C.}.p h k k v v v v v z v z c v c 9 =XXX X<X.X.X.XXXXX.X X XXXXX<X/.GX                                                ",
"                                                    { U I ( U U / U / P I / I I U { wX8X8X8X8X8X8X8X8X8X8X8X8X8X8X8XdX8XdX8X8X8X8X8XyX8X8XyXyX8XeXK ..P I ..I I P P P P I / P P J [ j.u.u.i.u.u.u.u.u.u.u.u.p.,.Z.B.8.9.V.9.8.V.V.7.V.V.7.8.S.v.;.i.r.r.w.r.e.r.y.r.r.r.r.r.>.T.A.B.B.B.B.N.B.B.B.V.B.B.V.J.%XfXfXlXfXlXfXgXlXfXhXgXlXlXgX;X*.a.s.a.d.a.a.d.a.j.a.a.a.a.a.a.d.s.d.a.p.s.s.s.s.s.s.p.p.p.s.p.s.p.p.p.a.s.s.s.s.s.s.p.a.s.s.s.i.s.p.a.a.p.a.s.a.s.s.s.a.a.a.a.a.p.a.a.i.a.p.a.a.d.i.a.t.i.a.i.y.d.a.u.u.a.a.u.y.a.i.a.s.c.n.s.s.f.s.c.s.f.s.n.n.f.g.z.OX5X=X3X=X=X4X=X=X$X=X=X=X=X=X3XoXS.8.b.8.N.B.B.B.B.8.B.8.B.D.1.;.i.<.e.r.,.i.u.u.r.r.r.u.>.m.N.N.x.Z.N.N.N.N.v.N.Z.N.N.N.N.x.x.l.v.l.v.l.l.c.v.v.c.c.c.c.Y.R U L P P P L P P P P P P P ..iX0X8X0X8X8X0X8X0X0X0X8X8X8X0X0XwX8X8XwX8X0X8X8X8XwXwXwX8XyX{ P P J / J / J P J J U P P U U U U U U U I I U I I I I I / / ` Y.b.N.N.N.N.N.Z.N.Z.b.N.A.Z.A.A.D.A.A.D.A.D.A.D.A.A.D.C.B.E.s 3 z h h h h h h z h z z z 3 t  XN.Z.A.B.A.B.b.A.B.A.A.B.N.J.~.: b c l c c c k l c l c v h 9 ~.K.D.D.A.D.A.A.A.K.D.A.D.A.,Xf e e x z e x c c 3 v c x u u + 2XS.A.N.B.B.B.B.B.N.B.N.V.S.L.!.: c c l c c c c c c v c z c 7  XA.M.B.B.T.B.B.B.B.A.C.b.B.].s v h v h c h h k z l v c c c t =XXXXX X X X.XXXXXXX XXX XXX6X/.                                                  ",
"                                                  GX{ / I U ^ Y / I / / P I I I I { wXyX8X8X8X8X8X8X8X8X8X8X8X8X8X8X8X8X8X8X8XeX8X8X8X8X8X8X8X8XeX..J J P P P I P P P P P P P P K ' t.u.u.u.u.u.u.i.u.i.d.,.u.,.Z.7.7.8.V.9.V.V.V.9.8.V.9.V.C.c.;.e.t.e.y.r.r.r.r.r.r.y.r.i.,.M.D.B.B.B.B.B.B.B.B.N.B.B.S.J.$XlXfXfXgXgXgXgXgXgXgXgXgXgXfX;Xs.s.a.a.s.d.a.d.a.s.a.d.d.j.a.d.a.d.d.s.s.i.s.s.i.s.s.a.a.p.s.a.a.p.a.p.p.a.s.p.p.a.d.a.s.s.i.s.s.a.d.s.a.d.s.s.s.s.s.i.s.f.a.a.d.i.d.d.i.a.i.p.d.d.a.a.a.a.a.a.a.i.e.a.a.e.a.a.u.a.a.d.s.s.f.s.c.z.f.s.n.f.f.f.s.f.s.s.].=X=X=X=X$X2X=X=X=X3X=X=X4X=X=X{.b.B.8.B.b.8.b.8.B.B.B.B.B.T.,.<.;.;.i.;.r.;.e.i.e.u.e.r.o.m.N.N.N.N.N.v.N.N.N.N.N.N.N.N.Z.x.x.x.l.v.5.v.6.c.6.c.c.6.c.g.Y.R L J P I P P P P P ..P P ....wX0X0X0X8X0X8X8X0X0XwX0X8X0XyX8X8XwX8X8XwX8XeX8X8X8X0X8XwXwX{ J P P J P P J / / L P P P U P U I U U U I I I I U I Y I / / ` K.V.m.N.b.Z.N.m.N.N.Z.Z.B.B.A.D.A.A.D.A.A.A.D.A.D.D.D.D.V.,Xs 1 c h v h v v z z h v z z u 7 1XZ.N.B.A.B.A.B.B.A.B.A.N.N.Z.OX9 c l v v v c c v c c c v m + |.K.A.A.A.K.A.D.A.D.A.A.A.K.,X_ e e z z z x z c c z x c c m + 6XK.A.A.B.b.B.N.N.B.B.B.V.A.L.!.9 m c c c c v c c c c v v m t <XB.T.B.B.B.B.8.B.B.B.B.C.T.U.y v h h c v v h v z l l c c c t 4X.X X.XXX.X<XXX.XXXXXXXXXXX6X^.GX                                                ",
"                                                  GX{ / / / / / U / L / / / / / I { iX8X8X8X8X8X8X8X8X8X8X8X8X8X8X8X8XdX8XdX8XdX8X8XwX8X8XwX8XwXeX..P I P I P P P P P P P P ..I K [ a.u.u.u.u.u.u.u.u.u.u.,.d.3.A.8.V.8.V.9.V.9.V.8.V.V.7.9.V.c.;.e.u.r.y.r.r.r.y.y.r.r.y.r.;.T.B.B.Z.B.A.A.A.B.B.A.B.A.Z.J.%XlXfXfXfXgXlXgXfXgXgXgXgXfXgX=Xa.a.d.a.a.a.d.s.a.d.a.d.d.a.a.d.a.d.a.s.p.d.a.s.a.s.s.a.s.a.s.p.a.p.p.s.s.p.s.s.s.s.a.s.i.s.s.d.a.a.s.d.s.s.a.s.s.d.d.s.s.a.a.p.i.a.a.a.p.i.a.a.i.i.p.a.a.i.e.i.a.d.i.y.a.a.u.a.u.u.d.i.s.c.f.s.f.z.c.g.g.s.f.g.g.s.f.z.'.=X=X$X=X=X=X=X=X=X=X=X=X=X4X%X}.Z.V.N.B.8.b.8.8.B.B.N.B.B.D.,.:.e.<.e.<.e.u.r.e.u.r.e.e.;.m.N.N.N.N.Z.q.N.v.N.N.7.N.N.N.Z.6.l.v.l.6.c.c.c.c.6.c.c.v.c.v.H.Y Y L L / / J L P P P P P J ..wX0X0X0X0X8X0X8X0X8XwX8X8XwX8X0X8XwX8X8XeX8X8X8XwX8X0X0X8XeX{ ..U J L L J P J P L / L L / L / ( / / I ( I I Y I I I U I Y ` Y.B.B.N.N.N.N.Z.N.Z.N.Z.b.Z.A.D.B.D.A.C.D.B.D.A.D.A.D.T.Z.+Xs u z x h z v h c c h v h l c 7 <XA.Z.A.B.b.B.B.b.B.B.A.B.N.Z.|.e i x c c v h v z c v l v c 9 oXP.S.B.S.D.A.A.A.D.A.A.A.A.,X@.e z z z z z z z z x z z x b + <XR.C.B.B.B.B.B.A.B.B.B.B.A.L.!.t z z c c c c m c v c c v c y <XB.C.A.B.T.8.B.0.B.A.B.V.V.I.s 3 v h v x h v h z l z z v z t =X XXXXXXXXXXXXXXXXXXX<XXX X2X/.GX                                                ",
"                                                  GX{ / / / / Y / L / U U / / Y ..{ wX8X8X8X8X8X8X8X8X8X8X8X8X8X8X8X8X8X8X8X8X8X8XwX8X8X8X8X8X8XeX..P ..P ..P I P P I I P P P P J [ j.u.u.u.u.u.u.a.u.i.a.1.i.,.A.N.8.8.9.9.V.V.9.V.V.8.8.8.S.v.e.i.i.r.r.r.r.y.r.r.y.r.r.a.,.A.B.A.A.A.A.Z.B.B.A.N.B.A.N.J.%XfXgXgXgXfXfXgXgXfXgXgXgXfXfX:X*.a.a.d.a.d.a.j.a.a.a.a.a.a.s.a.s.s.s.i.a.d.s.s.p.s.s.d.s.s.s.p.p.p.a.p.a.p.p.i.p.s.s.s.s.s.d.s.d.s.d.j.s.d.a.a.d.j.s.a.s.s.s.a.d.i.d.a.d.a.a.i.s.i.i.i.d.a.a.a.y.d.a.i.a.e.a.a.a.a.a.a.s.s.s.n.s.f.s.g.g.f.g.f.f.f.c.z.j.3X=X=X=X$X=X=X=X=X=X4X=X=X*X2X}.q.8.V.B.B.8.B.B.b.V.N.b.B.T.,.,.e.u.:.e.<.;.i.i.e.e.i.a.>.m.N.q.N.x.N.x.N.7.N.N.N.N.N.N.S.x.x.x.v.l.l.6.6.c.c.6.c.6.5.n.Y.R U L J L L / J P I ..P I ..K eX0X0X8XwXwX8X0XwX0X8X0X0X0X8X0XyX8X8X8X8X0XwX0X0X8XwXwX0XwX{ J U P J P / P / P P P L L J L U Y U Y U Y I I I I I U I Y ( W Y.N.Z.N.v.N.v.Z.v.b.Z.N.A.B.D.A.D.A.D.D.D.D.A.D.A.A.D.A.A.,Xf : c z v z h h z z z z v z c r <XD.Z.Z.A.B.B.A.B.B.B.B.B.N.Z.|.e b e c c l l h l k l v h u : |.L.J.S.D.A.D.Z.D.A.A.D.D.A.R.#.e e z z x z z z z z z z v m r 6X9.V.B.N.A.B.B.B.A.b.A.N.b.L.~.i u z v c c v c v c b v v m y <XS.C.A.B.B.B.B.B.B.V.B.V.V.}.s e c h z l z h v z z x l v h t =X.X<XXX X<XXXXX#XXXXXXXXXXX2X/.GX                                                ",
"                                                  GXF P Y / / / L L / L L / L / I { iX8X8X8X8X8X8X8X8X8X8X8X8X8X8X8X8X8XdX8X8X8X8X8X8X8X8X8X8XwXeXw P I P P ../ P I P ..I ..P / ^ ' d.u.u.u.u.u.u.u.u.i.u.u.d.,.Z.N.9.N.9.V.V.V.V.V.8.V.V.8.N.6.;.e.t.r.r.r.y.r.r.y.r.y.r.r.;.A.B.A.N.A.B.A.D.A.A.B.A.B.N.J.@XfXfXgXfXgXgXfXfXgXgXgXlXfXhX:Xd.a.s.a.a.d.d.d.a.a.d.j.s.j.d.a.a.a.s.s.d.s.i.s.a.s.s.s.s.s.s.p.s.p.p.s.s.a.s.d.s.a.a.a.s.s.s.d.a.s.s.a.a.s.a.s.s.s.s.d.s.a.s.d.d.a.p.a.a.a.d.d.i.i.d.i.i.a.u.a.a.a.u.a.u.i.a.u.u.a.a.u.s.f.n.f.c.s.s.c.s.s.s.f.n.c.g.s.j.2X=X=X=X=X=X=X=X=X=X=X=X=X=X%XOXx.7.B.B.8.B.B.B.8.B.B.B.B.D.,.:.<.;.,.i.,.;.i.i.e.u.u.r.;.v.N.N.x.N.q.N.N.v.N.b.N.7.N.x.N.l.6.x.l.v.v.c.b.v.6.c.v.c.5.c.H.R U L P / / J / P P P P P ....wX0X0X0X8X0X8X8X0X0X9X0X8X0X9X8X8XwX8X8X0X0X8XwX8X0X0X0X8XuXw P J J / J / P P J P P J L / / L / U U I Y / I ( I / I I I Y ` Y.N.N.b.N.N.N.N.N.N.Z.Z.Z.N.A.D.A.D.B.T.C.A.D.A.D.D.A.0.q.1Xf i c z l h z c c z h z l z x r <XK.N.A.B.A.B.b.B.A.B.A.B.V.Z.OX9 n z c c v h v l v l l v c + OXP.A.D.D.A.D.D.A.A.A.A.D.A.,XQ.e e z z z z z z z z z v z c r 6XS.N.N.N.B.B.b.B.A.A.B.B.S.L.!.t u m c c v v c v m c v z c a <XC.C.C.B.B.B.B.B.B.B.B.V.B.I.y c h v x v h v h h l h v l c t 3XXXXXXXXXXXXXXXXXXXXXXXXXXX2X/.GX                                                ",
"                                                  GX{ P / / / U I U I / / / / L ....eX8X8X8X8X8X8X8X8X8X8X8X8X8X8X8X8X8X8X8XeX8X8X8X8X8X8X8X8XwXeXK P I ..P P P ..P P P P / P P J ' t.u.a.u.u.a.u.u.u.a.a.u.a.u.M.8.9.V.V.9.V.9.V.V.8.V.B.V.B.c.<.r.r.t.y.r.i.y.y.r.y.r.y.i.>.b.T.N.A.A.A.A.A.N.N.S.C.A.V.U.%XfXfXlXgXfXgXgXlXgXgXgXgXgXfX%X&.s.d.d.s.d.d.a.d.t.a.a.d.a.a.d.d.s.d.a.a.s.s.s.a.s.s.s.s.s.s.a.s.s.s.a.s.s.s.s.s.s.p.s.s.i.a.a.s.a.a.d.s.a.s.a.s.s.a.a.s.s.d.a.s.a.i.a.i.p.s.i.s.a.a.a.a.a.a.a.a.a.a.a.a.y.a.u.a.a.a.u.s.s.s.s.f.c.g.f.c.n.c.g.s.s.z.s.'.$X=X4X=X=X=X4X$X=X=X;X;X=X*X%X}.Z.7.N.7.b.B.6.8.B.B.b.B.8.T.,.,.e.i.i.e.u.u.r.,.:.i.:.e.>.m.Z.N.N.N.N.N.N.7.N.N.7.b.N.N.N.6.x.6.l.c.6.6.c.v.c.v.c.c.6.c.+XR J L P J / / / P P P P I P ..wX8X8X0X8X8X0XwX8X0X8X9XyX9X0X0X9X0XwXwX0X8XwX0X8X8X8X0XeXwX..P U P P L P / J / J P L L J / U U U / U U I U I I I I I I ( ` Y.b.B.7.N.b.N.N.b.N.N.Z.b.A.B.A.D.D.D.A.A.A.A.D.Z.K.A.C.R.R._ 3 u v k v l c k l z z v z e t <XA.N.B.A.B.B.B.B.B.B.b.B.V.S.OXt m z c c v v k v h v v l c t ~.P.K.T.A.A.A.D.A.D.D.A.A.A.R.@.: z z z z z x z z z h x z m 8 6XZ.C.B.B.B.B.B.B.B.B.B.N.V.A.!.i z x v c c v v v c v m z u y <XC.b.B.B.T.B.B.B.B.B.B.B.B.}.a u z l h h x h v v z z h v 3 9 =XXX XXXXXXX#X#XXX#XXXXXXX X2X/.GX                                                ",
"                                                  GXd I P / / / I P I P / L L L I { iX8X8X8X8X8X8X8X8X8X8X8X8X8X8X8X8X8X8XdX8X8X8X8X8X8X8X8X8X8XeXK J U P P P / / P P U / { I I K [ a.a.u.u.e.a.d.i.u.u.i.a.y.+.Z.8.8.N.7.V.V.V.V.N.9.q.S.V.C.6.;.r.i.r.y.r.r.r.r.r.r.y.r.a.;.T.A.B.A.A.B.A.N.D.A.A.A.B.S.J.%XfXfXfXgXfXgXlXgXgXgXfXgXfXfX:Xj.d.d.d.a.s.d.d.a.j.a.a.a.a.a.a.a.a.s.a.d.s.s.s.s.s.s.s.a.a.a.s.s.a.s.s.s.s.s.s.a.a.s.s.s.a.d.s.a.d.s.a.a.a.s.s.s.a.s.s.j.d.d.s.a.a.d.a.a.p.i.a.a.a.a.a.a.u.a.a.a.u.a.a.a.a.t.i.a.u.d.i.s.g.z.g.s.c.s.n.s.f.f.c.g.c.f.s.].3X=X=X=X=X=X3X=X=X=X3X;X;X=X%X}.Z.B.8.b.8.8.8.b.8.8.B.B.b.T.,.u.u.u.u.e.u.u.:.;.u.e.i.u.;.m.Z.Z.q.N.Z.N.N.N.7.v.N.N.N.N.N.l.x.l.6.c.c.b.c.v.c.c.v.b.c.v.Y.R I U P P P I P P P ..I P P ..eX0X8X0X8X8XwX8X0X0XyX8X0X8X9X0X0X8X0XwX8X0XwX8X0X8X0X8XeXeX{ I I P L L J P J P J P P L / P U / I U I U / I I I / I I I ^ ` ].B.B.b.N.N.v.B.B.b.B.N.B.Z.B.A.S.D.C.A.C.D.A.A.A.A.D.C.S.,Xs : u v k k k z z c h v h z u t <XZ.B.b.A.B.B.B.B.B.b.B.A.N.S.OXe b z c h h h v k v l v v v 7 |.L.A.D.K.A.D.A.A.T.D.A.D.A.,XQ.e e h v z z z z x x z x z c r 6XN.N.N.B.N.N.B.A.b.B.A.N.0.D.=.e x m x c c v c c c v c c v y  XD.C.B.T.8.B.B.T.B.B.B.N.B.[.s x h v h h x h x h h x v z h 9 3X<X.X XXX#XXX#X#XXX2XXX XXX2X/.GX                                                ",
"                                                  GX{ J I I P / I U P / / / / / I { iX8XdX8XdX8X8X8X8X8X8X8X8X8X8X8X8X8X8X8XdX8XwX8XwX8X8X8X8X0XeXw P J P P P P P P L I P P P / J [ t.t.u.a.u.i.i.u.u.u.a.u.a.+.M.V.8.V.V.7.V.q.8.8.9.V.N.9.C.5.,.r.y.r.r.y.y.r.r.y.y.r.r.h.;.A.D.B.B.A.A.B.A.B.B.S.B.S.B.I.%X*XfXgXfXgXfXgXlXgXgXfXgXgXfX%Xj.s.s.d.j.d.a.u.a.d.d.a.a.a.d.s.a.s.a.s.a.a.s.i.u.s.s.s.s.s.s.s.s.s.s.a.p.s.s.a.s.s.a.a.s.s.s.a.a.s.d.s.s.a.s.a.s.s.a.s.s.s.s.d.s.s.d.a.d.a.a.d.d.a.a.a.a.a.a.y.a.a.t.a.r.a.a.y.a.a.d.a.s.f.f.c.g.g.c.f.f.c.g.g.s.s.z.s.].$X3X-X=X=X=X=X=X=X=X;X;X;X=X%X XZ.7.8.N.B.B.B.8.B.b.B.B.B.T.,.e.e.u.,.,.i.u.<.i.r.<.r.,.>.m.Z.Z.V.N.q.N.N.N.N.N.N.N.N.N.N.6.x.5.x.6.c.6.c.c.v.v.c.c.6.g.Y.R P I U / / P P P P P P P P w wX0XwX8X0X0X0X0X8X8X0X0X0X8X0XyX8X8X8X0X8X8X0X0X8X8X8X8X0XiX{ P P P P J / / / P / / J / P L / I / / I I I U I U / I I ( / ' Y.B.b.N.v.v.N.b.b.N.Z.N.Z.N.A.B.B.A.A.A.D.A.D.A.A.D.A.D.N.,Xg 0 u z l l v l z h v h v c c t <XA.B.A.A.b.A.B.A.A.B.B.B.N.Z.|.i c z l v k v v l h v l v m + |.L.D.D.A.A.Z.D.A.D.A.D.D.S.R.@.e e x x h x z z z j h x z m r 6XN.V.S.N.S.S.A.B.B.A.A.N.V.R.=.e e x c c c v c v c c v m m y  XA.C.A.B.B.B.B.8.B.B.b.N.B.}.a h l h h v l x l v h z h v z 9 4X.XXXXX.X#X<X#XXXXXXXXXXX X2XW.GX                                                ",
"                                                    { / I / I P P P P / / L U / ..{ iXdX8X8X8X8X8X8X8X8X8X8X8X8X8X8X8X8X8XdX8X8X8X8X8X8X8X8X8X8XeXw ..P J P P ..P P / { P P P P K !.a.,.u.a.i.d.a.d.i.a.u.u.d.u.D.8.N.V.7.7.N.V.N.7.7.V.V.9.N.l.r.r.r.y.a.r.y.r.i.y.i.i.r.i.<.T.B.B.A.A.B.B.V.B.B.N.A.A.B.J.%XfXfXlXgXfXgXlXgXgXgXfXgXfXlX:Xj.a.j.s.s.d.d.a.a.a.a.a.d.a.d.d.a.d.d.j.a.a.a.s.s.s.s.a.j.a.a.s.a.s.s.a.a.s.s.s.s.s.s.s.s.d.d.a.a.d.a.a.s.s.a.s.a.s.s.a.a.d.a.a.a.d.a.a.a.a.a.a.d.a.a.a.a.a.a.a.a.y.u.a.r.a.a.a.u.u.a.a.f.g.g.g.g.g.n.s.g.g.n.s.g.n.z.g.'.3X=X=X=X=X=X=X=X=X=X;X>X;X*X$X}.v.B.6.7.B.B.B.B.b.B.B.B.B.T.3.u.,.e.i.u.e.u.e.i.;.i.;.;.>.Z.Z.Z.q.N.q.N.q.b.N.N.N.N.N.N.N.x.6.v.v.6.c.6.b.6.6.v.v.v.c.c.+XT P P / / / I P P P P P P J ..wX8X8X8X8XwX0X0XwX8X0X9X0X0XyX0XyX8XwXwX8XwX8X8X8X0X8X0X0XwX{ ..I I J J J J / / J J L J L / U I I I I U / I I I U I I I Y ` Y.6.b.N.N.b.N.b.N.N.B.B.Z.N.A.B.D.C.A.A.D.D.A.C.A.C.D.D.D.[.s 1 3 c v h h v z v z h z x c t <XA.A.Z.B.A.A.A.b.N.b.Z.B.C.S.~.t b h v h k v k v v l k v m : ~.L.K.D.K.A.D.A.A.A.A.A.S.S.R.@.e e x h x z z z z z h z z v 7 <XS.N.N.S.N.N.B.N.A.B.b.B.B.L.@.e e m c c c c v c m v l v m p <XS.V.B.B.T.b.B.B.T.B.A.B.B.}.s h v l x x h h x h v z c h v 9 ;X<XXX<X.XXXXX#XXXXX#XXX<XXX2X^.                                                  ",
"                                                    { / P I P U I I P / L / / / I ..yX8XdX8X8X8X8X8X8X8X8X8X8X8X8X8X8X8XdX8X8XeX8XwX8X8XwXwX8XwXeX..P U P P / / J / / P P P P P J ' d.u.u.u.i.r.u.u.d.i.a.u.i.u.b.V.8.8.V.7.V.9.9.V.9.N.7.9.C.6.i.r.y.r.y.r.i.y.y.i.r.y.y.y.<.A.B.A.B.0.C.B.B.V.A.A.N.A.A.J.%XfXfXgXfXgXfXgXfXgXgXfXgXgXlX%Xj.d.a.s.a.d.j.s.a.d.a.a.j.d.s.s.j.d.s.s.a.s.s.s.s.s.s.s.g.s.s.s.s.s.s.s.s.s.j.s.s.s.s.s.j.s.s.s.a.s.s.s.s.j.s.a.d.s.a.a.s.s.s.s.a.a.a.a.a.a.a.a.a.i.a.a.a.d.u.d.a.a.d.a.a.a.a.a.a.a.i.a.s.g.n.c.n.s.g.s.c.g.c.s.g.g.n.n.].3X=X=X=X=X=X=X=X=X=X;X;X=X=X%XoXb.8.B.b.8.B.8.B.7.b.B.B.V.T.3.e.,.u.,.u.u.u.r.,.i.r.u.u.>.x.Z.N.N.N.N.N.N.7.N.7.b.7.7.b.N.6.v.5.6.6.c.5.6.c.c.c.v.b.b.M.H.R P P P P P P I P P P P P ....eX0X0XwX8X8X0X8X8XyX0X8X0X8X0X0X8X0X0X8X0X0X8X0X0XwX0X0X0XwX{ ..P J P J J / J J P / P L L / I U U / I U I I P I I I I U Y ` Y.6.N.b.N.N.N.b.N.b.A.N.N.N.B.B.B.D.D.C.D.B.D.D.A.C.D.A.B.[.f 3 c v l v h h l h h v h z c + {.Z.Z.B.Z.B.N.B.B.A.A.B.B.N.S.OXi b v v h v h v l z l v v m t |.I.D.A.A.A.Z.D.A.A.A.D.D.D.R.@.e e x x j z z x h x x z z b r 6XJ.S.A.V.S.S.A.D.A.A.A.A.A.D.=.e e e m x m x c c l c c c m y <XN.V.N.B.B.B.B.b.B.B.B.B.N.{.s 0 h v v h v h h z h z k h v t =X.X XXXXXXXXX#X#XXXXX#X.X X6XW.                                                  ",
"                                                    { I I I P P P P U P U U P / ..{ yXyX8XyXdXdX8X8X8X8X8X8X8X8X8X8X8X8X8X8X8X8X8X8XyX8X8X8X8X8XeX....P P P P L / J P P P I I I K ' k.d.i.a.y.a.a.h.h.i.y.i.i.,.v.V.q.V.V.9.q.N.N.V.9.V.V.9.B.6.i.i.r.r.r.i.r.r.r.i.r.r.r.d.i.M.B.B.B.8.B.8.B.B.N.A.N.A.S.J.:XfXfXlXfXlXfXgXgXfXgXgXgXgXfX=Xt.a.a.y.a.a.d.d.,.a.u.y.a.u.u.a.u.u.d.*.a.a.a.u.a.a.d.a.a.u.u.d.d.a.u.a.u.u.a.a.a.d.d.a.s.a.d.s.s.s.d.s.a.d.a.a.d.a.u.u.d.d.u.r.a.s.y.r.a.d.a.a.i.d.u.u.d.d.y.a.a.a.a.a.a.d.a.a.i.a.d.a.g.g.g.g.s.g.s.g.c.n.s.s.s.l.z.U.'.=X=X=X%X;X=X=X=X=X=X&X;X=X=X%XOXN.8.B.8.B.8.B.V.B.B.B.B.B.T.3.;.u.u.e.u.u.u.r.i.e.;.<.;.>.m.Z.N.x.7.N.7.7.N.7.v.7.N.7.6.N.v.c.6.c.c.c.l.6.l.5.6.l.l.l.x.H.R J L L U U P I I U P P I I { wX0X0X0X8X8X0X0X0X0X8X8X0X8X8X0X8X8X0X8X8X0X8X0X8X0X8X0XyXwX{ P P P J P P P ..I P P P I P P I I U I I I I I I P U U P I J ` [.v.v.v.b.N.N.b.N.N.m.C.C.C.B.B.C.A.A.D.C.C.A.D.D.S.A.C.0.1Xf u c v c h x z e h x z l z z + ,XL.N.N.S.A.b.S.N.N.N.N.N.V.S.~.+ x x x c c c c c v v v c c t ~.L.S.N.S.S.q.S.S.N.S.D.Z.S.,X@.e c c c v z z z e x z e x c r 6XR.q.q.S.V.q.N.N.V.9.Z.Z.N.S.=.e c u c c c x c c x x e e m r  XD.V.B.B.B.B.B.B.B.C.B.C.N.+Xs e x b z z z c z z c z c e m t 4XXX<XXXXXXX<X$XXXXXXXXX XXX$X/.GX                                                ",
"                                                  GX{ I / I { ..P { { / { P / { ..{ sXyXiXiXiXiXdXdXdXiXuXiXiXuXdXiXiXuXuXdXdXiXiXiXyXiXiXiXiXiXeX..{ P / I { L / { P P P { P { K `.`.j.U._.].H.]._.j._.'.U.j.*.J.q.N.V.7.9.V.9.9.9.V.V.8.8.B.5.;.r.r.h.i.i.i.i.i.i.r.h.i.i.3.b.B.8.V.B.B.B.B.B.B.A.B.A.Z.J.@X&XfXgXgXgXgXfXgXgXfXfXgXgXfX&X|.'.].'._.'._.'.'.'.'._.'.'.'.'.'._.'.j.=._.j.'._.'._._.j.'.j.~._.j.~.j.~._.*._.j._.~._.'.j.*._.j._._.j._.'._._.'.j._.'._.j.j.~.j._.j.j.~.j.j.!.j._._._._._.~.j._._._.j._._._.'.`.'._.'.'.'.'.U.'.U.'.'.'.].'.j.'.].].'.|.3X-X;X=X;X*X=X=X*X=X;X=X;X;X%X}.Z.6.B.b.B.B.b.6.B.B.b.8.B.D.O.>.,.,.,.,.>.>.,.;.,.,.,.>.O.Z.N.S.N.N.N.v.N.N.v.7.N.N.N.V.T.K.Y.I.U.U.I.I.P.I.}.I.I.I.I.I. X^ J J J P { / { P { J J P { { zXwX9X8X8X9XwXyXyXyXyX9XyX9XyX9X9XwXwXyXyXyXwX8XwXyXyXyXyXiX{ { ..P ..J ....P ..P P ..P P J ..L { U U P ..P ..P U P P J K ` XX}.P.}.}.{.{.}.[.[.{.1X,X1X+XT.D.B.D.A.A.A.C.D.D.S.C.C.R.E.f i 0 1 0 ; : 1 e 3 1 1 3 e e 9 3X[.P.[.I.P.I.J.I.P.P.L.R.R.R.~.e m i i i i u u e e e 1 u u 9 ~.R.,X[.P.P.R.,X}.,X,X[.R.R.,X@.: i i i 1 1 e e t e e e i i r 6XR.R.I.I.S.R.P.P.L.R.I.R.P.I.!.+ t e e : : : : + e : : e e t 2XE.,XY.,X,X,XP.,X[.,X,XE.Y.6Xd ; 4 3 1 1 0 e i 1 0 0 3 e e 7 4XXXXXXXXXXX#X#XXX#XXX#XXXXX$XW.i GXGXGXGXGX          GX                          ",
"                                                    H w w l w w w w l w w w w w w w G S A A S S G A A G S S S A A S G A S A S G S S G H G A S H H w w { w w w w w w w w w w w w q a d a a s d d d d d s a d a q *.x.V.q.q.V.9.V.9.N.V.q.8.V.V.N.c.n.F.g.g.n.c.g.c.g.f.c.n.c.c.T.B.B.0.B.B.8.C.B.B.B.B.A.N.I.%XfXfXfXgXgXgXgXgXgXgXhXhXgXgX*X7 8 7 7 7 7 7 8 8 7 8 8 7 8 8 r 8 8 7 8 8 r 7 8 + 7 7 8 7 7 8 8 7 8 8 8 8 8 8 7 7 7 8 8 8 7 7 7 7 7 8 8 8 7 7 8 7 8 7 7 7 7 7 8 8 8 7 7 8 8 8 7 7 8 7 7 8 8 8 8 7 7 7 7 7 8 7 8 7 X X 8 8 8 8 X X 8 8 8 @ + @ @ @ + + @ /.lX4X=X=X;X=X%X=X*X*X=X;X=X-X%XoXS.6.8.b.B.8.N.B.B.B.B.B.B.Z.c.z.c.c.c.m.M.n.c.c.c.z.l.z.5.N.q.N.N.b.7.B.6.7.6.7.b.7.7.S.U.f f g s s a s a a s s s s f s _ q w w w K w w w w w w w w { w 0XqXqXqXG G G G G G HXG G G G G G G G G G G G G G G HXHXG  .H w ..K w w w w w w w w w w w w K w w w w w w w w w w w w w w q s a a y a p a p y y s d s s s [.A.N.B.A.B.A.A.B.T.A.S.D.T.E.@.f _ f f s s s f f s f f s f s _ _ _ _ @._ @._ _ #._ _ #.#._ Q.f p s s f f f f d d f f f f f F #._ _ _ #.#._ _ _ _ _ _ #.@.f f f f f f f f f f f f f f f f @.#.#.#.#.#.#.#.#.#.#.#.@.@.#.f !.@.@.@.@.Q.@.Q.@.#.Q.@.Q.Q.f f f f f f f s f f d s f f f f _ #._ _ _ _ _ f f f f f _ } f Q.<XXXXX<X#XXX#X#XXXXXXXXXXXXX#X~.W./.^.^.^.W./.^./.^.W.W.W.| ^.GX                  ",
"                                                    GX0 l l 0 l l k l 0 2 l j j 0 0 0 j l j l l l j j j j l l l l j j j l l j j j j j 2 j j l k l 0 l 0 l 0 l 0 l 0 k 0 0 0 0 0 0 l 3 l k u m 0 0 0 2 1 4 j 3 - Q.S.V.7.7.V.N.7.7.V.7.7.9.N.V.B.b.b.M.b.M.b.b.b.T.M.T.M.b.M.b.B.B.8.8.B.B.B.0.b.N.B.B.B.N.J.%X&XfXgXgXgXgXgXgXgXgXfXhXfXjXtX6 - o % % - = % % - % $ % $ % % % * % - o % % % % % - % - * * % ; - % - % % - % - * % % % % - % * % % % = % o % % % % % ; % % % % % % % % ; % - % % ; % o % - % % % % % % = o % % % - % % o * * % * % - % % % = = % * o  .fX;X%X=X*X;X*X*X=X=X=X*X=X*X%XoXS.B.7.B.B.b.B.b.N.B.B.B.6.B.Z.N.b.b.b.m.N.b.N.b.Z.b.N.b.N.N.N.V.N.N.N.7.B.b.7.N.7.V.9.R.!.t m i 3 0 0 0 0 0 3 1 1 3 u u 1 2 0 0 j l 0 l 0 9 0 9 0 0 u l j 3 h v 3 4 4 k 4 2 < 2 4 4 4 3 2 j 2 j & < j 2 2 0 j k z j j l l k 0 0 l w 0 0 0 l 0 0 0 k 0 l 0 0 0 0 0 l 0 0 l 0 0 k 4 l 0 1 1 u m 0 0 0 3 3 0 m i m t oXC.S.C.C.B.A.B.B.B.B.C.A.A.S.P.,X,X,XP.R.,XE.E.,X,XP.L.R.R.<X@ e e i u i i 1 e i u i i i t r 6XR.,X,X1X,X,X,X,X<X,X,XR.P.<Xr e e e e e : e 2 1 e i e e i f ,XR.R.,X,X,XE.,XE.1XR.,XR.R.1X@ e e e e e e e 1 + e e e i i p 6XP.P.R.,X[.I.R.E.P.R.S.R.R.(.O e c u i 0 v l i c i i i n : ~.,XR.P.R.,X,X,XR.E.,XR.R.J.R.P.<XXX#X#X#X#X#XXX#X#XXX#X#XXX#X>X5X$X2X2X3X2X$X2X6X2X2X2X5X3XcX|                   ",
"                                                    M j h h l j k k k l j h l j l j l h h l j l j j j l j 2 0 j 0 j l k l l j j h k h k h l l k j l h l k h h 3 h l l l l j l l B j j j j h h l k j j h h j z = !.S.V.q.V.7.V.V.V.V.N.9.9.7.N.N.b.b.b.b.M.b.b.b.6.b.6.b.b.b.b.8.V.B.8.B.0.0.B.B.B.B.B.B.B.I.%XfXfXgXgXgXgXgXgXgXjXhXhXhXjXtX6 = % = % = % % % % ; % & & & & & & = = % = % = % % % % = % = % = % % % % % % % % % % % = % % % % % & * % % = = % % % % = $ = = % % % * * % % % % % % * = % % % % % = % % % % * % % % % % * * * * * % * * % * * * % = 6 W.lX*X;X=X;X*X;X;X*X=X&X;X*X=X%X{.S.N.V.B.6.N.b.B.N.b.N.7.B.N.b.6.6.b.N.6.6.N.v.7.v.7.b.N.6.v.N.N.6.N.7.N.7.7.N.7.N.N.B.A.!.i c k h h l h l k c v l h c v h l 3 z e h 3 3 c k h 3 z c c 3 e h h 3 3 3 3 3 3 0 j 3 k 3 k j 0 4 k k 4 l l l j h h l l h h h 3 j k j k j k j k j j j k k l j 4 j l 2 l l 2 j k j 0 j j k k k k c 0 h h 0 h h k l h m y OXS.S.A.A.A.B.B.C.A.B.C.B.T.B.C.D.D.T.D.C.8.B.B.V.B.8.8.9.S.OX+ c v v v b b v v v v x x x u s ,XC.C.C.8.9.V.V.S.S.S.C.D.R.<Xr m x b x b v v v l v v v v u f R.0.0.C.C.C.C.C.C.C.V.R.q.9.,Xp V M v v v v c m x x x M M n s ,XR.q.S.S.S.S.S.S.S.S.q.S.S.~.: x x x v b l l b v b v N M 9 !.V.0.C.S.S.S.D.S.R.9.N.N.N.V.P.oXXXXXXXXX#XXX#XXX#X.X#XXXXX@X.X#X#X#XXX<X#X2XXXXX2XXX<X#X2X3Xf                   ",
"                                                    GXh j h 3 h j j j j j h l j h l j 4 j j h h j l 0 j k l k k l k j k l j j l h h h j h k 0 h l j h k k h h h j j j 4 l j j j j h j h l h h h k k k k l j x % W.S.V.V.q.9.V.7.q.V.V.9.V.7.N.N.b.m.v.M.c.b.b.b.b.b.b.b.b.b.B.B.B.0.0.b.b.B.B.B.B.V.B.B.A.J.%XfXgXgXgXgXgXgXgXgXfXhXhXfXgXeX6 * % % % = % % % $ % % & & & % & & & % % % % % * * & & * & * * * * * * * * * * & * & % & & = % & % & & & & = & = & % % % % & & & & % % % = & & & & = % * = * * * * & & * & * % * * * % * & * & & * * * * * % * * * $ . | gX;X;X&X:X%X*X;X&X*X;X;X&X*X%XoXS.N.N.B.N.B.B.B.b.N.N.6.B.V.6.b.N.N.v.N.N.b.N.v.b.v.b.b.v.N.N.N.7.N.6.6.7.7.6.7.N.7.b.Z.!.: v k k z z z u e z h l u z v z h 3 3 z 3 c h u h k k k l k h z e h 0 h z h k 3 4 k l j h k k 3 l j l k l j 0 j h h h k k h h l k j l j l 2 k k 0 0 k 4 k 4 0 k 2 l l k l l 0 l k k k 2 4 0 4 l h h z z k 3 3 h k l l 7 '.S.S.C.B.C.A.C.B.A.B.B.B.C.K.D.C.T.A.B.B.A.B.A.A.A.B.B.V.V.,X+ m l b v c v v m m v v x z c r ,X8.B.N.C.C.V.S.V.S.V.C.C.9.,Xr x x x b x v v v b v v v v i f R.C.0.C.9.C.C.9.9.C.9.q.C.9.1Xy x M b x b b m b b b b b x b r ,XR.9.B.S.S.Z.S.S.V.V.V.S.R.!.e e v v v v v b l v v b m b e !.R.0.V.C.V.C.C.V.V.V.S.Z.N.N.S.{.XX#X#XXXXX#X#X#XXX#XXX#XXX.XoX#X#X>X#XXX#X#X6X#XXX#X$X2X<X6XW.                  ",
"                                                    GXh h h h h l j k j k k j j j j j j l j h h l j j l l l k j j k j k k j l l k h k h 3 k h k j k j j h h h h l 0 j k k j j l l h h l h h j l h j h k e h e % (.q.V.q.9.V.7.V.9.V.q.V.8.N.B.B.v.b.b.M.b.v.b.b.c.b.b.b.b.b.6.B.B.B.C.b.B.8.B.0.C.C.B.B.N.J.#XlXgXgXgXgXgXgXgXfXfXfXfXfXtXtXo % & % % % % & & - % & & * * & * & & & * * * * % % & - & & * & % * % * % % & % * * & & & & - & & & & - & * % * & & & % % * > & & & & & % & & & & & & & % % & & & - & - - & * * * * * * % % & & & & % % % * * * * * * . | &X;X*X&X&X-X;X-X;X&X;X-X;X-X=X XJ.B.B.6.b.6.B.N.B.N.N.B.N.N.b.b.v.v.6.N.b.v.v.N.b.N.b.b.b.N.N.6.6.7.7.7.7.7.b.7.7.7.7.Z.@.- z h u k c c k v k k v z l c h 0 3 k 0 c z h h 0 h z h e z 3 z 3 e 3 h h h 3 c k j j 4 h j j l l j j k j k l j h k h k k 3 j 0 4 j j 0 j 0 j 2 j 0 0 k 4 0 j 4 k 0 l 0 2 2 2 0 2 0 k 0 k k 0 k l l k 0 k 0 k k z 3 e O ~.V.N.B.A.C.B.B.C.A.A.A.N.B.A.A.B.B.B.B.B.B.B.C.B.S.V.N.V.V.<Xe v m b v b m b c v c v x z m r ,XC.N.V.9.9.9.V.S.V.S.V.C.V.U.r m x b m x b v b v v v v v 1 f D.0.0.C.0.C.C.9.9.C.V.9.C.A.<Xr l M v x b b v v b v b v M D p <Xq.V.B.A.Z.Z.S.N.S.N.Z.S.S.~.: v v l v v v l l v b v v b t =.L.S.S.B.N.B.N.N.N.V.N.S.S.S.L.{.#XXX#X#X#XXXXX#X#X.X#X.X#XoXXX#X#X$X#X#X>X#X>X#XXX2X.X<X<X2X|                   ",
"                                                    GXh h h h h j k j k j j k k 3 l l l l j h h j l l j j 2 j k k j k 2 l j l j h k h k h 3 h h l j l l h c h h h h l k j j l j j h h h h h h l h l l k x x z : ~.R.V.V.N.7.V.V.N.N.9.V.8.7.B.N.b.b.b.b.b.b.v.v.b.b.b.b.b.b.b.b.T.C.C.0.0.B.0.B.B.B.B.B.N.H.%XfXgXgXgXgXgXgXgXfXfXgXfXfXhXtXo % % % % % % % % = = % % % & % & * * * % % % = * * % * * * * % = = % = % = = = % = % % % = & & & - * & & & % % = % & & % & & & & & & % & % = = = = = % = = % & & * & * * & = * > = % % % % & * % * & * % * * * * * & . ^.-X;X*X;X;X*X;X*X&X;X-X-X&X&X%X}.J.N.B.B.B.B.B.B.b.7.B.b.N.N.N.6.6.b.N.v.b.N.b.6.N.v.N.N.q.6.7.N.7.6.7.6.B.7.7.7.7.N.7.N.Q.- h h e c c c c 0 v z e z h z h h 3 0 z 3 0 h h 0 3 0 z 3 h 0 3 3 e 3 h k 3 3 z k 0 0 l h k k k 3 l k k k k j k h h h h h h h 0 k 0 0 j 0 j k k k j j k k k j k 2 l 2 k k l j k l j 4 l k j j l h h k k h k k k l 0 u @ ~.Z.V.A.V.A.B.C.B.A.A.A.A.B.B.B.C.A.B.D.B.T.C.C.A.C.A.V.S.V.1X+ v m v b b v b c v x m x m m s ,XV.V.C.9.9.V.V.V.V.V.V.9.V.,Xr c v v b m v l b v v v v l e f R.0.0.C.0.C.0.9.9.C.9.0.C.N.<Xt b b b b b v b b M M n M M i r <XS.V.N.S.S.S.S.S.S.Z.V.S.I.~.: x v v l v v v l v v v x v t @.I.A.N.S.N.A.N.S.N.S.V.N.V.N.P.{.XXXXXXXX#X#XXX#X#X.X#X#X.X#X#X#X#X#XXX#X<X#X<X#XXXXX.X2X@X3XW.                  ",
"                                                    GXh h h j j k k j k h h j h h h j l h j l j j k j l k j k j j k l 2 j k l 2 l 3 k 3 j k h h h h h h h h h h h h h h h h h l h h j l j j l j h h j l h h v < ~.S.q.V.q.V.q.V.q.V.7.V.N.V.N.V.b.b.m.M.b.b.b.B.b.b.b.b.6.b.b.b.B.0.B.B.B.B.C.8.8.B.B.B.8.J.@XfXgXfXgXfXgXgXgXtXfXfXgXgXjXtX. ; % % % % % = % = % % = % = = = * * % % & & & & & = & = * = * = * = * = & * = = * * * & & * = = * = & & & & & * & * & & & & & = & & & & & & * % * % = = * & * = * * * * * * * * * * * % = = * = * & & * * % * * * * 6 | lXlX;X&X&X;X&X&X-X&X-X;X;X*X=X XZ.N.7.N.B.b.N.N.B.B.B.N.B.Z.B.b.b.b.N.6.b.6.N.N.v.N.v.6.N.6.7.7.N.6.7.b.7.v.7.b.7.N.B.v.@.; k l h c k 3 c c z h c k c c k v 3 c 3 0 3 z 0 z 3 u h h 3 c 3 k h e h e h k 3 k 3 3 h h h h h j l 3 k k j k k l k k h l 3 j j j 0 j 0 l 2 l 2 j k l j j l j 0 j 0 j k j j 2 k h h h h h h h k c k k 0 k k 0 k h 3 u O =.N.N.B.A.A.B.B.C.A.C.A.A.V.B.V.B.A.A.B.B.T.B.C.C.A.B.B.N.N.<Xt e m v v c v v v m x x v v m s ,XS.V.V.V.C.V.V.C.N.V.9.S.V.OXp e x x x x v v v l v l m l i f R.0.C.9.0.R.C.0.C.0.9.9.9.R.,Xr x x v v M v b v b M l M l b r ,XR.9.R.q.S.V.N.S.S.S.N.N.S.~.: l l v v l l v v v v v b x : Q.R.S.V.N.A.S.N.S.N.S.V.S.N.S.I. XXXXX.X#X.X#X.X.X#X#X#X#XoX#X#X#X2X#X#XXXXX#X#X#X#X#X#X<X2X2X|                   ",
"                                                    GXh h h h h j k k j j h j l j l h h h l j l l j k 2 j l 2 k j l k j k j j k j 3 j l l j k 3 h h h h h h h h h h l j h h h j j l j h j B h h h l h l h h l : !.S.S.V.N.N.V.N.9.N.N.9.V.q.N.V.b.b.Z.b.M.b.b.b.b.b.b.b.b.b.b.b.B.0.B.0.B.B.B.B.B.B.V.C.V.J.%X*XgXgXgXgXgXfXgXfXfXgXgXgXhXtX6 * = % * % % % % & = = % = & = * = % & & = & > * * & = * = * = * = * = * * = * = * * * & & * & = & * = & & * & & & * & & = & & & & & % & & = = & & % = = & * = = * * = * = * = * = & * % = = = * = & * = * = * % * * $ | lX-X&X;X&X&X;X&X-X-X-X-X&X&X;X}.A.B.b.B.N.B.B.b.B.N.b.b.B.N.b.v.6.v.6.N.v.b.v.b.N.N.b.N.v.B.N.6.6.7.N.7.N.7.N.7.N.N.7.N.Q.: c v 0 c c c c c 0 c c c c 3 c 3 u 3 h z z 3 h h u 3 c h z c 3 3 c h h c 3 3 c 3 k k 3 h k h h l j h h k j k j 3 j j h k j l 3 l j l j 2 k 2 l k 2 2 l 0 j l j k j k 2 2 k k j j h 3 h k h 0 k k k c k k h h k c 3 u @ ~.Z.N.N.B.C.C.A.A.C.C.A.C.A.A.B.B.B.C.B.B.8.B.A.D.A.B.C.N.N. Xt m x v x v v v c x v x v v m s ,Xq.V.9.V.V.V.N.N.C.V.V.N.q.}.r e x D b b v l v m v v v v i f R.9.C.9.0.9.9.C.9.C.0.0.9.9.,Xr m M b b v M b b M l B M b b s <XR.q.V.9.S.V.N.S.N.S.S.S.S.~.: v c v l b v v v v b v x b : *.R.V.S.N.N.S.S.V.S.S.N.N.S.V.L.{.XXXX#XXX#X.XoX#XoX#XXX#X#X#X#X#X#X#X<XXX#X<X>XXX2XXX#X#X#X2XF                   ",
"                                                    GXh h h h h k k k j j l h l l j j l h j j h j l j l k k j k k j k 2 2 k k 2 j l j 3 3 l 3 l k h h h h h h h l j h j l h h h h l l j h h l h h h j j h h l : ~.Z.V.V.V.V.V.S.N.N.7.9.V.N.N.N.b.b.b.M.b.b.b.b.b.6.b.6.b.b.b.0.0.B.0.C.B.B.B.B.B.B.B.B.8.J.%XfXgXgXgXgXgXgXfXgXgXfXjXfXhXtXo * % % = = % = % = = % = = = = & * % * = * = * = = = = = * * * = = * = & & * = = * * * & * & & & & & & & & & & & & & & & * = & = * = & & & & & & & & = & * = * * * * * = * * * = * * * * = * = = * * * = * * % % ; > o | *X&X;X&X;X;X&X;X-X-X-X-X;X&X%X}.J.A.B.B.b.N.N.B.N.B.N.N.B.N.N.N.6.b.N.b.b.v.N.v.N.b.N.v.N.N.7.N.7.b.7.6.8.6.N.7.7.N.7.m.#.< l c l k k c c k c c k h c h c h 3 3 e 3 u 3 e 3 3 z 3 3 c 3 k h h h h h 3 k 3 c h k h h h h h l j j k j h j h l j 0 h l 3 j 0 2 l 2 k 0 k 0 j l j l 2 l 2 j 0 j 0 j l l k j k k j h 0 0 h h k k c k k k k k c c h u O '.Z.N.B.A.A.C.C.A.D.C.A.C.A.B.C.B.C.A.A.B.B.B.C.A.C.C.B.N.N.<X7 m v v v v v v v x v x x x i g ,Xq.9.V.9.V.N.V.V.B.V.V.V.V.~.r D b v m x v m v l v v v v i f R.0.0.C.0.0.C.9.C.9.0.R.9.9.<Xr x M x b b b b b b M l n b b r ,Xq.q.V.S.S.V.S.N.S.S.q.R.S.~.: v l v v b l v v v l b x m e *.L.S.S.N.V.S.S.S.V.S.V.S.N.S.J. X XXX#X#X.X#X#X.X#X#XXX#XXX.X#X#X<X#XXXXX6XXX#X6X6X#X#X6X<X3XQ.                  ",
"                                                    x h z z h h k j l k h l j j j h h h h j l l k j l j k j k k j 0 j l k j j l j 3 l l 3 j j j h h h k h h h h 3 l j l j h h l j j h l h h h h h h l h h h l : ~.S.q.V.N.q.N.q.N.9.8.N.7.V.7.N.N.b.b.b.b.b.b.b.b.b.b.b.b.b.b.B.B.B.B.B.B.0.B.B.B.B.0.B.V.U.%XfXgXgXgXgXgXgXgXgXgXgXgXfXhXtX6 * % % % % % = % = % = = = = = = = * & * = & * = * * = = & = & * * * & * % % = = = = & = & & & & & = & & & & & & & & & % & * = = = = * = = & & & & & & & & = = & = * * * * * * * * * & = * = * * = & * = = % * = % > . ^.fX;X&X;X&X*X;X&X;X&X&X;X&X*X%X{.Z.B.N.B.N.b.B.8.b.N.b.B.B.N.N.b.v.6.v.6.N.6.N.N.v.7.v.N.v.6.7.6.7.N.7.7.8.8.7.6.8.7.V.Z.#.: c c c c c c k c h h c z 0 c z h u h u 3 h h u e h 3 k c 3 c 3 e 3 k e 3 c h c c 3 h h h h h h 3 3 l j h h h h 3 j l j j j l j l j l j 0 j j k j 0 2 l 2 l j j k j 0 4 k j k k k h h 3 h k k k k 3 k k h 0 k k c 3 e O ~.Z.N.A.C.B.B.A.B.C.A.C.C.B.A.B.A.B.B.C.A.A.C.A.B.B.C.B.N.N.<Xr m x v v x v c v v x v m b e y ,XS.V.9.V.V.V.N.V.B.V.V.V.V.,Xp e c v v v v v v m v v l v t f R.C.C.9.0.9.9.V.0.C.0.9.9.9.<Xr b x b b v M v b v M B b b b r ,XR.R.V.S.S.V.S.S.V.N.V.q.U.~.1 l b v v l b l l v v l x x + !.L.S.S.S.A.S.N.V.N.S.N.V.V.S.I.{.XX#X#XXX#X#X.X.X.X#XoX#X.X#X.X#X2X#X6XXX#X#X#X<XXX#X#XXX2X3XF                   ",
"                                                    x h h h h l j l l h h j l h j l h h j l h j j k j k j k k j k j k 2 k k l j 0 j l 3 j 4 3 l h h h h h h h h j k h h h k h j l h h h h h h h l h h l z h v : !.V.q.V.V.V.N.7.N.7.N.7.N.q.N.N.b.b.b.N.b.b.b.6.b.b.b.b.b.6.b.C.8.B.0.0.B.8.B.8.V.B.B.V.V.Z.%XfXgXjXfXgXgXgXgXgXgXgXgXgXhXtXo * = % = % = % % = = = = = = * = * = * = * * = = = = & & = = * = * = * = * = = = * = = = & & = & & & & & & & & & * & * = * = = & = & & & & & & & = = = & = = * = & & * * * * * & * * * * = = * = * = = = = * % * % * o ^.lX;X;X&X*X&X&X;X&X-X-X-X;X-X%X XZ.b.B.B.b.b.B.B.b.B.B.B.b.N.b.v.v.b.v.b.v.b.N.v.N.7.v.v.7.B.7.6.8.7.6.7.6.8.8.8.8.7.7.m.@.: c v l k v c k k c c k k c h 0 h h u 3 3 z 3 3 0 3 3 z 3 z 3 3 3 3 c h c 3 3 h 3 h 3 c h h h h k h h k h h h h j l j l 3 j j k 2 j 2 k j 0 j k l 2 k 2 l 2 l 2 l 3 3 j h h h v k h h h k 3 c 0 k 0 0 h k k 0 h c 3 e O '.x.B.B.B.A.B.A.B.B.B.C.C.A.V.A.B.S.C.A.C.A.C.A.C.B.C.B.B.B.<Xt m v v v v c x v x v v v b e s ,X9.9.V.V.C.V.N.V.V.S.9.S.S.,Xr c v v v c v v v v v v v v i f R.9.R.0.0.9.0.R.0.0.0.0.0.R.1Xr Z x x x M x x b h B l l M b r ,XR.q.V.S.S.V.S.q.V.S.S.q.S.~.9 l v l b l v l v v v v v b 9 !.L.D.A.S.N.S.S.A.S.S.N.C.S.N.P. XXXXXXX.X#X#XXXoX#X.X.X.XXX#XXX#X#XXXXX<X6XXX#X>X#X#XXX#XXX6X|                   ",
"                                                    z h z x h h j l j l j h j l l j h h h h l j l j j k k j j k k k j k j 2 0 j j l j j l l j j h h h h h h l h j l h h k j h h h h h h h h h h h h h h z h l - ~.S.V.q.N.q.N.N.N.N.7.7.N.7.V.N.N.b.b.M.b.b.b.b.b.6.b.b.b.b.b.B.B.V.B.B.B.B.B.B.B.B.V.V.V.J.%XfXgXgXgXgXgXgXgXgXgXfXgXgXkXtX6 * = % % = % = % = = % = % = & * = & = * = = * & & = = = * * = * & * = & = * = * = = = & & & & % = & & & & & & & & & & & = = = = & = & = & & & % = = = * * & = = * * * * * > & * % * & & = * = = * = = * % % * % * % . | gX&X&X;X;X&X;X-X;X&X-X&X-X*X=X}.Z.B.B.B.N.N.B.N.7.b.N.B.N.N.v.7.v.6.6.N.b.N.b.N.v.b.N.N.v.7.7.N.8.7.7.7.7.7.6.7.6.6.7.N.Q.< k l c c 0 c c c 3 0 c c h c c c 3 e h u 3 u h z h u 3 k h 0 c c 3 3 k 3 3 z 3 3 c 3 c h k h k h h h h h h h h k 3 k j 3 l 3 l k l j 0 0 2 l 2 k l j l j l l k j h l 3 h h h h k k h k h k k k 0 v k c c k k c v 0 u O ~.Z.S.C.B.C.B.V.A.C.B.A.B.B.A.B.S.V.S.C.C.C.C.C.A.D.B.B.V.B.<Xt c c v x v v x x m v v c m m s ,Xq.R.9.V.V.N.C.V.N.V.N.V.q.,Xr u v v v v v v l v v c v x e #.R.q.0.9.0.0.0.0.9.0.0.R.9.9.<Xr x x N x x M b x B l B M B b f <Xq.R.N.V.S.S.S.S.S.S.V.S.J.~.: v v v l v v v l v v v l v : !.L.D.B.S.B.S.B.S.S.N.N.S.Z.S.I.{.XXoX#X#X#X#X#X#X.X#X#X#X#XXX#X#X#X6X#X#X#X#X#X#X#X#XXX6XXX5XF                   ",
"                                                    x h h z z h l j l j l j h j h h h h h h j h k j l j j l j k 2 l 2 j 2 j j j j j j 3 3 j l 3 j h h h h h h h h h h k k h h h l x h h h h h h h l k k k l c : !.R.N.7.7.N.7.N.9.7.7.N.7.N.V.N.b.b.b.b.b.b.b.b.b.b.b.b.b.B.b.B.V.B.B.B.B.8.B.B.B.B.V.V.N.U.%XfXfXfXgXgXgXgXgXfXfXgXgXgXgXtXo * = = % = % % = = % = = % & = = * * = & * * = = * * = = = = & * * * = * * = * = = = = = = = = & = & & = & & & % % & * & = & & * = = & & & & & = = & = & * = & = * = * * * * & * * * = * = = = = = = = = % % * % * * o ^.lX;X;X;X&X*X-X-X-X-X-X;X-X*X4XoXS.N.B.B.B.B.B.b.B.N.B.7.b.N.b.6.N.v.6.v.7.N.b.N.b.N.b.B.6.7.7.7.7.7.6.6.7.7.6.7.7.8.8.x.@.: v v c c u c c c k z z z c c c u k 3 c 3 c h u 3 e h z c 3 h z z h 3 c k z 3 c c h c k h h h h k h h h h 3 h h h h j 3 j j l j k j l 2 2 l 2 l j k l 2 l k 2 l 3 k h h h k l h h l k 3 k 0 h 0 h k k k k k c k k h u O OXN.S.N.C.B.B.A.B.C.A.C.A.C.B.B.C.S.C.C.S.B.A.B.C.C.B.0.V.A.<Xt c m m x v v x m x v v x x e s ,Xq.q.9.9.V.N.N.V.V.V.V.V.S.<Xr 3 l v c v v v v c c v x m e #.R.q.0.C.0.0.0.9.9.0.0.0.0.9.<Xr x x x x M x b h x B M b l n p ,XZ.V.S.N.S.V.S.S.S.S.S.q.S.~.: l l v v l v v v v v l l b 9 !.L.D.V.S.B.V.S.S.S.V.B.C.Z.Z.H.oXXXXX#X#XXX#XXX.X#XXX#XXXXX#X#X#X#X2X2XXX>X<XXX6X6XXX#XXXXX5XF                   ",
"                                                    x h h h h h j l j l j l h h l k h j j l l h k k k k k k 0 j l 2 l k k 0 j 0 0 j l l j 0 j 3 l h h h h h l z k k l j h k l h h h h l B j h l h x v k c l l - !.S.N.N.7.N.N.7.N.N.9.N.N.N.V.N.b.b.B.b.b.b.b.b.b.b.b.b.b.b.b.b.B.8.8.8.8.B.8.B.B.V.V.S.N.Z.%XfXgXfXgXgXgXgXgXgXgXgXgXgXkXtXo % $ % = % = = & & = % = = = = * = * = = * & = = = = = & * = * = * = * & = * = * = = = = = * = * = = & = = = = = & * & = * = = = = & & = = & & * = & & & & & & * = * * * * * * * * * * & = = = * * = * * * % * % * * . | lX;X-X&X&X-X-X;X&X&X-X-X;X*X%X}.Z.B.N.b.N.N.N.N.B.N.N.B.B.7.N.v.v.6.N.v.N.v.N.v.7.b.B.6.b.7.7.7.6.7.7.7.8.7.8.7.8.6.8.S.Q.1 c l u c h k k u k u c 0 c k e h 3 u 3 0 c 3 3 0 c 0 z 0 c h h h h k 3 h h z h 3 h h z h k 3 h h 0 h h h k k 0 0 h h k k 0 3 l 0 l 2 k l j k j l 0 k k 2 j k k k k k k k k k c 0 0 0 k k c k k k k k k k c 0 k 0 l u O ~.q.q.S.B.B.C.B.A.B.A.B.A.S.B.B.C.A.A.C.A.S.B.B.T.C.D.B.C.S.<Xt c v v x v x v x x x v b x m s ,Xq.R.9.9.C.V.V.N.V.S.V.V.V.<Xr c c v v v l v v v v b i i e f R.q.9.9.0.0.0.0.9.R.9.9.0.R.1Xr e x N x x M x B b b l b v b s OXS.N.S.S.S.q.S.V.q.S.S.S.S.~.9 b v v l v l v l v l v l b 9 !.K.S.N.C.B.A.B.B.B.S.B.A.S.Z.Y.+X#XXX#XXXXX#X#X#XXXXX#X#X#XXXXXXX2X<XXX#X#X#X#X#XXXXX6X X<X5X|                   ",
"                                                    v h h h h l h h h h j h h h h z h h h h h h j k l j z h 3 z 3 3 3 z 3 3 c h h h h h h h h h 3 h h h h h 3 0 c k h h h 0 z e k l c l k v v l x h v h z u x - !.J.N.N.V.B.N.N.N.7.7.N.N.N.N.N.v.N.v.b.6.b.b.b.b.b.6.b.b.b.0.b.0.0.0.0.C.8.B.B.B.B.0.B.B.J.%XhXhXfXfXfXgXgXgXgXgXkXgXgXhXtX6 % = * = * = * = % % * & & = = * * * = = = * = * = & * & * = * = * = & * * % * = * & & & & & & & & & - & & & & & & * * * = & & % & * = * * = & & & & & & & & & & - & & * * * * * % * * = = * = * * * * = * * % * % ; 6 W.gXfX&X&X;X-X-X-X-X-X-X-X-X*X%XOXS.V.N.N.B.N.B.B.N.B.N.N.B.N.b.b.v.N.b.N.v.N.B.b.B.6.8.8.8.6.7.7.7.7.7.7.7.7.7.6.7.7.6.S.@.e u u c e c u z z c u c k u z z h 3 e 3 e 3 3 z 3 u 3 h z 3 h k h k l h h v h k k j k h l j h k h h h k k 0 k k 0 h c 3 3 h 3 3 j j j l 3 k k h h h z z 3 h h h h l h h c 0 e z 3 u 3 c e 0 z k 0 c 0 c c k h z z e e + '.Z.A.C.C.B.B.A.A.B.C.B.C.A.B.B.A.S.C.D.C.A.C.B.C.A.C.C.C.A.<X7 m v z x v v c v x v v v x e s R.V.V.V.N.V.V.V.B.V.V.D.V.V.<Xr e x c c v b l v l v b v l 1 _ R.9.0.9.9.0.9.C.C.9.9.9.9.9.1Xt M x x B B x B B h B h B x b d }.S.S.S.S.V.q.S.V.S.S.S.q.x.~.e x c c l b l l l v l v c u e !.L.S.N.Z.A.A.A.Z.A.V.S.A.S.q.I.<X2X@X2X2X@X@X@X#X2X#X.X@X#X.X.XXX@X2XXXXX#X#X6XXX>X<XXX#X2X3XW.                  ",
"                                                    v k h h h h h z h z h h h 4 3 z h h h c 3 3 0 j 0 k z z 3 0 e 3 3 3 3 3 3 3 h z 3 3 3 3 e e 3 e 3 h h h c 3 3 3 z u z z c e k v l l l l l c l l l l c c h % #.U.N.N.N.N.N.B.N.7.N.7.N.N.N.N.N.b.b.b.b.b.b.b.b.b.b.b.b.b.b.T.B.C.b.B.8.C.0.B.B.B.B.B.V.J.%XfXhXhXgXhXgXgXgXfXgXgXgXlXhXtX6 = % % % * * = * * * % * & * % * * * * * = = * * = & = * & * = * = * * * * * * * = & > * * > & & & & & & & & > & - = & * * * & * * * & % * * % * & & & > & & & & & & & * & * * * * * * * = = * * * * * * % * * % * * . | xX&X-X;X&X&X-X-X&X-X&X-X-X*X4X{.Z.N.N.N.N.N.B.N.A.A.N.N.N.N.b.b.B.b.6.6.N.b.B.B.b.b.b.6.b.N.7.N.8.7.N.7.6.7.7.7.7.7.7.V.*.t i i c u u 0 u u u c e z e e e e 3 3 e 3 u 3 3 3 e u 3 e 3 e e e 3 3 0 e 3 0 3 k 0 0 k 3 3 3 3 3 0 3 k h k c k v c u z 3 0 3 h k 0 0 2 3 e 0 k k c e e u h 3 h e 3 3 h 3 z z z u h u 3 e e u e c 3 k k 0 k k h c x e 9 OXD.C.A.D.B.D.B.B.C.A.B.B.B.B.B.B.B.A.A.A.C.B.C.C.D.C.B.C.T. Xt c c c v v v x x v v x v x e s ,XV.V.N.N.V.N.V.V.C.V.V.V.C.<Xr c x x b v v l b l v l l k i f R.V.0.9.0.R.9.9.9.0.9.9.9.9.<X7 x h B x h x h x x x B x x M p {.J.q.q.S.S.S.S.q.V.V.S.S.S.~.+ b v v l n v v v l v v m e e *.L.A.A.Z.Z.A.Z.Z.A.S.A.A.S.Z.I.3XcXcXcXcXcXcXcXcX3XcX5XcXcXcX5X<X$XXXXX<XXXXXXXXX<X#XXX<X<X3XF                   ",
"                                                    i + + 9 7 9 9 : O + 9 O + 9 9 9 + + 7 7 7 + + + O 8 + + 7 7 + + 7 + + 9 7 7 7 7 7 7 t + t + + 7 9 7 : + + O + 7 + : 9 7 e 7 9 9 9 9 i 9 9 : 9 : : O : : + X @.x.N.N.B.N.N.B.b.N.B.7.N.N.N.N.N.b.N.b.b.b.b.B.b.b.b.b.b.b.b.b.b.B.0.B.B.8.B.8.V.B.0.B.N.J.%XfXfXgXhXgXfXgXgXgXgXgXfXgXhXtXo % * * * * * * * * * * > * * * * * * * * * * * > * * & * * * * * * * * * * * 5 > * > > * * * > & > > > & 5 > > 5 & > * * * * * > & * * * * * * > * & & > - - & > > * 5 > * * * * * * * * * * > * * 5 * * 5 ; * * * ; o W.-X;X-X&X;X-X-X-X-X-X-X-X-X=X%XOXZ.B.B.B.N.N.B.N.N.S.N.N.N.A.5.c.c.c.5.c.M.M.c.c.c.c.c.b.c.v.N.N.6.N.6.N.7.8.8.6.7.6.8.S.*.r t r 7 + @ + + + + + + + + 7 7 + + + @ @ + + 7 + + + + + 7 + : + : : + 7 9 : : : + : 9 : 9 9 + + 9 9 O O + 7 + + + + + O O + O O O O 8 7 7 7 7 7 t + 9 t 7 7 7 7 + 7 7 7 + O O + + 7 + + 7 + + + @ + + + O @ @ O O @ @ '.S.Z.A.C.B.B.B.A.B.B.B.S.B.S.C.C.A.C.A.C.A.C.B.B.A.C.0.9.S.<Xt z v v x x v x v x v x v x m s ,XN.V.V.N.V.N.N.V.C.V.C.V.V.<Xr u c v c v v v b v l v l v i f R.R.0.9.0.9.0.0.C.9.9.C.9.R.1Xr M B h x x B x B B h x M v N s ,XS.S.S.V.V.V.V.Z.S.V.V.S.N.~.9 c v c v l l l v l v l v v 0 !.L.N.S.Z.Z.A.A.S.Z.Z.S.Z.Z.S.*.@ o @ o + + + + + + + + + + O f 5XXXXXXXXXXXXXXXXXXXXXXXXX2X2XF                   ",
"                                                    tXlXxX;X&X;X%X;X*X:X;X&X;X*X*X=X|.OXOXOXOXoXOXoXoX|.OXOX|.|.|.OXOX|.oXOXOXoXOXOX|.|.OXOXOX|.OX~.|.|.|.|.|.|.|.|.|.OX|.|.|.|.'.~.=.~.!.~.~.~.~.~.~.~.~.|.~.~.I.6.S.N.N.8.N.N.7.N.N.N.N.7.N.N.b.b.N.b.B.b.b.b.b.b.b.b.b.b.b.0.0.0.B.8.8.B.0.B.B.B.B.B.N.J.%XhXgXfXgXgXfXgXgXgXgXgXfXgXjXtX. ; ; * * * * * * 5 > > * * > * * * * * * > * * > * > * & * * * * * * * , * * 5 * > > > 5 * > * > - - > > > & 5 & 5 > * > > > * * > * > > * > > * * > > & * - > > > 5 * > * * * < 5 , * > * * * * > * * > * * * * * * o G 4X-X&X;X&X-X-X-X-X&X;X-X-X*X%X,XS.B.B.C.N.N.B.B.B.N.N.V.N.M.>.>.e.;.;.;.;.;.;.:.-.:.>.:.>.x.x.q.6.6.q.6.6.6.6.6.q.6.6.6.A.}.<X XOXOXOX'.OXoXOXOXOXOXOXOXOXOXOXOXOXOXOX'.OX|.'.OX|.|.|.~.~.~.~.~.~.~.~.~.~.~.!.~.~.!.!.~.~.~.~.~.~.~.~.~.~.~.~.~.|.OXOX|.oXoX|.'.`.~.|.|.'.'.'.'.'.'.'.|.OXOXOX|.|.OX|.OXOXOXOX|.|.|.OX|.|.OX|.|.|.OXOX|.|.~.OX%XoXP.Z.S.A.A.B.A.C.B.C.B.C.B.B.B.B.A.C.A.V.A.B.B.C.B.B.A.C.C.V.<Xt z m v x m x x x m x x m x m y ,XV.V.V.V.N.C.C.S.C.V.V.C.V.<X+ c v v c v l b l l b l v l i f R.9.0.0.R.9.0.9.9.0.9.C.9.9.1Xr x x h B l b x x h B b b b N s ,XJ.S.V.S.q.S.V.V.V.S.N.N.x.~.9 b v c v l n m v v v c v v 9 =.K.S.B.B.M.Z.B.M.M.Z.N.Z.Z.q.=.@ ; e e < 2 1 4 < 1 4 3 2 ; ; F 5XXX<X XXXXX XXXXXXXXXXX.X<X3X|                   ",
"                                                  D *X2X@X.X.X#XoX.X@X.XXX.X@X#X.X XL.S.S.L.K.L.L.L.L.J.A.S.L.L.D.L.Y.K.I.J.K.A.K.A.D.A.Z.K.Z.K.P.J.J.J.Z.K.Z.Z.J.Z.J.m.m.Z.x.x.x.m.Z.m.Z.m.Z.Z.S.L.S.Z.m.x.q.x.6.N.N.N.N.N.N.N.N.B.N.B.N.N.N.N.N.b.b.B.b.B.b.b.b.0.b.b.b.b.b.T.B.B.8.b.B.8.8.B.B.B.B.C.V.J.:XfXfXgXfXgXgXgXgXgXgXgXgXgXgXtX. * * * ; * * * * * * * * * * * * * * * * * * * * * % * * & * * * * = * * > * * * * - > > * 5 - > 5 > > & > 5 5 & 5 = > * > * * & * * * * 5 * * > * - > > * > * * * * 5 * * * > 5 * * 5 > * > * > * 5 * * * * * * * * # | lX&X-X&X-X-X-XlX&X-X-X-X-X*X%X}.Z.N.B.N.B.B.N.B.N.N.B.V.N.A.>.e.r.e.r.r.r.r.:.r.:.:.i.:.;.x.v.x.6.6.7.6.x.x.6.v.N.N.6.6.6.N.v.v.x.q.x.v.x.m.x.x.x.x.x.x.x.m.A.Z.Z.Z.Z.J.Z.G.G.Z.G.G.G.A.K.Z.m.K.A.n.Z.J.Z.Z.J.m.m.Z.J.Z.K.G.I.J.m.K.m.J.G.A.Z.J.Z.m.K.Z.G.G.J.K.A.m.Z.A.A.Z.m.N.M.Z.Z.x.J.m.Z.m.Z.b.Z.Z.A.J.Z.S.m.Z.Z.A.m.S.m.Z.Z.Z.A.Z.N.S.J.S.S.0.A.B.C.B.B.C.V.A.B.B.B.B.C.B.C.B.B.A.C.B.A.C.B.B.B.A.V.8.V.<Xt z c v m x v v v m x v v v b y ,XV.V.S.V.V.C.S.C.C.V.C.C.7.<X+ m v b c v v v b b v v l m i f R.9.9.9.9.9.R.0.0.0.9.9.9.9.1Xr e x x b x x x l x B h B b N p OXZ.N.q.N.N.q.q.S.S.V.R.q.R.~.9 n l v v v l v v v l m v b 9 !.Z.S.N.Z.Z.Z.Z.Z.A.N.N.m.Z.S.*.@ e , 2 , 2 , , , , , 2 4 4 ; F 5X XXXXX X XXX XXXXXXXXXXXXX3XF                   ",
"                                                  GX).#X@X.XXX#X@X@X#X.XXXXX#X#XXX{.K.C.B.S.S.S.S.A.S.A.S.D.D.D.D.S.B.Z.S.N.Z.Z.N.Z.Z.A.D.Z.Z.A.S.b.m.Z.m.m.m.Z.N.b.N.v.N.m.m.Z.S.N.N.v.v.b.N.N.N.b.N.N.b.V.N.6.7.7.N.N.b.N.7.N.N.N.N.N.N.N.N.N.N.b.b.B.b.b.B.b.b.b.B.b.0.B.b.0.0.8.B.8.8.B.0.B.B.V.B.B.N.J.%X*XgXgXgXgXgXfXgXgXgXkXgXgXgXtXo * % * * * * 5 5 * * * * * * * * * * * * , * * > * > % * * * * * * * * * > > * > * & & > * & 5 > & - & & > & & 5 & > * * - 5 5 - > 5 5 * * > * > * * * & * * ; * 5 5 * 5 * 5 * * > * * * * * > * * * * * 5 * * < * * $ | lX-X-X-X&X-X-X;X-X-X-X-X*X*X%XOXS.B.A.N.B.B.B.A.C.B.B.N.S.A.;.e.r.e.:.r.r.e.e.r.r.r.e.:.>.v.6.6.6.6.6.6.v.v.7.v.6.6.6.v.v.N.Z.N.v.q.v.v.v.Z.x.m.x.x.v.m.v.A.A.Z.A.S.N.Z.S.A.A.A.A.A.A.A.A.Z.Z.Z.A.Z.Z.Z.Z.A.A.S.D.A.A.M.Z.Z.A.Z.Z.A.Z.N.Z.M.Z.N.m.b.N.A.A.b.Z.A.A.A.Z.N.b.N.Z.N.b.N.N.N.Z.Z.A.B.A.A.A.Z.N.S.A.A.N.Z.A.b.A.B.A.S.N.D.S.B.A.N.A.S.A.V.A.B.B.B.S.A.B.B.B.A.C.A.B.B.B.C.A.B.B.A.C.B.B.B.B.B.B.V.S.<X7 m m v v b x v v b v v v b c s R.V.V.V.V.C.V.V.C.C.V.C.V.V.<X7 c v v c v l b l l l v l l p f E.9.R.9.9.9.0.0.9.9.R.9.9.9.<Xp x x v v x v j B h B x x b B s ,XZ.N.S.S.S.S.S.q.q.S.q.q.q.~.9 v v c v l v v l v v l v v i !.m.S.N.b.N.N.N.N.N.N.N.Z.N.b.=.@ , 2 2 2 2 2 2 4 2 2 2 , 2 - } 2XXX XoX XXXXXXXXX XXX XXXXX6XF                   ",
"                                                  GX).@X.X.X#X#X#X.X.X#X#X#X#X#X.X+XL.S.S.A.A.S.A.S.A.S.A.A.A.A.D.D.A.N.B.A.Z.D.B.A.A.N.Z.A.B.S.N.v.m.N.N.N.m.v.Z.v.m.Z.v.Z.Z.N.N.N.N.N.6.7.b.7.b.N.6.6.N.N.N.N.v.N.7.N.N.7.N.B.N.B.N.N.N.N.N.B.N.N.b.b.b.b.B.b.b.B.b.b.b.T.b.b.B.8.B.8.B.8.B.B.V.8.V.N.S.J.%XhXgXgXgXgXgXgXgXgXgXgXgXgXgXtXo * % * * * * * * * * * * % * * * * * * * * * * * * * * * * * > * * * > * = * > * ; * * * 5 & 5 5 & > > > > 5 5 > & * * * 5 * * * > * 5 5 * * * * * * 5 * * * * * 5 * * 5 5 * * * * ; * * > * * * 5 5 * * 5 * 5 * * > 6 | fX-X-X-X&X&X-X-X-X-X-X;X;X-X=XoXZ.A.B.B.B.B.S.B.C.A.B.B.B.M.o.;.e.e.:.e.e.e.e.r.e.r.;.;.>.v.v.6.6.q.N.7.v.6.v.6.6.v.q.v.v.x.v.v.N.m.v.v.v.v.m.v.Z.m.Z.v.Z.A.Z.A.A.A.Z.Z.Z.M.A.Z.Z.Z.Z.A.N.Z.Z.Z.A.A.N.Z.A.Z.A.A.A.A.m.M.B.Z.M.Z.A.A.M.N.M.N.M.m.N.N.Z.M.A.N.A.B.b.b.b.A.N.N.N.N.Z.N.N.b.Z.m.N.Z.N.S.N.S.N.N.N.N.N.Z.B.A.B.B.B.S.B.A.B.N.Z.N.N.N.A.S.A.B.A.B.A.C.A.A.A.B.B.B.C.A.B.B.B.A.C.A.A.B.V.B.C.V.V.V.N.<Xt c c v v b c v v v v b x x x s R.V.9.V.V.V.C.C.N.C.C.V.C.S.,X7 m l v v v b l l n v m v v e f E.9.0.9.9.9.9.9.9.9.9.9.9.9.,Xr D x v x m x x x x x x B x B f ,XZ.N.q.N.N.N.S.V.S.q.q.q.U.~.9 v v v v v v v l m v v m c t !.J.N.N.N.N.Z.N.v.N.N.b.N.N.J.~.+ e < 2 2 , 4 4 , 2 2 2 < 2 ; d 5X X XXXoX XXXXX XXXXXXX XXX5XF                   ",
"                                                  GX).@X@X.XXX#X.X#X.X.X.X.XXX.XXX{.L.S.A.D.S.A.S.A.S.D.S.A.A.A.D.A.A.A.Z.Z.A.A.A.A.A.A.A.A.A.A.Z.b.N.v.b.v.v.N.m.Z.v.m.Z.b.m.m.v.v.N.v.N.N.6.6.7.v.7.b.v.N.b.N.N.N.b.N.N.b.N.N.N.N.N.N.V.N.N.N.b.b.N.b.B.b.b.B.0.b.B.b.b.b.8.0.B.8.8.B.8.8.B.0.V.9.V.S.V.J.%XhXtXfXgXgXgXgXgXgXkXgXgXgXhXtXo ; * * ; * * 5 * ; * * * * > * * * * * * * * * * * * * * * * * * * > * * > * * * * * * 5 * 5 & > > - & > - & 5 & > * * 5 * * 5 * - * * * > * 5 * > * * 5 * > * * * * 5 * * 5 * 5 * * > * > * ; * > * 5 * * * * * > * % | &X&XlX-X-X&X&X-X-X-X-X*X;X*X%X}.S.B.N.A.N.B.N.B.N.A.B.B.N.Z.;.e.:.r.r.e.r.:.r.e.r.r.e.<.O.v.v.q.6.v.v.6.6.x.N.6.v.v.6.q.v.v.N.N.v.N.N.v.N.N.N.v.v.v.v.x.N.Z.Z.B.B.M.Z.Z.Z.A.A.A.Z.A.M.A.Z.N.Z.A.b.Z.A.A.N.Z.A.A.A.A.Z.Z.Z.Z.A.A.b.A.A.A.A.Z.Z.Z.Z.M.N.Z.A.A.b.b.A.N.A.b.Z.b.A.N.N.m.Z.b.N.N.N.b.Z.N.N.N.b.N.b.N.m.N.A.B.A.B.N.A.A.A.B.A.N.S.A.B.A.A.B.S.B.B.S.A.C.C.V.B.A.A.B.C.B.A.B.A.V.B.N.B.B.B.0.B.8.B.N.oXt c v v v v b v c b x m m x x r ,XS.9.S.V.S.N.V.C.V.C.V.C.S.<X7 c v b v v l b l l n l v v i f E.9.0.9.9.9.R.9.9.9.9.9.9.R.,Xp x x x x x x B h B x B j x B p ,XZ.q.S.S.N.S.q.V.V.S.V.V.S.~.t v l v v l v l l v v l c u e !.S.N.m.N.N.N.N.N.N.N.N.Z.N.Z.=.@ e , 4 4 4 4 4 4 2 2 2 2 2 % f 5X X X XXX XoX XXXXX X+X>XXX5XF                   ",
"                                                  GX)..XXXXXXXXX#X.XXXoXXXXXoX#XoX{.K.A.C.S.A.S.S.A.A.S.D.Z.A.A.A.A.A.A.Z.A.A.B.A.A.B.A.A.A.A.A.Z.N.m.N.N.m.m.N.v.Z.x.Z.m.m.N.x.b.v.N.b.N.N.N.b.N.N.7.6.v.N.v.N.N.7.N.N.N.N.N.N.B.B.7.N.N.N.N.V.b.T.b.b.0.b.b.b.b.b.b.b.b.b.0.b.8.B.b.0.0.b.0.0.B.0.C.B.B.L.%X*XgXgXgXgXgXgXgXgXgXgXfXgXgXtX6 % % * * 5 * * * * * * > * * * * * * * * > * * * , * * * * * * * 5 & > 5 & & - > & 5 5 5 * 5 5 * 5 5 > & & 5 - > > - & * > > & - > 5 * 5 * * 5 * 5 > & > & * > * < 5 * 5 * * 5 * 5 * * * 5 ; * > < * 5 * * 5 * * * 5 % | &X;X&X&X&X&X&X;X&X-X-X;X;X*X%X}.S.A.N.B.V.B.N.N.B.S.V.B.N.A.o.i.;.r.;.r.r.;.r.e.r.r.;.<.;.v.6.6.q.x.v.6.v.v.7.x.v.v.q.v.7.N.v.N.v.N.v.N.N.v.N.b.v.N.v.m.m.M.A.B.Z.A.Z.Z.m.A.A.A.Z.A.M.Z.A.A.A.Z.B.A.Z.b.A.N.A.Z.A.Z.A.M.b.Z.b.Z.b.Z.A.A.A.A.M.A.Z.Z.b.Z.A.N.b.A.b.A.b.b.A.Z.B.A.N.b.N.b.N.N.Z.N.Z.N.B.N.Z.N.Z.Z.N.N.A.N.A.A.B.A.A.B.A.N.S.A.N.A.Z.A.A.A.C.C.B.C.A.S.B.C.B.B.C.S.B.B.B.B.B.B.N.C.B.B.B.7.B.V.V.OXt m v v x v v l v v v v v x x y R.R.q.V.V.N.V.N.C.C.C.V.V.S.<X7 e b x x b v v v l v v n l p f E.9.0.9.9.9.9.9.9.9.C.C.9.9.<Xr x x x N x b b x B h x M v b s R.U.R.q.R.q.V.S.V.V.V.q.S.q.~.9 v l c b l b l n l b l b l 0 !.J.N.N.N.N.N.N.N.N.v.x.N.9.C.=.+ < e 2 2 2 2 2 2 2 2 2 2 2 % f 2XoXXXXX XXX X X X XXXXXXX X5X}                   ",
"                                                  n (.#X#XXX#XXX#X.X.XXX#XoXXXXXXX{.L.B.A.A.S.D.A.S.S.A.Z.D.B.A.A.A.A.Z.B.M.A.A.A.A.A.A.A.A.A.A.Z.v.N.v.v.v.N.v.x.m.N.m.v.Z.m.Z.N.v.N.N.N.b.N.N.b.v.v.N.7.v.N.N.N.b.b.7.7.v.N.N.N.N.N.N.N.N.N.V.b.b.b.0.b.b.b.b.b.b.T.b.b.b.b.0.8.8.B.0.C.B.C.C.0.B.B.B.V.J.:XhXgXgXgXgXgXgXgXgXgXgXfXgXgXtXo * - * * * * * > * * * * * * * * * * * * % * * * % * * * * * * * * > & 5 > > & > - 5 * * 5 * * - * & 5 5 > > > & - > > - * - > > 5 * 5 * 5 5 * 5 * - & > - > * * * * * 5 5 5 * 5 * * , ; * * * * * * * * 5 * * * < < - | lX;X&X&X&X&X;X-X-X-X-X;X*X*X=X}.J.D.N.N.A.B.B.N.B.N.B.B.N.K.;.e.e.e.r.r.e.r.r.r.e.r.e.e.>.b.v.7.x.q.N.v.7.6.v.v.q.6.6.6.v.x.N.N.N.v.N.v.N.N.v.v.N.v.m.N.N.A.A.N.Z.A.m.Z.A.A.m.m.A.A.A.Z.N.Z.B.b.A.N.A.Z.A.A.Z.Z.A.Z.B.N.Z.M.Z.b.Z.A.b.M.A.A.A.M.Z.Z.Z.N.M.A.A.b.A.b.B.A.N.b.A.B.A.A.A.b.Z.N.m.N.Z.B.M.N.Z.b.N.b.N.A.b.A.B.B.A.B.A.A.N.B.A.N.D.B.D.A.A.B.A.A.A.A.C.B.B.A.B.B.A.B.B.C.A.A.B.N.A.N.B.V.V.B.B.8.S.}.t c v v b c v v v v n v v D x s R.9.9.V.9.C.V.V.V.C.V.V.C.V.,Xt m m x v x v v v v l m l v i f E.9.0.0.9.0.9.9.9.9.9.9.0.R.,Xr x x x x x b h x h b x x b n p ,Xq.S.q.q.V.q.q.V.q.S.S.q.S.~.9 l b v l b l b l n l b l b 9 =.S.Z.v.N.v.N.N.N.N.N.Z.N.V.R.=.+ < , e , < 2 2 , 2 2 2 , 2 ; F 5XoX+XXXXX XXXXXXXXX X XXX X>XF                   ",
"                                                  D (.%XXXXX`.>X#X.X#X#X#X#X.X#XXX{.J.S.S.S.A.A.S.A.S.S.A.D.A.A.A.A.A.A.A.A.A.A.A.A.A.A.N.A.A.A.N.b.m.N.N.m.m.N.Z.m.Z.m.Z.m.v.N.v.N.N.v.v.b.N.v.N.v.N.v.v.b.v.N.N.v.N.N.N.N.7.N.B.b.N.N.N.N.N.N.b.b.b.b.b.b.b.T.b.b.0.b.T.b.B.b.B.8.B.0.C.0.0.B.0.B.B.V.V.J.%X*XgXgXgXgXgXgXgXgXfXgXfXgX*XtXo 5 5 * 5 * * * * * > * * * > * * * * * * , * * * * * * & & * * * * > & > & & > 5 > * * 5 * & > > * & > > > & - - > > - * > & 5 * * * * ; * > 5 * 5 > > > 5 * * * < 5 * 5 * * 5 > * > * * > 5 * * 5 5 * 5 * * * * 5 * = F lX&X&X&X&X&X;X-X;X-X*X;X*X*X%XOXS.A.b.B.B.A.V.A.A.A.B.B.S.A.>.:.e.r.e.r.e.r.w.e.:.e.r.:.>.b.6.q.q.x.N.6.N.N.6.6.6.v.6.q.N.N.m.b.N.N.v.N.v.N.v.N.v.v.N.v.m.Z.B.Z.Z.A.A.A.Z.A.A.A.A.Z.b.M.N.B.Z.Z.Z.A.A.A.N.N.A.A.M.A.M.M.Z.N.Z.M.A.M.A.Z.M.A.A.b.A.M.M.B.A.b.A.b.B.A.A.N.A.Z.B.M.Z.A.N.N.Z.N.N.N.N.N.b.N.b.Z.N.B.N.N.B.B.A.B.B.S.B.A.N.B.S.A.N.D.A.A.C.B.C.B.B.C.A.S.A.C.A.B.B.B.B.B.C.C.N.N.B.N.N.B.N.V.8.N.N.}.t b c v b b v v v n l v v x m r ,XR.9.9.9.V.N.N.N.9.V.C.C.q.,X+ i v v b x v c v x n l n v i f E.9.R.0.0.0.9.9.9.C.9.9.9.9.<Xr m x N b x x B h b x b x v b f ,Xq.q.q.S.q.S.V.q.V.V.V.V.S.~.9 n l b b l b l b l b l v v 9 !.Z.Z.N.6.N.N.7.N.N.N.N.N.N.S.OX7 e e 2 4 2 , 2 2 , 2 2 2 2 ; f 6X XXXXX XXXXXXXXX X XXXXXXX5XF                   ",
"                                                  m (.%XXX#X>X.XXX#X#XXXXX.X#X.X.X{.A.A.C.A.S.D.S.S.A.A.A.Z.A.A.D.A.D.A.A.A.D.B.B.A.A.B.S.A.B.A.N.m.v.Z.v.N.v.Z.m.Z.m.Z.m.Z.v.m.N.N.v.N.N.7.v.N.v.N.6.N.v.N.N.v.N.7.N.N.7.N.N.N.N.N.N.N.N.N.N.N.b.b.b.b.T.b.b.0.T.b.b.b.b.b.b.0.8.B.B.b.B.C.0.b.B.B.0.B.V.J.%XhXgXgXgXgXgXgXgXgXgXgXlXgXhXtXo 5 * * - * * 5 * > * > > > * * * * * * * * * * * , > * * & * * * > - > > & > > & > 5 * * 5 - > > 5 - 5 & - - > & > & - 5 - & > < * 5 * * 5 * * * * > 5 & & * 5 > * * 5 * 5 * * * * * * > * * 5 * * * 5 * 5 * * * * & o | lX;X&X&X&X-XfX-X&X-X-X;X;X*X%XOXS.N.B.N.B.B.B.B.B.B.N.V.N.K.,.r.;.;.:.e.r.r.r.r.e.r.r.;.O.v.v.q.x.q.v.q.v.q.v.6.v.6.6.v.v.v.N.b.N.v.N.v.N.v.N.N.m.v.N.v.N.A.M.Z.Z.A.A.A.Z.A.m.Z.m.A.Z.N.Z.Z.A.N.A.N.A.A.A.A.A.A.A.A.Z.N.b.Z.b.N.Z.N.Z.N.Z.A.b.Z.Z.N.Z.N.Z.A.b.A.b.A.A.B.M.N.A.B.N.b.Z.N.b.N.N.m.Z.N.Z.Z.N.Z.b.M.N.Z.b.b.A.N.A.N.A.N.A.B.A.N.A.B.B.B.A.B.B.B.C.A.C.C.B.B.A.C.A.S.B.B.A.B.B.C.N.B.V.B.B.B.8.8.S.<Xt n v v v v v m v l n m v N x r R.q.9.R.q.V.V.V.V.C.V.C.C.q.,X9 e v b v v v v v m l n l b i f E.9.0.0.R.0.9.9.C.0.C.C.9.9.,Xr b M x x x b B x x v v M v v f ,Xq.S.S.q.S.V.V.V.q.q.q.S.S.~.9 n v v l b l b l n l b v c : =.m.N.N.N.N.N.b.N.N.N.N.N.N.A.OX+ ; , , , , 2 2 2 2 2 2 2 4 - F 5X>X X X XXX XXX+XXX X XXXoXcXF                   ",
"                                                  GX).@X.X#X#X#XXX#X#XXX#XoX#X#XXX XA.A.D.A.D.A.D.A.A.A.A.A.D.A.A.A.A.B.A.A.A.A.V.A.A.B.A.D.D.D.S.v.N.v.b.v.Z.v.N.m.b.N.Z.N.v.N.N.v.N.N.7.N.v.7.7.7.v.N.N.N.N.7.N.N.N.N.b.N.7.N.B.B.8.7.0.0.0.b.0.b.b.b.b.b.b.b.b.b.b.0.b.b.b.b.8.B.B.8.B.C.B.8.B.B.V.B.q.J.%XfXfXgXgXgXgXfXgXfXhXhXgXgXhXtXo * * > * * * * & & * * * * * * * * * * * % * * * * * - * - & > > & & - > > 5 5 > 5 * > * > > > > & > & 5 > > & - > > > > > > > * * * 5 > * 5 5 * 5 > > * 5 > > > > > * 5 * * * - ; ; * ; * * 5 * 5 * ; * > * * * 5 5 % F xXgXlX&X&X&X&X&X&X-X&X*X-X-X=XOXS.S.S.N.A.V.N.B.A.V.V.B.B.m.>.e.e.e.r.r.e.r.e.e.r.e.r.;.;.v.v.x.q.7.q.6.6.v.x.x.v.v.x.x.v.x.N.v.N.v.N.b.v.v.N.v.N.v.v.v.v.b.A.Z.Z.B.Z.Z.Z.m.S.Z.Z.A.m.Z.Z.A.B.A.N.A.B.B.Z.Z.Z.Z.A.b.A.Z.Z.M.Z.Z.M.Z.M.N.Z.Z.Z.M.Z.A.M.A.b.Z.M.A.A.A.A.M.A.A.A.A.A.A.N.b.Z.N.b.Z.b.Z.N.N.Z.N.Z.b.Z.Z.B.A.B.A.B.B.N.S.A.A.N.A.B.A.A.B.B.B.B.B.B.A.B.B.S.B.V.N.V.V.V.N.V.N.V.N.V.q.N.V.V.V.N.N.S.<Xe b v v v b v v v v l v v x n r ,XV.V.9.7.N.V.V.V.V.C.C.C.9.OX7 m v v b l x x N b b x x m i f R.9.0.R.0.0.R.9.0.0.9.0.0.9.,Xt m M b b v v v M l b x M x b f ,XS.V.q.N.S.q.N.V.N.S.V.N.P.~.: v b v b l b l v v v v v v 9 *.J.V.N.N.v.7.v.7.b.N.N.N.N.N.OX+ < < < < 2 , 2 2 2 2 2 2 3 - } 2X+X XXXXX X XXXXXXX X X XXX5X|                   ",
"                                                  GX).@X.XXXXX#XXX#XoXXXoX#XXX#X X{.G.D.D.A.A.A.D.A.A.A.D.D.B.D.C.D.A.D.B.A.A.S.A.A.A.A.B.B.Z.D.Z.b.N.m.Z.b.m.b.m.Z.m.m.m.m.m.m.b.v.N.v.b.v.N.v.v.N.N.v.v.N.v.N.N.N.V.N.N.N.N.N.0.b.B.B.b.b.b.T.b.b.b.T.T.b.b.b.b.b.b.b.T.b.b.C.B.8.8.8.b.0.B.B.V.B.B.B.S.U.;XfXgXgXgXgXgXgXgXgXfXgXgXgXhXtX% * - - * * - - * > * 5 * * - * 5 - * ; % ; % ; % ; * * 5 > & & - & > & > - & > & - - > - * & - - - 5 - - & > > > > > > 5 - * - * 5 5 * - - * * - * - & 5 * > - * 5 * > - 5 5 * * * ; * * 5 5 * > * > * * * * 5 * * - % F lX;X&X;X&X&X-X&X&X;X;X;X;X-X%X{.S.V.S.A.N.N.B.A.N.B.B.B.A.Z.>.e.e.e.:.e.r.e.r.r.r.r.e.;.>.m.b.v.q.6.v.v.7.6.7.6.7.6.7.6.7.v.7.v.7.N.v.7.v.7.v.v.7.v.N.v.N.A.Z.N.Z.B.M.Z.Z.K.Z.Z.Z.Z.A.A.Z.B.M.Z.B.A.Z.A.Z.Z.N.A.A.A.A.A.M.N.S.M.A.A.A.M.A.M.A.B.Z.Z.Z.A.A.b.A.Z.Z.A.b.D.A.b.A.b.b.b.Z.b.N.b.N.N.Z.b.Z.v.b.b.N.N.m.b.A.N.A.B.Z.A.A.A.B.S.A.A.B.A.B.A.C.A.S.A.C.A.S.B.S.S.N.S.N.S.N.V.N.V.N.V.N.V.V.N.N.9.9.9.q.I.r m m v v v v v v v b v v m m g ,XS.q.N.S.V.V.B.V.V.C.D.S.V.}.r m v v b v x x b m x x m x i f R.9.0.0.0.0.0.9.0.0.R.0.9.9.<Xr m x l v b v v l l b M M M b s <XS.q.V.Z.q.S.V.N.V.q.N.N.L.~.+ b b v b l l b m v v v v b 1 *.S.q.V.N.N.N.N.N.N.6.7.N.N.N.'.@ e , e 2 2 2 2 2 2 2 2 < 2 o F 6XXXXX X X>X+XXXXXXX XXXXX X5XF                   ",
"                                                  GX).%X.XXX#X#XXX#X#X#XXX#X#XXXoX}.S.A.A.S.D.A.A.A.D.A.C.D.D.C.D.D.B.S.B.A.B.S.A.A.A.A.B.D.A.S.Z.v.m.N.m.m.m.Z.m.m.m.m.m.m.N.b.v.b.b.N.v.N.v.N.v.N.v.N.v.N.v.N.N.v.N.v.N.b.N.N.b.b.0.b.b.0.b.0.b.b.b.b.b.b.b.b.b.b.b.T.b.b.6.T.B.8.8.B.B.8.B.8.V.B.V.S.V.J.%XfXfXfXgXgXfXgXfXgXgXfXfXgXtXtXo * - & & > * * - & * * * * * * * * * * % * * % * * * 5 * * > - - - > & - & > > > - > * - > > > > > 5 & - & & - & > & - - - - * * * * - - * 5 * * 5 - > > > - & 5 * 5 * * > * > * 5 > * * * * 5 5 * * * * > * * * * * o F gX&X&X&X&X;XlX;X;X&X-X-X;X;X%XOXJ.Z.A.N.D.A.A.V.B.N.B.B.B.M.>.i.r.e.:.e.e.r.e.r.r.;.r.:.>.v.N.x.7.6.v.6.6.6.7.v.v.v.v.v.6.v.v.N.v.v.v.N.v.v.N.v.v.N.v.N.v.N.Z.N.N.A.Z.Z.B.Z.Z.Z.m.A.G.A.Z.A.Z.Z.A.N.Z.B.A.A.Z.A.N.M.N.Z.A.Z.Z.b.A.Z.M.B.Z.A.A.b.N.Z.N.A.b.B.Z.B.A.A.A.A.A.A.A.B.A.N.A.Z.N.b.Z.N.N.N.N.N.N.N.b.N.N.N.N.N.N.b.N.Z.A.Z.b.N.N.B.Z.A.B.S.A.A.B.A.A.B.B.B.A.A.S.N.C.N.V.V.V.N.V.N.N.N.S.N.V.N.V.V.q.OX+ c b c m v v v v c v v b m m s ,XV.V.V.N.N.V.V.V.V.V.S.V.V.,Xa n v l v v x x m x x m m x i p ,X9.0.0.0.9.0.9.9.R.C.9.9.9.<Xr b l M x x M x M x x x B x x r ,XS.S.q.S.S.q.V.V.S.q.q.V.Z.~.: v l v n v l b l n v v m v 1 *.x.x.N.7.7.v.7.v.v.7.q.N.9.S.OX+ , ; 2 2 2 2 2 , 2 < 2 2 4 - F >XXXXXXXXXXXXX XXXXXXXXXXX<X5XF                   ",
"                                                  m (.%X.XoXXX#XoXXX.XXX#XXXXX#XoX{.S.A.S.B.D.A.D.A.D.A.A.A.A.A.A.A.A.B.C.A.C.A.C.A.C.A.B.A.B.B.Z.N.b.b.N.v.b.v.m.N.N.m.Z.N.m.v.N.v.b.v.N.6.N.6.N.6.N.v.N.v.N.N.7.N.N.7.7.7.7.7.8.8.0.b.0.0.0.0.b.b.b.b.b.b.T.b.b.b.b.b.b.b.b.b.B.8.b.8.B.B.B.B.7.N.V.V.V.U.:X*XfXfXfXfXgXfXgXgXgXfXfXfXhXtXo ; > > - - > > > > - 5 * * * ; * * ; * * * ; 5 * * * > > * & - > & 5 5 5 5 > > - 5 & > 5 5 & 5 - & 5 & > > & > - > < > > & * 5 - - 5 * 5 * * * 5 > & - > 5 - > * ; * 5 5 * % ; 5 * * ; * - ; * * - * 5 * ; 5 * 5 5 * % | xX&X&X-X&X&X&X&X&X&X;X;X;X*X%XOXS.Z.B.A.N.N.A.B.B.B.B.N.B.Z.>.r.e.:.e.e.:.-.r.e.w.e.e.e.-.v.v.x.q.q.q.6.v.6.v.v.6.N.x.N.v.v.N.v.N.N.N.v.N.v.v.N.v.v.x.v.Z.B.N.M.B.N.Z.Z.M.m.A.A.J.Z.Z.Z.A.B.A.N.Z.A.B.A.N.N.D.A.A.A.A.N.b.B.M.B.Z.A.A.A.A.b.A.A.Z.N.Z.Z.A.b.Z.b.A.B.A.Z.b.N.A.Z.b.A.b.Z.B.N.Z.b.Z.b.Z.N.m.N.Z.N.N.N.A.Z.A.N.N.B.B.B.B.B.N.V.A.N.V.B.V.B.B.C.B.B.C.S.C.B.B.B.B.V.8.N.N.N.N.N.7.7.N.N.N.V.V.q.q.OX+ c v v c v v v l v v v v n u f ,XC.7.7.V.S.V.V.V.C.V.V.V.S.<Xa m v n v v x m x b x m x i : f R.R.9.0.R.9.9.0.0.0.C.9.9.R.<Xy z M b v l v b l v M x x x x r ,Xx.S.S.q.V.S.V.q.V.V.V.q.N.~.- l v v l l b m l v c m x x e *.x.7.b.v.N.N.N.N.N.b.7.v.V.V.OX+ , e , , 2 2 2 e 2 2 2 < 2 - | >X+XXX#X+X XXXXXXXXXXXXX<X<X5XF                   ",
"                                                  n ).%X.XoX#X.XXXXXXXXX#XXXXXXX X}.A.A.D.C.D.D.A.D.D.A.A.A.A.A.B.B.B.A.N.C.B.B.B.B.B.A.C.B.B.C.B.b.N.N.M.Z.b.m.A.A.m.M.m.b.A.M.v.b.b.v.b.b.b.v.b.b.b.N.b.N.b.N.6.B.B.B.B.B.B.B.B.N.B.B.b.0.b.b.b.b.b.b.b.b.b.b.b.b.b.b.b.b.b.b.0.b.0.0.B.B.B.B.B.8.0.B.8.J.%XfXhXhXfXfXfXfXfXfXfXfXgXgXfXtX6 - % * * * ; - - , , % % , - % % * , % % % % % % * * * * % * ; % % % * , - - % , > * ; * % * ; % * ; * * 5 * * * > = * * = * * $ % % * * * * * - , - % * ; * % - % = > = % % % = , * ; * * % ; % % * ; * > % , * > ; o F *X*X*X=X*X&X*X*X*X*X*X*X&X*X=XOXJ.N.A.B.A.A.N.B.B.B.B.B.A.A.>.e.e.e.e.e.e.e.r.r.e.e.e.;.-.m.v.v.v.N.b.v.v.6.6.v.b.v.v.N.v.b.N.S.N.b.b.N.v.v.b.b.b.v.x.6.7.V.N.N.Z.Z.N.Z.Z.A.Z.m.A.Z.S.Z.Z.A.N.B.A.Z.B.N.N.N.A.B.A.A.A.A.b.Z.Z.M.B.B.A.A.N.A.A.b.N.A.N.A.b.A.A.N.A.A.B.A.b.N.A.Z.N.B.B.b.A.N.B.b.b.Z.N.N.Z.N.Z.b.N.Z.Z.A.A.A.A.N.N.N.b.N.N.N.B.D.D.D.A.B.A.A.Z.D.A.S.S.S.S.N.S.S.N.N.N.A.B.V.S.N.N.N.V.N.7.7.Z.OX+ z x x z z c v v c m v v n m s 1X0.C.C.V.V.V.V.B.A.0.0.C.C.<Xd m n b m l v v v b v l v l 1 g R.9.C.0.C.C.9.9.0.9.C.0.0.C.,Xt e x x m m b b v m m c b v c r OXS.q.Z.N.N.N.N.N.N.N.N.Z.q.~.- z m u b v m n l m c m c m 9 *.J.v.N.Z.N.b.N.N.N.N.N.N.N.Z.].+ < < 1 < 2 2 < 2 < < < 5 < % W.5X2X<X<X@X#X<X2X>X6X#XXX XXX5XF                   ",
"                                                  D ).@X@X.XXX#X#XXX.XXX.XXXXXXXoX{.J.A.S.S.A.A.D.Z.A.A.A.D.B.B.B.B.B.B.V.B.B.B.B.V.B.V.C.0.b.C.B.b.M.M.b.M.A.M.G.M.M.M.M.A.M.M.M.M.M.M.M.b.m.b.M.n.c.M.n.c.c.M.M.b.b.M.M.M.M.b.b.b.M.b.b.4.b.T.T.b.b.T.M.M.T.b.M.M.T.b.M.T.b.b.T.0.0.T.8.B.8.B.B.B.B.B.8.m.2X:X;X=X&X&X-X:X=X*X&X&X=XlXxX).6 X @ @ @ @ @ @ r + @ @ @ @ + @ @ @ @ @ @ @ @ @ @ @ + @ @ @ @ + @ + + @ @ + + @ @ @ @ O @ + O @ @ @ @ @ @ @ @ @ @ @ @ @ @ @ @ @ @ o @ @ @ @ o @ @ @ + @ @ @ @ + + @ @ @ @ 6 @ @ @ @ @ @ @ @ @ X X @ + + @ @ @ @ @ @ @ 6 Q.*X%X=X%X$X%X%X%X%X@X%X%X%X@X.X}.Z.S.A.S.N.B.A.B.B.N.N.V.B.T.>.e.e.e.e.e.e.e.w.w.e.e.e.e.;.F.n.m.c.z.c.m.m.m.n.m.m.m.m.c.m.n.m.m.m.m.A.m.Z.m.A.m.A.m.m.m.l.m.b.Z.Z.N.Z.Z.m.J.Z.A.Z.m.m.Z.Z.A.A.Z.Z.Z.A.B.N.A.B.Z.Z.B.A.N.Z.N.b.Z.Z.N.Z.N.A.N.A.A.Z.Z.A.A.A.A.N.b.A.B.Z.N.A.A.N.B.A.Z.N.b.N.N.N.N.N.Z.b.b.N.b.N.b.b.N.b.A.b.A.A.L.A.A.A.A.K.Z.Z.M.A.A.M.m.Z.Z.Z.A.A.S.J.S.J.S.Z.Z.Z.A.K.A.A.S.J.Z.A.A.Z.A.S.Z.Z.'.@ : : 9 i t t 9 9 + 9 t i i y g E.C.C.D.C.D.D.D.D.T.D.D.T.T.1Xr y y q 7 7 7 O + + + + + + 7 f 1XS.C.0.C.C.A.D.D.D.T.R.C.D.,Xr 9 9 t t t t 7 t 9 7 7 9 O 7 r ].x.N.Z.Z.m.x.S.Z.Z.Z.x.Z.Z.*.+ t t 7 7 t q y q y y r q r r !.I.x.v.c.v.z.z.l.l.c.c.m.v.x.|.7 e x z z z z x c c v c v GXu H ).(././././.W.^.^.W./././.^.^.G                   ",
"                                                  GX(.%XXXXXXX#XXX.XXXXXXXXXXXXX X}.A.S.B.V.N.A.A.A.B.A.A.A.B.B.B.N.B.B.N.8.B.B.8.B.B.B.0.b.0.B.B.4.2.i.i.i.p.i.h.h.h.h.i.a.p.a.i.p.2.<.:.:.:.h.<.<.<.i.<.:.<.<.4.3.4.<.2.<.<.:.:.3.:.3.:.4.:.4.4.4.4.4.4.4.h.4.4.4.4.4.4.4.4.b.T.0.b.0.B.B.B.8.6.B.b.B.N.N.I.OXOXOX].}.].].U.].].OX X{.}.OXOXOX{.OX}.}.OX,XR.OX<X,X,XOX,X,X~.,X<X<X,X,X<XOX}.OX,XOXOX}.OXI.R.,X}.,X}.{.,X,X,X,X,X{.,X<X<X<X X<X<X<X<X<X,X<XOX,X,XoX{.<X<XOX<X<X<XOX<X<XOX,XOX<X,XOX<XOXOXOX}.<XoX<XOX.X<XoX<XOXoXoXoXOXoX}.oXOX}.OXOXOXOXOXOXOXOXOX}.,X].}.OX}.}.}.}.}.].}.}.I.I.}.J.V.B.A.B.A.S.B.B.B.N.B.B.N.A.X.X.X.Q [ w.w.w.w.w.o.;.-.o.X.-.o.O.o.o.O.X.o.O.o.o.o.o.O.O.o.O.o.o.O.O.o.o.o.o.o.o.O.X.O.O.O.D.Z.N.b.b.Z.Z.Z.m.A.Z.Z.Z.Z.Z.N.b.N.N.A.N.N.B.B.N.B.A.B.A.B.N.N.Z.Z.M.N.Z.b.Z.b.Z.b.Z.Z.B.B.Z.b.b.A.A.B.Z.b.b.B.N.B.A.B.A.N.N.N.M.N.B.N.N.M.B.N.N.b.Z.b.6.1.1.1.p.2.2.1.1.1.i.1.1.1.1.l.z.s.l.l.l.l.s.p.d.5.5.1.d.l.l.l.5.d.d.l.+.l.+.l.p.z.z.l.l.d.j.*.!.' Q.!.!.!.!.!.!.!.`.|.|.|.j.v.6.4.5.2.1.5.2.5.5.5.5.5.6.x.].OXOXOX_.j.~.'.'.|.|.~.'.|.|.U.5.5.5.5.5.l.6.5.l.5.l.5.5.5.z.*.*.=.~.'.OXOX'.OX'.OXOX|.*.~.=.d.+.5.1.1.1.+.1.1.1.5.d.5.1.j.j.~._.'.'.j._._._.j.'.'.U.'.*.,.%.o.o.O.O.O.X.O.! O.O.O.O.! !.p b n n n N n n N N n n GX        GXGXGX  GXGXGXGXGXGXGXGX                        ",
"                                                  GX).%XXXoX.XXXoXXX.X.XXX.XoXXXoX}.K.N.B.N.S.B.A.D.Z.B.N.C.C.B.B.B.8.B.B.B.N.8.B.B.B.8.T.B.0.b.T.i.h.h.s.g.h.h.h.g.h.h.h.h.i.h.h.h.h.a.i.h.h.h.h.h.h.h.h.p.h.h.h.h.:.h.h.h.4.h.h.h.h.h.h.4.h.4.h.h.h.h.4.h.h.h.h.f.h.f.h.h.4.b.B.b.6.T.0.b.b.8.B.8.8.6.N.N.N.N.m.Z.Z.A.Z.Z.S.S.Z.Z.J.Z.Z.J.S.N.Z.Z.q.S.V.q.R.V.J.S.S.S.V.S.R.V.q.S.V.R.S.S.L.D.S.S.R.V.R.q.R.R.S.S.S.S.R.9.S.S.S.V.N.7.V.q.N.N.N.S.q.Z.S.S.S.S.S.S.S.S.S.S.V.S.S.S.S.q.S.S.q.q.q.Z.Z.S.S.S.Z.q.S.S.S.S.S.Z.S.Z.Z.S.J.Z.J.S.J.S.S.S.Z.Z.Z.S.Z.Z.Z.Z.J.S.J.S.S.J.S.Z.S.S.S.N.S.Z.S.V.S.N.N.S.S.S.S.B.C.B.B.S.B.C.D.! w.w.-.-.$.w.Q $.w.o.o.$.w.o.-.e.;.e.e.e.e.e.e.e.&.e.%.e.e.%.e.e.%.e.o.e.e.e.o.u.%.e.%.e.;.+.A.b.Z.N.N.N.N.N.Z.N.N.N.m.N.N.v.N.N.N.B.N.N.N.N.N.N.N.N.B.N.Z.b.N.b.N.B.Z.N.Z.N.N.A.N.N.b.Z.B.B.A.B.B.B.B.B.A.B.B.B.B.b.B.b.A.N.N.N.b.N.b.N.B.b.Z.N.b.Z.c.,.p.p.a.p.i.i.p.p.i.s.a.p.d.p.z.z.z.z.z.z.s.z.z.z.z.z.z.z.s.z.z.z.z.d.z.z.z.s.s.z.s.z.z.z.U.+.a.y.r.a.y.s.i.u.a.s.k.g.s.s.n.f.5.5.c.f.c.f.c.f.f.5.f.c.c.4.G.K.G.z.x.x.l.x.m.m.z.z.c.c.H.M.5.6.5.l.l.l.s.p.l.z.z.l.l.l.z.s.d.d.5.d.d.l.p.5.s.z.m.z.p.d.2.,.d.1.d.1.d.l.l.d.d.1.d.d.d.u.a.a.a.a.u.u.1.p.d.d.a.u.%.,.d.u.%.+.%.%.%.%.%.%.%.%.X.%.e.&.' y m b n n n n N b b M M M GXGX                                                    ",
"                                                  GX/.%X.XoXXX.X.X.X.XXXXXXXoXXX X}.K.N.N.A.S.A.S.A.B.S.A.C.N.V.8.B.N.6.8.B.b.8.8.B.B.b.0.C.0.B.b.p.h.h.h.a.h.h.h.a.h.a.h.h.h.a.h.h.h.h.h.y.h.y.h.h.y.h.h.i.h.h.h.4.h.h.h.h.:.h.4.h.4.:.h.h.4.h.h.M.h.M.h.h.4.h.h.f.f.h.h.h.4.M.B.6.B.b.B.8.b.0.B.6.6.B.v.N.N.Z.Z.Z.Z.A.Z.Z.A.A.N.S.Z.Z.N.N.Z.Z.N.S.Z.N.S.q.S.S.N.Z.N.N.Z.Z.Z.Z.S.S.S.N.V.S.V.S.N.S.S.S.q.q.R.q.N.V.S.N.S.N.V.N.N.V.C.S.V.V.V.S.V.S.V.S.S.V.S.S.S.S.S.S.V.S.V.S.S.V.V.Z.q.S.S.Z.Z.Z.Z.Z.V.Z.Z.q.Z.S.Z.S.S.S.S.Z.S.Z.Z.Z.A.A.S.S.S.S.S.S.S.Z.Z.Z.N.Z.Z.Z.Z.S.S.S.S.A.S.A.D.S.S.Z.V.Z.S.S.B.S.S.B.C.B.N.V.A.B.8.B.K.! w.-.Q w.$.Q w.w.$.$.$.;.$.o.e.e.;.w.e.$.e.%.$.%.e.%.t.%.%.e.%.%.%.o.u.e.%.o.o.o.%.;.;.$.;.o.T.N.N.N.N.Z.b.N.N.Z.N.m.Z.v.N.N.N.b.N.N.N.N.7.N.B.B.N.N.Z.b.Z.Z.m.N.Z.N.N.N.b.Z.Z.Z.B.N.N.A.b.B.B.B.B.B.B.B.B.N.N.B.A.B.B.b.A.N.M.N.N.b.Z.b.N.b.b.N.B.b.n.2.p.u.d.p.p.i.p.p.p.p.d.s.d.s.z.z.z.z.z.z.z.z.z.l.z.z.z.z.z.z.s.s.z.z.s.s.s.z.z.z.z.s.z.z.z.a.a.a.d.d.d.a.a.a.i.a.a.s.a.p.f.p.4.2.2.p.2.2.2.2.c.f.p.5.c.p.c.M.n.z.m.v.m.m.m.m.m.m.m.m.G.m.l.l.l.p.z.p.l.s.z.l.l.s.z.z.z.p.z.z.p.z.z.z.z.l.l.l.z.l.l.d.d.d.d.5.5.d.d.d.p.1.p.d.p.d.d.s.d.d.p.u.u.u.u.d.u.,.u.,.+.+.a.+.u.%.u.u.e.+.%.%.o.+.%.u.e.%.!.y m b b n n M M M M b M M M GX                                                    ",
"                                                  GX).%X.XXXXX.X.X.XXX.XXX#X XXX X[.K.A.B.A.V.A.B.A.N.A.N.S.B.S.B.N.7.B.b.8.B.B.6.B.B.0.B.0.b.B.M.s.a.h.a.g.a.g.g.h.a.h.h.k.h.h.h.h.h.k.i.h.h.h.h.h.h.a.i.h.a.h.h.:.h.:.h.h.h.h.h.:.h.:.h.4.:.4.h.h.4.h.h.M.h.4.f.f.h.f.f.h.4.b.C.b.B.B.B.b.b.8.6.8.B.B.N.N.Z.Z.Z.Z.M.B.Z.B.M.N.N.N.S.N.N.Z.Z.N.Z.Z.S.S.V.S.S.Z.N.V.S.Z.Z.V.N.S.S.S.S.S.V.N.N.N.V.N.N.V.R.q.R.q.A.S.S.S.S.S.S.S.S.S.S.C.V.S.C.S.R.V.S.S.V.V.R.V.V.D.V.V.S.S.N.V.V.S.S.V.V.S.V.V.q.S.q.V.S.V.S.S.S.q.q.S.q.S.q.S.N.Z.S.Z.A.N.B.B.S.V.Z.S.Z.N.S.Z.V.S.Z.S.S.S.S.S.S.S.A.S.S.A.A.S.Z.S.N.S.S.S.N.S.B.B.V.V.B.V.V.B.T.O.w.$.w.Q w.w.w.w.w.w.w.o.$.;.o.w.;.%.e.e.%.e.e.%.e.%.%.%.e.%.e.e.e.e.o.e.;.o.e.e.e.o.;.%.o.+.T.Z.B.m.N.N.N.N.b.N.N.N.N.Z.N.N.B.N.N.N.N.b.N.N.N.N.N.B.B.N.N.N.N.b.Z.Z.b.Z.N.N.N.b.M.B.Z.N.A.A.B.B.b.B.B.B.B.b.B.b.B.B.B.N.N.b.B.N.N.N.b.N.b.B.N.b.A.Z.c.,.i.s.s.i.s.p.d.a.a.i.p.d.p.p.z.z.z.z.z.z.z.z.z.z.z.z.l.z.z.s.z.z.j.z.U.z.s.z.s.s.z.z.z.s.z.d.u.a.i.p.d.i.u.i.a.a.i.2.<.p.p.4.5.4.c.f.f.c.f.l.c.p.l.f.p.s.c.n.m.m.c.n.n.m.x.z.x.z.m.c.m.z.2.l.l.z.g.s.f.c.f.s.c.f.c.f.s.2.2.p.d.l.5.1.2.2.2.p.l.2.d.l.l.d.5.d.d.5.d.5.d.l.d.l.p.1.p.1.,.,.u.1.,.d.u.u.,.d.,.u.u.d.u.t.%.+.%.%.%.o.e.e.%.%.%.e.e.+.*.y c c b b b n M b M GXGXGXGXGX                                                    ",
"                                                  GX).%XXXXXXX#XXXXXXXXXXXXXXX X X}.K.A.B.S.B.A.B.B.N.B.B.N.V.S.8.B.B.8.8.B.6.C.B.B.0.0.B.B.b.C.Z.p.h.k.a.a.g.y.h.h.a.g.g.a.h.g.h.h.h.h.h.h.h.h.h.h.h.h.i.h.h.p.h.4.:.h.h.4.4.:.h.h.4.h.h.4.h.:.h.M.M.h.b.h.h.M.h.h.h.f.h.h.4.M.B.b.0.b.B.8.b.b.B.B.B.b.N.N.N.N.A.Z.A.B.N.Z.B.Z.Z.N.Z.N.N.Z.Z.Z.N.Z.N.S.S.S.N.V.N.S.N.V.N.V.Z.N.q.N.V.N.N.N.N.N.N.S.S.V.V.V.q.9.S.S.S.S.S.C.C.N.S.V.V.S.S.V.V.V.9.V.V.V.V.V.9.V.V.S.S.V.V.S.C.S.S.V.S.V.S.V.S.S.S.S.N.V.S.V.V.V.q.S.S.S.S.S.V.V.q.S.S.q.D.D.B.A.A.N.A.S.S.N.S.N.S.S.V.S.V.S.V.S.S.D.S.A.A.S.A.S.S.S.S.V.S.B.N.N.B.B.V.B.B.0.V.C.Y.! w.w.$.w.' t.$.e.$.w.e.$.w.%.;.w.e.w.e.$.e.%.t.%.$.t.%.e.e.u.e.%.%.u.;.o.o.e.o.e.e.o.;.e.;.o.D.N.N.N.Z.N.N.N.Z.b.N.N.N.v.x.N.b.N.7.N.N.N.N.b.N.N.N.B.N.Z.N.N.N.N.N.N.N.Z.Z.M.Z.A.A.Z.B.B.A.B.B.B.B.A.B.B.B.B.B.b.B.B.B.N.N.N.b.N.Z.N.B.b.A.b.b.Z.b.M.c.2.i.i.i.p.i.s.s.p.p.i.s.d.d.d.z.z.z.z.d.z.z.z.z.l.z.z.z.z.z.z.z.z.z.z.s.z.s.s.z.z.U.s.U.U.s.a.d.a.a.a.a.p.p.i.i.p.<.2.2.i.f.4.4.f.c.2.p.p.f.f.p.p.c.p.f.p.n.c.m.c.m.n.c.c.m.m.m.m.m.v.b.c.p.s.z.s.s.c.c.f.f.n.c.f.f.s.l.p.2.2.5.l.2.p.p.2.p.5.2.1.l.p.5.+.5.d.d.d.5.d.1.d.2.d.d.1.2.d.1.d.1.,.1.d.,.u.d.,.,.d.d.u.d.u.e.o.%.u.e.%.o.+.%.%.%.%.e.o.!.p b m v n b b b b GX                                                              ",
"                                                  GX/.#X.XoXXXXXoX.X.XXX.XXXXXoX X}.A.b.B.S.N.C.A.S.B.B.N.S.C.N.B.B.B.b.8.B.B.B.B.B.B.b.B.0.0.0.b.2.a.g.h.g.h.h.k.g.h.h.k.h.a.a.g.h.h.h.h.h.h.y.y.h.h.h.h.i.h.h.h.h.h.h.h.h.h.h.:.h.h.4.4.h.:.4.h.h.h.h.h.h.h.h.f.f.f.4.h.f.4.b.B.b.B.B.b.B.B.B.B.B.A.b.N.N.B.M.B.B.M.Z.N.A.Z.A.Z.Z.S.Z.Z.Z.Z.N.S.N.N.S.N.q.S.N.S.N.S.N.N.S.S.q.S.Z.Z.Z.N.S.S.S.N.V.S.S.S.V.V.V.C.A.C.V.B.S.S.B.S.V.S.N.S.C.S.S.V.V.V.S.S.V.V.V.V.S.S.S.C.S.S.C.S.S.V.S.S.V.q.S.S.V.S.V.N.Z.V.S.S.V.V.q.V.V.S.q.S.V.S.S.S.S.S.S.A.S.S.N.S.N.S.S.S.q.S.V.S.V.A.S.S.S.A.S.S.C.S.N.N.V.S.S.V.N.B.V.B.V.B.0.B.0.8.B.D.O.w.$.w.-.e.$.w.$.w.$.$.w.$.$.$.o.e.e.e.e.%.e.$.e.%.%.e.%.%.%.e.%.e.%.%.o.e.o.u.;.%.u.o.e.e.+.T.b.N.N.b.N.N.b.N.N.Z.N.N.N.N.N.7.B.N.N.N.7.N.7.N.b.B.B.N.N.Z.Z.N.Z.M.N.Z.N.N.B.N.Z.A.b.B.Z.B.B.B.b.B.B.b.A.B.B.B.B.B.b.B.B.Z.b.N.N.b.N.b.N.b.N.N.b.N.b.n.,.p.d.i.s.p.s.i.i.s.s.d.d.d.d.z.z.z.z.z.z.z.d.=.5.z.z.z.s.z.z.s.s.z.z.z.z.s.U.z.s.s.g.s.s.g.a.d.d.i.d.a.i.i.p.a.i.i.p.p.2.p.f.5.2.2.f.2.c.2.c.f.p.p.f.c.2.c.n.m.n.m.m.m.m.m.m.m.m.m.m.m.c.z.z.c.g.c.f.c.s.f.c.s.s.n.f.p.l.p.1.l.p.l.p.5.f.5.p.p.2.2.l.5.d.d.d.5.d.5.d.p.d.p.d.5.d.d.d.u.+.u.d.u.u.i.1.d.i.u.d.,.u.u.u.,.%.u.%.e.+.e.%.+.e.o.e.e.o.*.y c v v b b b b M b GX                                                            ",
"                                                  GX).%X@X.X.X.XoXXX.XXX.XXXXXoXoX{.A.A.V.B.A.B.A.A.V.B.B.N.C.S.B.V.B.B.B.8.B.8.B.B.0.b.B.8.8.B.b.f.h.h.a.a.a.h.h.g.k.h.g.a.g.h.h.h.h.h.y.h.h.h.h.h.h.y.h.h.a.h.i.h.h.h.h.h.h.h.4.4.4.4.4.4.[ 4.M.h.h.h.M.h.h.4.f.h.f.h.f.h.4.b.b.B.b.A.B.b.B.b.b.0.C.T.B.b.Z.N.A.A.Z.Z.M.B.A.Z.Z.Z.S.N.N.Z.Z.N.N.N.S.V.N.S.S.Z.S.N.V.N.S.N.Z.S.S.S.S.B.A.A.N.V.N.S.A.S.S.S.C.S.C.S.B.S.C.C.C.C.C.C.B.B.S.C.C.S.S.S.S.V.S.S.S.S.S.S.S.S.S.D.S.S.S.D.S.C.V.S.V.S.S.N.S.N.V.S.N.V.V.N.S.V.V.Z.S.S.S.V.S.V.S.S.S.V.V.S.S.V.S.S.N.V.V.V.V.Z.S.V.Z.S.S.S.B.S.S.C.S.S.S.N.S.C.N.N.V.S.V.B.8.B.0.0.0.A.K.O.w.$.w.w.Q w.w.$.t.$.w.$.$.e.;.e.;.e.$.e.$.e.&.e.e.%.e.%.e.%.%.u.%.%.e.o.e.o.e.o.e.,.e.%.e.+.K.b.b.N.N.N.Z.b.N.N.S.N.N.Z.N.N.N.N.N.N.N.N.N.V.V.V.N.N.N.N.A.b.Z.b.Z.Z.b.Z.N.A.b.Z.A.A.N.A.B.A.B.A.b.B.B.B.B.B.B.B.B.B.B.B.b.N.N.N.b.N.b.Z.N.b.b.B.b.A.v.,.p.a.p.s.d.a.a.a.s.d.a.a.i.p.z.z.z.z.l.z.z.z.z.z.z.z.z.z.z.z.z.z.s.z.z.z.s.z.z.s.z.n.n.s.z.d.p.i.d.d.p.i.a.a.s.i.p.p.d.i.p.p.4.2.c.2.p.f.c.f.c.p.f.l.f.p.c.n.n.n.m.m.m.m.z.m.c.G.m.n.m.c.p.f.n.f.c.f.f.c.s.c.g.s.c.z.s.p.p.l.l.p.l.l.l.2.5.p.2.l.2.l.1.d.d.d.5.d.d.5.d.d.d.d.1.d.1.d.d.u.d.i.p.u.,.u.,.u.p.u.,.d.i.,.;.o.+.e.%.,.%.e.+.;.+.e.;.w.!.y b m b b v b b b M GX                                                            ",
"                                                  GX(.@X.X.XXX.X#X.XXX.X.XXXXXoXoX{.A.N.B.B.V.A.C.V.B.B.S.N.N.V.B.V.b.7.8.B.B.B.8.B.0.b.b.8.8.B.M.p.a.h.g.g.g.h.a.a.h.h.a.g.a.h.h.y.h.h.h.h.h.y.h.h.h.h.i.a.h.h.h.a.h.i.<.h.<.h.h.4.[ 4.h.4.4.h.h.h.h.M.h.h.h.4.h.f.h.f.h.f.h.T.B.B.N.B.B.B.B.B.b.b.B.6.N.b.B.A.A.b.B.Z.B.Z.Z.N.N.N.Z.Z.Z.N.Z.Z.q.Z.N.Z.Z.q.Z.V.Z.S.Z.S.q.Z.V.Z.N.N.S.B.V.V.N.S.V.S.B.C.B.C.A.C.A.C.D.C.A.C.D.A.S.S.S.S.C.S.S.C.S.V.A.C.S.C.S.C.V.A.S.S.S.S.S.C.D.S.C.S.S.B.S.C.S.V.S.S.S.N.S.S.S.S.S.S.S.S.N.Z.q.Z.S.S.S.V.R.V.S.V.V.S.S.V.S.S.V.Z.S.N.N.S.Z.V.C.A.S.S.S.A.N.A.S.C.N.V.V.S.N.N.N.V.V.V.0.B.0.B.T.O.w.w.$.$.w.$.$.w.$.$.$.e.$.e.w.o.;.w.e.e.%.e.e.e.t.$.e.e.%.e.%.e.e.e.%.;.e.e.e.o.e.%.%.e.%.,.K.b.Z.N.N.b.N.N.v.Z.N.b.v.N.N.N.N.N.N.q.N.N.N.N.N.S.N.N.S.N.N.Z.N.Z.Z.N.A.N.Z.N.Z.N.b.N.Z.N.A.N.B.B.B.B.B.B.b.B.B.B.B.B.B.b.Z.b.N.b.N.b.N.b.b.B.N.b.N.N.c.,.i.d.i.d.d.p.d.p.i.p.p.d.d.s.z.z.z.z.z.z.z.z.z.z.z.z.z.z.z.z.z.z.z.z.z.s.z.z.z.n.z.z.s.U.z.d.i.p.a.s.i.d.d.a.d.i.a.u.p.2.p.p.5.2.2.f.5.2.2.2.p.f.5.f.p.c.n.m.m.c.m.m.m.m.m.m.m.m.n.m.m.c.z.z.s.g.s.c.g.g.f.g.c.f.s.f.z.p.d.p.d.p.p.d.p.p.p.p.p.p.2.p.1.1.5.d.d.1.5.d.l.+.5.d.1.l.d.d.1.1.,.u.,.,.d.d.,.d.,.u.,.d.d.,.;.;.e.%.%.e.;.+.e.%.o.%.e.t.*.p m v v b b b b M GX                                                              ",
"                                                  GX/.$XoXXX.X.X.XXXXX.XXXXXXX.X X[.A.B.B.V.N.A.B.B.B.B.C.N.N.V.N.B.N.7.B.b.B.B.B.B.B.B.B.B.8.B.A.2.i.a.h.F.k.h.h.g.h.h.h.h.g.a.h.h.h.h.h.r.h.h.r.h.h.h.h.h.h.a.h.p.p.i.h.<.h.h.h.4.[ 4.4.[ 4.4.M.M.h.4.M.4.M.h.f.h.h.f.f.h.h.M.B.N.N.b.B.b.b.B.B.b.b.B.N.N.N.N.N.Z.M.B.N.Z.N.Z.Z.N.N.b.N.Z.Z.N.S.Z.q.Z.Z.q.N.S.S.q.Z.V.S.q.S.S.Z.N.N.S.S.S.S.V.N.B.B.A.C.A.A.B.A.C.D.A.A.D.C.S.A.S.S.C.S.S.S.S.S.S.S.S.A.C.A.C.S.S.A.S.S.S.D.D.D.S.D.D.S.S.C.S.S.S.S.S.C.S.N.S.S.S.N.S.N.V.V.N.S.S.S.S.9.R.V.V.S.V.S.V.V.V.Z.S.S.S.N.S.N.S.S.S.S.S.B.S.B.V.S.S.S.V.N.B.N.N.V.V.B.8.8.B.8.0.0.B.K.O.$.$.$.$.$.$.$.$.$.w.$.$.e.$.o.o.e.%.e.$.e.e.e.w.$.e.&.e.%.e.t.%.%.&.e.e.e.;.;.e.e.%.e.e.%.+.T.b.N.b.N.B.b.N.b.N.N.m.Z.b.N.N.N.N.N.S.S.q.N.q.N.q.S.q.N.N.Z.N.M.B.Z.b.N.Z.Z.Z.Z.b.Z.N.N.Z.A.N.B.B.B.B.B.B.B.A.b.B.A.T.B.b.b.B.b.N.b.N.N.b.N.b.b.N.N.M.n.2.p.i.i.p.p.i.s.u.u.p.p.p.d.z.z.z.z.z.z.z.z.z.z.z.z.z.z.z.z.z.z.s.z.z.U.s.z.s.z.s.z.s.z.s.g.s.i.i.p.i.a.a.i.a.u.s.i.p.p.p.p.2.4.f.2.c.4.5.4.l.4.l.f.5.c.c.c.c.m.m.c.m.m.n.c.m.n.m.n.m.m.n.s.z.z.f.f.s.s.g.s.f.c.s.n.f.l.p.2.l.p.l.l.p.p.l.2.l.2.l.l.2.d.1.5.1.d.d.d.5.d.l.l.d.d.d.d.1.,.d.2.,.u.1.1.,.u.u.d.,.1.u.u.u.e.;.;.+.;.+.o.u.%.e.,.e.;.%.*.y c v b b b b b b GX                                                              ",
"                                                  GX/.=X.XXX.XXX.XoX.XXX.XXXXX.X X}.Z.B.B.B.V.N.B.N.B.B.B.N.S.N.B.B.8.N.8.B.8.B.B.8.B.B.B.8.8.B.A.p.h.h.a.h.h.h.a.g.s.f.k.h.h.g.h.h.h.r.h.h.h.y.y.h.h.a.r.h.a.h.h.h.h.h.h.h.h.h.4.[ 4.4.4.4.4.4.h.h.h.h.h.4.h.h.f.h.g.h.h.f.f.b.A.b.N.N.b.8.B.B.B.8.T.b.N.B.M.Z.Z.N.Z.N.Z.b.Z.N.b.Z.Z.b.Z.N.N.Z.Z.Z.Z.Z.Z.S.N.N.N.N.S.Z.S.S.S.Z.N.S.N.S.S.N.N.N.V.S.C.N.A.A.C.D.C.A.C.A.A.D.D.S.C.S.S.S.A.N.N.S.V.S.C.S.S.S.S.S.C.S.S.S.S.D.S.S.D.D.S.D.C.S.S.A.N.S.V.S.S.S.S.S.V.V.S.V.S.S.S.S.S.q.Z.S.V.V.S.V.V.S.V.S.N.S.S.q.Z.S.S.N.V.N.S.N.S.N.S.A.S.A.S.N.N.C.V.S.N.N.V.V.B.8.B.8.V.B.B.0.T.! $.$.$.Q $.t.$.w.%.$.$.w.$.%.w.-.w.e.%.e.w.t.%.t.e.e.e.e.e.%.%.t.e.%.$.e.%.;.;.e.e.e.%.e.%.,.T.b.N.N.N.M.N.N.Z.N.N.N.N.Z.Z.N.N.N.N.N.N.N.N.N.N.V.N.N.N.Z.N.Z.B.Z.N.Z.Z.b.N.b.Z.Z.N.Z.N.S.B.B.B.b.B.B.b.A.B.b.B.B.B.B.B.B.N.b.N.b.B.b.b.B.b.Z.B.b.N.Z.c.,.a.d.i.p.a.d.i.p.s.i.d.2.d.p.l.U.z.z.z.z.z.z.l.U.U.z.z.z.z.z.z.z.z.s.g.z.z.n.z.n.z.z.s.U.z.s.i.d.a.a.d.i.d.a.a.s.i.i.p.p.p.4.2.c.4.2.4.f.5.4.p.c.p.c.f.p.f.m.c.z.m.n.n.m.m.n.m.m.m.m.G.c.p.c.z.z.z.f.f.g.f.g.f.s.s.s.p.p.p.2.p.5.d.p.p.p.p.l.2.p.2.d.l.1.1.d.5.5.d.1.d.l.+.d.d.5.5.d.,.1.,.d.,.u.u.,.2.1.u.u.,.,.d.u.+.e.%.e.%.,.e.o.o.e.o.;.e.e.*.p v n b b b b b M GX                                                              ",
"                                                  GX/.@X.X X.X#XXXXXXX.X.X.XXXoXoX{.A.N.B.8.B.N.B.B.B.B.N.N.N.V.8.B.8.B.7.8.8.6.8.0.C.b.B.8.8.B.M.2.a.h.g.h.h.h.h.g.h.a.k.g.h.h.h.h.h.h.h.h.h.h.h.h.y.h.h.a.h.h.p.h.h.p.i.h.h.:.4.[ 4.4.[ 4.4.[ h.h.h.h.h.4.h.M.h.f.h.f.h.h.f.b.B.N.N.A.N.b.N.b.b.B.A.b.N.Z.N.N.N.b.m.B.N.Z.Z.Z.Z.N.b.Z.Z.Z.Z.N.Z.Z.q.Z.Z.Z.V.Z.q.S.Z.S.Z.Z.S.q.S.N.S.Z.S.S.S.S.S.A.N.A.A.A.A.C.A.C.D.D.D.D.A.S.S.S.C.S.V.S.S.B.N.S.N.A.S.S.S.S.C.S.S.V.S.S.A.S.D.D.D.S.S.S.S.S.V.S.S.S.S.C.S.V.S.V.V.V.S.V.S.S.S.S.S.S.S.S.S.S.S.S.S.V.N.S.S.N.S.S.N.S.Z.Z.S.Z.Z.S.Z.N.S.A.Z.Z.S.V.V.N.S.S.N.N.V.N.V.V.8.8.8.B.L.O.$.$.$.$.$.$.$.e.$.$.$.$.$.w.o.e.e.$.t.e.$.e.w.t.%.w.t.e.e.%.%.e.%.e.e.e.e.;.e.e.%.%.%.e.o.,.K.b.b.N.N.N.N.b.Z.N.N.N.N.N.q.Z.N.N.N.N.N.N.S.N.N.N.S.N.N.S.B.M.N.Z.N.Z.b.N.Z.N.B.Z.N.Z.N.D.B.B.B.B.A.B.B.B.B.B.B.b.B.A.B.N.b.N.b.b.N.N.B.b.B.b.M.b.B.b.c.p.d.i.2.i.i.p.u.s.s.p.p.,.1.p.z.z.z.z.z.l.z.z.z.z.x.z.z.z.z.z.s.z.z.g.z.s.z.z.z.z.z.z.z.z.z.g.p.u.d.d.a.a.a.u.a.u.i.s.p.i.p.p.4.4.c.4.5.c.2.f.c.f.p.2.l.p.z.m.n.m.m.c.n.m.c.m.m.G.m.m.m.c.s.z.z.p.f.f.f.g.g.f.s.c.s.c.s.2.l.1.p.l.d.l.l.p.p.2.2.p.5.5.l.d.1.d.d.d.5.d.l.d.1.l.d.d.p.1.1.1.,.,.d.,.,.1.i.u.u.1.u.d.u.,.e.e.o.u.e.e.o.e.e.e.o.;.r.e.*.y m v b b b b b b b GX                                                            ",
"                                                  GX/.@X.XXX.X.XXXXX.XXXXX.XoXXXXX[.A.N.B.B.V.B.N.B.S.C.A.B.S.N.B.N.N.b.8.B.B.8.6.b.b.0.b.8.8.6.N.p.f.h.y.h.a.F.h.a.a.h.h.a.h.h.h.k.h.h.h.h.h.h.h.h.h.h.h.h.a.h.h.i.h.i.i.h.h.h.h.4.[ 4.4.h.4.4.4.M.h.M.h.h.h.h.h.h.f.f.f.h.2.M.b.N.N.N.N.b.N.Z.B.b.b.B.b.B.B.M.Z.Z.Z.Z.Z.Z.m.A.N.Z.Z.N.x.N.N.Z.q.Z.Z.Z.q.Z.q.N.Z.Z.q.S.S.S.S.S.Z.S.S.N.N.Z.N.S.S.B.B.A.S.N.A.A.D.D.D.D.D.A.C.A.A.S.A.S.A.A.A.S.A.S.S.S.S.B.B.A.A.S.S.A.S.S.S.S.D.S.S.S.S.S.N.S.S.S.A.A.S.A.S.S.S.S.S.S.S.S.S.S.S.q.S.S.S.V.S.S.S.S.S.S.S.S.N.S.N.S.Z.Z.Z.Z.N.S.S.Z.Z.S.N.Z.S.Z.Z.N.S.V.N.V.S.V.N.B.B.B.N.B.8.8.T.X.w.$.$.w.w.$.$.w.$.$.w.$.e.$.w.$.e.e.w.e.e.t.e.e.e.t.e.%.e.e.t.$.e.&.e.$.$.e.e.e.e.e.e.e.%.o.T.b.N.N.b.N.Z.N.x.N.v.Z.Z.Z.Z.Z.N.S.q.S.V.q.V.N.N.V.N.V.N.N.B.N.Z.N.A.Z.N.Z.B.Z.Z.b.Z.N.A.N.A.B.B.B.T.b.A.b.B.B.B.B.B.B.A.b.b.B.B.B.B.b.b.B.b.B.B.B.b.N.c.2.a.a.p.i.s.d.p.i.i.p.p.p.d.z.z.z.z.z.=.5.z.z.z.z.z.z.z.n.s.z.z.z.g.z.z.z.z.z.z.s.n.z.z.z.g.s.u.a.a.a.d.a.a.a.u.s.a.a.p.i.h.p.c.2.2.4.4.2.4.5.f.5.c.f.c.s.c.n.m.z.c.m.m.G.G.m.m.m.c.m.n.n.z.z.s.n.z.f.s.f.g.f.g.g.f.z.p.l.p.p.d.p.l.p.d.5.p.l.l.p.p.p.l.+.5.5.1.1.d.5.d.d.l.+.5.5.d.d.d.,.,.d.,.d.1.i.,.d.u.u.1.u.u.u.e.o.;.;.e.+.e.,.+.e.;.u.e.;.!.s b b M v M b b b b GX                                                            ",
"                                                  GX/.$X.XXX.X.XXXXXXXXXXXXXXX.XXX[.A.M.B.B.N.B.B.B.N.N.C.V.S.V.8.B.7.7.b.B.8.8.0.b.0.0.8.8.8.8.B.p.p.h.g.h.h.h.i.h.h.h.h.g.h.h.h.h.h.y.h.y.h.h.h.h.h.r.a.h.a.i.h.i.h.h.h.h.h.h.4.4.4.4.h.h.h.h.h.M.h.4.h.h.4.h.h.g.f.h.h.f.2.b.B.N.N.A.N.N.N.B.B.B.b.A.Z.N.M.Z.A.A.m.A.Z.A.A.A.N.Z.N.M.Z.Z.Z.q.Z.Z.q.Z.Z.q.S.Z.q.S.S.x.q.Z.S.Z.Z.S.N.Z.S.Z.N.S.N.N.S.Z.B.N.A.N.N.A.A.B.A.B.D.A.S.B.C.S.S.Z.S.S.S.S.Z.A.S.S.S.A.S.A.A.S.S.A.S.S.S.N.A.S.Z.S.Z.V.S.A.S.S.A.N.S.S.S.S.Z.N.Z.Z.S.S.S.q.S.S.Z.S.V.S.S.q.S.q.V.S.Z.S.S.Z.Z.Z.Z.Z.Z.Z.S.Z.N.Z.Z.S.S.S.S.N.N.S.N.S.N.N.N.B.B.7.V.B.B.B.Y.O.e.$.w.$.$.&.$.$.w.$.$.e.$.o.;.e.e.w.e.e.$.e.e.e.t.e.%.e.e.%.%.e.$.%.w.e.e.e.e.e.e.u.%.e.e.+.T.m.b.N.N.b.b.N.N.N.x.N.x.N.N.q.N.q.q.N.N.S.q.S.N.N.N.N.Z.N.N.Z.N.M.B.N.A.N.A.Z.N.M.B.A.N.Z.A.B.b.B.B.B.B.B.B.A.B.B.B.B.N.B.N.B.B.b.7.b.B.B.B.b.b.B.N.Z.c.i.d.i.d.p.u.i.p.s.i.d.i.d.1.d.z.x.z.z.z.z.z.z.z.z.z.z.z.z.z.z.s.s.U.s.z.s.z.z.z.s.z.z.z.z.U.a.a.a.a.s.i.i.a.d.s.a.a.a.d.p.p.4.2.2.4.5.5.2.2.4.2.f.5.f.f.2.n.c.m.z.m.n.m.c.m.n.n.m.m.n.m.c.p.z.z.f.f.f.c.f.s.g.f.s.c.f.s.2.p.p.l.l.p.p.p.p.2.l.l.2.l.l.+.l.1.d.d.d.1.5.+.l.l.d.d.1.d.2.d.1.1.,.,.,.1.u.d.u.i.p.,.p.,.u.u.;.,.e.;.,.;.;.;.;.,.;.:.e._.p m v n b b b b M b GX      GX                                                    ",
"                                                  GX/.@X.XXXXX.X.X#X.XXXXX.X.XXXXX{.Z.N.B.V.B.A.A.B.B.B.B.N.N.N.B.N.B.B.8.8.8.b.0.6.8.B.B.b.8.B.b.2.2.h.a.a.h.h.p.f.a.p.h.h.h.h.r.h.h.h.r.h.h.r.h.y.h.h.r.h.h.h.p.h.i.h.i.i.h.:.[ 4.[ 4.h.h.h.h.h.h.h.M.h.h.M.4.f.f.h.f.h.h.p.M.A.N.Z.b.B.N.A.N.b.B.A.b.b.N.Z.A.A.A.Z.Z.Z.Z.A.A.Z.A.Z.B.Z.Z.Z.Z.Z.Z.Z.Z.Z.Z.Z.Z.Z.S.S.S.S.x.S.x.Z.q.Z.Z.x.Z.Z.Z.Z.N.S.N.S.N.Z.Z.Z.A.B.A.A.A.Z.Z.S.Z.S.S.S.S.A.L.D.A.S.Z.S.L.A.S.J.A.S.S.S.S.S.S.Z.S.Z.S.Z.S.Z.Z.A.S.S.Z.S.Z.Z.Z.S.S.Z.Z.Z.S.S.Z.J.Z.Z.S.Z.Z.Z.Z.J.Z.Z.S.Z.Z.S.Z.Z.S.Z.S.Z.Z.Z.S.Z.Z.Z.Z.Z.Z.S.S.S.S.Z.N.S.Z.N.V.N.B.N.N.N.B.8.B.D.O.w.$.$.w.$.w.$.w.%.$.$.$.%.$.w.o.%.t.$.w.%.e.&.e.e.e.t.%.e.%.t.%.e.&.e.%.e.e.%.e.e.%.e.%.%.,.T.N.N.b.N.N.N.b.m.N.N.N.m.N.Z.N.N.Z.N.V.N.N.N.N.N.N.N.B.Z.N.Z.Z.Z.B.Z.Z.Z.A.A.b.Z.B.N.A.A.B.B.B.B.B.B.B.B.B.B.b.B.B.B.B.B.b.B.b.N.b.B.B.b.B.b.N.B.N.b.A.c.2.a.a.p.i.p.p.i.p.p.s.d.p.p.p.U.z.z.z.z.z.z.z.z.z.z.z.z.z.z.z.z.U.s.g.z.z.s.s.n.z.z.s.z.z.s.s.a.a.a.t.a.a.y.a.d.d.d.i.d.a.p.2.f.p.2.p.f.p.2.l.l.s.p.s.n.c.c.m.c.m.n.m.m.m.n.m.n.m.n.m.G.c.s.c.s.c.s.s.g.g.f.g.s.f.s.g.c.p.p.l.l.p.l.p.l.l.p.2.2.p.2.d.5.+.+.5.1.5.1.d.5.d.d.1.l.d.d.1.,.u.1.u.p.,.u.2.2.u.d.,.d.u.i.,.o.%.o.;.;.o.e.;.;.;.o.o.:.e.!.d GXGXGXGXGXGXGXGXGXGX      GX                                                    ",
"                                                  GX/.%X.X.X.X.XoX#XXX#XXXXXXXXXoX{.M.D.N.N.N.N.N.B.N.N.B.S.N.N.B.B.M.b.B.C.b.b.B.B.b.B.B.T.B.B.B.6.5.6.4.b.6.6.b.f.b.4.b.b.c.6.f.4.h.h.i.h.h.h.i.h.h.h.h.h.h.g.i.r.h.h.h.h.y.h.4.4.[ 4.h.h.h.h.f.f.h.h.f.h.h.f.h.h.f.h.h.g.f.M.M.M.T.M.b.A.T.b.b.b.M.T.n.K.H.OX}.}.}.].}.H.H.].].I.I.].I.].U.}.].}.OXI.OXU.}.}.OXI.}.].}.}.}.OX}.}.}.}.}.}.}.}.}.}.OX}.}.}.}.}.I.}.I.}.}.].}.}.].}.}.}.}.}.}.}.OXI.}.}.}.OX}.}.}.}.}.}.}.}.}.}.}.}.].}.}.}.}.}.}.}.].}.}.}.I.}.].}.}.}.}.}.}.I.}.}.}.}.}.}.I.}.}.}.}.I.}.}.I.].}.].}.I.}.I.].].I.}.I.}.I.}.}.{. XOXI.Y.P.E.Y.R.Y.Y.R.E.Y.E.E.T.+XO.o.w.$.e.%.$.$.$.$.$.%.%.%.%.-.;.e.w.w.e.e.e.e.e.e.e.e.w.e.e.w.e.$.e.t.$.e.w.e.e.%.e.%.e.e.+.D.N.Z.b.b.N.b.b.N.b.Z.N.N.Z.m.A.Z.K.A.K.K.T.T.M.T.D.T.A.A.A.A.S.Z.N.N.Z.Z.Z.Z.Z.Z.A.Z.N.A.B.B.T.A.D.A.A.N.Z.A.B.B.B.V.N.A.K.M.Z.K.D.D.A.A.T.D.A.A.A.A.T.v.,.2.p.d.d.d.+.1.d.5.d.2.d.p.l.z.z.z.c.x.U.z.z.z.z.l.z.z.z.z.z.z.z.z.z.d.z.z.l.z.z.z.z.n.g.H.].'.j.j.'.j.!._.`._.`._._._.j.].'._.U.'.OX'.'.'.'.'.'.'.].].'.H.n.n.n.n.n.n.G.n.n.G.n.n.m.n.n.s.p.s.p.c.g.n.f.f.s.f.s.f.s.p.2.1.p.p.2.2.p.d.1.p.p.p.p.p.2.p.,.p.d.1.2.d.2.1.p.2.1.p.d.1.d.1.1.,.,.u.2.,.u.,.,.,.<.,.d.a.s.*._._.!.`.' _._._._._.~._.!.(.d                                                                                 ",
"                                                  GX/.@X.X.X.X.XXXXXoXXXXXXX#XoX X].Z.B.Z.N.N.B.N.N.N.N.V.N.N.N.V.6.6.6.5.4.6.6.4.6.5.6.6.4.5.5.6.B.C.C.b.0.T.C.0.b.0.T.0.b.b.T.T.2.h.i.i.i.h.i.h.h.i.h.i.a.h.h.:.w.e.;.w.;.:.r.4.Q 4.[ r.-.Q -.:.h.r.r.h.:.h.h.;.:.:.r.:.r.:.:.:.>.>.-.-.-.X.X.-.-.-.Q -.Q %X&X&X*X*X;X&X&X;X:X*X*X&X&X*X*X*X*X*XxX*X*X*X*X-X&X*X*X*X*X*X*X*X*X*X-X*X*X4X).*X*X*X*X*XlX*X*X*XxX*XlX*X*X*X*X*X-X-X*X*X*XlX*X*X*XxX).*X4X).xX*X*XhX*X*X*X*X).*X*X*X*X*X*X-X-X*X*X*X-X*X&X*X*X*X*X*X*X*X*X*X-X&X4X*X*X*X*X&X-X*X*X*X*X-X-X*X*X&X*X&X-X&X&X*X*X;X&X*X&X*X*X&X;X;XlX*X3X*.~ ~ ~ ~ ~ ~ ~ ~ ~ ~ ~ ~ ~ ! X.$.$.$.$.$.&.$.$.$.$.$.X.$.X.-.e.;.e.r.w.w.e.e.e.w.e.e.e.e.w.t.%.t.w.e.e.e.$.t.$.t.%.e.%.%.>.T.b.N.N.N.N.N.N.b.Z.N.b.b.v.s.O.o.;.;.o.o.;.:.;.-.O.X.X.O.+.K.m.Z.Z.Z.Z.Z.B.M.Z.A.Z.b.A.N.b.b.b.b.b.b.b.b.b.b.N.N.b.b.N.c.;.;.>.,.u.e.,.;.;.o.;.;.;.,.>.,.5.2.5.5.l.l.5.5.5.d.d.l.p.2.2.l.l.2.4.d.1.2.d.z.l.l.d.p.u.d.p.p.z.s.z.s.z.d.z.d.z.d.l.s.z.}.r a s q 7 8 X 8 X O 8 O X X 8 X X X X X O O O o X @ O O a a 8 ].n.n.n.n.g.n.s.z.n.n.z.g.n.n.n.f.p.f.z.g.f.s.f.s.g.s.c.s.c.p.p.2.1.1.d.1.d.1.1.u.2.2.2.2.p.2.p.1.1.1.p.2.2.1.1.d.1.,.1.d.1.d.u.1.1.,.p.2.i.p.i.p.2.d.p.g.g 8 q 8 7 7 O O O O O O O O X O                                                                                   ",
"                                                  GX/.$X.X.X@X.X.XXXXX.XoXXXXXXX X{.A.B.N.N.b.N.B.N.7.b.N.N.7.N.B.6.5.c.6.4.c.c.6.f.6.4.6.f.6.5.6.b.8.8.0.0.0.0.b.0.0.0.C.0.0.0.D.3.r.h.i.h.h.h.i.p.h.i.h.a.a.i.;.;.;.w.e.e.e.w.Q 4.4.[ :.r.r.y.:.r.r.r.r.r.:.:.:.r.r.r.r.y.r.Q :.-.-.;.e.w.w.w.e.w.w.w.w.' ;XgXjXjXtXjXjXjXgXtXjXjXhXjXjXjXtXkXkXkXkXjXkXsXjXgXtXjXjXjXkXtXtXjXtXkXkXkXtXkXjXhXtXkXtXkXtXjXtXkXtXkXjXjXtXjXjXjXjXjXtXkXtXkXjXjXtXjXjXjXjXjXtXjXhXjXhXkXkXkXjXjXkXjXtXkXjXjXjXjXtXjXjXhXjXjXhXjXtXkXjXhXtXjXkXjXtXhXtXkXhXjXkXkXtXjXjXjXkXkXjXjXjXjXjXjXjXjXjXjXjXkXtXkXjXjXjXjXjXxX' ~ W ] W W ~ W W ` W W ! W ~ Q Q ! Q ! X.Q ! X.X.X.X.X.! O.-.e.e.e.e.e.e.y.y.e.e.e.e.e.w.e.t.e.e.t.e.w.e.t.e.&.%.e.e.e.;.+.D.N.N.b.N.N.N.b.N.N.N.N.N.N.s.X.w.[ w.w.w.w.-.w.w.-.-.-.w.O.Y.Z.m.S.Z.Z.N.Z.Z.Z.Z.A.Z.N.N.b.6.c.b.6.b.v.b.6.v.6.v.b.b.b.c.o.e.e.e.y.y.t.e.t.r.e.e.t.r.t.,.1.5.5.5.5.5.5.5.5.+.x.5.l.5.2.1.2.5.2.1.d.1.1.2.3.1.1.2.2.1.l.l.l.z.l.z.d.z.z.z.z.z.z.s.s.'.+ 1 : : : * ; ; ; : < ; < < ; ; ; ; ; ; ; ; < ; - ; - : : : 7 |.g.g.n.g.g.g.g.g.g.n.n.g.g.c.s.f.s.f.s.s.f.s.f.s.f.f.s.s.s.s.1.1.1.1.p.,.2.p.1.2.2.,.i.2.2.2.,.1.d.1.1.1.d.1.1.d.1.u.1.1.1.1.1.1.1.2.2.2.2.2.2.2.p.2.5.n.f 0 0 1 3 l l l l c 3 l k k l 2                                                                                   ",
"                                                  GX^.=X.X.X<X.XXXXX#XXX#XXXXXoXoX XA.A.N.7.N.N.B.7.N.N.N.B.7.N.N.v.5.f.6.c.6.f.f.6.f.6.f.6.f.6.5.b.8.8.0.b.b.0.B.C.C.C.0.0.0.b.M.2.h.i.h.h.h.r.r.h.h.r.p.h.h.i.e.e.y.e.w.y.r.w.h.[ Q 4.[ r.r.w.r.r.r.-.e.;.r.;.r.w.r.r.e.e.w.w.w.w.w.w.-.w.w.w.w.w.t.w.t.' :XjXjXjXhXjXjXjXjXjXjXjXtXjXjXhXjXjXtXtXxXjXtXxXjXjXjXjXjXkXkXhXjXjXjXjXjXkXkXkXjXkXjXjXxXtXjXjXkXtXjXjXjXjXkXjXjXjXjXjXjXkXhXjXjXjXkXkXjXjXjXjXjXjXjXjXjXjXkXjXkXkXgXjXjXkXgXjXjXjXjXkXjXjXjXjXjXjXjXjXgXjXjXkXkXtXkXjXjXkXjXjXjXtXjXjXkXjXjXkXtXjXjXkXjXjXjXjXjXjXjXjXjXjXjXjXjXjXjXxX .E W W W ` W W W W W W W ~ ~ Q X.X.Q Q Q Q X.X.! X.! X.X.X.w.e.e.e.e.w.e.e.e.e.y.e.e.e.e.e.e.e.$.e.&.e.e.e.e.e.e.%.$.e.;.,.K.b.N.Z.N.m.N.Z.N.m.Z.N.Z.b.p.Q w.w.w.w.w.w.w.Q -.w.w.-.w.X.T.N.Z.Z.B.M.Z.Z.A.A.Z.Z.Z.N.Z.b.b.b.b.b.b.b.b.b.b.b.b.b.v.M.n.e.u.t.e.e.a.y.t.t.a.t.a.a.y.t.1.5.5.5.5.1.1.d.5.5.5.5.5.5.5.2.3.2.3.2.5.5.1.1.2.1.1.1.1.2.2.p.z.s.z.s.z.z.l.z.l.d.z.d.g.g.oXO 1 ; < 2 < < < < < < < ; < < < ; ; ; ; ; < - 5 < * ; , < 1 7  Xi.n.s.n.s.n.g.g.g.s.g.g.n.n.n.f.z.s.c.s.g.f.s.g.f.s.f.f.s.p.d.d.1.p.2.2.i.2.p.p.,.2.2.2.i.2.,.1.1.1.d.,.1.,.1.1.1.1.1.1.1.1.1.1.1.1.1.2.1.2.2.2.2.2.2.U.s : k 3 4 4 2 2 2 3 3 3 3 j j ,                                                                                   ",
"                                                  GX^.2XoXXX.X X.XXX.XXXXXXXXXXXoX XZ.B.b.B.N.7.N.B.N.N.N.7.B.8.Z.c.c.c.6.5.c.6.6.5.6.b.c.c.c.5.5.C.8.B.8.8.8.8.0.B.0.C.B.b.0.C.T.2.i.h.a.h.a.h.h.a.i.h.i.h.h.h.w.w.y.r.r.y.w.e.[ 4.:.:.:.[ r.r.r.w.e.r.r.e.r.r.r.e.r.w.w.;.e.w.w.e.e.w.w.w.w.w.w.w.t.w.$.' :XhXjXjXjXjXjXgXjXjXjXjXjXjXjXtXkXjXjXjXjXjXtXkXtXjXkXtXjXjXkXjXkXjXjXkXjXkXtXkXjXjXjXjXxXtXxXtXkXxXjXkXkXkXtXxXaXjXjXjXjXkXjXkXjXjXtXjXjXjXhXtXxXtXjXtXkXjXtXjXhXsXjXkXkXtXxXaXkXkXhXjXjXjXjXjXjXjXjXkXkXjXkXkXjXjXjXkXkXjXjXjXjXkXkXkXkXkXkXkXtXkXjXjXjXkXtXjXjXjXjXjXjXjXjXjXkXjXjXkX .~ ! W W W W ] W W W W W W W X.X.X.Q X.X.' X.X.! X.X.! X.! -.e.w.e.e.r.e.e.e.t.e.e.e.e.e.e.e.e.w.$.w.e.e.e.w.e.e.%.e.e.;.+.M.N.N.Z.b.N.N.N.b.Z.Z.N.N.N.f.X.w.w.w.Q -.-.w.w.[ w.w.w.Q >.Y.N.N.B.Z.Z.N.A.A.A.A.Z.Z.B.D.b.b.b.b.b.b.b.b.b.b.b.b.b.N.M.n.e.t.%.t.y.t.a.t.t.y.y.t.t.a.e.d.1.5.3.1.1.5.1.5.+.5.5.1.5.5.+.2.2.3.2.2.3.3.4.2.4.3.2.1.2.2.p.z.z.l.l.z.z.l.z.l.z.z.s.z.z.oX@ 1 : < < ; ; < ; ; ; ; ; ; ; < < < < < < < ; < 5 , < , 5 < 7 OXg.g.g.g.g.g.g.n.g.g.g.s.n.n.f.f.z.s.s.s.f.s.s.f.s.f.s.c.s.2.d.1.2.2.i.2.2.2.i.p.1.2.2.,.i.2.,.1.1.1.1.2.,.,.1.d.2.d.1.1.1.1.1.1.5.2.2.1.1.2.2.2.2.5.2.j.g < j 4 3 2 2 l 0 3 3 4 2 3 2 2                                                                                   ",
"                                                    /.%X.X.X.X.X.X#XXXXXXXXXXX.XoX+XZ.A.N.8.b.7.N.N.N.B.B.N.N.N.B.v.5.c.f.6.5.c.f.c.f.5.6.f.f.6.6.C.8.B.8.8.8.8.B.b.0.0.0.0.0.0.M.2.h.i.h.i.i.i.i.i.a.i.i.h.i.i.r.e.y.w.w.y.y.e.h.Q :.[ :.h.w.r.;.:.e.-.e.r.r.;.e.r.e.r.r.e.r.r.w.w.-.-.w.w.w.w.w.w.w.w.w.Q :XfXjXjXjXgXjXjXjXjXjXjXjXjXjXhXjXjXjXhXjXjXkXtXxXjXjXjXjXjXjXjXjXjXjXkXjXtXkXkXjXjXjXkXkXsXsXjXsXkXtXkXtXkXkXkXjXjXjXjXkXkXxXtXjXjXxXjXjXjXjXjXsXkXjXjXjXjXxXjXjXxXjXjXkXkXjXkXjXjXjXjXjXjXjXjXjXhXjXhXjXjXkXtXjXjXjXjXjXjXjXjXjXjXkXkXtXkXjXjXkXkXjXjXjXtXkXjXjXjXjXjXjXjXjXjXjXtXjXfX!.W W W ] W W W W W W W W W W ' $.! Q ! X.Q Q Q X.Q X.$.X.! e.e.-.y.w.e.e.e.e.e.e.e.t.w.e.e.e.%.e.e.e.e.&.w.e.t.e.%.%.w.o.,.T.B.b.Z.Z.b.Z.v.N.Z.m.b.Z.M.g.$.w.Q Q w.-.[ w.:.w.-.w.w.-.X.K.m.Z.M.N.Z.Z.Z.M.A.Z.N.B.M.A.c.b.6.b.c.c.b.b.c.b.v.v.b.b.b.n.u.e.a.r.t.t.t.t.y.y.t.t.y.t.u.d.5.5.5.5.5.1.5.5.5.5.5.5.1.5.5.2.2.2.2.2.4.2.2.2.2.1.1.1.1.,.p.d.l.z.z.z.z.+.z.+.z.d.z.s.z.OX+ < < < < < < < < 5 < < ; < < < ; ; ; < < < < ; ; ; < < < < X _.s.g.g.g.g.g.g.g.g.n.s.n.n.n.g.g.s.g.c.s.f.f.f.s.c.s.f.g.s.i.2.2.1.p.2.p.2.p.2.2.i.i.2.2.2.2.p.u.2.1.d.1.1.1.1.1.1.1.1.1.,.1.+.5.+.3.2.2.1.2.1.1.2.3.1.z.s 9 < 4 3 0 j 2 2 3 4 4 2 2 2 5                                                                                   ",
"                                                    /.2X.X.X.X.XXX.X.XXXXXXX.XXXXX Xm.N.N.7.N.N.N.N.N.B.N.N.N.B.N.6.5.c.c.c.c.c.c.c.c.c.f.6.c.5.5.B.8.b.8.B.8.B.B.B.C.0.0.0.0.T.b.i.i.h.i.a.a.i.i.a.i.h.h.i.r.h.w.y.r.w.r.e.e.w.Q [ :.h.:.r.r.r.r.e.e.r.e.r.e.r.r.:.r.e.r.r.w.w.w.w.-.w.-.-.w.w.w.w.w.w.[ $.`.fXjXjXjXjXgXjXjXjXjXjXjXjXjXkXjXjXkXkXkXkXkXkXjXkXkXjXjXjXsXxXkXkXjXjXjXkXkXkXjXkXkXjXkXkXjXjXkXkXkXkXkXkXkXkXkXjXjXjXjXkXsXkXjXjXtXkXjXkXjXjXkXkXjXjXkXkXtXkXjXtXjXjXkXkXkXjXjXjXjXjXjXjXsXjXjXkXjXkXjXjXkXkXkXkXjXjXjXjXkXjXjXkXkXkXtXkXkXtXtXzXjXjXjXjXkXkXjXzXjXjXjXjXjXjXjXjXjXgX' ~ W W W W W W ] W W W W W ~ $.$.X.! X.Q Q Q X.Q Q ! X.! X.e.r.w.r.r.w.e.y.e.e.e.e.e.e.w.e.w.e.e.$.e.&.e.e.e.t.e.$.e.e.e.,.A.b.Z.N.N.N.v.N.N.m.Z.N.B.M.g.-.e.w.-.w.w.w.[ -.w.-.[ -.w.O.K.Z.A.b.b.Z.Z.Z.A.Z.A.Z.S.Z.A.b.b.b.b.b.b.b.b.b.b.b.b.b.b.b.m.;.e.t.e.r.t.i.y.y.t.r.y.y.i.e.d.p.5.5.5.5.5.5.5.5.5.1.1.5.5.1.1.2.2.2.2.3.2.2.2.1.2.1.1.1.1.l.z.l.l.d.z.z.z.l.z.d.z.z.s.z.`.O < < ; ; < < < < < < < < < < < < ; , 5 < ; ; ; ; ; ; < - ; X '.s.g.g.g.g.g.n.z.n.g.n.n.g.n.n.s.f.s.s.g.s.f.s.f.g.f.s.c.s.p.i.2.2.p.,.i.2.2.i.2.2.2.,.2.i.2.,.d.2.2.d.1.d.1.1.2.,.1.1.1.1.1.1.1.5.3.5.2.2.1.1.1.1.2.4.F.f 9 2 4 3 0 2 j < 4 < 2 2 2 2 >                                                                                   ",
"                                                    ^.@X.X.X@X<XXXXXXX#XXXXXXX.X X Xm.N.b.N.N.N.7.N.B.6.b.N.N.N.N.6.4.c.5.f.6.c.c.6.c.5.c.f.c.5.5.8.8.8.8.8.B.8.0.0.b.0.B.0.8.8.b.2.i.i.i.i.h.i.h.i.a.i.h.y.h.h.;.w.y.r.w.y.e.y.h.h.h.Q [ :.w.r.r.w.:.w.r.r.r.w.w.r.e.r.r.w.r.;.-.w.e.-.w.w.w.w.w.w.w.w.[ ' `.gXtXgXjXjXzXtXgXjXjXjXjXjXjXjXjXjXkXkXsXkXkXtXkXkXjXjXkXjXkXtXkXkXjXjXkXaXxXtXjXaXkXjXjXjXkXjXjXkXkXtXkXkXtXkXjXjXjXjXjXtXjXjXjXjXkXkXjXjXjXjXjXkXjXjXkXsXkXkXsXjXjXjXtXkXjXjXjXjXjXjXjXjXxXtXjXjXjXkXtXjXkXkXtXkXjXjXjXjXjXjXjXkXaXkXkXkXkXkXkXkXjXjXjXjXjXjXjXjXjXjXkXjXjXjXjXjXjXfX!.) W W W W W W W W W W W W ~ Q Q ! $.! Q Q ! $.Q Q X.! X.X.;.e.e.e.y.y.e.e.e.t.w.e.e.e.e.e.e.e.e.t.e.e.&.e.$.&.%.e.e.w.%.o.T.b.b.N.N.b.Z.b.N.N.N.N.B.Z.s.X.-.-.[ -.-.[ w.:.w.w.-.w.w.O.Y.m.Z.Z.A.Z.Z.A.M.A.Z.N.Z.Z.A.v.b.c.b.b.b.b.b.b.M.v.b.v.B.M.c.,.e.e.i.e.t.t.t.u.t.i.i.t.y.u.2.2.1.1.1.5.+.5.1.5.1.5.5.1.l.5.1.2.2.1.1.2.2.1.2.2.1.2.1.1.1.d.l.z.z.z.z.l.s.l.z.l.z.s.s.g.OXX ; ; < < ; < < < 5 < 5 < 5 ; < < < < ; ; < ; < ; ; 5 ; 5 5 @ _.s.g.n.g.g.g.g.n.k.g.n.n.n.g.g.f.s.f.g.f.g.g.g.f.s.s.f.s.s.2.2.2.2.1.p.2.2.p.2.i.2.p.2.p.1.2.1.1.,.1.1.2.1.1.d.d.1.1.1.1.,.1.1.1.1.1.1.2.2.2.2.1.1.2.p.s.g < 3 4 3 2 2 2 0 4 2 2 2 2 < 5                                                                                   ",
"                                                    ^.2X.X X.X.X#XXX.XXXXX.XXX.X.X Xm.N.v.7.N.b.b.N.N.v.N.7.N.N.B.v.5.5.c.c.f.5.4.c.4.c.f.c.5.6.4.b.8.0.8.8.B.B.0.0.B.0.0.8.0.8.b.<.i.i.h.i.i.i.i.i.a.r.h.h.h.a.-.r.y.e.w.r.w.e.e.w.w.y.y.w.w.y.r.-.:.r.r.e.r.w.r.r.w.r.w.r.e.w.-.-.$.w.w.w.-.[ w.w.w.w.w.w.|.jXzXgXjXzXgXjXjXjXjXjXjXjXjXjXjXjXjXjXjXjXkXkXkXkXkXxXaXjXkXkXkXkXtXkXkXtXtXkXkXxXkXtXkXtXxXjXjXjXxXtXkXtXxXsXjXjXkXtXkXkXkXkXkXkXsXjXxXsXkXjXjXtXtXkXkXkXkXkXjXjXjXjXxXtXjXjXtXjXjXjXjXjXjXjXjXjXsXkXtXtXxXsXtXkXjXjXjXjXjXjXjXkXkXjXjXjXjXjXjXjXjXjXjXjXjXjXjXjXjXjXjXjXjXjXjXjXkXgXk.W W W W ] W ] ~ W W W W W W -.Q Q Q Q Q Q X.X.! X.! X.! X.w.e.e.e.t.t.e.w.e.e.w.e.e.%.e.e.e.e.t.t.%.e.e.%.e.%.%.e.w.e.,.O.K.N.Z.v.N.N.N.b.b.Z.m.N.N.M.z.X.-.-.w.-.;.Q w.[ w.e.Q w.$.O.Y.m.Z.Z.N.Z.Z.Z.Z.A.Z.Z.Z.A.A.m.b.b.b.b.b.b.b.b.m.b.b.v.b.b.M.;.e.e.r.t.r.i.t.t.y.y.i.t.a.e.1.1.5.5.5.1.5.1.5.5.5.5.5.1.l.1.5.+.1.1.2.1.2.2.1.p.1.d.2.1.2.l.z.l.z.z.z.z.z.l.l.z.s.l.s.z.|.@ 5 < < < < < 5 < 5 < 5 < < < , ; < < ; , < 5 5 ; ; 5 < - < X '.s.s.g.n.g.g.g.j.n.s.g.k.G.n.n.s.f.f.f.s.s.g.f.f.s.f.z.p.c.p.2.2.2.i.2.2.i.1.2.p.2.2.i.2.i.1.2.1.d.1.p.1.d.1.u.2.,.i.,.2.1.1.1.1.1.3.1.1.2.1.1.1.2.2.2.n.s 9 l < 2 2 2 2 2 2 > j > 2 2 2                                                                                   ",
"                                                    ^.2X.X.X.X.X.XXXXXXX#XXXXXXXoX XZ.N.N.N.7.7.N.N.7.N.N.N.N.N.N.6.5.c.c.5.6.c.c.6.5.c.6.f.c.5.6.8.8.0.8.8.8.8.0.B.0.0.B.0.B.8.b.p.r.i.i.y.a.a.a.a.h.r.a.y.h.r.e.e.w.e.r.w.y.y.y.y.y.r.e.e.y.r.e.r.w.e.w.r.r.r.r.w.r.e.w.r.e.w.%.w.e.$.w.$.w.w.w.Q w.w.w.' `.gXgXjXgXtXjXjXjXjXjXjXjXjXjXjXjXjXjXjXjXjXkXtXkXsXkXtXjXjXtXkXkXkXkXkXkXkXkXkXkXtXsXxXjXjXsXkXkXjXsXkXkXkXjXjXsXxXkXxXsXkXtXkXtXkXjXjXtXkXjXjXjXkXkXjXkXtXkXtXjXjXjXjXsXjXjXsXxXjXxXtXjXjXjXjXjXjXxXkXkXkXkXjXkXjXjXjXjXjXjXjXkXjXjXjXjXjXjXkXjXkXjXjXjXzXjXjXjXjXjXzXjXjXjXjXjXjXjXlX .` W W W W W W ~ W W W W ~ W Q Q Q Q Q ! Q ! ! X.X.X.! $.! e.e.e.e.e.e.e.e.e.e.e.e.e.e.e.e.e.$.$.e.t.%.%.t.&.t.%.$.e.e.e.,.D.v.N.N.b.N.m.N.b.N.Z.b.N.Z.f.o.-.[ w.[ w.w.Q :.[ [ w.w.w.O.Y.A.Z.Z.Z.B.Z.Z.A.b.Z.Z.b.A.A.b.b.v.6.b.b.b.v.b.v.b.v.b.b.b.n.e.e.i.e.t.t.e.t.r.t.r.t.t.t.,.2.5.3.5.+.5.3.5.5.1.5.+.1.5.1.5.5.l.5.d.2.2.2.2.1.1.2.1.2.1.1.l.p.z.l.p.l.d.l.z.s.l.d.z.l.j.|.o 5 5 5 < < < < < < 5 < 5 < 5 < < < 5 < ; ; < ; 5 < ; < 5 - 6 _.g.s.g.g.g.H.g.n.F.g.H.g.g.g.g.f.s.s.s.f.n.g.s.s.g.g.s.s.f.p.2.2.2.2.i.p.2.2.i.2.i.2.p.p.2.2.,.,.2.,.1.p.2.2.2.2.p.2.2.,.1.1.1.1.1.4.1.1.2.1.2.2.1.2.2.n.f - 0 l > 2 2 < 2 2 j > j 2 2 ,                                                                                   ",
"                                                    ^.2X.X.X<X.X#XXXXXXXXXXXXX.XoX{.Z.N.N.N.v.N.7.N.N.N.N.N.N.N.B.c.5.f.6.c.6.5.c.5.c.c.5.c.5.4.5.C.B.0.8.8.8.8.0.0.B.0.B.8.8.0.A.<.a.h.r.a.i.a.i.a.r.a.h.y.r.h.r.w.w.y.y.e.w.w.e.w.w.e.y.w.e.w.w.e.r.r.r.r.w.r.:.r.r.w.r.r.y.;.w.e.w.e.w.w.w.w.w.w.w.w.e.' `.jXjXjXjXjXgXjXjXgXjXjXjXjXzXjXjXjXkXjXjXjXkXkXkXkXkXjXjXjXkXkXjXkXsXkXkXkXjXjXjXjXjXjXjXjXjXjXkXtXkXkXkXkXkXkXkXtXtXxXtXkXkXkXjXtXjXhXtXkXxXtXjXjXjXjXjXjXkXjXjXkXjXjXjXjXjXjXjXjXtXkXkXkXjXjXjXjXtXkXkXtXjXkXjXjXkXjXjXzXjXjXkXkXkXjXjXjXjXjXjXtXjXjXjXjXjXjXjXjXjXjXjXjXjXjXjXjXjXfX_.] W W W W W W W W W W W W ~ -.Q Q Q Q Q Q $.! X.! ! $.Q $.w.r.e.w.e.e.e.e.e.e.e.t.e.e.e.e.e.e.t.e.%.%.t.%.e.e.e.e.w.e.e.+.T.b.N.b.Z.N.b.N.N.b.Z.N.A.b.s.X.-.-.Q [ w.;.Q [ -.-.w.w.w.O.K.A.Z.S.N.M.Z.Z.A.A.Z.Z.A.A.Z.b.M.b.b.b.b.b.b.c.b.b.b.v.b.b.n.u.e.e.a.e.e.e.r.i.t.t.r.y.i.e.2.2.5.3.5.+.5.5.5.5.5.+.1.l.5.5.1.5.1.1.2.p.2.2.1.5.5.1.1.1.1.1.l.z.z.z.z.l.z.d.p.l.p.z.l.z.!.6 > 5 5 5 < < < < < < < 5 5 < < < < ; < 5 5 5 < ; 5 ; < ; < 6 j.s.g.g.g.U.g.g.F.k.g.F.F.n.n.g.f.c.f.s.f.f.f.s.g.f.f.s.s.f.p.,.2.2.2.1.p.i.i.2.p.,.i.,.p.2.,.2.2.2.2.i.2.2.i.2.2.i.2.<.3.1.1.1.1.1.1.2.1.1.1.1.1.2.1.4.n.s 0 5 2 2 > < 2 2 2 < 2 > , j ,                                                                                   ",
"                                                    ^.2X.X.X@X.XXXXXXX#XXXXX.XXX X Xm.N.b.N.7.N.b.N.7.b.7.N.B.N.b.6.6.5.f.5.f.c.c.c.c.6.c.c.c.c.6.C.C.B.B.8.8.8.0.b.0.B.0.0.B.B.b.i.a.r.a.h.a.i.a.i.a.i.a.h.r.a.;.w.e.r.w.y.e.r.y.y.y.e.y.e.y.w.r.e.r.w.w.r.w.:.w.r.r.r.r.w.w.-.-.w.w.w.w.e.t.w.w.w.w.w.w.' `.jXjXjXjXgXjXjXjXtXjXjXjXjXjXjXjXjXkXjXjXjXkXkXtXjXtXkXkXjXkXjXjXkXxXkXkXkXjXjXjXjXjXjXjXjXjXjXaXxXtXkXkXtXjXtXkXkXjXsXkXkXkXtXjXjXjXjXkXtXsXkXjXjXjXkXtXjXkXkXjXjXkXtXjXjXjXjXjXjXkXtXkXkXjXjXjXjXkXkXkXxXjXkXkXkXjXjXjXjXjXjXjXjXjXjXjXjXjXkXkXkXjXjXjXjXjXjXjXjXjXjXjXjXjXjXjXjXjXgX[ W W W W W W W W W W W W W W ' Q Q Q Q Q Q ! $.! $.! X.Q Q w.y.e.w.e.e.e.e.e.t.e.e.e.e.e.t.e.e.w.e.e.$.%.e.e.%.%.e.e.w.;.O.K.b.N.b.Z.b.Z.N.N.Z.N.N.Z.N.l.X.[ r.-.r.w.[ w.w.w.w.-.[ &.O.T.m.Z.m.Z.Z.Z.Z.A.m.M.A.A.A.Z.b.N.b.b.b.b.b.M.b.M.N.b.b.b.b.n.e.e.i.t.r.r.t.t.t.t.a.a.y.t.u.i.2.3.5.5.5.5.5.+.5.5.5.5.l.1.+.1.5.1.l.d.2.2.p.p.2.1.1.l.1.1.l.p.l.l.l.l.l.l.z.z.l.z.p.z.*.*.o 5 5 < 5 < 5 < 5 ; < < 5 < < < ; 5 5 < ; ; 5 ; < * < < ; ; X _.g.k.g.g.g.n.n.n.g.g.k.n.n.F.g.s.s.g.f.s.f.s.f.f.s.s.f.z.s.s.i.2.2.2.i.2.2.2.p.2.2.2.2.2.i.2.i.2.2.2.1.i.2.2.2.p.1.2.2.1.1.1.1.1.1.1.1.1.1.1.2.1.1.2.2.M.s 0 < 2 2 2 2 < 2 < j 2 2 2 > ,                                                                                   ",
"                                                    ^.@X.X.X.X<XXXXX.XXXXX.XXXXXoX{.m.N.b.N.7.N.7.N.N.N.b.7.b.N.B.6.5.c.b.4.4.b.5.c.f.c.c.4.4.6.5.b.0.0.C.0.8.8.0.b.8.0.B.0.B.0.T.:.y.h.i.a.a.y.h.y.a.i.r.h.i.y.w.r.w.w.w.y.e.r.y.y.w.r.y.w.y.y.e.r.r.r.r.r.w.r.w.r.r.r.e.e.e.-.e.w.w.w.w.w.w.w.w.w.w.w.w.t.`.jXzXgXjXjXjXjXjXjXjXjXjXjXjXjXjXjXzXjXjXjXjXkXjXjXxXsXtXkXkXkXkXkXtXkXkXjXjXjXjXtXjXjXjXjXjXjXtXxXjXtXkXkXtXjXjXjXjXkXkXtXkXjXjXjXjXkXjXjXjXtXkXjXjXtXkXjXtXjXkXtXjXjXtXkXtXkXkXkXjXjXjXjXjXjXjXjXkXtXkXsXkXjXkXjXkXjXjXjXjXjXjXjXjXjXkXkXjXjXjXjXjXjXjXjXjXjXjXjXjXjXjXjXjXjXjXjXjXgX!.` W W W W W W W W W W W W ~ Q Q ! ! X.! $.X.! $.! Q Q ! Q w.y.w.e.e.;.e.e.t.e.e.t.t.e.e.e.e.e.e.%.%.e.$.e.&.$.e.e.w.e.e.,.T.b.b.N.m.N.N.b.N.N.Z.N.N.b.g.X.-.Q r.-.Q :.:.[ Q w.w.[ w.O.K.Z.N.M.N.Z.Z.B.Z.Z.Z.A.Z.Z.Z.N.b.b.b.b.b.b.b.b.M.M.b.b.b.b.m.u.e.r.r.t.e.t.r.t.t.y.t.t.t.,.2.2.1.2.1.5.5.5.5.+.5.5.d.5.1.5.1.1.d.5.5.1.d.5.d.1.1.1.1.1.1.l.z.z.l.l.d.l.z.l.z.p.l.z.l.=.!.6 & > < < 5 ; < < < < < 5 < < < < < ; ; < 5 5 ; 5 < - < ; < X _.g.n.s.n.g.g.F.g.g.k.H.g.g.g.g.g.g.f.g.s.s.f.g.s.f.f.z.g.s.s.2.2.i.i.<.2.p.p.2.2.i.2.p.2.2.i.2.2.i.1.2.,.i.2.i.i.1.2.2.,.1.1.2.1.1.1.1.1.1.1.2.2.,.2.2.s.g 9 2 2 2 2 2 < < < j > j , j >                                                                                   ",
"                                                    ^.@X.X X.X.X X.XXXXXXX.X.XXXXX XZ.N.b.7.N.N.N.N.N.b.N.N.B.V.b.b.c.c.4.b.4.4.c.c.6.c.c.c.f.6.6.T.b.C.b.8.8.8.0.0.B.0.8.0.0.8.b.,.a.a.a.r.h.i.y.h.y.y.h.y.r.h.r.w.y.r.r.r.w.w.w.r.y.y.r.y.y.e.e.w.y.r.e.r.e.r.r.r.w.r.r.e.e.w.o.w.w.w.y.w.w.w.w.w.w.w.-.' :XjXtXjXjXjXjXjXjXjXtXjXjXjXjXjXjXtXjXjXkXjXjXjXjXkXkXjXkXjXkXtXtXjXtXkXkXtXjXjXjXjXhXjXtXjXjXjXkXtXjXjXjXjXkXjXjXjXkXtXsXxXtXjXjXjXjXkXtXjXjXjXjXjXjXjXjXjXjXjXjXjXjXjXtXjXtXxXsXkXjXjXjXjXjXsXjXjXkXkXkXkXtXjXjXjXjXjXjXjXjXjXjXjXjXjXjXkXjXjXtXkXjXjXjXjXjXjXjXjXjXjXjXjXjXjXjXjXjXkX' W W W W W W W W W ~ W W W ~ Q Q Q X.! $.! X.! ! $.Q Q Q Q e.e.e.e.t.e.e.e.e.e.w.e.e.e.%.e.e.;.$.e.e.%.e.e.e.e.e.%.e.w.%.O.Z.b.N.v.N.N.N.Z.Z.N.M.N.N.D.g.-.:.[ [ -.-.[ Q -.w.w.w.y.-.o.Y.Z.N.Z.A.Z.Z.M.Z.Z.Z.Z.Z.A.Z.b.b.b.b.b.b.b.m.b.N.b.v.b.b.v.c.t.t.r.t.r.i.i.a.t.i.i.t.i.i.;.d.1.1.5.5.1.1.1.5.5.5.5.5.5.5.1.5.5.5.2.l.5.5.2.1.5.5.1.5.5.5.d.l.p.z.z.z.z.s.s.p.z.s.f.p.s.!.o 5 < ; 2 < < < < 5 < < < < < < , < , < < ; 5 ; , 5 < 5 5 ; o _.h.n.n.H.g.F.n.g.g.F.g.g.n.F.g.f.h.s.f.f.g.s.s.f.s.f.s.f.s.p.1.2.u.1.2.2.1.i.2.p.1.2.,.p.,.2.2.2.i.,.p.2.2.2.1.2.2.,.i.1.1.3.1.1.1.1.1.1.1.2.1.2.,.1.2.n.f 0 < < < 2 < 2 2 2 < < > 2 2 2                                                                                   ",
"                                                    /.2X.X X.X.X XXXXX XXXXXXXXXoX Xm.N.N.N.N.b.N.N.N.N.N.N.N.7.8.6.4.4.b.b.4.b.6.c.6.4.c.c.4.c.5.0.8.0.0.C.8.8.B.0.B.0.B.V.8.B.b.<.i.i.i.a.i.i.h.h.i.a.i.a.h.a.r.y.w.y.y.w.w.y.r.r.w.e.y.w.r.w.w.r.r.w.w.r.r.e.r.:.;.:.e.e.e.e.e.w.e.w.w.w.w.w.w.w.w.w.w.&.:XjXjXgXtXgXgXjXgXjXkXtXjXtXjXjXjXjXjXgXjXjXjXjXjXjXjXjXjXkXkXjXjXjXkXkXkXjXkXjXjXkXjXjXjXjXjXkXkXtXjXjXjXjXkXjXjXjXjXjXjXkXjXjXkXjXkXkXjXjXkXtXjXjXtXkXjXkXjXkXjXkXkXjXkXkXjXjXjXjXsXjXkXjXjXjXjXjXkXtXjXjXzXjXkXkXkXjXjXjXjXkXkXkXjXjXkXkXkXkXkXkXzXgXjXjXjXjXjXjXjXjXjXjXjXkXkXkXkXkX!.) W W W W W W W W ~ W W W ~ Q ! $.$.! ! $.! X.$.! Q ! Q ! w.e.e.e.e.e.e.e.e.e.e.e.e.%.t.e.e.;.o.e.w.e.;.w.e.e.%.%.w.w.t.>.K.Z.v.N.Z.b.N.N.N.b.M.B.N.Z.g.-.h.[ -.[ [ -.[ :.[ r.w.w.w.o.L.Z.Z.S.A.N.N.Z.A.N.N.Z.Z.Z.N.b.b.b.b.b.M.b.b.m.b.b.b.v.b.b.n.e.i.t.u.r.r.t.e.r.t.e.r.r.r.t.d.5.1.1.+.5.5.5.5.5.1.5.l.l.1.5.1.5.d.5.1.1.5.2.5.l.5.1.+.5.1.U.z.l.l.d.z.z.z.s.p.s.z.s.p.a.!.6 5 5 < < < 5 < < < < < < < < < < 5 < , ; 5 < < , 5 < 5 5 - X ~.a.g.F.k.n.g.g.g.H.n.g.F.g.g.g.g.g.g.g.g.g.n.s.f.f.f.n.s.f.p.p.2.p.p.2.2.i.1.2.p.2.p.i.p.p.i.2.p.2.2.2.p.i.2.2.p.1.2.2.,.1.1.1.1.1.1.2.1.1.1.p.2.2.2.3.U.s 0 2 2 2 2 2 < 2 2 2 2 2 , 2 j                                                                                   ",
"                                                    ^.@X.XoXoX.X.X XXXXXXXXXoXXX.X XJ.N.b.N.N.N.B.N.N.N.N.N.N.N.b.M.T.M.F.M.M.b.F.F.F.F.F.F.g.F.6.T.b.0.0.0.8.8.0.B.0.B.B.8.V.B.A.,.,.;.<.<.<.,.,.i.,.,.i.<.r.r.w.y.w.w.r.r.y.w.y.e.e.r.r.r.r.r.:.r.r.r.r.r.r.w.w.e.r.w.e.r.e.e.w.w.w.t.w.y.w.w.w.t.w.w.t.[ :XkXzXgXgXfXtXfXfXjXgXfXgXfXgXgXgXjXgXjXgXkXkXkXgXgXhXjXhXgXkXhXhXjXkXjXjXhXjXhXhXtXhXjXjXkXgXkXsXxXgXkXkXkXkXjXkXkXjXgXjXkXgXjXjXjXjXtXhXjXjXhXjXjXhXjXhXjXjXhXjXjXjXkXkXkXsXkXkXxXjXjXjXjXjXjXjXjXkXjXkXkXkXkXjXjXjXjXjXkXkXkXkXkXkXjXkXkXkXkXkXkXkXgXkXkXjXjXjXjXgXjXgXjXkXjXgXkXkXlX!.] W W W W W W W W W W W ] ~ $.! X.! ! X.! X.X.! X.Q Q X.Q e.e.e.t.e.t.e.e.t.e.e.e.e.e.t.t.e.;.;.;.;.;.r.;.;.;.e.;.;.o.o.O.A.v.N.v.N.v.b.N.m.N.b.N.A.Z.g.[ [ y.[ k.[ y.[ y.y.[ r.[ y.-.D.N.N.S.M.A.A.B.Z.A.Z.Z.N.A.Z.b.b.b.b.b.b.b.b.b.b.b.N.v.7.b.n.u.i.r.r.t.i.r.e.a.i.e.a.r.u.u.d.1.5.5.1.5.1.1.1.1.1.5.+.5.5.l.+.5.5.2.5.l.1.5.l.d.1.5.l.l.5.+.U.'.U.'.'.].].}.].'.'.'.'.'.!.o 5 < < < < < < < < < < < ; < , 5 < 5 < ; , 5 < ; ; 5 ; 5 > X _.a.g.g.g.g.k.F.g.g.g.n.g.g.g.s.i.s.s.f.s.f.s.f.f.s.s.s.s.f.p.p.u.1.i.2.p.2.2.i.2.i.2.2.2.2.i.1.,.2.p.,.2.2.i.p.2.i.p.2.p.,.1.1.1.1.1.2.1.1.,.1.2.2.2.2.n.f - 2 2 < > 2 2 > 2 2 2 < 2 2 2                                                                                   ",
"                                                    ^.@X.X.X.X.X.XoX.XXX.X.X.X.X X Xm.N.N.v.N.N.N.N.N.N.b.N.N.v.N.,.! W W [ W W W [ W W [ W W W ! M.8.B.8.8.B.8.B.8.B.7.7.8.8.B.T.b.M.T.b.T.b.b.M.M.M.T.b.b.b.F.:.-.e.e.r.w.e.e.r.e.e.e.r.e.e.e.e.e.e.e.e.e.e.e.e.w.;.e.e.e.;.e.w.e.e.e.e.w.e.w.e.w.w.w.e.$.|.:X:X:X|.:X`.(.(.|.:X`.:X|.(.:X`.`.(.`.`.~.`.(.`.~.`.~.(.`.:X`.`.|.:X`.(.:X:X:X:X:X:X).|.:X).|.:X).:X`.:X).`.:X(.:X:X:X(.:X(.:X:X:X:X:X:X:X:X:X:X:X(.:X:X:X:X:X:X).:X:X:X:X:X:X:X:X:X:X:X:X&X:X:X&X:X&X:XfX:X&X:X&X:X:X:X&X:X:X:X:X:X:X:X:X:X:X:X(.:X:X:X:X:X:X:X:X:X:X:X:X:X&X:X:X:X:X' ~ W ! ! W ! ! ! ! Q ! ! ` ! w.w.w.$.w.$.X.%.$.$.$.$.X.$.$.e.e.t.e.e.e.e.e.e.e.e.e.e.t.t.e.f.M.M.M.M.n.M.g.M.M.f.M.b.g.M.4.A.m.v.Z.b.m.N.v.N.N.v.v.b.b.w.] ] ) W ) ) W ) W ] ) ) ] W W Y.N.N.B.A.Z.A.b.A.Z.A.N.A.A.b.b.b.b.B.b.B.b.6.B.b.b.0.b.b.8.n.<.r.i.r.i.e.i.i.,.r.u.:.r.i.;.p.p.1.1.2.2.2.2.2.2.2.2.2.5.2.5.2.5.l.5.l.2.p.5.5.p.5.p.p.c.H._ _ f f ^ f f g s s g r g r r q - ; < < 2 < 5 < < < < , < < < 5 < 5 , ; < 5 < 5 < ; < ; < - X _.e.i.a.p.i.p.i.i.p.h.a.h.a.a.i.O.o.o.o.+.O.,.O.o.O.,.+.>.,.1.,.1.1.,.,.,.1.2.,.2.2.2.1.p.,.,.2.,.<.3.,.,.,.,.,.,.2.,.,.3.1.1.d.1.1.,.1.1.1.1.2.2.1.2.1.j.s 9 1 2 2 2 2 2 2 2 2 < 2 < < 4                                                                                   ",
"                                                    W.2X.X X X.XoX X.X X XXXXXXX.X XZ.v.x.v.x.6.v.v.6.6.v.6.b.6.M.w.] ` ` ( ` ` ` ` ` ` ` ` ` ` W Y.B.8.B.N.7.B.7.B.7.7.N.B.6.8.8.0.T.0.0.b.b.T.B.B.b.B.C.T.T.Y.3.;.e.e.e.;.-.e.e.-.:.e.-.e.e.:.e.-.-.w.-.%.;.-.;.;.;.-.;.-.w.e.e.-.-.w.e.-.w.e.e.;.o.e.;.w.&.t.&.&.&.&.t.e.t.%.&.t.' &.w.&.&.&.t.&.' %.$.&.&.%.&.t.e.&.&.&.&.%.&.w.t.&.&.$.' &.&.&.&.&.&.&.$.&.$.&.&.$.&.&.&.w.&.$.w.t.t.w.&.&.&.&.&.' &.&.&.&.t.w.&.' &.&.&.&.' &.&.&.' &.k.' &.&.&.' &.' &.&.' &.&.' &.&.&.' &.&.&.&.&.&.&.' &.&.&.&.&.$.&.&.' w.$.$.%.&.&.&.&.&.$.&.&.&.&.&.t.&.*.y.y.y.y.y.y.y.y.y.y.y.y.y.y.y.y.a.y.t.e.t.t.t.y.y.t.y.a.t.y.y.i.e.e.t.t.e.e.t.e.t.e.e.e.>.c.b.b.b.b.c.6.b.c.6.b.b.b.4.b.6.N.v.v.v.v.N.m.v.m.N.v.N.b.M.[ Y ( Y ( ( ( ( Y ( ) ( ( ( ( W Y.N.N.N.B.N.A.B.A.B.A.A.A.B.D.b.b.B.6.B.6.B.b.b.b.b.b.C.0.b.c.2.e.u.i.t.r.u.e.<.<.:.;.<.u.,.,.2.2.2.2.2.2.2.2.2.2.2.2.2.2.2.5.l.p.l.l.l.l.l.p.5.p.l.5.c.].d o : - - : : 9 : : - 9 1 : ; ; < < < < < < < < < < < < < 5 ; < 5 < ; , 5 5 5 5 5 < - ; < ; 6 `.r.i.d.h.i.h.i.h.h.h.h.h.h.i.d.O.;.;.o.;.o.>.,.o.,.,.o.;.,.,.,.u.1.,.1.1.i.,.i.,.1.,.,.,.,.,.,.,.,.3.,.,.,.,.,.,.3.,.,.3.3.1.1.,.1.2.1.2.1.1.1.1.2.1.2.U.f - 1 2 2 2 4 2 1 4 4 2 2 2 2 4 j v GXh h z 3 h z z z z h z z GX                                                  ",
"                                                    ^.2X.X X X.XoXoX X.X.X.X.XXX<X XJ.v.v.v.v.6.x.6.v.7.6.6.v.v.n.y.] ` ` ` ` ` ` ` ` ` ` ` ` ` W T.B.B.B.6.N.7.N.7.7.b.7.N.6.8.8.8.b.C.b.0.0.C.0.0.8.B.0.0.0.T.3.;.e.e.;.;.;.-.;.e.e.e.-.e.e.-.e.-.w.o.w.o.w.;.o.-.e.;.-.-.e.e.e.w.w.-.-.e.o.;.o.w.;.;.;.-.w.w.e.$.w.%.w.e.%.$.w.%.o.%.e.;.e.o.e.-.o.w.w.w.$.%.&.w.$.%.X.o.%.$.$.$.$.e.%.$.%.%.%.%.X.o.$.%.%.%.$.e.e.$.e.$.w.$.%.%.%.e.w.e.%.%.e.%.e.$.$.%.%.$.e.w.w.$.%.e.e.%.w.w.w.$.&.w.' t.t.$.w.w.t.e.t.w.t.w.w.t.e.t.w.w.t.e.t.t.e.t.t.e.e.e.e.t.%.e.t.e.t.%.e.t.e.&.%.t.a.t.t.t.t.t.t.t.e.w.&.e.t.&.w.e.t.w.w.t.e.w.w.t.w.y.y.r.a.t.y.t.a.e.e.e.u.t.t.t.r.r.t.t.e.r.e.e.e.e.w.t.r.e.r.;.b.b.6.6.6.b.b.6.b.b.6.6.6.6.6.b.v.v.N.v.v.m.x.Z.v.b.b.v.b.M.[ Y Y ( ( ( ( ( ( ( ( ( ( ( ( W Y.N.b.B.A.N.B.A.b.A.A.T.B.A.N.N.N.6.B.b.b.B.b.b.b.0.0.b.b.C.n.i.u.r.i.t.a.e.e.<.,.i.<.u.r.;.2.2.5.2.2.2.4.2.2.4.2.4.2.4.2.5.c.2.5.p.p.5.l.2.l.p.c.p.p.5.H._ : < - < ; ; ; ; - ; < < - 5 < < 2 < < 2 < < < 2 < < < < , < 5 5 < 5 5 < , < 5 < ; < 5 < - X _.r.i.h.p.h.h.h.h.p.h.h.a.h.a.a.o.o.o.;.o.,.;.o.;.;.;.,.,.+.,.d.1.,.d.,.p.1.d.2.,.d.,.,.,.2.2.,.,.,.<.,.,.,.,.,.,.,.,.,.,.1.2.,.,.p.2.d.1.d.1.1.d.2.2.2.s.f 9 3 3 3 4 4 4 3 4 3 4 2 0 4 0 j 2 1 2 2 2 2 2 2 2 < , < , 2 2                                                   ",
"                                                    W.@X.X.X.X.X X.X X.X X.XXXXX#XXXm.N.7.6.N.v.7.v.v.v.N.v.v.q.c.e.` ` ` ` ` ` ` ` ` ` W ( ` ` W T.B.B.B.B.B.B.b.B.B.7.B.6.7.B.0.b.0.0.C.b.0.b.B.B.B.B.0.b.b.T.>.w.e.;.;.-.;.:.;.;.w.e.e.e.-.e.e.w.;.;.e.;.w.e.e.w.e.%.e.w.e.w.e.;.-.;.o.e.-.;.-.;.o.w.%.$.t.w.%.$.;.$.-.o.-.;.%.;.e.o.$.o.o.;.-.;.w.o.o.e.e.e.w.w.e.%.e.$.w.e.%.$.w.o.;.o.-.e.e.e.e.$.e.%.e.e.$.w.$.e.o.;.w.w.%.$.e.$.w.$.%.e.o.$.e.%.e.w.w.w.w.w.e.w.-.w.w.w.e.e.w.w.[ y.w.w.e.w.e.w.&.w.w.w.w.w.w.w.w.w.w.w.[ w.e.r.t.e.y.e.e.t.t.r.t.e.e.t.e.e.t.e.e.t.e.w.e.w.e.e.w.w.t.t.:.t.e.w.e.t.e.w.w.w.t.w.e.w.t.e.e.r.t.t.t.r.t.y.y.y.y.t.t.t.d.y.t.t.r.e.e.t.e.e.e.e.e.e.e.w.t.e.f.b.6.6.b.b.6.b.b.6.b.6.c.b.6.b.N.v.m.v.v.N.N.v.N.v.Z.x.M.T.r.( ( ( Y ( ( ( ( ( ( ( Y Y ( W Y.V.A.A.Z.D.A.B.A.B.A.A.N.B.A.b.B.B.B.b.B.B.0.T.b.b.b.b.0.T.c.i.e.e.u.i.r.i.i.r.i.;.i.i.i.,.,.2.2.2.4.<.2.2.2.2.2.2.2.2.2.2.2.5.p.p.p.p.l.p.l.4.f.2.c.4.M.f 9 1 0 5 < ; ; 2 < < ; < < ; < < 2 < < 2 < < < < < < < < < < < < < < < < < ; , < < < 5 ; ; 8 `.e.i.i.h.i.h.p.i.h.p.h.h.p.a.a.o.;.,.o.;.o.;.,.+.;.,.o.;.;.,.u.,.,.2.,.,.,.,.,.1.i.1.,.1.,.,.2.2.,.,.,.,.,.2.3.,.2.,.,.,.,.2.2.<.2.2.1.1.1.1.d.1.p.i.2.U.s - : 2 4 4 4 3 4 4 2 0 4 < 4 2 < 2 2 2 2 2 < 2 2 2 2 < 2 2 , 4                                                   ",
"                                                    W.2XoXoX.XoX.XXX.X X.X.XXX.X.X Xm.x.v.v.N.6.N.x.v.v.6.v.b.6.b.r.` ` ` ` ` ` ( ` ` ` ` ` ` ` W Y.8.B.8.B.B.N.N.N.B.N.B.B.6.7.b.T.8.8.0.B.B.0.C.0.b.0.T.0.b.T.,.;.-.-.e.-.-.:.e.-.;.r.-.e.e.;.o.e.-.o.;.o.;.o.o.;.o.-.o.;.o.e.-.;.-.;.e.$.%.e.w.e.w.w.e.o.w.e.;.$.e.e.$.o.$.$.$.o.w.%.$.;.$.%.%.%.$.%.e.$.%.$.$.%.o.$.e.$.%.%.$.$.%.%.$.%.%.%.%.$.%.%.$.e.$.%.e.%.e.$.$.$.%.e.;.$.%.e.e.$.%.%.$.e.e.o.$.e.e.o.$.e.e.o.w.w.e.w.w.w.w.w.w.e.w.w.w.w.w.w.w.w.w.w.w.w.w.w.w.e.w.w.w.e.e.t.t.t.t.e.y.e.t.y.t.e.e.t.t.e.e.e.t.w.t.e.e.e.e.e.e.w.t.w.w.e.t.w.w.t.w.t.e.t.t.e.w.t.w.t.e.t.t.y.t.y.y.y.y.y.y.t.t.t.t.r.t.t.e.t.t.e.e.t.e.e.t.e.e.e.a.o.n.b.v.v.b.6.b.6.b.f.6.b.6.b.6.b.N.b.v.v.v.N.v.b.v.v.b.N.N.K.y.Y ( ( U ( ( ( ( ( ( ( ( ( ( W Y.B.B.A.A.B.A.A.B.A.B.B.T.C.A.6.B.B.B.b.B.6.b.B.b.B.0.b.b.T.c.h.u.u.r.a.i.i.t.i.r.i.e.<.<.;.2.2.1.2.4.2.2.2.h.2.2.2.2.4.2.f.l.2.2.c.l.f.l.l.p.p.l.c.p.c.G.f 9 5 < < < ; < < < 2 < < < < < < 2 2 < < < < < < < < < < < , ; < 5 < 5 < ; < < ; ; < < < ; X _.g.i.p.h.h.i.h.i.a.h.h.p.h.h.a.o.o.>.e.%.;.e.+.u.o.%.%.,.+.1.,.d.2.u.,.,.2.p.p.,.,.1.u.,.,.,.,.<.,.,.<.,.,.<.,.,.,.,.,.,.,.i.,.p.1.1.2.d.p.p.1.1.d.2.p.z.s - 2 2 2 4 4 2 2 0 < 4 4 4 < 2 2 2 2 2 2 2 < 2 < < 2 2 2 2 , j                                                   ",
"                                                    W.2X.X.X.X<X.X X X.X X.XXXXX.X XJ.N.v.v.v.v.v.v.7.x.b.v.b.b.M.y.) ` ` ` ` ( ` ` ( ` ` ` ( ` ! T.6.B.B.B.B.B.N.N.B.N.B.B.N.8.0.0.b.b.b.0.B.B.T.b.0.b.0.b.0.T.>.;.e.:.-.:.w.w.e.;.e.-.e.-.;.e.w.;.e.;.-.;.;.w.e.-.-.e.w.-.;.e.;.;.o.e.o.e.-.e.;.o.;.o.w.;.%.-.w.%.%.%.e.e.%.o.%.%.$.%.%.%.%.%.$.%.o.e.$.%.%.%.$.%.$.e.$.o.%.$.e.%.w.%.%.e.e.%.e.%.e.$.$.%.%.w.$.%.$.%.$.e.%.$.%.%.$.%.$.o.%.%.%.$.$.%.e.$.$.e.e.$.w.w.w.w.$.e.w.w.w.$.w.w.w.t.w.w.t.w.t.w.w.t.t.w.w.w.w.w.t.w.w.w.e.t.t.e.t.r.e.t.t.e.w.t.e.e.e.t.t.e.t.e.e.w.e.w.t.e.t.t.w.t.t.t.$.t.t.e.e.e.e.w.e.e.e.e.e.t.t.t.r.t.r.t.y.y.y.t.a.t.r.t.a.t.t.e.t.e.e.t.e.e.e.e.e.e.e.e.e.;.g.b.6.v.v.b.c.b.b.6.b.6.b.6.b.6.v.v.m.N.v.v.m.v.b.m.v.b.b.M.[ ( ( ( ( ( ( ( ( ( / ( ( ( ) W Y.B.b.B.N.A.A.B.A.A.T.B.B.B.B.B.8.b.7.b.6.B.B.b.B.N.0.b.0.b.c.:.e.a.i.e.e.e.i.e.u.i.i.u.i.,.i.p.2.2.<.2.2.2.2.2.2.2.2.2.2.f.p.c.l.l.l.2.l.p.c.p.l.2.2.p.H.s 9 < 2 2 0 ; 1 < < < < < < < < < < < < 2 < < < < < 2 < < < < < 5 5 5 < 5 < < < , < ; 5 < ; X !.h.i.h.<.i.h.h.h.h.h.i.h.a.i.f.o.;.;.o.,.e.e.;.e.;.;.u.+.;.,.i.1.,.1.1.u.,.,.,.1.d.,.,.p.,.,.,.,.,.,.u.,.,.,.,.,.<.,.,.,.,.d.2.2.1.d.1.2.1.p.1.p.1.2.p.j.f - < k 2 0 2 < 0 4 4 4 1 4 2 1 2 1 2 2 2 2 1 2 2 2 2 2 , 2 , 4                                                   ",
"                                                    W.2X.XXX.XoXoX X X X.X<X.X.X.X Xm.N.b.v.N.q.7.v.6.N.v.6.b.6.b.y.` ` ` ` ` ` ` ` ` ` ` ( ` ` W Y.b.0.6.B.B.B.N.B.V.B.B.6.8.b.0.b.0.b.B.B.C.C.0.0.0.T.b.0.0.Y.>.-.-.:.e.e.;.:.e.-.;.r.;.-.e.e.;.;.e.;.-.e.e.;.;.;.;.-.;.-.e.;.-.-.;.-.e.$.;.w.$.;.e.e.e.$.e.-.o.w.%.%.%.$.%.%.e.$.e.$.$.%.%.o.e.$.$.$.%.o.%.%.$.%.$.%.%.%.$.%.%.%.%.$.%.$.$.e.$.e.$.%.%.%.%.%.%.o.e.$.%.%.%.$.e.$.%.-.%.$.%.%.$.$.o.w.$.e.%.w.$.%.e.w.-.w.w.-.w.w.w.t.w.w.w.t.w.w.[ t.w.w.w.w.w.w.w.w.w.w.t.w.e.w.t.e.e.t.e.e.e.t.t.e.t.e.e.t.t.e.e.e.e.e.e.t.t.$.e.t.w.t.t.t.w.w.w.t.w.t.t.e.t.e.t.w.t.e.t.e.e.t.y.t.t.t.y.y.y.a.i.t.t.y.t.a.e.t.t.e.e.t.e.e.e.t.e.e.e.e.e.%.n.c.v.v.6.6.b.6.6.6.b.6.c.6.c.6.b.v.v.N.b.v.v.Z.6.v.v.v.N.M.[ ) ( ( ( ( U ( ( ( ( ( ( ( ( W Y.C.B.A.N.A.A.B.B.A.B.b.B.T.C.B.b.B.b.N.N.b.8.b.N.B.B.b.b.0.c.r.r.e.e.i.u.a.u.a.e.e.i.i.i.,.p.2.1.2.2.2.4.2.2.2.<.f.2.2.2.c.c.p.l.p.p.l.c.p.p.5.p.l.f.p.H.d - - 5 2 2 < < < < 2 < < < : < 1 2 < , 2 < < < < < < < < < 5 < < < , 5 < < < < 5 ; 5 ; 5 < X !.h.p.h.h.h.a.p.h.h.p.h.h.h.h.g.o.o.o.%.;.o.e.%.%.e.%.u.e.+.,.1.,.,.i.1.u.d.u.1.,.d.d.1.i.,.2.,.,.i.2.,.,.,.,.,.,.,.,.,.,.1.2.1.i.1.,.p.d.2.1.2.d.1.2.p.j.s O 1 2 0 2 0 2 2 0 2 2 1 4 4 4 1 2 1 2 < 2 < 2 2 2 < 2 2 2 , z                                                   ",
"                                                    ^.@XoX.X.X XXXXX.X.X.X.XXXXX.X Xm.6.v.6.v.v.v.v.v.v.6.v.6.6.b.y.] ` ` ( ` ` ( ` ` ` ` ` ` ` W Y.8.B.B.N.B.N.N.B.N.N.B.B.B.B.0.0.T.0.0.B.b.b.B.b.T.0.0.T.0.T.:.-.:.w.;.e.w.;.-.e.e.-.;.e.-.-.;.-.-.o.;.o.;.-.;.w.o.;.o.;.-.;.e.o.;.o.w.;.e.o.e.e.;.$.;.;.%.e.e.%.e.$.e.%.$.e.$.o.%.%.%.e.$.$.%.%.%.%.$.e.$.%.%.$.o.%.%.$.e.$.o.$.e.%.%.$.%.%.%.%.%.%.$.%.$.%.%.$.o.$.%.$.;.%.$.%.%.%.%.%.%.$.%.e.e.$.e.$.o.w.e.$.o.w.e.w.e.$.w.;.w.w.w.w.w.w.w.w.e.w.w.w.w.t.w.w.t.[ t.w.$.w.w.e.e.t.e.e.t.t.e.t.e.t.e.t.t.e.t.t.e.t.%.t.t.e.t.e.w.t.t.w.t.$.t.$.t.$.t.e.e.w.e.t.e.t.t.e.t.e.e.t.t.y.t.y.t.t.t.y.t.y.t.i.a.y.y.e.e.t.e.e.e.t.e.e.t.e.t.e.e.o.c.b.6.b.b.c.b.6.b.b.6.b.6.b.6.b.N.v.v.m.v.N.v.v.b.v.N.b.b.A.[ ( ( ( ( ( ( ( Y ( ( ( ( ( ) ` Y.C.b.N.A.B.B.T.A.B.B.B.B.B.T.6.B.6.8.b.B.8.b.B.b.b.b.B.0.T.c.:.e.i.i.e.i.r.i.r.i.i.r.,.,.,.u.i.p.2.2.2.2.2.2.2.2.2.2.4.4.5.p.l.c.p.l.f.l.2.l.p.l.f.s.a.n.d O 0 < 2 < < < < < < < < 2 < < < < < < < < < < , 1 < < < < ; , < < ; 5 < 5 5 5 < < < < < - X _.a.h.h.<.h.h.i.i.i.h.p.a.h.h.a.o.;.+.e.e.;.e.,.,.e.;.u.o.;.,.,.1.1.u.,.1.i.d.u.1.,.,.u.1.<.u.,.,.,.,.,.,.<.,.,.<.,.,.,.,.,.i.d.i.1.2.1.1.2.d.1.2.p.2.s.z.s - 1 2 0 2 2 2 0 4 4 2 2 1 3 4 2 2 2 2 2 2 2 2 < 2 2 2 < 2 , z                                                   ",
"                                                    W.2X.X.X.XoXoXXXXXXXoXXX.XXX.X Xm.x.v.v.v.b.6.6.b.6.b.6.6.6.b.[ ` ( ` ` ` [ ` ` W ` ` ` ` ` W Y.0.B.8.B.7.B.B.N.N.N.N.N.N.7.0.b.C.0.b.b.B.0.B.b.B.C.b.0.b.T.:.-.:.:.e.e.;.e.e.e.-.;.;.e.e.;.o.-.-.;.;.-.;.o.;.o.-.o.-.e.o.e.e.-.;.;.w.o.$.e.$.-.e.e.;.e.o.-.e.e.%.%.e.$.%.%.%.%.o.$.e.%.%.$.e.%.$.$.%.%.o.$.e.o.$.e.o.%.%.%.$.%.%.e.$.o.$.%.$.e.e.%.%.$.$.o.$.%.%.%.$.&.e.%.%.$.&.$.%.%.%.%.$.e.e.$.$.e.$.e.w.o.w.$.e.w.e.w.w.w.w.w.w.w.w.t.t.w.w.w.w.t.w.w.[ y.w.y.w.w.w.w.w.e.e.t.t.e.t.t.e.e.t.e.e.t.e.t.e.t.t.e.$.t.t.e.e.t.w.t.w.w.t.w.e.t.t.t.w.t.e.t.e.t.e.t.e.t.e.t.e.t.y.y.a.y.y.t.y.y.t.t.y.y.a.k.e.r.t.e.t.e.t.e.t.t.e.t.e.w.e.e.c.v.b.v.b.6.6.b.6.6.6.b.6.6.4.b.v.v.N.v.v.m.m.N.b.v.b.b.b.b.[ ) ( ( ( ( ( ( ( Y ( ( ( ( ( W Y.B.b.A.N.B.A.B.b.B.A.A.B.T.B.b.8.b.B.b.8.B.6.B.N.B.B.6.8.T.c.u.e.u.i.e.i.i.a.i.i.i.i.e.<.u.i.i.1.2.2.2.4.2.2.2.2.2.2.2.2.f.l.p.5.p.l.2.p.l.2.p.p.l.s.2.U.d 9 - < < ; < < 1 < < < < < < < < < < < 2 4 < < 2 < < < , ; ; < , , < < 5 5 5 5 < 5 5 < > 5 X !.h.h.h.h.i.i.h.i.h.h.p.h.i.a.h.O.>.o.e.e.o.e.e.o.e.,.%.+.o.,.,.,.1.u.1.u.1.,.2.d.,.1.d.2.,.<.,.,.,.<.,.,.,.,.2.,.,.,.,.u.2.u.p.2.1.d.1.2.d.d.2.1.p.2.d.n.s - < 4 4 3 4 j 4 4 4 2 2 4 4 2 1 1 2 1 2 2 2 2 2 2 , 2 < 2 2 z                                                   ",
"                                                    W.@X.X X.X.XXXXX XXXXX#XXXXX.X XZ.b.N.v.N.v.6.6.6.b.6.6.8.6.b.h.` ` ` ( ` ( ` ` ( ` ( ` ` ` W T.B.0.8.b.N.B.b.7.7.N.N.N.N.N.B.B.T.0.0.B.B.B.B.0.C.C.0.0.0.T.3.-.w.:.;.-.-.e.-.-.e.e.-.-.;.-.;.e.o.e.e.o.;.w.-.;.;.;.-.o.;.-.;.e.o.e.e.e.;.e.;.%.w.o.w.o.w.e.$.%.$.e.%.%.$.%.$.%.w.%.%.$.;.%.$.%.%.o.$.e.%.$.%.$.%.%.$.$.$.o.%.$.$.%.%.$.%.$.%.%.$.%.o.o.$.%.%.$.$.%.e.$.%.$.$.e.e.%.$.e.$.e.e.$.w.$.e.$.e.$.$.e.%.e.$.w.w.w.$.;.w.w.w.e.w.w.w.w.w.w.w.w.w.w.t.w.w.w.w.w.w.w.e.$.e.t.e.t.e.t.e.t.e.t.t.e.e.t.t.t.e.e.e.e.e.t.t.w.t.t.t.t.t.t.t.e.w.t.t.e.y.e.t.e.t.t.t.e.t.e.t.r.t.a.t.t.y.y.t.y.a.t.y.y.t.a.t.t.e.t.e.t.e.t.w.e.t.e.t.e.e.e.n.b.6.b.b.c.b.6.b.b.b.b.b.6.b.6.v.N.b.v.v.N.v.N.b.b.b.b.6.M.[ ( ( ( ( ( ( ( ( ( ( ( ( ( ( W Y.0.B.B.A.A.B.A.A.A.B.A.B.B.B.6.6.B.b.B.b.N.b.B.b.N.8.T.6.b.c.e.u.u.u.i.t.i.e.r.u.e.i.i.;.,.p.2.1.2.2.4.2.2.2.4.2.2.2.2.2.l.l.p.c.l.p.c.l.l.l.f.z.p.c.s.U.f 9 ; < 2 < < < < < < < < < 1 < 1 2 2 < 2 4 1 2 < < < < 2 2 < 5 < 5 ; 5 < 5 5 2 5 5 > < < - X _.y.r.h.h.i.h.a.h.a.i.h.h.i.h.s.o.o.+.;.o.u.o.u.o.;.e.%.;.,.,.1.,.,.1.u.2.u.2.u.u.1.,.,.u.<.,.,.,.,.,.,.,.,.,.u.,.<.2.,.,.,.2.u.2.,.1.2.1.d.2.1.d.1.2.l.j.s - 1 2 3 4 0 0 4 4 0 0 2 1 4 0 4 2 2 2 2 2 2 2 < 2 2 2 2 2 , z                                                   ",
"                                                    W.@X X.X.X<X XXXoX.XXXXXXXXXoX Xm.b.N.b.v.v.6.b.6.b.b.6.6.6.b.h.` ` ` ` ( [ ` ` ` ` W ( ` ( W Y.6.b.b.N.N.N.N.7.N.N.N.N.N.N.B.B.C.B.T.B.B.0.B.B.T.0.0.T.0.T.-.e.:.w.e.w.e.e.e.e.e.-.e.%.e.e.e.;.-.-.-.;.-.;.o.w.;.;.e.e.o.;.e.o.e.-.-.o.-.%.$.e.e.$.$.e.w.o.-.e.%.e.e.$.e.%.e.w.%.%.$.e.$.%.-.%.w.%.e.w.w.;.w.w.w.$.$.%.w.%.$.%.$.%.%.$.e.e.%.t.e.$.w.$.%.$.$.w.$.w.$.t.$.%.&.w.e.$.$.e.&.$.$.e.w.t.$.w.t.$.w.e.w.w.w.e.w.w.w.w.w.$.w.w.t.$.w.w.w.t.w.w.w.e.w.w.w.w.y.w.w.t.w.w.t.t.e.t.e.t.t.e.t.t.t.t.t.t.e.t.t.w.t.t.t.e.w.t.w.w.t.w.w.t.t.&.t.t.t.e.y.e.t.e.t.e.e.t.t.e.e.a.y.t.t.t.y.t.t.y.y.y.y.y.k.y.r.t.t.e.w.r.w.e.w.y.r.t.t.e.e.o.f.v.b.c.6.b.c.b.4.6.b.4.c.6.6.b.v.b.v.b.v.v.N.b.v.v.6.b.6.M.[ Y ( ( ( ( ( ( ( ( ( ( ( ( ( ! Y.b.B.B.A.B.A.B.A.B.B.B.b.B.T.b.b.B.b.N.b.B.B.B.b.N.b.T.B.T.n.;.u.e.r.u.i.t.e.i.i.i.i.i.,.u.i.2.2.2.2.2.2.4.2.2.2.2.p.2.2.f.p.c.l.p.p.2.c.p.p.l.p.p.p.2.a._ - 9 > < : < < < < 2 < < < < < < 1 4 2 < 4 < < 2 < 1 < < 1 < < ; < 5 , 5 < 5 < 5 5 5 < < < X `.y.i.h.h.i.i.h.a.h.h.a.h.h.h.g.o.;.%.;.;.e.;.e.,.o.o.u.o.,.,.1.1.u.1.,.,.p.u.u.,.,.,.u.,.2.2.,.,.,.,.u.,.<.,.<.,.,.2.,.,.,.2.i.2.1.1.1.1.1.2.1.1.p.2.p.s.d O < 2 4 2 2 4 4 j 4 0 4 4 4 4 4 2 2 2 4 2 1 2 2 2 2 2 2 , 2 z                                                   ",
"                                                    W.2X.X.X.X XoXoXoXoXXX.XXXXX X Xm.N.6.v.v.7.b.6.b.6.6.b.b.6.M.y.` ` ( ` ` [ ( ` ` ` ` ` ` W W Y.8.B.7.b.N.N.N.N.N.N.7.N.N.N.b.0.T.B.b.0.B.B.0.b.0.b.b.T.0.T.>.r.-.r.e.e.e.e.e.;.e.-.e.;.-.e.o.w.e.;.e.w.o.e.e.e.-.w.;.-.w.e.;.w.-.e.o.e.;.e.;.;.o.e.e.w.e.e.%.%.$.$.%.$.$.w.o.%.;.$.%.o.$.;.$.;.%.e.o.$.$.w.$.o.$.e.%.w.%.$.%.$.e.$.w.%.$.%.$.$.%.$.%.e.%.$.%.%.%.%.$.%.$.e.%.$.%.$.%.$.$.e.$.%.%.e.w.e.w.w.e.w.w.e.w.$.e.w.e.w.w.e.w.w.w.w.w.w.w.e.t.w.y.[ w.w.w.w.w.w.w.w.w.w.e.t.t.t.t.t.t.t.t.e.e.t.e.e.e.t.t.w.t.e.e.e.t.t.t.t.t.t.w.t.e.t.e.y.t.t.t.y.t.t.e.t.t.e.e.t.t.y.y.y.t.a.t.t.j.t.a.y.y.t.y.y.t.e.t.r.t.r.r.y.e.e.w.y.e.e.e.;.c.M.c.b.b.6.6.b.6.b.6.6.6.b.6.c.v.v.N.v.v.b.v.v.N.v.b.b.T.M.Q ) ( ( ( ( ( ( ( ( ( ( ( ( ( W Y.b.B.N.b.B.B.b.B.B.B.T.T.T.B.B.b.b.b.N.b.b.b.b.N.b.b.6.B.N.z.;.e.e.u.t.u.e.i.u.e.i.e.i.i.,.p.p.d.2.2.2.2.2.p.2.i.2.2.4.p.p.l.p.f.l.l.l.p.p.l.f.p.z.2.p.j.f - - < < < 2 < < < < < < < < 2 2 < < 2 1 2 2 2 1 2 2 2 2 < 2 , < 5 < < ; < 5 5 < 5 < 5 < 5 X k.[ i.i.i.i.r.h.a.h.i.h.h.a.h.h.o.;.;.;.o.,.+.o.,.;.,.o.,.o.,.,.,.1.u.,.1.,.,.1.2.u.2.,.2.u.,.,.,.<.2.,.,.,.,.,.,.,.u.,.,.,.2.i.2.1.u.p.p.1.d.p.2.d.p.2.j.d : 2 2 4 2 0 2 j 4 4 4 4 4 4 4 4 2 3 1 2 2 2 2 2 2 2 < 2 2 , h                                                   ",
"                                                    W.$X.XXX.X.XXXXXXX XXXXXXXXX.X XU.v.6.B.6.6.b.b.b.b.6.6.0.4.T.[ ` ` [ ( ` ( ` ` ` ` ` ` W ( W Y.8.B.6.N.N.N.q.N.S.N.N.N.N.N.B.B.b.B.b.C.B.b.T.0.T.0.0.0.b.T.>.;.;.e.;.e.-.e.;.-.e.e.-.e.;.;.o.;.e.-.;.;.%.;.;.%.;.o.e.o.;.%.e.o.e.o.o.%.e.o.%.o.%.%.%.e.%.%.%.o.o.%.%.%.o.%.%.%.%.%.%.$.%.o.%.%.%.%.%.%.$.%.%.$.%.%.$.$.%.$.%.%.$.$.%.$.%.$.$.o.$.o.$.%.o.$.%.$.%.$.%.%.%.e.$.%.%.e.%.$.$.w.%.&.e.%.w.e.w.e.$.%.e.$.$.w.%.%.e.$.w.w.w.$.w.w.w.e.w.w.w.w.w.e.t.$.w.w.w.w.w.$.e.$.t.t.e.t.t.w.w.t.e.t.e.t.e.&.t.t.e.t.%.t.t.t.t.t.d.t.t.t.t.t.e.t.t.e.t.t.t.y.t.t.t.e.t.e.e.e.e.t.t.t.t.y.t.t.t.t.d.t.t.t.a.y.e.t.t.e.e.t.w.t.y.w.t.t.w.y.e.;.g.b.6.b.b.6.c.6.b.6.6.b.b.b.6.c.v.b.v.v.b.v.v.b.v.v.b.N.N.M.[ Y ( ( ( ( ( ( ( ( ( ( ( ( ( W T.b.N.N.B.B.B.Z.B.b.B.T.B.B.B.b.8.b.8.b.B.B.B.b.B.b.B.8.8.b.c.u.r.a.i.a.e.u.i.a.e.e.i.i.i.3.d.i.1.2.2.4.1.2.2.2.2.2.2.2.2.l.l.5.p.l.l.p.2.l.p.p.l.f.l.2.U.d - : < < < < < < < < < < < < < 1 < 2 2 2 < 1 2 2 < 4 4 1 < 2 < ; , < < 5 5 5 5 < 5 5 < - - X `.h.i.h.i.h.h.r.y.i.a.h.h.r.a.a.>.>.;.e.e.;.e.;.;.;.+.e.%.,.,.,.,.1.,.,.,.,.,.,.,.2.,.,.2.,.,.,.,.,.,.,.,.,.,.,.u.,.,.u.,.3.1.1.d.,.1.p.d.p.p.p.p.p.p.2.z._ - < < < 0 2 0 2 4 4 4 4 4 4 3 2 1 2 3 2 2 2 1 2 2 2 2 < < < z                                                   ",
"                                                    W.$X.XXX.X XXXoXoXoXoXXXXXXXoX Xx.b.6.6.6.B.b.b.b.6.b.b.b.b.b.h.) ` ( [ ( [ ` ` ( ` ( ` ` ` ! Y.6.B.N.N.N.V.S.N.N.q.N.x.N.7.B.B.0.B.B.0.B.B.b.b.0.B.b.b.0.T.>.e.;.e.e.-.e.;.-.e.e.w.w.e.w.e.w.w.e.e.w.-.;.$.w.-.w.;.o.e.w.e.$.e.e.w.e.w.o.w.-.e.-.%.e.%.e.$.e.$.%.$.$.%.%.$.$.$.%.%.%.e.$.%.%.$.$.$.%.$.%.%.%.$.%.$.e.$.$.e.w.$.e.o.o.-.o.;.%.e.$.$.o.e.w.e.$.e.$.$.w.$.w.&.e.w.&.w.$.e.w.w.w.e.t.w.w.w.t.$.t.w.t.$.w.w.w.w.$.w.w.w.$.t.w.w.w.w.t.$.w.w.t.w.w.w.t.w.w.w.w.t.&.e.e.t.w.t.t.e.t.e.&.t.t.$.t.t.t.w.t.$.t.t.a.j.a.a.t.y.t.t.t.t.t.t.t.t.t.e.a.t.r.t.t.t.e.t.t.e.t.e.a.y.e.a.a.y.t.t.t.y.t.t.y.a.r.w.e.e.w.r.t.r.w.y.t.e.y.w.w.;.g.b.6.b.v.b.b.b.b.c.c.c.b.c.c.b.v.v.v.N.v.Z.v.Z.m.N.m.v.b.m.[ ( Y ( ( ( ( ( ( ( ( ( ( ( ( W T.b.N.N.N.b.B.N.B.A.B.B.B.B.B.6.b.8.b.b.8.b.B.b.0.b.B.b.0.b.v.,.a.e.t.u.a.i.i.i.i.a.t.i.i.;.p.2.p.2.<.2.1.1.2.2.2.1.2.2.2.2.l.2.c.2.5.l.l.p.5.p.l.s.p.p.j._ O ; < 2 : < < < < < < 2 < < 2 < 2 1 < 2 4 < 1 4 4 4 < 1 < 2 < 5 < 5 < , < 5 5 < < 5 < ; - X !.h.a.i.a.i.h.h.h.h.i.i.a.i.p.h.o.o.%.e.;.o.e.e.o.;.%.e.e.+.,.,.,.1.i.1.2.,.,.2.,.,.<.,.i.<.,.2.<.,.3.,.,.,.,.2.,.,.,.,.,.u.1.p.2.2.1.d.2.1.2.p.p.1.4.5.U.f 9 l 2 l j 2 l 2 4 3 4 4 4 3 2 3 2 1 2 2 2 1 2 2 < 2 2 2 2 2 h                                                   ",
"                                                    ^.%X.X X.XoXoX XXXXXXXXXXXXXoX}.s.m.b.c.b.b.f.b.b.b.6.6.h.T.T.h.) ` [ ( [ ( ( ` ( ` ` ` ( W W Y.6.N.N.7.N.N.N.V.S.N.q.7.x.N.B.B.B.B.C.C.C.B.0.0.b.B.C.b.0.T.,.o.;.;.;.e.;.;.;.w.-.e.e.e.e.e.-.e.-.e.;.w.e.-.e.e.e.-.w.-.-.w.-.e.w.w.w.e.e.w.$.$.e.e.w.w.w.w.w.w.;.;.;.o.w.;.e.e.e.$.$.e.e.$.w.e.o.$.$.w.%.$.$.$.$.%.w.w.$.w.w.w.w.$.$.w.$.$.w.$.-.e.w.$.w.$.w.e.w.e.w.e.w.e.e.w.w.e.e.t.e.w.e.w.w.e.e.w.;.;.w.w.w.w.e.w.w.w.w.-.e.w.w.w.e.w.e.w.w.w.w.e.w.w.w.w.w.w.e.w.w.e.w.w.e.y.t.t.t.t.t.t.w.t.w.t.e.t.e.e.w.w.t.y.k.a.t.a.a.y.t.i.t.e.t.t.y.y.t.t.y.y.t.t.e.t.y.t.t.t.t.t.t.t.y.y.t.t.t.y.y.y.k.y.y.y.y.e.t.w.y.w.w.w.r.w.r.w.w.e.w.o.g.M.c.b.b.v.c.6.6.c.b.6.c.b.6.b.m.N.N.v.v.v.v.v.v.b.N.m.N.m.[ ) ( ( ( ( ( ( ( ( ( ( ( ( Y W M.b.B.A.B.A.B.b.B.A.b.B.A.A.A.B.b.B.T.b.b.b.T.b.b.b.b.b.b.T.v.,.r.e.u.a.e.a.u.e.i.u.i.i.r.<.,.p.2.2.2.4.2.2.2.2.2.4.2.2.4.c.c.c.f.f.f.f.p.f.p.f.s.p.s.f.k.f - ; < < < < < < 1 < < < < < < 2 < < 2 3 < 4 < 4 1 < 4 4 3 < < 5 < 5 < 5 5 5 5 < < > < - - 9  .g.r.r.i.r.h.y.y.h.y.a.r.a.u.u.e.e.%.+.o.e.o.;.e.u.e.e.%.;.u.i.,.i.,.p.u.i.i.p.i.,.u.2.,.i.,.u.,.i.p.2.,.i.,.<.,.,.2.,.u.u.,.+.,.u.d.d.a.d.1.1.d.d.f.4.U.f - j < 2 l 2 2 2 4 4 4 4 3 3 2 2 2 2 1 2 2 < 2 2 2 2 2 2 2 < z                                                   ",
"                                                    W.%X.X.X.XoXoXoXoXoXoX.XoXoXoX X+XH.+XH.+X+X+XY.+XY.Y.T.Y.Y.+Xk.( ` ( [ ( ` ` ` [ ( ` ( ` ` W Y.6.N.6.b.N.N.q.q.q.N.N.N.N.N.B.0.B.B.b.0.0.b.B.B.B.B.C.T.0.T.O.o.>.e.;.-.e.w.;.;.e.e.e.-.w.o.e.-.w.o.e.e.-.o.o.o.-.%.o.e.o.e.e.%.;.e.o.o.;.o.o.e.o.$.o.%.e.o.%.o.%.$.%.e.%.%.%.$.$.%.e.%.%.%.%.%.e.e.%.%.$.%.e.%.$.%.%.%.%.$.%.$.o.$.$.o.%.%.%.$.e.%.e.%.%.X.%.%.$.e.%.$.%.$.$.%.$.%.$.$.w.$.w.o.w.$.o.-.-.;.e.e.$.X.o.X.o.;.%.$.$.e.w.o.$.$.$.$.e.%.$.e.e.$.$.$.w.$.%.$.-.;.$.%.e.&.%.%.w.e.w.e.%.e.t.%.e.$.$.$.X.$.e.e.a.t.t.a.y.e.a.t.t.t.t.t.t.u.y.e.%.e.%.t.e.e.&.e.%.u.t.t.t.e.t.t.t.t.t.e.%.t.u.e.t.t.w.w.w.w.w.w.e.o.-.-.w.o.-.X.o.O.c.b.c.b.c.b.b.b.c.b.b.c.6.6.c.v.v.v.v.v.b.N.b.N.x.v.b.N.N.m.e.] ( ] W ] W ] W ] ( W ( W ] W M.b.b.A.b.M.T.M.b.b.v.M.b.M.c.c.c.c.c.c.c.M.c.b.b.4.M.b.b.b.f.p.i.p.i.i.i.u.p.i.i.p.i.i.p.p.p.p.2.i.2.4.<.2.4.2.<.2.4.2.2.2.2.p.p.f.p.f.4.p.f.p.s.f.a.s.g._ O ; < < < < < 2 < < < < < 2 < % % * % < = = % = $ = $ = % # % 2 5 5 5 ; 5 5 < 5 < 5 < < < o :XXX`.XX`.XXoX`._.!._.`.`.|.`._.&.%.;.;.%.o.o.%.%.o.%.e.e.u.u.,.u.u.u.,.u.,.u.,.u.,.i.u.u.i.,.i.u.,.i.e.i.u.,.i.<.u.,.u.u.d.*.~.~.~.|.~.|.'.'.~.'.OXOX'.$X{ 9 l l 2 2 2 0 2 4 4 3 4 3 3 3 2 1 3 1 2 2 1 2 4 2 2 2 < 4 4 <                                                   ",
"                                                    W.%X.X.X.X XoXoXoXoXoX.XoXoXoXXXR R T R K Y R T K R Y R ( R ( ( ( ( ( ( ( ( ( ( ( ( ( (  .( ( +Xb.0.b.B.B.B.B.S.B.C.A.C.C.B.B.V.V.B.B.C.C.B.C.B.B.B.V.V.8.C.6.1.2.2.2.4.2.2.1.1.2.2.2.2.2.5.4.4.4.2.5.4.5.5.4.5.2.4.5.2.2.2.2.2.2.2.1.2.2.5.5.1.2.1.2.2.2.2.4.2.1.1.2.2.2.3.1.1.1.1.3.1.1.4.3.1.4.3.3.2.2.1.2.2.2.4.3.1.2.2.3.4.2.5.1.1.1.5.d.5.1.1.1.1.p.5.1.2.2.1.2.2.2.2.1.2.4.2.2.4.2.5.3.4.2.4.5.2.5.4.1.5.2.5.5.5.5.5.3.5.4.5.5.4.6.4.4.2.5.4.5.2.5.5.5.p.5.l.2.5.5.2.5.5.l.1.5.5.d.5.5.l.5.1.1.5.l.1.d.l.2.5.5.2.5.l.2.5.2.l.l.5.c.l.l.l.l.l.5.5.l.1.5.5.l.5.p.l.1.d.1.d.l.l.l.l.l.l.l.l.l.l.z.l.l.z.n.c.m.m.A.M.M.M.M.M.A.M.M.A.M.M.b.6.6.c.v.b.v.v.v.c.v.v.c.v.v.v.m.N.N.b.N.b.v.N.N.b.b.v.N.b.m.G.].H.I.K.H.I.I.P.].Y.P.H.Y.m.+.,.2.2.,.,.,.,.2.1.,.,.,.3.i.2.2.2.<.2.2.<.<.,.,.3.<.2.3.2.2.i.i.h.p.i.p.i.h.h.2.h.p.p.p.h.2.2.2.2.<.p.<.2.h.h.<.2.<.4.<.:.,.3.3.<.3.<.<.<.<.<.i.i.,.<.a._ o ; < < < : 2 < < < < < < < 1 NXiXsXiXsXaXaXsXsXsXsXaXpXaXpXG * < < < 5 < < < 5 < ; < < * < O 6 6 X 6 X @ X 6 6 X 6 X 6 X X _.Q ;.o.%.;.%.o.e.%.%.e.o.e.,.;.,.,.;.;.u.o.;.;.+.e.u.%.;.u.o.o.o.;.o.o.;.o.o.o.o.o.o.;.X.@.X o X O O O O X O O O 7 9 8 8 : 0 2 3 3 3 3 4 l 2 3 3 3 j 3 3 4 2 2 1 1 2 4 2 4 4 4 4 2 4 3 5                                                   ",
"                                                    ^.$XXX.X@X.X#XXXXXXXoXXXXXXX.X>XK Y U U U P U U P U Y I U U I I I  .I I I ( ( ( ( ( I I I I ) 1X0.T.B.B.0.T.C.C.D.C.S.C.C.C.C.A.B.B.C.B.C.B.B.B.0.B.B.C.8.8.B.D.C.A.0.C.D.C.B.C.C.0.C.C.C.C.C.0.C.C.0.C.C.0.0.0.0.0.C.0.0.B.C.C.0.0.A.V.9.0.9.C.C.9.9.9.0.0.0.C.C.A.A.C.C.8.C.C.C.C.C.0.0.C.C.0.C.C.C.C.C.C.C.C.C.B.C.0.T.C.C.C.C.0.C.V.C.C.C.C.C.C.V.C.C.C.V.C.9.C.C.0.C.B.C.C.C.C.C.C.C.C.0.0.0.0.0.0.C.0.0.C.C.0.C.C.C.C.0.0.0.0.0.C.C.C.C.C.C.C.C.C.C.D.C.C.C.C.C.C.C.C.V.C.V.C.C.C.C.V.C.C.C.C.D.C.C.C.C.C.C.D.C.V.C.C.C.A.9.C.C.C.C.C.C.V.V.C.V.V.V.V.S.V.S.V.S.V.C.C.C.V.N.N.V.V.N.V.V.V.V.S.V.V.S.V.N.N.V.b.b.N.N.N.D.N.Z.B.Z.A.D.N.6.b.6.b.m.v.M.v.b.M.v.v.b.m.v.b.v.N.b.N.N.b.b.N.b.7.N.N.N.6.v.x.b.v.n.x.m.x.m.x.b.x.v.N.v.z.d.p.h.i.p.i.p.i.p.s.p.p.2.f.s.f.h.p.p.p.2.h.p.2.p.p.i.p.h.2.h.i.2.i.2.p.i.2.2.2.2.2.2.i.2.h.2.<.2.p.2.i.p.<.i.2.p.h.i.<.h.2.<.<.<.<.i.<.<.i.i.:.,.r.i.;.a._ o ; < < < < < 2 < 2 < < < < % iX9X9XuX9X9X9X9XrXwX9X9XuXuXrXG > < 5 5 < 5 < 5 < > < 5 < < < : ; - 9 ; - 1 ; * ; ; - < < - X oXQ ;.;.w.%.o.%.o.o.%.e.o.e.e.u.%.%.%.u.e.u.u.e.e.e.e.u.u.e.;.;.;.o.;.;.;.e.;.e.;.e.e.;.Q *.8 0 k k c c c c c e 0 3 m m u 0 3 3 3 3 3 3 3 3 3 3 3 3 3 3 3 4 4 3 4 4 4 4 4 2 4 4 3 4 4 4 2                                                   ",
"                                                    W.2XXXXX.X.XXXXXXX.XXXXX.X.X.X>X^ I U U U U I P P P U P U U I I I I I I  .I I ( ( ( ( I I I ] +X0.0.B.8.C.C.0.B.B.B.V.B.B.B.B.C.B.B.B.A.V.B.B.C.B.C.B.B.B.B.0.B.8.8.0.0.V.0.0.8.0.0.8.8.8.8.0.0.8.8.8.8.0.8.0.0.6.0.0.8.0.8.8.8.0.0.V.7.8.8.8.8.7.7.0.9.7.7.8.8.8.0.0.8.8.8.8.8.0.0.8.8.8.8.0.0.8.B.0.0.0.0.0.B.0.B.0.C.0.0.0.C.0.9.9.9.8.9.8.9.9.9.9.9.9.9.9.9.9.9.0.8.8.0.0.8.0.8.0.0.0.0.0.0.0.0.0.0.0.0.9.0.0.0.0.0.0.0.0.0.0.0.0.0.0.0.0.0.0.0.B.0.0.0.9.V.9.9.9.C.9.9.V.9.9.9.8.7.9.V.V.8.7.7.9.0.9.V.9.8.8.9.7.q.q.7.7.7.7.7.N.9.8.8.9.7.7.9.V.7.7.7.9.7.q.7.9.7.V.9.9.9.7.7.8.7.9.7.7.V.V.V.S.V.V.V.B.B.7.B.V.N.B.N.B.B.B.N.N.N.b.N.6.6.c.b.v.b.v.M.b.M.b.v.b.M.b.v.b.N.b.Z.N.v.N.N.N.v.N.b.N.v.v.x.v.v.N.x.b.v.Z.x.v.x.x.q.v.c.p.p.p.f.p.p.p.p.p.p.p.h.p.f.p.p.p.h.i.2.p.i.2.h.i.p.p.p.p.<.2.p.i.p.p.p.p.p.p.p.h.p.p.2.2.p.i.2.i.i.p.i.p.i.i.2.i.p.<.p.h.i.<.<.<.i.r.<.r.<.r.i.<.u.i.,.a._ o : < < < < < < < 2 < 2 < 2 - iX9XrX9XyX9X9XyX9X9X9X9XrXrXiXH 5 < 5 5 5 5 < 5 5 5 5 5 5 5 5 * 5 < 5 < - 5 5 5 5 ; - < 5 - X `.h.e.w.;.%.e.o.%.e.%.;.;.o.e.+.u.,.u.u.e.e.,.e.u.%.e.e.e.u.;.;.o.;.o.e.e.;.;.%.e.o.e.;.%.Q.O 4 h h h h h h h h h h h v l k 3 j 3 3 4 3 3 3 3 3 4 3 3 3 3 4 4 4 4 3 4 4 4 3 4 4 3 4 4 3 ,                                                   ",
"                                                    W.$XXXXX.X<XXXXXXXXX.X.XXX.X X>XR I U U P U I U U I U I I U I I I I I ( I I I I I I I I I I ] 1X0.T.8.8.8.T.B.B.B.B.A.V.B.B.B.B.B.B.B.V.B.B.B.B.B.B.B.B.0.B.B.8.8.8.8.8.8.8.8.8.B.0.B.8.8.8.0.0.8.8.8.8.8.8.6.0.0.0.0.0.8.8.8.8.8.8.8.8.7.8.8.8.7.7.8.9.q.7.8.8.8.8.8.8.8.8.8.8.8.8.8.8.8.8.0.0.8.0.0.b.0.0.0.B.0.0.0.0.0.C.0.0.0.9.7.9.7.8.8.9.V.8.8.9.8.V.8.9.9.8.0.0.8.8.0.8.8.8.0.0.0.0.0.0.0.0.0.0.0.0.0.0.0.0.0.0.0.0.0.0.0.0.0.0.0.0.0.0.0.0.8.0.0.0.9.7.7.9.8.9.9.9.9.9.9.7.V.7.7.9.V.8.V.9.9.9.V.7.8.8.8.8.7.7.7.7.7.7.7.7.9.7.8.8.7.7.7.9.8.7.7.7.9.V.9.9.7.7.9.q.7.9.7.7.7.7.q.7.q.7.q.9.9.9.9.V.B.B.B.N.N.N.N.N.N.N.N.N.N.N.B.A.v.b.b.c.M.v.b.v.v.v.v.b.v.c.b.v.N.N.b.N.N.b.N.v.7.b.7.N.N.v.N.x.v.v.x.x.v.x.x.q.N.x.x.x.v.c.2.p.2.h.p.p.p.i.p.p.p.p.2.2.p.p.<.p.p.i.<.p.i.2.i.2.h.2.<.p.p.<.p.i.i.i.i.i.<.<.p.p.p.i.i.p.p.i.i.2.i.p.<.p.i.p.h.i.2.p.2.<.<.<.<.<.<.<.:.h.<.r.i.i.u.i.a._ O < 2 < ; 1 < 2 < < < < < < 2 iXdX9XyX9X9XwX9X9XyX9X9X9XwXuXG * < 5 < 5 < - < 5 5 < 5 5 5 5 5 < < 5 5 5 5 5 5 5 5 < 5 5 0 8 ].[ e.-.o.$.o.$.o.e.%.o.o.%.u.e.%.u.e.;.u.%.e.u.%.u.e.+.e.e.;.;.e.;.;.;.-.e.;.e.-.;.;.;.o.' 7 l h 3 h h h h h h l h h h l h 4 3 3 3 3 3 3 3 3 j 0 j 3 j 3 4 4 4 4 4 3 4 4 4 4 4 4 4 4 4 <                                                   ",
"                                                    ^.@X.X.X@X<XXXXXoXXXXXXX.XXXXX5X( I P U P I U I I P I P I P I I I I I I I I ( I I  .I I I ( ] 1XV.8.B.8.B.A.B.B.B.B.B.B.V.B.0.B.B.B.V.B.B.B.B.B.B.B.B.B.8.8.8.8.8.8.8.7.8.6.8.B.B.8.8.8.8.8.7.7.9.7.8.7.7.8.7.0.6.0.0.7.0.q.6.0.7.8.8.8.8.8.8.8.8.8.7.7.7.7.9.8.8.8.8.8.6.8.8.8.8.8.8.8.8.8.8.8.8.8.0.0.b.0.B.0.0.8.8.8.0.0.0.8.8.8.8.8.9.9.V.9.9.9.8.9.9.9.8.8.7.8.C.0.0.0.8.0.0.0.0.0.0.0.0.0.0.0.0.0.0.0.0.0.0.6.8.0.0.0.0.0.0.0.0.8.8.0.0.0.0.8.8.8.8.8.9.7.9.7.8.9.8.8.V.8.7.9.7.7.V.V.9.V.9.9.7.9.7.9.9.7.7.7.9.9.9.V.9.9.9.7.9.9.7.7.7.7.7.q.N.9.7.7.7.q.q.9.7.7.7.7.7.9.q.9.9.q.V.9.9.9.9.9.q.V.9.V.7.b.N.7.N.N.B.B.B.B.N.B.N.N.B.N.v.v.b.c.b.b.b.v.c.b.v.M.b.M.b.b.v.N.N.N.N.v.b.N.v.N.N.7.N.v.x.x.v.x.v.x.x.x.N.q.q.x.q.x.v.l.p.p.f.p.p.p.i.p.2.p.p.p.2.h.p.h.2.h.p.h.<.p.p.<.p.<.<.p.<.i.2.i.i.p.i.p.i.i.p.i.h.2.i.p.p.p.p.i.p.i.p.p.i.i.p.h.p.i.2.i.h.<.<.<.<.<.i.:.<.h.:.r.i.e.r.i.h._ % < < < < < < < < 2 2 1 2 ; < iX0X9X9X9X9X9X9XyX9X9XrXrXrXiXS < < < < < < < 5 5 5 5 5 < < 5 5 5 > 5 5 5 < 5 5 5 < < > ; - X _.w.w.w.o.e.%.o.e.o.o.e.o.;.e.u.u.%.u.e.u.,.e.u.+.e.e.u.e.u.e.;.-.;.e.;.o.e.-.;.e.;.e.:.w.!.9 h h h k h l h l h h l h k h h 3 3 3 3 j 4 0 j 3 h 3 h 0 j 3 4 4 4 4 4 2 3 2 3 4 4 3 4 4 4 <                                                   ",
"                                                    W.=X.X.X.X.XXX#XXXXXXX.X.X.X X5X^ Y U P P P P P P P P I P I I I I I I ( I ( I I I I I I I ( ] Y.B.B.8.B.B.B.V.0.V.B.B.B.B.B.V.B.B.B.B.B.B.B.B.C.B.0.V.B.V.B.B.8.8.8.8.8.8.8.8.8.0.0.8.8.8.V.7.7.7.9.7.7.7.8.8.7.0.q.0.0.0.9.7.8.7.9.8.8.8.8.9.8.9.8.9.9.7.7.8.8.8.8.8.8.0.8.8.8.8.8.8.8.0.6.8.8.8.0.C.0.0.0.0.8.8.8.8.8.0.0.B.0.8.8.9.9.C.9.8.9.9.7.9.7.9.8.V.9.9.9.0.0.0.b.0.8.8.8.0.0.0.0.0.0.0.0.8.0.0.0.0.0.0.0.0.0.0.0.0.0.0.q.0.0.0.0.0.0.7.0.0.8.8.8.7.V.9.9.V.7.7.8.8.9.9.9.9.V.9.7.7.7.9.7.N.7.9.7.N.9.9.9.9.7.9.9.9.q.N.9.9.7.N.9.V.7.7.9.9.7.9.9.9.9.7.7.7.7.7.7.7.7.7.9.9.9.9.9.9.9.9.9.9.9.9.9.B.N.N.N.N.N.N.N.N.B.B.B.B.N.N.N.6.6.c.b.M.v.m.v.M.v.v.v.v.c.v.v.b.N.N.b.N.N.N.v.v.7.v.N.N.N.v.x.6.x.x.v.x.N.x.x.x.x.x.x.N.z.d.p.2.h.p.p.p.h.p.p.h.2.p.2.p.i.p.p.i.2.p.2.<.p.2.p.<.p.p.2.p.<.p.<.p.<.p.p.i.2.p.p.2.p.i.p.2.i.2.2.<.<.p.p.i.2.i.p.i.2.2.<.,.<.<.r.r.r.r.i.i.r.<.r.i.i.g._ o : 2 < < < 1 < < < < < 2 < ; uX9X9XrX9XyX9X9XyXrX9X9X9X9XiXS ; < > 5 5 > < 5 5 5 5 5 5 > < 5 5 5 5 5 5 5 5 5 5 * * < 5 & 8 _.-.e.w.%.;.e.%.o.%.%.;.o.e.u.%.e.u.%.,.e.e.u.%.e.e.%.e.e.u.;.o.e.e.-.e.-.e.e.;.;.e.:.e.-.@.7 3 h h h h h h h h h h h h l 3 2 3 3 j 3 3 3 3 3 4 3 3 j 3 3 2 4 4 4 4 4 4 4 4 4 4 4 4 3 4 <                                                   ",
"                                                    W.$X<X.X.X.XXXoXXXoXXX.XXXoX X5XK I P U P I U I U I P U P P I I I I I I I I I I I I ( I ( I ] Y.C.8.B.0.0.A.B.B.B.B.B.B.V.B.B.8.B.8.8.8.B.8.B.B.B.B.N.B.B.V.8.N.8.B.8.8.8.8.8.0.B.B.B.8.8.0.7.7.7.7.7.7.0.8.0.0.7.7.7.7.0.9.7.8.8.7.8.8.8.9.8.8.8.8.9.9.7.7.7.7.8.8.8.8.0.6.8.8.8.8.8.8.8.8.8.8.8.8.0.0.0.0.0.0.8.8.8.8.7.0.8.0.8.8.9.9.9.9.9.9.9.9.7.9.7.9.8.8.0.0.0.b.0.0.B.0.8.0.8.8.0.0.0.0.0.0.0.8.0.0.0.0.0.0.0.0.8.8.0.0.0.0.0.0.0.0.0.0.0.8.8.8.8.8.9.7.V.9.9.9.V.8.9.7.7.7.7.9.7.V.7.9.7.V.8.8.V.7.9.7.9.N.N.9.7.V.9.9.9.7.9.7.9.9.9.9.q.7.q.9.9.7.7.7.7.9.7.9.9.9.7.7.9.7.9.9.9.9.9.9.V.q.V.9.V.V.N.N.N.N.N.N.N.B.B.N.B.N.B.N.B.Z.v.6.c.b.v.c.M.b.b.v.v.v.c.b.v.v.N.N.N.b.b.N.N.N.N.N.7.N.v.N.N.6.v.q.v.q.x.q.q.x.x.N.q.x.v.x.2.p.p.h.i.h.h.i.p.i.p.p.p.2.p.2.p.<.2.i.<.h.<.p.i.h.<.p.<.p.i.p.i.p.<.p.p.<.p.h.i.p.p.i.p.p.p.i.i.p.p.i.p.<.p.i.i.2.<.p.p.<.:.3.:.r.r.r.i.r.r.r.i.i.e.u.k._ o ; < < : 2 < < < < < < < < ; iX9X9X9X9X9X9X9XdX9X9X9X9XwXiXS < < < 5 ; 5 < 5 5 5 5 5 5 5 5 5 > > 5 5 5 5 5 5 5 < < * < - X _.-.e.w.%.%.%.o.%.o.%.%.o.%.u.u.+.e.e.e.,.%.;.e.u.e.u.e.e.e.;.;.;.o.w.;.;.e.e.;.e.e.-.;.e.' 7 h h h l h h h h h h h h h h h 2 3 3 3 3 3 4 j 3 3 3 3 3 3 3 2 4 4 4 1 3 2 3 4 4 4 3 4 3 4 <                                                   ",
"                                                    W.2X.X.X.X<XXX#X#XoXXXXXXXXXXX6X^ I U P P U U P P P U I P P I I I I I I I I I I I ( I I  .( W E.A.C.0.B.B.B.B.C.B.B.B.0.B.B.V.B.B.B.B.B.B.B.8.B.V.8.B.B.8.8.B.8.8.8.8.8.B.V.8.V.0.0.0.8.8.B.7.7.9.0.7.7.7.8.7.7.7.7.0.0.0.q.7.8.8.9.8.8.8.8.9.9.8.9.9.9.7.7.7.N.8.8.8.8.8.0.8.8.8.8.7.8.8.8.8.8.0.0.0.b.0.C.B.0.0.8.8.8.7.7.8.8.8.8.7.V.9.9.8.9.9.7.9.7.9.7.8.8.8.0.0.0.0.0.0.8.8.8.8.0.8.8.6.0.0.0.0.0.0.0.0.0.0.0.0.0.0.0.0.q.0.8.0.8.0.8.0.0.0.8.8.V.8.8.7.8.9.8.V.9.8.7.9.9.7.9.9.7.9.7.7.7.9.7.8.7.7.8.9.9.7.9.9.9.9.q.7.7.9.9.N.9.7.9.9.9.9.7.7.9.9.q.7.7.q.9.q.9.9.7.9.V.7.9.9.V.9.q.V.9.9.9.q.V.9.q.N.N.N.N.Z.B.N.N.N.N.B.B.B.B.B.Z.v.b.b.c.v.v.b.v.m.v.v.v.b.b.c.v.v.b.N.N.N.v.v.N.7.v.v.N.N.x.q.x.6.v.x.v.x.x.N.x.x.q.x.q.v.v.i.s.2.p.p.2.p.p.p.p.p.h.2.p.h.i.p.<.p.2.p.<.p.p.<.2.h.2.p.<.p.<.i.p.i.i.i.p.<.i.p.i.p.i.s.i.2.p.p.i.<.p.i.p.<.i.p.i.i.2.p.<.<.:.:.r.<.r.r.i.i.r.:.r.r.u.a._ O < < < < < 2 < < 2 2 < < < 5 uXuX9X9X9X9X9X9X9X9X9XrX9X0XiXS 5 < < < 5 5 5 5 5 5 5 5 5 5 5 5 > - > 5 > 5 5 5 < < * < * - X _.[ $.e.w.o.o.$.o.e.o.e.o.%.e.%.e.u.u.e.e.u.e.u.e.+.e.u.u.u.;.o.;.-.;.o.;.e.-.;.;.;.;.;.w.*.7 j h k h h h h h h h h h h h 3 4 3 3 j 3 3 3 3 h 4 3 4 l 3 3 4 2 4 4 2 2 2 2 2 4 4 4 4 4 3 ,                                                   ",
"                                                    ^.2X.X.X.X.XoXoX#XoX#XXXoXXXXX>X( I P P U P P P U I P P P U U I I I I I I I I I I I ( ( / ( ] Y.C.B.B.B.B.B.B.V.B.B.B.B.B.V.B.B.7.B.8.N.7.B.B.B.B.8.B.8.B.7.B.8.8.8.8.8.8.8.8.B.8.8.8.8.8.8.7.9.9.9.9.7.9.7.9.7.9.7.9.7.9.9.q.0.q.0.0.0.7.0.8.8.9.8.7.V.7.7.q.0.0.8.0.6.0.0.8.8.8.0.8.8.8.8.8.8.8.8.8.8.8.8.8.8.8.8.7.7.7.0.7.7.8.8.8.8.8.0.8.9.8.7.9.9.7.7.7.0.8.8.8.8.8.0.8.8.8.8.0.0.0.0.0.0.0.0.0.0.0.0.0.0.0.0.8.8.9.9.9.8.8.8.8.8.8.8.0.8.8.8.0.b.0.0.C.8.0.8.8.8.8.8.8.8.8.V.8.8.8.8.0.8.8.8.B.8.8.8.7.7.7.7.7.9.7.9.9.7.9.7.9.9.9.7.9.7.7.q.9.9.7.7.7.7.q.7.q.7.7.9.7.7.9.9.9.V.9.9.9.V.9.9.V.V.9.V.N.N.N.N.6.N.N.N.N.N.N.N.B.7.N.N.v.v.b.b.b.c.v.v.v.v.b.v.b.c.b.v.v.N.N.x.N.N.v.N.N.N.N.N.N.N.N.q.x.x.x.q.N.x.N.x.x.6.N.x.x.x.2.p.h.p.p.p.p.p.p.p.p.p.p.a.i.p.p.p.i.i.p.i.p.<.p.<.p.p.p.i.p.<.p.<.p.i.p.<.2.h.p.p.i.p.p.p.i.p.1.p.p.i.p.<.2.i.p.i.i.p.i.<.;.<.;.u.,.i.r.i.e.a.i.r.u.u.a._ O < 2 : < < < < < < 1 < 2 < $ uX9X9X9X9X9X9X9X9XdX9X9X9X9XiXn < < 5 5 < < 5 5 < * < 5 5 < * < 5 < < 5 5 5 5 5 5 5 < * < - X `.%.%.e.$.e.w.%.%.e.$.%.%.e.e.e.u.u.u.e.e.e.e.e.e.e.u.e.e.e.e.o.;.e.;.w.;.;.;.-.e.;.;.o.&.@.7 3 h k h h h k h h h l 3 k 3 3 2 4 3 3 3 3 3 3 4 3 3 h 3 3 h 2 4 2 4 4 2 4 4 4 4 4 2 2 4 2 ,                                                   ",
"                                                    W.2X.X.X.X.X#XXXXXXXoXXXXXoXoX>XR / P P U P P P P P I P P P P U I I I I I I I I I I I I I / ] Y.A.B.B.0.B.V.B.B.8.B.7.B.8.B.V.B.B.N.B.B.B.B.8.B.N.B.N.B.8.B.0.B.8.8.8.B.8.8.8.8.8.B.8.8.8.8.9.7.9.q.9.9.7.9.7.9.7.9.7.9.0.0.0.0.0.0.0.q.7.0.8.9.9.9.9.9.7.7.7.7.q.0.0.0.0.6.0.0.8.8.8.8.8.8.8.8.8.8.8.8.8.8.8.0.8.8.7.7.0.7.7.7.8.8.8.8.0.0.9.8.7.9.9.7.0.8.7.7.8.8.8.8.b.0.8.8.8.8.0.0.0.0.0.0.0.0.0.0.8.0.0.0.6.0.8.8.9.8.8.8.V.8.8.8.8.8.0.8.8.8.0.C.0.0.0.0.B.8.8.8.8.7.8.8.7.V.8.8.8.8.B.0.8.8.8.8.8.8.8.7.7.7.7.N.9.7.N.9.7.9.N.9.9.q.9.q.7.7.9.7.7.9.7.9.9.7.9.7.7.9.9.q.9.9.q.9.9.9.9.9.9.9.V.q.V.V.N.N.N.N.N.N.N.7.N.N.B.N.B.6.N.N.v.b.c.b.v.v.M.b.v.b.c.v.c.b.v.b.N.N.N.N.N.N.N.N.N.N.v.N.N.N.N.x.q.x.x.N.x.q.q.x.6.x.q.6.v.z.i.p.4.p.s.i.p.p.p.a.i.p.p.p.p.p.i.p.h.p.i.p.i.i.i.p.i.i.i.p.i.i.i.p.<.p.p.i.h.p.2.i.h.p.p.p.p.p.i.p.i.p.i.p.i.p.i.p.2.i.p.i.<.;.<.i.r.e.<.u.,.i.e.r.;.t.h.@.o < < < 2 < < < 2 < < < < < % iX9X9X9X9X9XyX9X9X9X9X9X9XwXiXn 5 < < < < 5 5 < 5 < > ; 5 < < 5 < 5 5 5 5 5 5 ; 5 5 5 < < : 8 `.e.$.w.%.%.$.%.%.e.%.e.%.o.u.e.e.%.u.e.u.;.u.u.e.+.e.e.u.u.e.-.-.e.;.o.-.e.;.;.e.;.;.;.&.' 7 3 k 3 k h h h h h h h 3 c c 3 2 3 3 3 4 3 4 3 3 3 3 4 3 3 3 2 2 4 4 2 2 4 4 2 4 2 4 3 4 4 2                                                   ",
"                                                    W.2XoX<XXXXX#XoXoX#XoX#XXXoXXX5X^ I P I P P P U I P U I P P U I I I I I I I I ( I / I I I ( ] +XC.B.B.B.B.B.B.8.8.B.B.B.N.B.8.B.7.N.B.7.7.N.B.B.6.8.B.B.V.8.B.0.B.8.8.8.B.8.8.8.8.8.B.8.8.8.9.9.9.9.9.7.9.7.9.7.9.7.9.7.7.q.0.9.0.0.9.9.7.7.9.7.9.7.9.9.q.7.7.7.7.8.0.0.0.0.6.0.0.8.8.8.8.8.8.8.8.8.0.6.8.8.8.8.8.8.7.0.7.7.7.7.8.8.8.8.6.0.8.8.9.7.0.7.7.7.0.8.8.8.8.8.8.8.8.8.8.8.b.0.0.0.8.0.8.0.0.8.8.8.0.0.0.0.8.8.8.9.7.8.8.8.8.8.0.B.8.8.8.8.0.0.b.8.0.0.0.8.8.8.8.8.8.8.8.8.8.8.8.8.0.0.0.0.8.8.8.6.8.7.9.9.q.9.9.9.9.9.9.7.7.9.9.9.9.7.7.9.7.9.9.7.q.9.9.7.V.7.9.q.9.7.9.9.9.9.9.9.9.V.9.9.V.q.V.9.N.N.N.N.N.N.N.b.7.N.N.N.B.7.B.b.v.m.b.c.v.b.c.v.n.v.v.b.b.v.v.v.N.v.N.N.v.N.N.N.x.N.x.N.N.x.x.x.x.q.N.q.q.x.N.N.q.v.x.N.v.m.u.s.f.p.p.a.s.p.p.i.p.p.p.i.p.a.p.p.p.p.p.<.<.p.<.p.i.i.h.2.<.p.i.p.<.p.i.p.h.4.p.i.h.i.i.p.p.i.i.p.p.i.p.i.p.p.i.i.i.p.i.<.<.<.<.e.i.e.;.i.r.e.e.i.i.a.a._ o ; < < < < < < < < < 2 < < * iX8X9X9X0X9X9X9X9X9X9X9X9X0XyXn 5 < < < ; < 5 ; 5 < < < 5 * * < < 5 < 5 5 5 5 5 5 5 < < * % X _.-.%.e.$.%.e.%.e.%.%.e.e.o.u.e.e.e.e.e.e.u.%.u.e.e.u.o.%.u.o.o.;.o.e.-.;.e.;.w.e.;.;.;.O.*.7 k k h h j h h h h h h c 3 c 3 2 3 h 3 3 3 3 3 3 3 3 h 3 h 3 2 4 2 2 3 2 2 4 4 2 2 2 2 4 2 2                                                   ",
"                                                    W.%X.X.X.X.XXXXXoXXXoX#XoXXXXX>XR I P I U I P U I P P J P U U I I I I I I I I I I ( I I I / W Y.C.V.V.B.8.V.N.B.B.B.B.7.B.B.B.N.b.8.N.N.b.7.N.7.B.B.7.N.8.N.0.0.b.0.8.8.8.8.V.8.8.8.8.8.B.0.9.9.9.9.7.9.7.9.7.9.7.0.7.7.9.9.9.9.q.0.9.0.7.7.9.8.9.9.9.9.7.7.0.0.6.7.6.0.6.0.8.0.6.8.8.8.8.8.8.8.8.8.8.8.0.6.0.6.7.8.7.7.7.7.0.7.0.6.8.8.8.8.8.9.7.9.0.7.7.7.8.8.8.8.8.8.8.8.8.8.8.8.0.0.0.0.8.0.0.6.8.8.8.8.0.6.0.0.8.8.9.9.7.8.8.8.8.8.8.0.8.8.8.0.0.0.0.8.0.b.8.8.8.8.8.8.V.8.8.7.8.8.7.B.0.b.0.0.8.8.8.8.8.7.q.7.9.9.9.N.9.q.V.9.7.7.7.9.9.9.N.9.N.q.V.q.7.V.V.q.9.N.7.7.7.7.q.9.9.9.q.9.9.9.q.9.9.V.9.V.b.N.b.N.N.N.N.N.b.N.N.N.N.N.b.N.v.v.c.6.b.c.b.v.v.b.c.b.v.c.v.b.N.x.N.N.N.N.x.N.N.N.N.N.N.N.x.x.x.x.x.x.N.x.x.x.v.q.N.x.v.x.p.p.p.h.p.p.i.p.p.p.i.i.p.p.p.p.i.i.i.h.i.p.p.i.p.h.h.p.i.p.p.i.p.2.i.i.p.<.<.h.2.p.2.p.p.p.i.p.i.p.i.p.p.h.i.p.i.2.p.i.p.<.<.;.i.r.e.<.i.i.;.i.e.r.u.e.t._ O - < < < 2 < 1 < < < < < < * iX0X9X9X9X9X9X9X9X9X9X8X9XwXyXn < < < < < 5 < < < < * 5 < < < < * 5 5 5 5 5 5 5 5 5 * * < o 8 `.%.%.$.%.%.$.%.$.%.%.%.%.e.u.%.u.u.%.u.u.%.u.e.u.e.e.u.e.u.e.;.;.e.;.;.o.e.o.e.;.;.o.;.$.*.7 3 k 3 k k 3 l h h h h 3 h k 3 2 2 3 3 3 j 3 3 j 3 3 3 3 3 3 2 2 2 2 2 4 4 4 2 1 2 2 2 4 4 ,                                                   ",
"                                                    W.4XoX.X.X.X.X#XXXoX#XoXXXXXXX6XR J P U U U U U I P P P P P U I I I I I I ( ( I I I / I I ( ] +XA.B.V.V.N.8.8.B.B.B.8.B.B.B.7.B.7.N.B.8.b.B.8.B.8.V.N.b.7.7.b.0.0.0.8.8.0.0.8.8.B.8.8.8.8.8.9.7.0.9.9.7.9.7.0.0.7.7.7.7.9.0.9.9.9.9.0.0.0.7.7.7.7.0.7.7.7.q.7.8.8.7.8.8.8.8.6.0.6.0.8.8.8.8.8.8.8.0.0.8.8.8.0.8.8.7.7.7.0.0.7.7.0.7.8.8.8.8.7.7.7.7.7.0.0.7.8.7.0.8.8.8.0.8.b.0.0.0.0.b.0.b.8.6.0.8.8.8.0.8.0.6.0.8.8.8.8.8.N.8.8.8.8.8.0.0.8.8.0.8.8.8.8.8.0.0.8.8.8.8.8.8.B.8.8.8.6.8.8.8.0.0.0.b.8.8.8.0.7.V.8.9.8.7.7.7.7.8.7.8.9.7.7.7.8.7.7.q.q.N.N.8.7.9.9.V.8.N.9.7.9.7.8.8.9.9.9.9.9.8.7.V.7.V.V.N.N.N.N.b.v.N.N.b.6.B.B.N.B.N.B.N.v.v.v.b.b.v.v.b.v.b.m.c.c.v.b.b.N.N.v.N.N.N.N.N.v.x.N.N.v.N.v.q.x.q.x.x.x.x.x.q.x.v.v.v.m.c.i.p.p.a.s.p.p.p.s.p.a.p.p.a.p.p.p.p.p.i.h.p.i.p.p.i.p.p.p.i.p.i.i.i.p.i.p.i.h.2.2.h.p.p.p.p.p.i.i.p.p.i.p.p.p.i.i.p.i.<.p.:.:.:.<.i.i.<.i.e.i.e.,.r.a.u.j._ O ; < < < < < < < < < < < < % iX9X9X9X9X9X9X9X9X9X9X9X9X0XiXn > < < < 5 < < 5 5 5 5 ; 5 < 5 < * 5 5 5 5 5 5 5 < < > > - - X _.e.%.w.$.$.$.%.$.%.e.%.%.;.e.u.%.e.e.u.e.e.e.e.u.%.,.e.e.e.e.o.e.;.e.-.e.e.e.;.e.e.e.;.Q !.9 3 k 3 l 3 j j h h h h 3 h k 3 2 3 3 3 4 3 3 3 3 4 3 3 0 h 3 2 2 2 4 4 2 4 4 2 2 2 2 3 2 2 ,                                                   ",
"                                                    W.2XoX.X@X.X#XoXoXXX#XXXXXXXXX>X/ U P P U U U U I I U I U U I I I I I I I I I  .I ( I U I ( ] Y.N.N.N.8.N.7.B.V.B.8.B.B.B.B.b.7.6.B.8.V.7.N.b.B.B.8.B.8.V.B.C.0.0.C.b.8.0.0.8.8.8.8.0.0.8.B.7.9.8.0.7.7.q.9.9.0.7.7.7.9.9.0.0.9.9.9.0.0.7.0.7.7.7.0.9.7.q.7.8.0.8.8.8.8.8.0.0.0.0.0.8.0.8.8.8.8.8.0.8.8.8.8.8.8.8.8.7.7.7.0.7.7.q.7.8.0.8.8.7.7.7.8.0.7.7.8.7.7.0.0.8.8.0.0.0.0.0.0.0.0.8.8.0.0.0.0.8.8.0.0.0.0.0.8.8.8.8.8.7.9.0.9.8.8.0.B.8.8.0.0.8.0.0.C.8.0.8.0.8.7.8.0.0.8.8.0.8.8.8.B.0.0.b.0.B.0.B.0.8.9.7.7.8.8.7.7.9.8.9.0.V.9.7.9.8.C.7.N.V.7.7.8.q.N.7.q.N.8.7.N.7.7.7.8.V.9.V.q.8.8.9.q.N.7.7.8.N.b.N.N.N.N.v.7.B.b.b.7.6.N.B.M.v.c.c.c.v.b.c.v.c.v.v.v.M.M.v.v.N.v.N.v.v.N.v.b.N.N.N.N.N.N.N.x.x.x.x.N.x.x.N.x.x.b.7.x.N.c.p.s.h.p.d.p.i.p.i.p.p.p.p.p.p.p.i.p.i.p.i.2.p.<.i.2.p.<.p.f.p.i.p.i.<.p.i.p.2.h.p.2.i.p.p.s.p.p.i.p.2.h.i.p.p.i.p.i.i.p.p.<.;.:.;.i.<.e.,.i.;.i.i.r.;.u.t.' o ; < < < 2 < < < , 1 < 2 < , iX9X9X9X9X9X8X9X9X9X9X9X9X0XiXm < < 5 5 5 < 5 < , < < 5 < 5 ; < > 5 ; 5 < 5 5 * 5 * 5 > > ; X `.w.%.e.%.e.e.%.e.e.%.e.o.e.u.e.u.e.e.e.u.u.u.;.e.u.e.e.u.u.;.;.o.-.o.e.e.;.;.;.;.e.;.-.Q *.7 3 h h 3 l l 3 h h h h 3 h c 3 2 3 3 3 4 2 2 1 4 4 3 3 h 3 3 3 1 2 4 2 2 4 4 2 2 4 2 2 4 < ,                                                   ",
"                                                    W.%X<X.X@X.XXX#XoXXXXXXX#XXXXX6X] T K K K K J J J J K K K K J U I I ( I I U I I ( I ( Y Y / ] ,XD.Z.A.C.N.C.A.A.A.D.B.B.B.B.B.N.A.B.B.B.B.B.B.N.C.A.C.C.B.B.B.b.C.C.C.C.C.T.C.D.B.A.C.D.C.C.C.C.0.C.C.C.C.C.C.C.C.C.0.C.9.C.0.0.0.0.0.C.C.B.C.C.C.C.D.C.0.C.B.0.B.0.8.B.0.C.C.0.8.0.0.0.C.B.C.T.C.C.C.D.b.0.C.C.B.C.C.0.0.C.0.0.0.0.C.C.C.C.8.C.D.C.C.C.C.A.B.B.C.B.B.C.C.T.T.C.T.T.T.T.C.C.0.T.B.T.b.b.T.b.0.0.b.b.b.8.T.B.C.C.D.C.C.D.T.C.A.B.C.0.T.C.C.C.T.C.T.T.B.T.D.C.C.T.8.B.T.B.B.B.B.C.B.b.C.T.D.C.A.S.C.N.V.B.V.V.B.B.A.B.A.C.N.S.C.D.D.B.S.S.B.D.S.A.S.S.S.D.D.S.S.S.C.D.T.D.S.S.D.D.D.T.V.A.A.A.Z.K.A.A.A.Z.Z.A.Z.A.D.T.D.b.A.A.A.M.M.T.A.M.M.T.M.A.A.M.M.A.M.Z.A.A.A.A.Z.A.Z.Z.A.A.Z.m.Z.A.Z.v.N.x.Z.v.v.v.v.Z.Z.v.v.b.x.z.2.2.2.p.i.p.i.d.1.a.2.i.2.2.2.h.p.p.h.h.p.i.i.h.p.i.i.h.f.h.h.a.h.p.h.s.h.p.h.f.a.a.h.p.p.h.h.a.p.p.p.p.i.i.p.i.i.p.p.h.s.i.;.<.<.<.;.i.r.e.r.r.i.r.e.u.y.@.O ; < < < < < < < < 2 < < < = iX8X9X9X9X9X9X9X9X9X9X9X9X9XiXk $ * > & > < * 5 < - - < < * * < > < * < * * < * < < * > 5 - X _.w.%.$.$.e.%.%.%.&.%.e.%.e.u.e.u.%.u.e.u.e.u.e.;.u.e.u.e.e.e.o.;.;.;.-.;.;.;.e.;.;.;.;.-.*.9 1 3 h l j j l h h h h k h k k 4 3 3 1 2 < 2 2 2 2 2 3 k k 0 k 2 4 3 2 2 4 4 2 4 2 2 2 3 2 2                                                   ",
"                                                    W.2X.X.X.X<XXXoXoX#XoXXXXXXX X>Xy.k.t.k.[ k.( k.[ [ [ k.[ k.` k.` [ [ [ [ [ [ [ [ [ ` ' ` ` Q M.c.b.c.c.c.c.l.f.c.c.f.c.c.c.f.6.4.4.4.5.4.4.2.4.4.4.4.4.2.4.6.5.4.4.4.6.5.5.4.5.f.5.l.2.2.5.2.2.2.2.2.5.2.2.4.2.1.1.1.5.3.5.5.5.3.5.2.2.2.2.2.2.2.1.2.2.2.2.2.2.4.4.2.4.4.2.4.3.4.4.2.2.4.2.2.2.2.2.4.2.4.4.4.2.2.4.2.2.2.2.2.2.2.4.2.2.4.4.p.2.4.4.2.3.2.2.3.4.4.3.3.3.3.3.3.3.3.3.3.3.4.3.3.:.4.3.4.3.4.3.3.:.4.4.<.4.3.<.,.,.,.,.3.2.3.2.4.3.4.2.4.2.4.3.3.2.3.2.3.3.4.3.3.3.4.3.3.4.2.3.3.3.4.3.3.3.3.3.3.3.3.3.3.3.3.3.1.,.1.3.3.3.3.1.3.3.,.,.3.3.,.3.3.3.3.3.,.>.,.>.3.>.3.>.O.O.>.3.3.O.3.O.O.3.3.>.;.O.>.>.;.>.>.;.>.;.;.>.>.;.,.>.>.,.>.;.>.,.;.>.>.;.>.>.;.,.>.>.>.,.,.,.3.O.+.o.,.>.,.,.>.,.,.l.p.l.2.2.2.5.2.1.2.5.l.5.l.z.M.c.c.v.v.c.v.c.v.v.c.b.v.M.M.p.i.<.2.h.2.h.p.<.<.h.<.<.<.h.r.r.<.r.r.;.<.e.r.r.:.r.r.i.e.r.r.r.:.<.r.i.i.i.r.i.i.u.r.i.i.r.;.;.;.;.;.r.e.r.e.e.;.r.e.e.*.' O < : < 2 < 2 < 1 < < < < ; = iX9X9X9X9X9X9X9X9X9X9X9XuXwXiXG G H G G H G G G H S S S S S S % * < < < < < < < * < < 5 5 - X `.w.%.t.%.%.$.e.e.%.e.%.%.e.t.u.e.u.e.u.e.u.e.u.u.%.u.e.u.u.e.e.e.;.;.;.;.-.;.;.;.;.;.;.X.*.8 3 4 4 4 k 4 l h j 3 3 h h 3 b S S N b l c v v c b l n S S S c 4 4 2 < 2 < 2 < < 2 2 2 < < 4                                                   ",
"                                                    W.2X.X.X<XoXXX.X.X.X.XXXXXXX X<XJ.A.A.M.A.Z.M.A.A.A.A.Z.A.A.T.c.3.:.i.h.i.i.k.h.h.k.i.h.y.r.:.:.:.:.:.:.:.:.:.3.:.:.i.<.:.:.:.:.h.:.:.h.:.4.h.:.h.:.h.4.4.:.4.4.4.4.4.4.4.Q 4.4.[ 4.Q 4.h.4.4.Q 4.:.:.:.:.:.:.:.:.:.:.h.h.r.r.:.:.:.:.4.:.h.:.:.:.:.h.:.:.:.:.:.:.:.h.:.:.:.r.r.r.r.r.r.r.r.r.r.:.:.:.-.:.:.:.:.:.:.:.r.:.:.h.r.r.r.e.<.;.;.;.;.:.:.<.:.:.:.:.<.:.:.:.<.:.:.r.r.r.r.i.;.;.i.i.i.a.i.r.r.r.r.r.r.r.e.r.r.r.r.i.e.e.i.i.e.i.r.r.:.i.r.:.r.:.r.:.h.r.r.r.r.i.:.:.h.:.:.3.<.<.3.<.<.:.:.<.:.:.:.h.:.r.:.i.r.:.i.:.:.r.r.:.i.i.:.h.r.r.r.-.r.r.-.r.-.r.r.r.[ :.r.r.[ :.:.r.w.:.r.-.r.w.w.r.r.r.r.:.-.:.:.-.:.-.e.e.e.;.;.:.;.;.;.;.;.:.:.-.:.;.;.;.;.;.;.;.r.;.e.u.:.e.:.r.i.r.r.:.r.r.r.r.:.i.p.c.f.4.f.4.4.4.6.f.4.b.4.2.5.T.T.B.T.C.B.B.C.B.B.B.B.D.D.T.<.<.<.<.h.2.<.<.<.<.<.<.h.r.h.y.t.t.w.t.t.w.t.y.w.w.w.w.$.w.e.e.e.<.;.u.u.e.i.u.e.e.u.;.,.i.;.:.;.;.;.;.;.r.;.r.-.;.-.:.r.t._ + : < < < 2 5 < 2 < < < 5 < & yXyXyXdXrXrXrXyXdX9X9XyXrXwXyXuXiXyXiXiXiXiXiXiXiXaXsXaXsXiXaX> 5 5 5 < 5 5 5 5 5 5 5 5 5 ; X _.e.%.t.%.%.e.%.%.e.&.e.$.e.e.u.e.e.t.%.e.u.e.e.u.%.e.u.a.u.e.e.r.e.r.r.r.r.r.r.r.r.r.r.:.*.8 < > * > > < > < > 5 5 < < * G aXiXiXrXuXuXuXuXyXiXiXiXsXsXiX3 j < < < < > 2 , > > 2 < < , 4                                                   ",
"                                                    ^.%X.X.X@X.XXXXX.XXX.XXXXXXXoX{.J.b.M.A.A.N.N.A.Z.Z.A.b.N.N.b.M.3.<.h.<.:.<.:.:.:.:.:.h.y.r.h.h.h.r.:.i.r.i.r.r.i.r.<.r.i.i.i.h.:.h.h.h.h.[ h.:.h.4.h.[ h.:.[ h.4.[ 4.Q h.4.4.Q [ 4.4.4.h.[ h.4.[ h.h.:.h.h.h.h.r.y.h.r.r.:.:.:.:.r.[ h.:.:.h.:.:.[ :.:.:.:.:.:.h.:.:.:.:.:.r.h.:.r.:.h.r.h.r.:.:.h.h.r.:.h.:.:.:.:.:.:.:.:.:.:.:.:.:.i.i.i.<.i.<.<.<.<.i.:.i.:.i.i.h.r.:.r.r.i.r.i.r.i.i.r.r.r.r.r.i.i.i.i.r.r.i.i.i.r.i.r.i.r.i.r.r.r.r.r.i.r.i.r.i.i.r.h.r.y.i.i.h.r.h.i.i.i.:.h.r.i.r.i.r.r.h.i.h.:.h.h.i.i.i.h.:.h.i.:.i.h.r.h.:.:.:.h.:.h.r.r.-.r.r.r.r.w.-.r.:.:.[ r.r.r.:.-.r.w.r.w.w.r.r.r.-.r.r.-.w.r.r.-.r.w.r.w.e.e.w.e.w.r.;.e.;.;.-.r.e.e.e.e.e.e.;.;.r.;.;.r.r.r.e.r.r.r.r.r.r.e.r.r.e.r.i.f.f.4.6.f.6.4.4.4.4.4.4.4.4.6.T.B.8.C.C.C.C.B.B.A.C.A.A.C.T.<.<.h.<.i.r.i.h.<.<.<.:.<.<.i.-.w.y.y.&.w.t.t.y.t.y.w.t.t.t.t.i.i.e.u.e.e.u.u.e.r.u.r.i.;.i.;.:.:.;.:.:.;.:.;.e.:.;.r.r.;.j.' : < ; < 2 5 2 < 0 < < 2 < - * iXrXdX9X9XuXrXrXdXyXyX9XyXyXyXuXyXiXiXiXuXiXwXiXiXyXiXwXyXiXiX. < > 5 5 < 5 5 5 5 5 < 5 5 ; @ _.$.%.w.e.$.%.e.e.%.e.%.%.%.u.t.u.u.u.u.u.u.u.t.u.u.u.e.e.e.u.e.r.e.e.r.;.e.r.r.r.r.:.r.-._.X & > < > < > 2 , < , < ; < * H iXrX9X9X8X9XdX9XdXdXyXyXyXyXyX2 > < 2 < 2 2 < , 2 2 > < < , 4                                                   ",
"                                                    ^.@X.X.X@X.XXXXXoXXXXXXX.XXX.X{.J.N.B.V.B.N.N.N.N.Z.b.B.N.b.A.M.,.:.r.:.i.r.i.i.3.:.:.3.<.<.r.r.r.:.r.r.i.:.i.<.<.r.i.i.<.h.r.h.h.:.h.:.h.:.h.4.h.[ h.h.h.[ [ 4.[ h.[ 4.[ [ h.4.4.4.h.[ h.Q h.h.h.:.:.:.:.h.r.i.h.r.:.r.:.r.:.r.h.r.h.r.r.h.:.h.:.h.h.:.:.h.:.:.h.:.:.-.:.r.:.h.:.:.:.r.:.:.:.h.:.:.h.:.:.h.i.i.i.r.h.h.r.r.r.h.h.r.i.i.r.r.i.i.r.i.r.i.<.i.:.i.<.:.:.:.:.:.:.<.i.e.i.:.<.<.i.r.r.r.i.i.r.r.i.:.i.i.i.:.r.r.i.:.,.r.i.<.<.:.:.u.i.u.i.r.r.r.:.h.h.r.r.r.i.r.r.i.r.r.:.:.:.:.i.:.h.:.<.:.:.:.i.<.<.:.:.h.:.h.<.:.h.:.h.h.:.h.h.h.-.-.:.:.r.w.r.r.r.e.:.r.r.r.r.-.r.-.r.;.r.-.r.w.:.-.r.r.r.-.r.;.r.-.-.e.;.r.w.r.r.w.r.-.:.-.:.r.r.r.e.e.:.e.e.:.:.;.;.;.:.:.:.r.r.r.r.r.r.:.,.e.<.,.r.:.2.f.4.4.f.6.4.4.6.f.4.4.4.b.f.4.T.T.B.B.B.A.T.B.C.A.B.B.8.B.T.2.h.:.i.<.:.i.<.h.i.:.<.<.i.r.r.w.y.w.w.w.[ t.w.y.w.y.t.t.t.w.t.e.e.u.t.e.r.e.i.t.r.e.e.i.i.e.-.e.;.;.:.e.e.;.:.w.-.r.;.;.r._ O : < < 0 5 2 < 5 < 5 < < 5 & iXyXrXrXrXdXyXrXrXrXrXrXyXyXyXyXuXyXuXuXuXuXyXeXiXuXuXuXyXyXsX6 < * < < 5 5 < < 5 5 5 5 , > X `.%.&.e.%.%.%.e.%.e.%.t.t.e.u.e.u.e.y.t.u.y.e.u.u.u.e.u.e.u.e.i.e.r.r.e.i.r.r.r.:.r.i.r.:.!.X < < 5 > < < < < 5 < , < < % S rXrX9X9X9X9X9X9XdX9XyX9XyXyXyX2 2 > 2 > > 2 < < > < , 2 2 < j                                                   ",
"                                                    W.2XXX.X.X<X#XoX.X.X.XXXXX#X.X{.J.Z.N.N.N.b.N.N.N.b.N.b.Z.b.T.c.,.i.r.r.r.<.r.r.<.r.h.<.<.<.h.r.:.:.<.:.:.h.r.i.i.i.i.i.i.r.r.r.h.h.h.[ h.h.h.[ h.h.Q :.4.4.4.4.4.h.4.4.4.4.[ 4.[ 4.h.h.h.4.[ 4.:.h.h.h.:.:.i.i.y.h.h.r.h.r.r.r.r.r.r.r.r.r.:.:.h.:.:.:.:.:.:.h.:.:.r.h.r.h.:.:.:.:.:.:.:.:.h.-.:.:.:.:.:.:.i.r.r.h.r.r.r.y.r.y.i.r.i.r.<.:.u.u.u.i.u.i.i.i.i.r.i.r.i.r.:.r.i.i.i.i.e.i.r.i.r.i.r.r.h.r.i.r.r.i.i.i.t.i.r.h.a.i.i.e.a.i.i.r.e.i.i.t.i.i.r.h.r.r.i.r.i.i.i.r.<.i.<.:.:.:.h.h.:.h.:.:.<.:.h.:.:.i.i.r.i.r.r.i.i.i.r.:.r.r.:.i.r.h.r.r.-.[ r.r.w.y.w.r.r.r.r.r.r.r.r.r.e.e.r.r.r.:.r.r.[ r.r.r.;.e.;.;.:.;.;.-.:.-.-.:.w.:.-.:.:.-.:.-.:.;.;.:.-.:.;.:.;.:.;.>.<.;.:.:.;.:.,.;.e.<.,.;.,.;.2.f.f.f.4.4.f.4.f.4.f.f.4.f.4.4.T.C.C.B.C.B.B.0.0.B.B.A.B.A.T.3.<.r.:.h.h.<.i.<.:.h.<.<.i.i.r.e.w.y.w.t.y.w.t.w.y.w.w.w.e.e.r.i.e.u.u.i.u.e.i.;.u.e.u.e.r.e.r.;.;.:.:.e.;.;.:.-.:.r.e.;.y.' : < < ; < < < 2 5 2 < < 2 < & iXyXdXuXrXdX9XrXyXdXyXyXuXyXwXiXyXiXyXiXuXiXiXuXiXuXiXuXyXwXiX& < < < 5 < < 5 5 5 5 5 5 ; - X _.%.e.e.%.$.t.$.e.&.%.e.%.%.t.u.e.u.u.u.e.u.t.e.u.t.e.a.u.e.i.;.;.r.e.r.e.r.r.r.r.r.r.:.r._.8 - 5 < < < < < 5 < ; < ; < - S rX9X9X9X9XrX9X9X9XyX9X9XyXyXyX5 > 2 < > 2 < < 2 < 2 < < 2 , j                                                   ",
"                                                    ^.@X.X.X.X.XXXXXXXXXXXXX.XXX@X XL.N.M.B.Z.Z.M.Z.N.M.N.M.N.N.b.c.3.r.:.i.:.i.i.:.:.<.r.i.<.3.<.<.:.i.i.i.r.i.r.i.i.i.i.i.r.h.h.r.r.h.h.r.:.h.4.[ 4.[ 4.[ 4.4.4.4.h.4.[ 4.h.4.4.4.4.[ 4.4.[ 4.:.h.h.:.:.:.h.[ :.h.r.:.:.h.r.r.h.r.h.h.:.:.:.:.4.:.:.:.h.:.h.:.:.:.:.h.:.:.:.h.:.:.r.:.r.:.:.h.r.:.:.h.:.r.r.:.<.r.<.<.r.<.<.:.:.h.i.:.h.:.:.:.:.<.r.i.r.<.i.i.:.r.r.r.:.r.:.i.:.i.u.r.i.:.i.r.i.i.i.r.i.i.i.i.i.i.i.r.i.i.r.r.e.i.r.i.r.r.h.r.i.:.r.i.r.r.<.i.i.r.h.r.h.r.a.r.i.i.h.r.i.r.r.i.:.r.h.:.h.:.h.:.h.:.r.h.r.i.r.h.i.i.h.r.i.i.i.i.i.h.r.w.r.w.r.:.r.e.r.r.e.r.:.r.r.r.r.w.r.r.r.r.w.r.r.e.:.:.e.r.w.r.w.:.w.r.r.-.:.-.e.:.w.;.e.e.r.w.r.w.e.e.e.e.e.e.e.e.:.e.e.e.e.r.;.:.<.:.;.<.r.:.r.:.r.e.i.f.c.4.4.f.6.4.4.f.4.6.f.4.4.6.T.0.B.C.B.T.T.B.A.C.B.T.B.A.D.3.<.<.i.<.h.i.<.i.<.<.<.<.h.r.y.w.t.w.y.y.w.y.y.t.w.y.y.y.w.t.t.e.<.e.e.e.u.r.r.u.r.i.r.i.e.e.e.;.:.;.-.:.:.-.e.:.;.w.r.r.k._ O < < < < < < < 2 < < < < < $ iXwXyXyXdXyXrX9XdXyXrXrXdXyXyXuXiXiXiXwXiXuXiXiXiXwXuXuXiXyXiX- 2 - < > < 5 5 5 , 5 5 5 5 > X _.' e.e.%.e.$.t.%.%.e.%.%.e.t.u.u.e.u.e.u.e.u.u.u.u.e.e.e.u.u.r.r.;.r.r.e.r.r.r.r.r.r.r.:._.X 5 5 5 < < < 5 < < * < 5 < = S iXrXrX9X9X9XrXrXdX9XyX9XyXyX0X> > 2 > > , 2 < < 2 5 2 5 2 , 4                                                   ",
"                                                    ^.@X.X.X.X@XoX#X#X.XXX.X#XXX@X{.J.S.B.A.Z.N.B.N.N.B.Z.B.B.N.N.n.>.i.i.<.<.r.:.<.<.:.:.i.<.:.<.r.<.r.:.r.i.r.i.i.<.r.i.r.i.r.r.h.r.h.h.r.h.:.4.4.4.h.h.h.[ 4.[ 4.4.[ 4.4.[ 4.[ h.4.4.h.Q 4.4.r.r.r.:.:.h.:.4.i.:.r.h.r.r.i.i.:.r.:.[ :.:.:.h.:.[ h.:.:.:.r.:.:.:.:.:.:.:.h.r.r.h.h.:.:.h.:.r.r.r.r.r.h.r.:.:.r.:.r.r.i.r.r.i.r.:.r.:.:.:.h.:.:.:.i.:.i.<.:.r.r.i.:.i.h.r.:.:.<.:.<.:.:.r.<.<.i.r.<.i.r.<.r.r.r.i.i.r.i.<.i.:.r.:.i.r.i.r.:.r.r.i.i.:.:.h.h.<.i.i.h.i.r.h.h.r.r.h.y.r.i.i.r.r.:.h.:.h.h.:.:.:.i.i.<.<.<.<.<.<.i.<.<.<.<.<.h.<.i.r.:.:.r.:.:.r.e.r.;.:.;.:.e.r.w.r.r.-.w.r.w.r.r.r.w.r.:.:.;.;.r.r.r.w.:.w.e.r.:.e.;.e.;.;.e.-.w.e.r.e.e.e.e.e.e.e.e.:.e.e.:.e.r.;.i.;.:.r.r.:.r.r.r.r.r.:.<.f.f.f.c.4.f.4.f.6.4.f.4.b.4.4.T.B.C.B.B.C.C.C.B.A.C.C.A.B.Y.O.<.i.<.i.h.<.h.:.i.i.h.r.i.h.y.y.w.y.w.w.y.w.[ y.t.w.w.w.w.w.r.,.;.,.u.;.,.e.u.e.r.;.r.e.e.i.:.e.e.;.;.e.e.e.e.e.;.r.;.r.y._ + < 2 : 2 : < < < < < < < < $ yXyXyXyXuXrXrXrXyXyXyXyXyXyXyXiXyXwXuXiXuXiXuXuXiXuXiXuXuXuXiX5 < < < < > < < 5 ; 5 < , 5 - X _.w.e.w.%.%.%.%.e.t.%.t.%.e.e.u.e.u.u.a.e.u.e.a.u.t.u.u.u.t.e.e.r.r.;.r.r.;.e.r.e.i.<.:.;.`.X < > < < 5 5 < > < < < < < = S iXrX9X9X9X9X9X9XyX9XyX9XyXyX8X> 2 > > 2 , 2 , 2 > 2 > 2 < , 4                                                   ",
"                                                    W.$X.X<X.X.X.XXX#XXXXX#X.XXX.X XI.Z.B.Z.Z.Z.Z.b.Z.N.N.M.b.N.Z.m.<.i.<.r.<.:.i.:.<.<.<.:.<.:.<.r.:.<.:.i.r.i.i.<.i.i.r.i.r.i.h.r.h.r.h.h.h.h.[ 4.4.4.4.[ 4.4.[ 4.[ h.4.h.h.[ 4.Q 4.[ h.4.h.4.h.:.h.:.:.:.:.h.h.:.r.r.i.r.r.r.:.r.h.h.:.h.:.:.:.h.h.h.:.:.h.[ :.h.:.:.:.:.:.r.:.r.h.:.r.:.r.r.r.i.r.i.r.r.h.r.r.i.:.r.r.:.r.r.r.r.r.r.:.r.i.r.r.:.:.:.i.;.<.:.;.i.i.i.r.i.r.:.r.,.:.i.:.<.<.<.i.<.<.r.i.r.r.i.i.r.r.i.i.r.r.r.i.r.r.r.i.:.i.r.r.h.r.i.r.r.:.h.h.h.r.i.i.r.i.i.r.r.i.h.i.i.r.h.h.r.:.:.:.h.h.:.:.<.:.i.i.<.<.i.i.i.<.<.h.<.h.:.r.h.r.;.w.r.e.r.r.-.;.r.r.r.r.e.r.w.r.r.r.r.r.r.r.r.r.r.r.r.r.;.e.-.e.r.w.:.e.;.w.-.;.-.-.;.r.r.:.;.e.:.e.:.:.;.:.e.:.e.;.e.:.e.r.r.;.r.e.r.:.r.r.:.r.r.:.:.<.c.4.4.f.c.4.f.f.4.f.6.f.4.5.6.T.B.B.A.C.T.C.C.A.C.A.C.B.B.T.3.e.i.<.i.i.<.i.i.i.i.i.i.<.i.y.w.y.w.w.w.w.y.w.t.w.y.t.w.t.w.r.e.i.;.u.e.r.e.e.i.r.r.i.e.r.e.r.;.r.-.e.e.:.:.:.e.e.r.:.r.y.' 9 < < < < ; < < < < < < < < & iXuXyXyXrXdXrXyXyXyXyXyXyXwXuXrXiXiXiXiXiXuXuXiXiXuXuXuXyXiXiX< 2 5 < < > ; , < 5 5 < ; 5 - X _.Q $.e.$.e.%.e.e.%.e.&.$.e.t.e.e.u.e.a.e.u.u.e.u.u.t.u.e.u.;.r.r.e.r.e.e.r.<.r.r.e.:.<.;._.X < > > 5 < 5 5 < 5 < * < < * D rX9X9X9X9XrX9XrXyX9X9X9X8XyX0X> > 2 2 2 < < 5 2 2 5 2 5 < 5 z                                                   ",
"                                                    W.$X.X.X@X.X#X#XoX#X#XXX#X#X.X{.J.M.N.N.b.N.B.A.N.Z.Z.N.N.B.Z.n.>.<.:.<.:.i.<.i.i.:.i.<.<.h.i.<.i.:.<.r.r.:.<.i.:.r.i.r.i.r.r.h.r.h.h.:.[ h.4.4.[ h.4.4.4.[ 4.4.4.4.4.[ 4.4.4.h.h.h.4.[ 4.[ h.r.:.h.:.h.:.:.i.i.i.h.i.r.i.r.:.r.:.:.h.:.:.:.:.:.:.h.:.:.h.:.:.h.[ h.:.:.:.h.r.r.h.r.:.:.h.r.:.i.r.:.r.:.r.r.r.i.r.r.i.r.r.:.:.r.i.:.:.r.:.r.r.i.:.<.:.<.:.<.i.i.;.r.i.:.r.:.:.:.<.:.:.<.r.:.:.:.i.<.r.r.i.r.r.r.i.r.r.r.h.i.r.i.r.i.r.i.r.i.r.r.r.i.i.r.r.:.:.r.i.r.r.h.r.r.i.h.r.i.i.h.h.r.r.h.h.:.:.:.:.h.:.h.<.<.i.:.i.<.<.:.r.h.:.i.<.i.i.r.r.r.:.e.:.e.r.;.r.e.r.e.e.r.r.r.w.r.:.w.w.r.w.e.w.r.;.e.;.r.r.e.-.-.e.-.-.r.;.:.;.;.;.;.-.;.;.r.r.;.;.e.e.;.e.-.e.:.e.:.e.;.e.:.:.r.:.i.e.:.:.r.:.r.r.:.<.f.f.6.4.4.4.4.4.f.4.f.4.f.f.5.T.T.C.B.B.B.A.C.C.A.C.A.C.B.Y.>.<.i.h.i.<.i.<.h.<.i.r.r.r.h.w.y.w.y.t.t.t.[ w.y.w.w.w.w.t.r.t.r.;.u.e.u.e.i.i.e.r.e.r.r.r.:.e.r.;.e.:.e.-.e.-.e.e.r.;.;.w._ 7 : < < 2 ; < 2 < < < < < 2 & yXyXyXyXrXyXuXyXyXyXyXyXyXwXwXiXuXiXuXwXiXiXiXwXuXiXuXiXuXuXiX2 4 < < ; < 5 < 5 5 5 5 5 5 & 8 _.' %.%.%.$.%.$.%.e.%.e.%.%.u.e.u.e.u.e.a.e.e.u.e.u.u.e.u.e.e.r.e.r.r.r.;.r.e.r.r.:.:.:.:._.8 * > < 5 5 < 5 5 < < < , ; * S iX0X9X9X9X9XdX9X9X9XyX9XyXyX0X> < < 2 > < < 2 5 < 2 > 2 < < z                                                   ",
"                                                    W.$X@X.X.X.X.X#X#X.XXX#X#XXXXX XK.Z.N.b.Z.b.N.A.A.N.b.b.N.N.b.n.3.:.:.:.:.<.h.<.<.<.h.:.i.:.:.i.r.<.r.r.i.i.<.i.:.:.i.r.r.i.h.h.h.:.h.r.r.r.[ h.[ 4.4.4.[ 4.[ [ 4.4.4.4.[ [ :.h.:.h.r.h.r.r.r.r.r.i.r.r.i.h.h.:.r.i.r.i.i.:.:.h.:.:.h.:.[ h.h.[ :.:.r.h.h.r.:.:.:.r.r.:.:.r.r.r.h.r.r.:.i.r.r.r.r.r.r.r.r.i.r.i.:.r.i.:.;.i.:.i.r.:.:.i.r.r.i.:.<.:.:.<.:.i.r.:.:.:.r.r.:.:.<.;.<.<.:.<.:.<.<.<.r.<.i.r.r.i.i.r.i.r.i.i.r.i.r.i.r.r.i.r.r.r.r.i.r.h.r.r.h.<.r.i.i.h.r.i.r.h.i.h.r.h.h.r.:.h.h.r.:.:.h.h.:.h.:.:.<.i.<.<.:.h.h.i.i.<.h.<.<.i.h.r.r.:.e.:.e.e.e.:.e.e.r.r.e.r.w.r.:.e.-.r.r.w.:.r.r.r.;.w.:.;.e.e.-.-.;.r.-.;.e.-.;.;.;.-.e.-.-.e.:.;.e.e.:.e.-.;.:.e.e.;.r.;.e.:.;.:.:.i.:.r.r.:.r.i.;.:.<.c.5.f.4.4.6.f.4.6.4.f.4.4.5.4.T.C.C.C.C.A.C.C.C.C.A.B.C.B.T.3.r.i.:.i.:.i.i.<.h.:.h.r.i.h.r.t.t.w.w.w.w.w.t.w.t.[ w.y.w.t.r.e.e.u.u.e.r.u.e.r.r.e.r.r.e.r.:.e.e.:.-.r.;.;.;.:.r.r.:.:.y._ 7 < < < ; < 2 < < < < < < 2 = uX9X9XrXrXdXrXyXyXyXyXyXyXyXyXuXiXuXiXiXiXiXrXiXrXrXiXuXiXwXiX2 2 ; < < 5 5 < 5 5 < , ; , = 8 _.&.o.e.%.w.$.%.e.$.%.%.e.e.t.e.u.e.u.a.e.u.u.e.e.u.u.e.u.e.u.:.r.e.r.e.r.;.;.r.r.:.:.:.:._.X 5 < 5 < 5 5 < < 5 < 5 5 5 * S iX9X9X9X9XrXrX9XyX9X9XrX9X9X0X= 2 < 2 , < 2 < 2 2 5 < 2 < < j                                                   ",
"                                                    ^.@X.X.X.X2X#XoX.X#X.X#XoX#XoX XG.Z.N.Z.Z.b.N.b.Z.b.A.Z.Z.N.T.b.:.:.<.:.:.i.:.:.i.i.<.:.h.:.:.<.<.i.<.r.r.r.:.i.i.i.i.r.r.i.:.:.h.:.:.h.h.h.4.4.4.4.[ 4.4.4.4.4.[ 4.4.[ 4.4.h.:.h.h.h.:.h.h.r.h.i.r.r.i.i.:.i.i.r.i.i.r.r.i.:.:.h.[ :.:.h.:.:.h.:.h.r.r.r.:.:.:.r.:.r.r.:.:.:.:.:.r.r.r.:.:.:.:.:.:.<.r.;.:.:.r.r.r.r.r.i.r.r.r.r.i.r.r.r.r.r.<.:.<.:.<.:.:.:.:.r.r.r.r.:.:.i.<.;.i.<.r.i.:.<.;.:.:.r.r.r.i.r.i.r.i.r.r.i.r.i.r.i.r.:.i.i.r.i.r.r.i.i.i.r.i.i.i.r.i.i.r.i.i.r.r.i.r.r.h.r.i.:.h.:.h.:.:.:.:.h.<.i.:.:.i.i.<.:.<.:.i.:.i.i.:.h.:.e.:.e.r.e.:.:.e.e.r.;.r.r.;.r.r.w.r.r.e.e.r.w.e.w.r.e.:.;.r.-.r.;.e.;.w.r.;.;.:.;.;.:.;.:.e.e.:.r.e.;.:.e.:.e.r.e.:.:.e.e.r.r.r.r.r.e.:.e.r.:.r.:.r.:.;.<.f.4.f.c.4.4.f.f.4.f.6.f.f.f.5.T.C.C.C.A.C.A.C.B.T.C.A.D.B.T.3.,.r.h.<.h.<.<.i.<.r.r.i.i.i.r.w.w.w.w.y.t.w.w.y.t.t.w.t.w.y.y.e.:.u.e.a.u.e.i.e.r.r.e.r.r.e.r.;.:.w.e.e.r.:.r.w.r.w.;.;.h._ 9 < ; < < < < < < < 5 < < < $ uX9XrXrXrXyXdXuX9XyXyXyXyXyX9XuXuXiXiXiXuXiXiXiXiXiXuXiXuXuXiX< 2 < < 5 ; 5 < 5 5 < < 5 5 % O _.$.$.$.%.%.%.%.$.e.e.%.$.%.u.u.e.u.e.u.u.e.e.u.u.u.u.u.e.i.r.e.r.e.e.r.e.i.r.e.r.e.r.3.:._.X 5 > 5 5 5 5 < < 5 5 < 5 5 * S uXrX9X9X9X9XdX9X9X9XrX9X9X9X0X= , < < 2 2 < 2 5 < 2 2 , , 2 j                                                   ",
"                                                    W.%X.X.XXX.X#XoX#XoXoX#X#XXXXX XJ.Z.N.A.Z.N.N.b.N.B.B.Z.N.N.b.4.:.4.<.h.:.<.<.r.i.r.r.i.h.:.h.i.<.<.:.i.h.r.<.i.i.r.r.i.r.i.h.:.h.h.r.h.:.h.h.4.[ 4.[ 4.4.4.4.[ 4.4.4.4.4.[ :.h.:.:.[ h.h.:.h.r.h.i.r.i.i.h.h.:.r.i.r.r.i.:.:.:.:.h.:.:.h.:.:.h.:.h.:.:.:.r.h.:.h.[ r.:.h.r.h.r.:.r.i.:.i.:.:.:.:.:.<.r.r.:.r.r.r.r.i.r.r.r.r.r.:.r.r.r.r.:.r.i.:.:.:.<.;.<.h.:.:.:.h.:.:.:.:.:.<.<.,.r.:.:.<.:.<.:.r.r.i.r.i.i.r.r.r.i.r.i.i.r.r.i.i.i.r.i.r.r.i.r.h.r.i.<.i.r.i.r.i.h.r.i.i.i.r.i.h.:.i.i.r.r.h.:.:.:.:.h.i.i.<.:.h.i.<.i.:.<.<.:.<.i.<.h.r.h.r.e.e.r.r.;.:.r.r.:.r.e.e.r.r.w.:.w.e.r.-.r.r.r.r.e.e.;.r.w.-.e.;.e.-.r.-.e.:.-.-.e.e.;.:.;.;.e.;.e.;.e.;.r.:.e.;.e.r.;.;.r.r.e.r.;.:.r.:.;.r.;.r.r.:.:.i.f.c.4.4.c.4.f.4.c.4.c.6.f.4.6.T.D.T.B.A.A.A.C.A.A.C.A.C.B.Y.>.<.i.:.h.<.i.h.r.h.r.r.i.i.h.y.w.t.y.w.t.[ w.w.t.w.w.w.w.w.e.r.i.e.u.e.u.e.i.e.i.r.e.r.r.r.e.e.;.r.:.:.e.;.e.-.e.r.r.,.;.y._ 7 0 < < < < < < < < < 2 2 < = uXrXrXrXrXrX9XyXyXrXyXrXwXyXyXiXuXuXiXuXiXuXiXrXiXiXrXiXrXuXiX* 1 < < < 5 5 5 5 < 5 5 5 5 % X _.$.e.$.$.%.%.$.%.%.%.e.%.%.e.u.t.u.u.e.e.a.u.e.a.e.e.u.u.e.e.e.r.i.r.;.r.r.:.r.r.e.:.:.<.!.X 0 < 5 5 5 5 5 5 5 5 5 < * * S uX9X9X9X9XrX9XrXyXrX9X9X8X8X0X# < 2 2 < < > 2 2 < 2 < < 2 > 2                                                   ",
"                                                    W.2X.X.XXX.X.X#XoX#X#X#X.X.XXX XJ.N.N.b.b.N.A.A.A.N.b.Z.b.N.b.4.:.Q <.i.:.:.i.<.<.r.i.r.r.i.r.:.:.:.:.r.i.r.<.i.<.i.i.r.i.r.r.h.h.[ h.:.:.h.[ 4.[ 4.4.4.[ [ 4.4.4.[ [ 4.4.4.h.[ h.:.:.h.r.r.r.r.r.r.r.r.:.:.:.h.r.r.i.r.r.r.:.h.:.h.:.h.r.r.:.:.:.:.h.:.:.r.:.:.:.h.h.r.:.:.r.:.:.:.h.i.r.:.:.<.:.<.:.:.r.i.:.r.<.r.:.r.<.r.i.:.r.r.i.:.r.r.r.<.:.:.:.>.:.:.:.:.:.:.r.r.h.r.:.i.;.<.<.<.:.<.:.i.:.<.<.r.r.i.r.r.i.r.r.r.:.r.r.i.r.r.r.r.i.r.i.:.r.i.r.i.r.h.h.r.i.h.r.i.r.r.r.r.r.r.r.h.r.i.r.h.:.h.:.h.:.:.<.:.h.i.<.i.h.:.:.i.:.h.<.i.h.<.i.r.r.:.e.r.e.r.;.e.r.e.r.;.r.e.r.r.r.w.r.w.r.r.r.w.w.:.:.r.;.:.e.r.-.-.:.w.;.;.;.;.:.e.-.;.e.-.;.:.w.:.e.:.e.r.e.e.e.:.;.r.;.r.r.:.:.r.:.;.r.;.:.r.:.r.:.:.<.c.4.4.c.4.f.6.4.f.c.4.f.c.4.4.T.D.B.B.B.C.C.A.C.B.S.B.A.B.Y.3.<.i.i.<.i.<.:.<.<.i.i.i.<.i.r.w.w.w.y.w.t.t.y.w.w.y.y.w.y.y.y.e.,.e.u.e.u.e.i.e.r.i.e.r.r.r.;.r.;.e.r.;.r.e.:.e.r.w.;.;.u._ + < - 0 2 : < < < < : 2 2 < $ rXrX9X9X9XyXyXrXyXrXwXrXrXyXyXuXiXiXiXiXiXiXrXiXiXuXiXuXiXuXiX* 3 5 5 5 5 5 < 5 5 < 5 5 5 $ 8 _.%.o.%.%.%.%.%.%.$.%.e.%.%.t.e.u.e.e.e.u.e.e.u.e.u.u.e.t.u.i.r.r.e.r.r.e.r.r.r.r.:.:.<.:._.X - < 5 5 5 5 5 5 < < 5 < ; ; S 9X9X9X9X9X9X9X9X9X9X9X9X9X0X0X$ < < < , 2 2 2 > < , , 2 < < ,                                                   ",
"                                                    W.%X.X.X.X.XXXXXXX#X#X#XoX.XXX XG.M.A.A.A.A.M.A.A.A.Z.A.A.M.b.4.:.h.4.[ Q 4.h.h.:.:.:.h.:.i.r.r.i.r.r.i.r.i.i.r.r.i.:.r.r.r.:.r.:.h.:.:.:.:.4.4.4.[ 4.4.4.4.[ 4.[ 4.h.h.[ 4.:.:.h.r.r.h.r.h.r.h.h.r.i.r.h.r.i.i.r.i.i.r.r.r.h.r.r.:.r.:.:.:.h.:.:.h.:.:.r.r.:.:.r.r.:.r.r.r.:.r.h.:.:.:.:.<.:.:.:.:.<.;.<.r.:.:.<.r.:.:.i.r.:.<.:.r.r.:.r.r.r.r.r.:.r.r.;.i.:.:.:.:.[ :.r.r.r.r.:.r.r.,.r.<.<.r.<.;.:.r.r.i.r.r.r.:.<.:.<.i.i.:.i.i.u.i.i.r.i.e.r.i.i.i.i.r.r.i.i.r.r.r.r.h.h.r.y.r.r.i.r.r.r.r.h.<.h.h.:.:.<.i.<.i.i.<.i.<.<.:.<.<.<.<.<.<.:.i.:.r.e.r.r.;.e.e.e.r.;.;.;.r.e.r.r.-.r.-.r.w.-.r.;.r.e.w.r.:.e.;.e.e.e.e.-.e.e.e.-.:.;.e.-.:.w.:.-.e.e.:.e.;.e.e.r.;.e.;.e.e.u.e.;.r.:.r.;.:.e.i.:.i.r.e.:.f.4.c.4.4.4.c.f.f.f.f.f.f.4.5.T.C.C.A.A.V.B.A.C.A.A.B.C.B.Y.3.i.r.r.i.i.i.i.i.i.i.i.<.i.a.e.w.w.t.w.w.w.t.w.t.[ t.t.t.t.e.i.e.u.,.<.r.e.r.e.e.e.e.r.e.r.r.-.r.:.e.;.e.r.;.:.w.r.y.:.:.i._ 9 < 5 < 2 < < 2 2 < < 1 < < > 9X9XrXrXrXrXrXrXrXrX9XrXrXyXyXyXiXiXiXiXiXiXiXrXiXiXrXiXrXuXiX% 2 < 5 5 < 5 , < < 5 5 ; * % X _.w.%.%.%.%.o.%.%.%.%.e.%.%.%.u.e.u.e.i.r.i.a.u.i.e.i.e.e.r.e.i.e.r.r.e.r.e.:.:.:.:.:.:.-._.X 5 5 < > < > > < ; < * 5 < = S uX9X9X9X9XdX9X9X9XyX9XdX9X0X9X5 ; 2 < 1 ; 2 e ; 2 < < 1 < < h                                                   ",
"                                                    W.2X.X.X<X.XXXXX#XXXXX.X>X.XXX XI.Z.A.K.A.A.D.A.A.D.A.A.Z.N.T.b.h.4.4.4.4.4.:.i.i.r.y.i.i.r.i.i.r.r.i.r.i.r.i.r.i.r.r.r.h.h.r.h.r.h.:.h.h.h.[ 4.4.4.[ 4.4.[ 4.4.h.h.4.[ h.h.h.h.[ h.h.h.y.y.h.r.h.r.h.r.h.i.y.r.i.r.r.r.i.h.:.h.:.r.r.h.h.:.:.h.:.:.:.:.r.h.:.h.:.h.:.:.r.r.r.:.r.:.r.:.r.r.i.:.:.:.r.:.:.r.:.:.r.i.r.r.:.e.i.r.i.r.r.r.r.:.:.r.i.:.:.r.r.:.:.h.:.h.h.r.:.r.r.r.r.:.e.i.u.r.r.:.r.i.r.r.:.r.r.:.i.r.r.i.:.r.<.i.u.r.r.r.i.i.i.i.i.r.i.i.i.i.i.r.i.i.h.h.r.r.h.r.r.h.i.r.r.i.h.r.:.<.:.:.:.h.r.p.i.i.h.h.<.<.h.4.<.h.<.<.i.<.<.h.:.e.r.e.e.r.e.:.:.e.;.:.r.:.r.;.r.r.:.;.r.;.r.:.e.;.e.:.e.r.e.:.;.;.-.:.e.:.e.-.-.e.e.;.e.e.:.w.:.w.:.e.;.;.e.:.u.e.,.e.;.u.r.r.r.:.r.;.i.:.,.;.r.:.:.:.h.f.g.g.f.g.f.s.f.f.f.f.f.f.f.l.T.D.C.A.B.B.A.C.D.C.C.A.A.C.Y.3.i.i.e.u.i.i.i.i.i.i.i.i.i.h.e.e.w.e.y.e.y.w.y.w.w.&.w.w.w.w.i.u.;.i.e.e.u.u.u.i.i.i.r.r.e.;.r.;.e.:.r.;.-.r.;.e.r.w.:.:.a._ 9 < < 2 2 < < 1 1 2 < 2 2 1 < rXrXrXrXwXrX9XrXrX9XrX9XrXyXyXiXiXiXiXiXiXiXiXiXiXiXiXuXiXiXsX* 2 < < < 5 < < < 5 < < < - o 7 _.t.%.%.$.%.%.%.%.%.%.%.%.%.u.e.e.e.e.e.r.r.e.e.e.u.e.i.,.r.i.r.e.t.e.r.r.r.r.:.:.e.:.:.:.!.X - > > > < 2 > > > < < 5 5 $ G 9XdX9X9X9X9X9X9X9X9X9X9X9X9X0X* ; - 5 5 , * * % 5 > > ; > > 2                                                   ",
"                                                    W.2X@X.X.X2X#XXXXX#XXXXX`.>XXX XJ.Z.b.K.A.A.A.A.A.M.Z.N.N.N.0.4.Q 4.[ 4.4.[ r.:.:.w.e.e.e.-.r.r.i.i.i.i.r.i.i.:.r.r.h.r.:.:.h.:.[ h.:.:.:.h.4.Q 4.[ 4.Q 4.4.Q 4.Q 4.4.h.Q 4.r.r.h.:.r.r.r.r.-.:.:.:.:.-.-.:.;.:.;.:.:.:.:.:.:.:.r.-.r.:.:.:.[ :.:.h.:.:.r.r.r.:.-.:.r.:.r.r.:.:.r.:.:.:.:.:.;.:.:.;.:.;.;.:.:.;.;.:.:.:.:.:.:.;.;.:.r.:.:.;.:.:.;.-.>.;.;.;.:.Q :.h.:.:.r.r.r.r.:.:.;.:.:.;.:.:.;.:.:.:.:.;.:.;.:.;.:.:.;.;.;.:.:.;.;.:.:.;.;.>.;.:.;.:.r.:.;.:.r.:.r.r.r.e.r.r.r.e.:.;.;.r.:.:.:.-.:.:.r.:.;.;.:.>.:.:.i.:.>.:.:.:.:.:.,.;.:.:.:.r.;.r.e.e.r.e.r.r.:.:.r.e.e.r.e.r.e.r.r.r.r.e.r.e.e.r.r.e.e.e.e.:.e.:.:.e.e.:.e.e.e.e.e.;.;.e.e.r.e.e.e.r.r.e.;.;.e.e.;.e.e.r.:.i.i.r.r.i.r.;.r.r.r.:.:.:.:.r.h.s.a.a.i.a.a.i.h.i.i.,.K.N.8.V.B.B.B.V.B.B.N.N.B.V.L.O.r.r.i.i.r.i.r.i.e.i.i.r.a.;.u.r.r.r.e.e.w.e.e.w.e.w.w.y.a.h.r.e.;.;.e.:.e.r.r.e.e.e.r.e.w.:.e.;.:.w.e.;.e.e.;.e.e.r.;.:.t._ 7 0 < ; < < < < 5 < < < < < < 9X9X9X9XrX9X9XrXwXrXrXwXrX9XyXuXiXiXiXiXiXiXiXiXiXiXiXiXiXiXaX* < 5 5 5 , 5 , 5 < 5 5 - 5 % 8 _.Q X.X.X.$.$.X.X.%.$.$.X.o.e.e.e.e.e.r.e.e.e.r.r.e.e.e.e.i.t.i.r.r.i.r.e.i.:.:.e.r.:.:.r._.X 5 > < > 5 2 5 < * < * 5 < = H uXrXyXdX9XrXyXyXrXdXrXrX9XrX9XG G G G G G G G G G G G G G qX7X                                                  ",
"                                                    W.@X.X.X.X.XXXXXoXoX>XXXoXXXXXoXK.N.B.M.N.Z.A.M.Z.N.M.N.b.Z.0.4.Q Q Q Q Q Q Q -.Q Q -.Q -.X.-.i.i.i.r.r.i.i.i.r.r.r.r.:.:.h.:.:.:.:.:.:.-.>.Q 4.Q 4.Q 4.Q 4.4.[ 4.Q Q h.4.[ [ :.:.:.-.r.r.r.-.:.;.:.;.:.;.;.;.:.-.:.;.;.-.:.-.r.-.:.:.:.-.r.:.:.Q :.r.-.-.r.Q h.:.-.:.-.:.;.;.-.;.:.;.;.-.;.;.;.;.-.;.;.;.;.;.;.-.;.;.;.;.:.;.:.;.;.-.:.e.:.;.;.:.;.;.-.;.;.:.:.Q Q :.Q -.:.-.;.;.>.-.;.;.;.-.:.-.;.;.;.-.;.;.;.>.;.;.;.;.;.-.;.;.;.;.;.;.;.;.;.;.;.;.;.;.-.;.;.;.-.;.w.-.;.;.-.;.-.-.;.;.-.-.-.-.-.>.-.-.-.-.-.;.-.>.;.;.>.;.>.;.;.;.>.;.;.;.;.>.r.e.:.:.r.e.:.:.e.:.;.e.r.r.r.e.;.r.e.-.;.r.;.:.w.:.;.e.:.:.e.;.r.e.e.e.e.e.e.e.;.;.:.;.e.e.:.e.;.e.:.;.e.;.r.r.;.;.;.;.i.i.r.<.;.:.:.:.<.e.<.:.r.r.:.-.Q X.O.! ! ! O.O.X.! ! O.! ! O.T.b.8.6.8.6.8.6.8.B.N.7.V.9.T.O.e.e.;.e.-.;.e.e.e.e.;.:.;.;.s.F.F.F.F.F.H.F.H.F.H.F.F.F.F.H.s.e.r.;.r.e.r.;.;.r.;.e.;.;.:.e.e.:.;.e.-.:.w.;.e.e.w.e.;.e.[ _ 7 < < < < < < < < , , ; < < , uXwX0X9XwX9X9X9X9X9X9X9XwXwX9XyXuXyXiXyXiXiXrXiXrXrXiXuXrXiXaX= 5 5 5 5 < 5 5 5 * 5 5 5 - - q _.Q X.$.! Q Q Q Q ! Q Q X.X.%.;.;.e.e.e.e.e.e.r.e.e.e.:.;.e.r.r.r.i.r.r.r.r.i.r.r.r.:.h.[ k.X 0 > 5 < < - 5 < < < * 5 < > S uXdXrXuXrXrXdXrXrXrXrXuXrXuXuXuXiXrXrXrXiXiXiXiXiXiXiXiXsXiXaX                                                  ",
"                                                    W.$X.X.X.X@XoXoX#XXXoX#X#X#XXX].I.N.M.M.N.N.Z.b.Z.M.N.N.Z.Z.A.2.-.-.[ Q Q Q Q :.Q Q :.Q Q 4.Q r.a.r.a.r.t.i.e.<.r.u.r.i.i.i.r.:.:.;.:.;.:.;.-.:.e.;.:.:.:.;.e.r.r.e.r.e.r.e.h.r.-.:.e.r.r.r.e.e.w.:.;.e.-.r.e.;.r.r.;.r.;.;.;.;.r.;.r.-.r.-.-.r.w.;.r.-.;.:.;.w.;.e.:.e.r.-.:.;.e.;.:.;.:.e.;.;.;.:.;.;.;.e.;.:.;.:.w.;.;.r.r.;.e.e.:.w.r.;.e.r.:.-.-.;.;.>.-.:.-.-.:.-.:.-.:.-.:.:.:.-.-.:.;.;.;.;.e.;.;.;.;.;.;.;.;.-.;.;.;.e.;.;.-.-.;.;.;.;.-.-.;.;.-.:.-.-.r.-.-.:.-.;.-.;.;.-.;.-.;.-.;.-.;.;.-.o.;.-.;.-.;.-.;.;.;.;.;.>.;.o.;.>.o.,.e.;.,.e.e.e.:.r.:.e.;.r.e.:.r.;.e.r.e.;.e.;.,.;.e.:.:.e.;.e.:.e.;.:.;.;.;.;.,.e.e.,.e.;.;.;.i.;.,.e.;.i.e.,.e.;.e.;.e.;.;.;.;.e.e.<.:.:.,.:.<.:.;.:.:.;.r.i.-.Q Q Q Q Q Q Q Q -.-.Q Q Q -.>.Y.6.6.6.8.8.N.7.N.7.N.7.N.7.K.O.e.;.-.e.r.e.-.r.:.w.r.r.:.-.p.n.n.n.n.n.n.g.n.c.n.n.g.n.n.n.a.:.:.e.e.e.w.w.r.w.w.r.-.e.r.w.r.-.r.;.r.-.;.w.:.e.r.w.;.e.e._ 7 < ; < < < < 5 < < 5 < < 2 < uX9X0X9X0X9X9X9X0X9X9X9X9XwXwXiXyXiXuXiXuXrXiXrXuXuXuXuXuXiXsX$ < * * < < 5 5 > 5 > 5 ; ; % 8 j.X.Q Q Q Q Q Q Q Q Q Q X.X.-.r.:.-.r.-.-.r.e.:.-.r.-.r.-.r.r.y.r.y.h.r.r.a.r.r.r.a.r.i.i.!.X 0 - 5 5 < 5 5 * 5 5 5 > * % G wX8XyX9XrXyX9XrXrXrXyXrXrXrX9X9XrX9XrXrX9XrXrXrXwXyXyXyXuXuXiX                                                  ",
"                                                    W.%X.X.X.X<X#XXX#XoX#X.XXXoX>XXXI.N.N.Z.Z.Z.Z.B.b.Z.Z.N.Z.Z.M.g.-.Q 4.Q Q 4.Q Q Q :.Q Q Q [ -.a.r.i.t.i.i.i.e.i.<.r.i.;.e.i.r.:.;.;.;.:.:.-.:.;.:.e.;.;.r.r.r.r.;.r.e.r.;.r.:.:.:.h.r.r.r.e.e.:.:.e.r.;.r.;.-.:.;.;.e.-.e.:.r.-.-.;.w.r.-.r.r.-.:.;.e.r.;.;.:.:.;.:.-.;.;.r.;.;.-.:.-.e.e.-.:.w.e.-.w.:.;.r.e.-.r.-.;.:.e.-.;.:.:.e.;.:.;.e.r.e.;.;.-.>.-.;.:.-.:.;.-.:.-.:.-.:.-.-.:.-.;.;.-.:.:.;.-.:.;.-.;.-.-.;.e.-.e.:.:.;.e.-.;.:.-.;.;.r.:.;.;.;.r.-.-.:.-.:.:.e.;.-.;.;.;.-.-.;.;.-.-.;.e.-.;.-.-.o.-.o.o.;.o.;.;.;.e.;.;.;.;.e.;.;.;.;.e.;.<.:.;.:.;.:.:.;.:.;.:.r.:.w.e.:.e.;.e.e.;.e.e.;.r.;.;.r.;.,.i.;.;.,.;.r.;.e.r.e.e.e.;.e.e.;.e.;.:.e.;.u.r.e.,.e.u.e.;.;.i.;.:.:.:.:.:.<.,.i.<.r.r.r.;.X.X.Q -.Q Q Q Q Q Q Q Q Q ! >.T.B.7.7.6.7.6.7.7.b.N.6.8.b.K.O.e.-.:.-.-.e.-.r.w.r.w.r.e.;.h.n.c.c.n.n.n.n.n.z.n.c.n.c.f.n.i.:.r.e.r.:.r.:.r.:.r.:.r.;.w.:.w.r.r.w.e.e.e.e.w.;.-.y.;.e.&._ 7 < < < < < - < < < < < < 2 5 uX9XwX9X9X9X9X9X9X9X9XwX9XwXwXyXiXiXuXuXuXiXrXuXiXuXuXuXuXiXsX$ * * < 5 * * > * 5 * 5 5 5 - r k.Q Q $.Q $.Q Q $.Q Q Q X.Q r.-.w.:.[ r.r.-.e.e.r.w.r.w.r.r.r.r.r.i.r.r.r.r.r.r.r.i.r.r.-.k.O 5 < > < 5 < 5 < < 5 < ; < % S uX9XrXyXdX9XdXrX9XdXdX9XdXuXdXyX9XrXrX9XrX9X9XrXwXwXrXyXrXuXiX                                                  ",
"                                                    ^.2X.X.X.X.XXX#X#XoX#X#XXX#XoX XH.M.N.m.b.Z.Z.M.N.N.M.N.Z.M.b.f.:.Q 4.Q Q Q [ Q :.Q Q Q Q 4.X.r.a.i.u.i.a.u.i.u.u.u.e.,.i.i.r.;.:.-.:.:.-.:.;.:.;.:.r.;.r.e.;.r.r.e.r.;.;.r.:.r.r.w.r.r.e.r.;.r.;.e.r.r.;.;.;.e.e.-.;.r.;.e.:.;.r.;.-.:.r.-.r.-.;.e.;.r.r.w.w.;.e.-.e.r.e.;.e.:.e.;.:.;.;.:.;.:.;.;.;.-.:.-.;.:.;.;.;.-.;.r.r.w.:.w.r.r.-.r.:.e.e.;.;.;.;.-.-.;.;.-.:.-.:.-.;.-.;.:.:.-.:.-.;.;.-.:.r.;.;.;.-.;.;.;.;.:.:.e.-.e.:.:.:.-.:.-.r.-.r.-.-.:.-.:.-.:.-.:.:.-.;.;.;.;.;.;.o.e.-.e.e.w.e.-.-.;.-.;.;.-.o.-.;.;.;.o.o.e.e.+.;.o.;.;.;.;.e.;.;.r.i.;.r.:.:.:.r.;.r.e.e.;.e.e.,.e.e.,.e.e.:.r.;.r.r.e.;.;.;.:.;.;.u.;.;.e.;.e.e.,.u.;.e.;.;.e.e.e.e.;.;.e.e.;.;.e.;.u.e.<.<.:.:.<.,.r.<.:.,.i.e.t.;.! O.X.Q Q Q Q Q Q Q Q Q Q ! O.T.6.6.B.8.6.7.7.b.7.7.6.8.7.L.O.e.e.r.w.r.w.e.w.r.r.e.e.r.-.i.n.n.c.n.f.c.g.n.n.z.n.n.z.n.n.r.e.r.e.w.r.:.w.w.w.r.w.:.w.r.r.r.;.;.e.-.:.-.-.;.r.r.r.e.w.t.E : < < < < < < < < < < < < < - uX0X0XwX0X9X9X9X9X9XtXwXwX9X9XwXuXyXiXiXuXuXiXuXuXuXiXiXuXiXaX% > 5 * 5 * 5 > 5 5 5 5 5 5 - 8 j.Q Q Q Q Q Q Q Q Q X.Q Q $.w.w.r.[ :.-.:.r.w.w.r.r.r.r.-.r.r.r.r.r.r.r.y.r.r.r.r.r.r.:.;.*.8 - > < 5 < 5 5 5 < < 5 5 * = S uX9X9X9X9X9X9X9XrXyX9XyXyX9XrXyX9XrX9XrX9X9X9XrXrXrXrXrX9XrXiX                                                  ",
"                                                    W.%X.X.X.X.X#X#X.X.X.X.XoX.XoX XK.Z.b.N.N.M.Z.N.M.M.N.Z.N.A.T.h.-.r.[ h.Q Q :.Q Q Q Q Q Q Q -.r.a.t.r.i.e.t.,.r.i.:.i.i.;.i.r.;.r.:.:.-.:.:.:.;.:.;.:.e.;.r.r.e.e.r.r.i.r.e.e.r.:.r.e.r.r.r.r.;.e.:.-.e.;.r.;.;.r.:.r.;.r.-.-.e.;.;.r.;.;.:.:.r.:.e.-.;.;.e.-.:.;.;.r.;.:.e.r.-.;.e.e.;.e.-.;.e.;.e.;.;.;.;.-.;.e.;.e.r.;.;.;.r.;.:.e.;.r.;.e.e.:.;.-.;.;.;.;.;.;.;.-.;.;.e.;.;.-.:.-.:.-.:.;.;.;.-.-.;.e.;.;.:.-.;.-.:.-.-.;.-.-.;.-.;.;.e.-.;.;.:.r.;.;.-.-.-.e.-.-.-.;.-.-.;.;.;.-.-.;.-.-.;.-.;.;.-.;.-.-.;.;.o.;.o.;.;.;.;.e.;.e.;.;.;.;.;.<.e.u.e.;.e.e.e.e.e.r.e.,.e.e.e.:.r.e.r.e.e.,.e.e.;.r.;.e.;.<.;.;.;.r.;.;.e.i.;.e.,.;.e.;.e.,.e.e.,.e.;.e.<.e.,.,.e.e.:.;.;.i.;.e.u.e.;.i.r.<.;.r.e.e.i.;.! ! Q Q Q Q Q Q Q Q Q Q -.Q O.K.7.8.8.6.B.6.N.7.7.N.N.N.N.Z.O.-.e.w.;.-.r.w.r.-.r.e.e.:.;.p.n.g.n.n.n.n.n.z.n.n.n.z.n.n.g.i.e.e.r.r.e.r.r.r.:.w.r.e.e.r.-.w.:.w.;.e.e.e.;.e.w.r.w.w.t.t._ + < 5 < < < < < 5 < < < < < & iX9X9X9X9X0XtX9X9X0X0X0XwXwX9XwXiXiXuXuXiXuXrXiXuXuXuXrXuXiXsXo > * < * 5 * 5 5 5 5 5 5 5 - 8 _.Q Q $.Q Q $.Q $.Q Q $.$.X.w.r.w.r.-.r.[ r.w.r.r.-.-.-.r.-.r.h.y.r.r.i.r.i.i.r.r.i.:.r.;.!.O < > < 5 < 5 < 5 5 5 5 5 5 % G iX9X9XrX9XdXyXrX9XrXdXrX9XdX9XrXrX9XrX9XrXrXrX9XrX9XuXrXuX9XiX                                                  ",
"                                                    W.%X.X@X@X.XXXoX.X.X#X#X%XXX.X XJ.Z.N.N.Z.m.N.Z.M.Z.Z.N.N.Z.Y.<.-.-.:.Q Q h.Q Q Q Q 4.Q Q Q -.y.i.r.e.i.i.r.;.i.i.r.i.,.r.i.r.;.:.:.:.:.;.:.;.;.:.:.;.r.r.;.e.e.r.e.e.r.r.r.r.e.r.e.:.e.e.r.e.r.w.:.r.:.e.e.-.:.e.e.r.;.r.;.;.e.:.;.;.e.e.;.-.:.-.e.;.:.-.-.e.;.-.r.e.;.r.;.r.;.;.e.r.;.-.r.;.e.;.;.e.:.;.:.;.;.;.e.:.-.r.e.r.;.e.e.:.e.:.e.e.e.;.;.-.;.;.;.;.;.;.;.;.;.;.-.-.-.:.-.;.;.-.;.;.;.;.-.:.-.-.;.;.;.;.-.;.;.;.;.:.-.;.;.;.-.;.;.;.;.r.;.-.;.e.-.e.;.-.e.;.-.;.;.;.;.o.;.w.-.-.;.;.-.;.-.w.-.-.;.-.;.;.w.o.o.;.;.;.;.;.;.e.;.;.;.;.;.e.u.u.e.:.r.u.;.i.e.u.r.e.e.r.:.u.;.e.;.r.;.;.e.e.;.e.e.;.r.r.;.;.;.e.,.;.e.;.e.e.e.;.u.i.;.e.;.e.;.;.u.;.e.;.u.;.r.,.e.;.i.<.e.<.e.i.u.;.i.;.<.i.<.;.r.;.! Q Q Q Q Q Q Q Q Q Q Q [ Q O.K.N.6.8.B.8.6.B.v.N.7.b.6.N.D.O.;.w.w.;.-.-.e.-.w.:.e.r.e.-.i.n.n.g.f.n.f.n.n.n.n.n.n.g.n.g.i.;.r.e.e.r.-.e.r.e.r.r.w.r.w.;.r.-.e.e.e.;.-.e.-.e.e.e.e.e.y._ + < ; < < 5 < < < < < < < < & iX9X9X0X9X0X0X9X9X9X9X9X9X0X9XuXiXuXiXuXuXiXuXrXuXuXiXuXuXuXsX$ 5 5 5 5 * 5 5 5 * * < < 5 : 8 k.Q Q $.Q &.! Q $.Q X.X.$.X.r.e.e.w.:.-.r.-.Q :.:.:.-.r.:.-.r.r.r.i.r.r.r.r.r.r.r.r.r.r.;.*.O - > < < 5 < < < 5 < , ; 5 = S iX9X9X9XrX9XyX9X9XrXyXrXrX9XrX9X9XrX9XrXrXrXrXrXrXrX9XuXrXrX0X                                                  ",
"                                                    ^.%X.X.X.X.X.X.X.X.X#XoX.X.X.X XG.Z.b.m.Z.N.M.A.N.N.Z.M.N.N.T.h.-.-.:.-.Q Q Q Q 4.Q Q Q Q Q -.i.i.i.i.i.t.u.i.r.u.i.;.i.i.:.i.-.;.:.-.:.;.;.:.;.:.-.;.r.e.r.:.r.;.r.r.e.e.r.;.r.e.r.r.e.r.;.;.;.:.e.;.e.:.;.e.;.r.;.;.r.-.;.-.;.;.e.:.;.-.:.:.;.r.;.e.;.e.:.;.:.;.e.r.-.;.r.;.r.;.r.;.;.e.;.:.e.;.;.;.-.e.e.;.-.;.:.;.;.e.:.;.r.r.;.e.;.e.:.:.:.:.;.-.;.-.;.-.;.-.;.-.;.-.:.r.-.-.:.-.;.;.;.;.-.;.e.;.e.;.:.-.;.;.;.;.;.;.;.;.;.;.-.;.;.;.;.;.;.-.e.r.;.r.:.e.-.e.-.-.:.;.-.;.;.;.-.;.;.e.-.-.;.-.e.;.o.;.-.;.;.-.o.;.;.o.e.e.;.;.e.;.;.o.;.;.;.e.e.e.;.e.u.r.e.;.u.e.r.;.i.e.e.e.;.;.i.e.,.u.e.<.e.u.;.e.;.,.;.;.,.;.e.e.,.e.;.:.e.e.;.;.e.;.r.;.u.;.e.e.;.e.;.e.e.e.;.:.;.e.<.e.:.;.<.i.;.<.e.e.i.i.i.;.Q Q Q Q Q :.[ Q Q Q Q Q Q Q O.K.7.6.8.6.6.6.7.7.N.N.7.N.B.A.O.e.e.:.w.r.e.-.r.r.r.r.w.:.;.i.n.c.n.c.n.n.n.n.c.n.g.n.n.n.n.i.;.e.r.r.r.r.e.w.r.w.w.-.r.r.:.e.e.-.e.;.e.e.e.e.e.e.r.e.e.y._ : < < ; < < < 2 < < < - < < & iX9X9XwX9X0X9X9XrX9X9X9X9XwX9XrXiXuXiXiXuXiXuXiXuXuXrXuXuXiXsX$ 5 * < 5 5 * 5 5 5 < > ; < O r *.Q $.Q Q $.$.Q $.Q -.' $.X.w.-.r.w.[ r.-.r.h.:.[ Q r.-.r.-.r.r.r.r.y.i.r.r.r.r.:.r.r.r.r.!.8 5 < < < < < 5 5 < 5 < 5 5 $ G uXrX9XrXyX9X9XdXdXrXdX9XrXdX9XrXrX9XrX9XrX9XrXrXrXrXrXrXrXrX9XGX                                                ",
"                                                    ^.2X.X.X@X.X#X%XoXoXoX.X.X.X.X XG.S.v.v.Z.b.N.N.N.M.M.B.Z.b.T.i.-.-.Q :.Q Q Q Q Q Q Q Q 4.Q -.y.a.i.e.i.e.i.i.u.i.e.i.t.e.i.r.:.:.:.:.:.:.;.:.;.;.:.r.e.r.e.r.r.r.r.e.i.e.r.r.e.r.e.:.r.e.e.r.;.r.;.;.;.e.-.;.:.;.w.;.e.;.;.:.;.:.-.-.:.w.;.;.w.;.-.;.;.;.r.-.:.r.;.;.r.:.;.-.r.-.;.;.-.-.;.;.-.:.e.;.:.;.-.;.-.;.-.:.;.;.;.e.;.;.r.;.e.e.e.e.r.-.-.;.;.;.;.;.;.;.-.;.;.;.:.-.r.-.-.:.-.:.;.;.-.e.;.;.-.;.-.;.-.:.-.-.-.;.-.-.e.;.;.:.-.-.e.;.r.e.-.;.e.w.;.;.-.r.;.e.-.;.;.;.;.;.;.e.-.;.-.-.-.-.-.w.;.-.e.$.;.;.;.;.e.e.o.%.,.;.o.o.;.o.;.;.;.u.;.e.i.i.e.;.r.e.i.,.e.;.u.:.e.;.r.;.e.;.e.;.e.u.;.e.u.u.e.:.;.;.e.r.;.;.e.,.;.e.;.;.e.,.;.;.e.e.e.i.;.e.;.i.;.;.u.e.e.;.e.i.<.r.u.i.;.:.u.;.<.;.i.e.e.e.Q Q Q Q Q Q Q Q Q Q Q Q Q Q O.K.N.8.6.B.7.7.7.b.7.7.b.7.7.L.O.o.e.e.;.:.w.r.e.:.w.w.e.;.-.i.n.n.n.n.n.c.n.n.n.n.n.n.n.n.n.;.r.e.e.r.;.:.r.r.w.r.e.e.e.;.w.-.:.w.e.e.;.e.;.;.e.-.e.e.e.t.' o ; ; < < < < 5 5 < < < < 2 & iX9X9X0XwX0XtX9X9X9XwX9X9XwX9XwXiXuXuXiXuXuXiXuXuXiXuXuXuXiXsX$ 5 * 5 5 * < 5 * < * < ; 5 - 8 j.X.Q Q $.Q Q Q Q Q w.Q w.-.w.r.w.w.r.-.r.r.[ :.:.:.Q h.r.Q e.r.r.i.i.r.r.i.:.r.:.r.r.r.Q `.O - 5 < < 5 5 < , 5 5 5 5 5 = H iX8X9XdXrX9XrXrXyX9X9XyXyXdXdX9X9XrXrXrXrXrXrXrXrXrXrXrXrXdX8XGX                                                ",
"                                                    W.2XoX.X.X.X.X.X.X#X#X.X#X.XXXXXJ.Z.N.N.m.Z.M.Z.Z.Z.Z.N.N.Z.A.p.-.-.Q Q [ :.Q 4.Q 4.Q Q Q Q -.i.e.e.i.t.i.t.t.r.u.i.e.i.r.i.:.:.-.r.-.:.;.e.-.:.e.e.;.r.e.r.e.e.r.r.r.r.r.i.r.r.r.r.r.e.r.r.-.r.:.w.;.r.e.:.e.-.:.:.;.;.;.-.-.e.e.;.e.;.;.;.:.:.;.;.r.-.;.;.e.e.;.r.e.r.;.w.e.;.:.;.e.;.:.;.;.;.-.;.-.e.;.;.-.:.;.e.-.:.w.;.-.:.e.;.e.:.:.e.e.e.;.-.;.-.-.;.;.-.;.-.;.-.:.-.:.-.:.:.-.:.-.:.;.;.;.:.;.;.;.;.;.;.;.;.:.;.;.;.;.;.;.-.;.;.;.;.-.r.;.:.;.;.:.;.-.e.-.e.-.:.;.;.-.;.;.;.;.;.-.e.e.;.e.e.e.w.e.-.w.;.o.;.;.o.,.e.;.e.o.u.o.e.;.;.;.;.e.r.e.u.;.;.e.u.e.;.e.e.i.e.e.;.e.;.e.u.r.;.e.;.;.;.r.;.e.:.;.<.;.,.;.e.e.;.e.e.,.e.i.;.e.e.u.;.e.<.e.e.,.e.;.e.;.e.,.e.;.:.r.u.r.,.i.;.i.r.<.;.i.;.i.u.;.O.Q :.:.Q Q Q Q Q Q $.Q Q ! O.K.7.6.8.B.N.b.N.7.v.6.N.B.B.D.O.-.w.-.;.w.;.e.-.w.;.r.w.r.-.p.n.n.f.g.n.g.n.n.g.n.n.n.n.n.F.,.r.e.e.w.r.e.w.e.:.w.r.r.-.w.:.r.w.:.;.;.e.e.-.e.e.e.e.e.e.y._ O < ; < 2 ; < < < < < 5 < 2 & iX9X9X9X9X0X9X9X9X9X9X9XrX9XwXwXuXuXiXrXiXiXrXuXiXuXuXuXiXiXsX$ 5 * * 5 5 * 5 < * < * 5 5 - 8 k.$.Q $.Q Q Q Q &.Q Q Q Q Q w.w.:.w.-.:.[ w.Q :.[ :.:.Q r.:.r.t.i.e.e.a.e.a.i.r.r.r.r.r.:._.8 - < < < 5 5 < ; < 5 5 5 < * S uX9X9XyX9X9XdXyXrXdXrXyXrX9XyXyXrX9XrX9XrX9XrX9XrXrXrXrXrXrX9X                                                  ",
"                                                    ^.$XoXoX.XoXXX#XoX#X.X#X.X.X X XG.Z.b.N.Z.Z.Z.Z.M.Z.M.N.N.N.b.4.4.Q Q :.Q :.Q Q Q Q Q Q Q Q 4.4.[ 4.r.r.i.t.i.i.r.u.i.e.i.r.i.:.;.:.e.:.e.;.e.e.-.e.:.e.e.e.r.r.r.r.r.e.r.e.e.r.r.r.e.r.r.e.;.r.;.e.;.r.:.-.;.;.e.;.;.:.r.;.;.r.:.;.e.;.r.-.;.;.:.-.e.;.:.;.:.e.r.;.:.w.;.:.;.;.;.:.;.;.;.;.-.;.:.;.:.-.;.:.e.;.;.:.:.;.e.;.e.e.e.:.;.e.:.e.;.:.:.-.:.-.;.-.;.-.-.-.:.;.;.-.-.-.:.:.-.-.:.-.;.-.;.-.:.e.;.;.;.-.;.-.:.-.;.;.;.-.;.-.;.-.:.;.;.;.:.:.;.e.w.-.e.-.r.-.w.-.-.;.;.;.;.;.;.e.-.-.e.:.e.e.e.w.-.w.-.o.e.;.;.;.o.e.;.,.%.;.;.o.e.;.u.e.r.e.e.e.u.;.;.r.;.e.r.e.e.r.,.e.;.e.;.i.;.e.,.e.;.u.e.e.;.i.;.;.<.;.u.e.;.i.u.;.:.e.;.i.u.;.;.e.;.e.;.e.e.;.,.e.e.e.,.e.e.,.i.i.e.<.,.;.i.r.,.i.;.i.e.u.e.X.! Q Q Q Q Q Q :.Q Q Q Q Q O.T.N.6.7.N.b.6.N.7.v.N.N.7.6.A.O.;.e.w.;.;.w.:.e.e.e.;.e.;.;.i.n.g.n.n.n.n.n.n.n.g.n.n.g.g.F.e.e.e.r.r.r.r.w.r.-.w.r.-.e.e.r.e.;.e.;.e.e.e.;.w.e.;.e.e.;.y._ O < ; < < < < < < < < < 5 2 & uX9X9X9XwX0X9X0X0X9X9X0XrXrX9XrXiXrXiXuXuXuXrXiXuXiXuXuXuXuXaX$ > & * - > < 5 5 5 5 5 5 5 - 8 _.Q X.X.$.! Q $.Q $.Q Q $.$.e.e.w.w.e.w.w.w.:.:.Q :.-.:.-.-.r.r.i.r.i.e.i.r.:.r.:.r.r.:.;.!.X - < < < 5 5 5 < < 5 5 < 5 5 H rX9X9X9XdX9XrXrXrXdX9XrXrXyXrX9XrXrXrXrXrXrXrXdXrXrXrXrXrXyX9X                                                  ",
"                                                    W.$XoXXX%X#XXX#XoXoX.X.XXX.XXX XJ.A.Z.M.Z.b.N.N.N.N.Z.N.b.Z.T.4.Q Q Q [ Q Q Q Q Q Q [ 4.Q Q [ 4.4.4.u.t.r.i.u.e.i.t.t.u.u.i.e.e.e.:.:.e.:.e.e.:.:.;.:.;.:.:.;.r.e.r.r.i.r.e.r.i.e.r.i.r.e.r.:.:.:.-.:.-.:.r.:.e.;.;.:.-.-.;.;.e.-.e.;.;.;.;.;.e.;.;.;.e.e.;.;.;.;.;.;.;.;.;.;.;.;.-.;.;.-.:.;.;.;.;.;.;.;.;.;.;.-.;.;.;.;.;.:.;.e.-.e.;.;.;.e.:.-.-.-.;.-.;.-.-.:.-.;.-.-.:.r.-.-.-.-.:.-.-.;.;.;.;.;.-.;.-.;.:.e.:.;.e.;.;.;.;.;.;.;.;.;.-.-.;.w.;.-.r.:.e.;.e.-.;.;.:.;.-.-.;.-.o.;.-.;.;.;.-.-.e.e.w.e.;.e.;.;.w.;.e.u.o.o.e.e.o.;.o.;.u.e.;.u.e.<.e.e.r.e.;.u.;.e.,.e.,.e.;.r.e.e.e.e.e.e.:.e.e.;.<.;.;.<.;.e.;.r.;.e.;.;.;.e.e.;.e.;.e.i.;.i.;.e.,.,.e.e.;.;.e.e.;.;.;.e.<.r.u.i.e.;.i.:.r.:.,.i.r.r.! Q Q Q Q Q Q Q Q Q Q Q Q ! O.K.N.N.6.7.7.N.N.N.7.v.7.N.N.K.O.o.;.;.-.-.;.r.-.-.e.e.e.-.;.p.n.n.n.n.g.n.n.n.n.n.n.n.n.n.n.,.;.e.r.w.r.e.r.e.r.e.e.e.r.-.-.e.e.;.e.-.;.;.e.e.;.;.r.;.e.t.' o < 5 ; < < < < 5 < < < 2 5 & iX9X9X9X0X9X9XtX9X9X9XrX9X9X9XrXiXuXrXuXiXiXiXuXuXrXiXuXiXyXaX$ < > > > > * 5 * 5 5 5 * 5 % 7 k.Q ! X.$.X.$.Q Q $.$.Q &.! e.-.-.e.r.w.r.w.[ :.Q :.w.:.:.-.r.r.r.r.t.i.i.u.r.i.r.r.i.r.-.&.8 & < > < 5 5 < 5 , < 5 5 * > G rXrX9XyX9XrX9XdXrX9XyX9X9XdX9XdX9X9XdXyXdXrXrXyXrXdXrXrXrXyXyX                                                  ",
"                                                    W.%XoX#X.XoXXXoX#XXXXX.XoXXX.X XG.A.Z.M.Z.m.Z.m.N.m.b.N.N.Z.T.4.Q Q Q :.Q Q Q Q 4.Q Q Q Q Q Q Q [ 4.t.i.t.i.u.i.u.r.e.i.e.u.:.:.:.;.:.;.:.;.:.;.:.;.;.:.:.:.:.;.;.r.e.r.e.r.e.r.r.r.r.e.e.r.;.:.;.:.:.;.-.;.;.-.;.-.e.r.;.e.r.;.:.-.;.;.;.;.;.;.;.;.;.e.;.-.e.;.w.;.:.;.:.;.r.-.e.;.;.r.;.;.w.:.-.:.;.;.;.;.-.;.;.;.;.e.:.;.;.;.;.:.e.-.e.;.:.e.;.-.;.;.;.-.:.-.-.-.:.-.;.-.-.r.-.-.-.:.-.:.;.;.;.;.;.:.;.;.e.;.;.-.;.;.:.-.;.-.;.;.;.e.;.;.:.e.e.;.;.-.r.;.r.-.-.e.-.r.-.r.e.-.;.;.e.:.-.;.;.;.-.e.;.o.;.e.-.;.;.;.e.o.o.;.e.o.o.,.o.u.;.e.,.r.e.:.;.u.u.r.e.u.e.r.r.r.;.e.;.e.e.,.;.e.,.e.e.;.u.:.e.<.,.r.;.;.e.,.;.e.;.;.;.;.e.,.e.;.;.e.;.e.,.e.e.o.e.;.,.%.;.e.;.e.;.e.i.r.i.;.<.i.u.;.<.<.;.i.i.;.:.! >.Q Q Q Q Q Q Q Q Q Q Q Q O.L.N.7.6.N.N.N.N.N.N.N.v.8.v.L.O.;.-.-.r.-.;.-.r.e.:.;.e.-.;.i.n.n.n.n.g.n.c.n.n.n.n.n.n.z.n.,.;.e.r.r.e.r.e.r.r.w.r.e.;.w.:.-.e.e.-.-.;.e.-.;.;.;.y.e.w.t._ o < < ; 5 < - 5 < < < < 0 < & iXwX9X9XwX9XrXrX9X0XtXrXrX9XrXrXiXiXiXuXrXuXiXuXiXuXuXuXuXuXaX6 5 * > - > < 5 < * 5 * 5 5 ; 8 j.Q $.$.X.X.Q Q $.Q X.$.X.X.-.e.w.e.w.;.-.e.:.-.:.[ e.w.;.-.r.r.r.r.r.r.y.i.u.r.i.<.r.:.w.!.O - < > 5 5 < 5 < 5 < 5 5 5 * S uXdX9XrX9X9XyX9XdX9XyXrXrXdX9XrXrXyXrXrXrXrXrXrXuXdXuXyXrXyXiXGX                                                ",
"                                                    ^.%XoXoXoXXXXX#XoXXXoXXXXX.X.XoXJ.Z.N.Z.N.N.b.N.Z.Z.Z.N.N.Z.b.h.Q h.Q Q >.-.Q Q Q Q Q Q Q Q Q h.h.:.i.r.r.r.r.t.r.r.i.t.i.i.;.;.:.:.:.:.>.;.;.:.;.:.e.e.e.e.e.r.r.r.r.r.r.e.r.e.;.r.e.r.r.r.r.w.:.;.e.;.;.r.e.;.:.e.;.-.;.r.r.-.;.:.w.e.r.-.w.:.w.r.r.-.e.r.-.r.:.:.;.-.e.;.;.e.;.:.-.r.;.;.:.;.;.e.e.-.e.;.;.;.;.;.;.-.;.;.;.e.;.;.:.;.;.;.e.:.-.;.;.;.-.;.;.-.:.:.-.-.:.;.-.-.:.;.:.-.r.-.:.w.e.-.e.e.e.;.;.e.e.e.-.e.e.-.-.:.e.-.;.-.-.e.-.r.-.;.r.r.r.w.e.e.;.w.-.:.;.e.;.;.w.o.e.-.;.e.-.e.-.;.;.e.-.;.o.e.-.o.;.;.e.;.;.e.o.e.e.;.;.;.e.;.u.e.e.e.;.;.r.e.,.e.e.u.e.i.,.e.e.;.e.,.e.;.;.e.;.e.;.;.;.;.<.;.;.e.e.,.e.e.e.e.;.e.;.u.u.;.e.;.e.;.u.u.;.e.e.;.e.,.u.;.;.u.e.r.u.i.e.i.:.i.i.;.<.;.<.;.:.! Q Q Q Q Q Q Q Q Q Q Q Q Q ! K.b.6.B.N.N.v.7.b.B.7.7.7.7.T.O.;.w.;.w.;.;.e.-.-.;.;.;.e.;.i.n.n.n.c.n.n.n.n.n.M.n.n.z.n.F.,.;.r.e.:.w.r.r.e.r.r.w.:.w.:.w.;.e.e.-.e.;.e.e.e.e.;.r.e.r.k._ O ; 5 < 0 2 5 < 5 < < < > - & iXwX9X9X0XrX0X9X9X0X9XrX9XrXwXrXiXuXuXuXiXuXrXuXiXuXiXuXuXiXaXo 5 * 5 > 5 * 5 5 > 5 5 5 5 : r *.X.X.X.X.$.Q $.$.Q X.! X.X.w.e.-.-.-.-.;.-.-.-.:.:.-.-.e.e.r.r.e.r.r.i.r.r.r.i.r.r.r.r.r.*.8 > < < 2 5 5 < < 5 5 < 5 5 > H uX9X9X9XrXdXyXrXyXrX9X9XyXyXrX9X9XdXrX9XdXyXrXrXyXrXrXrXdXyXyXGX                                                ",
"                                                    ^.$X#XoX#XoXXXoX#XXX.XXX.XXX.X XU.Z.N.m.N.N.b.Z.b.b.N.A.b.T.T.4.Q Q Q -.-.-.4.Q Q Q Q Q Q 4.Q 4.r.i.y.i.r.r.r.r.r.r.y.i.r.r.r.r.;.e.e.e.e.u.e.e.r.u.:.r.:.e.r.r.e.e.r.r.r.r.r.i.;.r.r.r.e.r.r.;.:.;.;.w.:.e.e.;.;.;.e.;.;.;.;.;.;.;.w.:.w.r.w.:.:.:.-.:.w.:.w.r.-.r.r.-.r.-.e.-.r.r.-.r.e.e.;.e.-.e.;.;.;.;.;.-.;.-.;.;.;.;.e.:.;.;.;.;.;.e.;.e.-.;.;.-.e.;.w.:.;.;.:.Q :.-.-.-.;.;.;.;.;.e.-.-.r.w.;.e.-.e.e.e.;.w.-.e.e.e.e.-.e.-.-.-.e.-.-.e.e.e.e.e.e.e.w.-.e.e.w.e.e.-.w.;.;.w.;.;.e.-.;.e.-.e.;.;.;.-.e.;.;.;.;.;.;.+.,.o.;.,.>.;.;.;.;.;.r.u.;.u.;.e.e.i.;.u.e.;.;.i.e.e.;.e.;.r.;.e.e.;.;.r.u.;.;.;.,.;.;.;.;.e.e.e.;.r.;.e.e.e.,.e.;.e.;.u.%.;.e.e.;.e.,.e.e.;.;.u.i.u.r.u.r.r.r.e.;.<.e.<.r.e.e.! Q Q Q Q Q Q Q -.Q Q Q Q Q Q T.8.8.b.N.N.B.6.B.b.N.7.7.V.D.O.-.-.;.-.;.-.e.-.-.;.-.-.e.-.h.F.n.g.n.n.n.n.n.M.n.n.n.n.n.F.i.e.e.e.e.e.r.e.r.w.r.w.w.:.w.:.w.:.w.-.;.;.o.e.e.;.e.r.e.e.t._ O < < ; 5 5 < < 5 < 5 < 5 5 & iXwXwX9XwX9X9X9X9X9XrX9XrXrX9XrXuXrXiXuXuXiXuXuXiXuXiXuXuXiXaX$ < * < * < * < * < 5 5 5 5 - q y.Q X.X.O.! X.X.X.X.X.Q X.X.w.-.-.-.w.w.w.w.-.-.w.;.;.-.;.-.e.r.t.i.e.i.r.r.i.r.h.r.h.i.:.&.X 5 5 5 5 5 < 5 5 , ; < < * * S uX9X9X9XyXrXdXyXrXrXrXdXdXyXrXdXrXdX9XrXdXrXyXrXrXdXyXyXrXyX0X                                                  ",
"                                                    ^.2XoXoXXXoXXXXXXXoXXX.XXX.X.X XI.Z.A.M.M.N.Z.m.Z.Z.M.b.Z.b.T.h.Q Q Q -.w.[ Q [ [ Q Q 4.[ Q [ h.r.:.r.:.u.i.e.a.i.r.u.u.r.i.r.e.a.e.e.;.e.e.;.e.e.e.e.e.r.e.e.i.r.:.:.e.:.r.:.e.r.:.:.r.r.r.e.r.e.;.;.:.:.;.:.;.;.:.:.:.e.e.;.r.;.:.r.r.r.r.:.e.;.-.r.e.:.w.r.-.:.-.;.:.-.:.e.:.-.:.;.-.;.;.;.-.;.;.;.e.e.;.e.e.e.;.;.;.;.;.;.-.;.;.>.;.;.e.;.;.e.:.w.;.;.;.-.;.-.;.-.:.-.r.;.e.-.e.;.;.e.e.r.r.:.:.;.;.e.;.;.;.;.;.e.;.;.;.e.e.;.w.e.:.e.;.e.;.;.:.e.e.e.e.r.;.;.;.;.e.;.;.;.-.;.-.;.-.;.-.;.-.;.-.;.-.;.-.;.-.;.;.;.;.;.;.;.;.;.;.;.;.;.;.u.e.;.;.r.;.;.r.e.,.;.e.r.u.e.e.r.;.e.<.e.,.e.<.;.i.e.u.;.:.;.<.;.:.;.r.e.,.e.;.u.;.;.;.;.;.e.;.u.;.e.;.;.u.e.+.e.u.e.e.r.u.e.e.e.r.i.r.r.r.i.r.r.:.:.r.r.r.;.Q Q Q Q >.Q Q Q Q Q Q Q Q ! >.T.T.N.A.Z.N.B.D.N.B.b.B.N.T.T.;.;.e.-.-.w.e.e.;.e.;.e.r.;.;.g.F.F.F.F.n.g.n.g.n.n.g.n.n.n.M.<.;.:.e.e.e.e.r.r.r.;.r.:.w.r.-.:.w.:.e.e.e.e.e.e.;.e.w.e.e.j.' o < 5 < < < 5 < > 0 < < 5 5 & iXwXwXwX0X9X9X9X9X9X9X9X9XwX9XuXiXiXuXiXiXuXiXiXrXuXiXiXuXuXaX$ * * < 5 5 < * < * > 5 5 < - g k.w.$.$.&.$.&.X.$.&.&.$.X.X.e.e.y.y.r.y.r.r.y.r.t.e.e.;.y.r.t.k.&.t.g.j.F.k.y.t.h.k.a.a.k.!.X 0 < 5 - < 5 5 < 5 5 < < * * G rXrX9XdX9X9X9X9X9X9XdXyX9XrX9X9XrXyXdXrXrX9XdX9XrXuXrXdX9XuX9X                                                  ",
"                                                    W.=XoX.X#XoX.X.XoX#X.XoXXXXXoX XU.m.M.A.Z.M.A.A.A.A.A.M.M.b.T.h.Q >.-.-.-.-.4.Q Q [ Q [ Q [ Q :.:.:.:.r.u.e.,.u.u.u.e.e.;.e.u.;.;.;.;.o.;.e.,.;.e.;.e.i.:.i.:.;.e.r.;.:.r.e.;.:.;.;.e.r.:.r.:.;.;.:.:.:.;.:.;.;.;.;.:.:.e.e.r.r.;.;.r.w.;.-.-.;.[ :.:.-.-.;.Q :.:.w.;.;.-.:.;.-.;.w.;.-.r.-.-.-.;.-.;.-.;.-.-.;.-.-.O.-.O.X.O.X.O.-.;.;.o.o.o.-.-.;.-.;.-.:.-.:.-.-.-.e.:.;.-.;.;.-.-.-.-.o.;.-.-.-.-.-.;.;.;.;.-.-.o.-.;.-.;.;.-.o.o.-.;.;.-.o.;.-.;.-.-.;.-.-.;.;.r.:.r.r.i.a.e.;.;.;.;.:.:.:.e.e.r.r.r.e.e.e.e.e.;.;.u.;.,.;.<.;.,.;.r.u.e.r.r.e.r.e.u.e.;.e.e.e.;.;.,.e.i.;.;.,.<.;.;.<.,.;.;.e.;.;.,.;.;.;.;.;.,.e.e.;.e.,.;.;.;.u.e.;.;.;.;.e.;.u.e.u.e.;.u.;.e.i.;.u.u.e.r.r.e.r.r.r.;.r.;.r.e.r.;.e.4.Q :.[ :.:.:.[ 4.h.Q :.3.:.4.4.5.4.p.2.2.2.2.2.2.2.2.2.p.;.;.-.e.r.;.r.r.r.r.;.e.r.r.;.i.p.h.i.<.:.<.h.<.2.i.2.<.h.p.a.;.;.e.e.-.e.r.-.-.e.;.e.e.-.w.;.w.:.-.e.;.e.e.;.;.;.;.r.e.e.y._ O : 5 < < < < < > 0 > 5 5 5 $ aX0X8XyXwXrXrX0X9XrX9X9X9XwX9XwXuXuXuXuXuXuXuXrXuXuXuXuXuXuXaX$ * * 5 * 5 * > > > > > 5 5 : r k.! ! X.X.! ! ' O.~ ! ! ' ! X.Q ' ' ' Q Q ' Q $.Q &.' Q ! ' g _ ^ _ _  ._ _ _ ' } _ '  ._ } O 0 5 < < - < < < < < < < < * G rXdX9X9X9XrX9XrXdX9X9XrXrXrX9XyXdXrX9XyXyXyX9XdXuXrXrXrX9XuX8X                                                  ",
"                                                  GXW.2XXXoXoXoX.XoXXXoX.X.XoXXXoX Xs.1.p.2.2.p.i.p.s.p.s.f.4.4.4.4.M.b.F.F.M.F.4.b.b.M.b.M.b.h.b.M.f.M.n.n.n.n.n.g.n.g.n.n.n.n.n.n.M.F.m.F.G.M.M.G.M.F.F.F.F.M.g.2.s.h.h.a.h.i.h.h.a.h.i.h.i.h.p.f.h.p.f.h.h.h.f.f.h.f.h.i.F.F.H.F.F.g.h.F.F.F.F.F.F.F.F.F.F.F.F.F.F.F.F.F.F.F.F.F.F.F.F.F.F.F.F.F.F.F.F.F.n.F.F.F.M.n.F.F.F.F.F.F.F.F.n.n.n.n.n.F.F.n.F.F.F.g.F.n.F.F.F.F.g.F.F.n.n.F.F.F.F.F.n.F.F.F.F.F.n.g.n.g.n.n.F.n.n.n.n.n.F.H.n.F.n.n.H.F.n.F.g.n.F.F.g.F.F.g.g.g.g.F.F.h.:.:.r.:.e.:.e.:.:.e.r.r.e.r.e.e.i.,.e.,.;.,.,.;.;.<.:.,.:.e.r.u.;.u.e.,.e.r.i.e.;.,.e.;.e.e.;.e.;.;.;.;.;.;.;.;.r.;.u.;.:.;.;.,.;.r.;.e.e.;.;.;.;.e.;.;.;.e.;.;.e.,.e.%.e.e.u.e.e.u.e.;.;.e.e.r.e.;.e.e.;.;.:.;.r.;.e.;.;.:.>.:.:.:.:.:.:.:.h.Q h.:.>.:.:.:.:.:.:.:.e.r.<.e.r.r.>.3.,.r.-.:.r.-.e.w.e.-.e.;.e.-.r.;.:.i.r.i.r.i.i.:.i.<.r.<.<.:.<.i.;.;.w.-.e.;.-.e.;.-.-.;.-.;.-.e.;.e.e.;.e.-.;.e.e.;.e.w.e.e.t._ o < 5 5 5 < 5 5 5 5 5 5 5 < 6 iXwXwX0XyXtX0X0XtX0XrX0XrX9X9XuXuXuXuXuXuXuXuXrXuXuXyXuXuXyXaX$ * * 5 * 5 > & - > & - 5 - ; q ' E E E E E E E E E E E E E E E E E ~ E E E ] E E ~ E E E _ 8 9 * o - 9 7 : : - 9 9 1 9 9 9 5 5 5 < 2 2 < 2 1 < 2 2 2 < < S rXyX9X9X9X9X9XdXrX9XyX9XdXyXrX9X9X9X9XyXyXrX9XyXdXyXrXdX9XuX9X                                                  ",
"                                                    W.2X.X.X.XoX.X.X.XXXoXXX XXXXXXXk.h.s.s.f.g.g.g.s.g.s.g.s.s.p.c.M.M.n.M.M.m.m.M.M.M.M.M.H.H.M.M.G.F.G.F.m.F.G.F.F.m.n.G.n.F.F.A.M.M.G.M.G.m.G.m.m.M.m.m.G.H.g.a.h.a.p.h.h.p.p.a.h.h.h.a.h.h.h.a.h.2.f.h.f.p.p.h.4.h.4.p.F.M.F.f.F.F.h.F.F.M.h.F.M.M.F.F.M.h.F.n.n.n.F.F.F.n.n.F.F.n.n.n.n.F.F.F.n.F.F.n.F.M.n.F.F.m.F.F.F.F.F.F.F.G.M.F.F.n.F.F.M.F.F.F.F.n.G.n.m.n.m.n.n.G.G.G.n.F.n.n.G.n.G.n.n.G.n.G.m.n.n.M.F.m.n.n.n.n.n.n.n.n.m.n.n.n.n.n.n.n.z.n.z.n.g.g.g.g.g.g.f.g.n.g.;.;.r.:.:.r.r.;.r.:.:.i.:.r.r.;.;.:.:.:.,.:.,.<.:.,.;.;.;.,.;.i.e.<.e.,.r.;.<.e.;.i.e.;.;.;.i.u.;.:.;.,.;.;.;.,.r.;.u.;.e.,.e.:.;.e.,.e.e.;.;.,.e.e.:.;.;.;.;.;.e.u.o.e.;.u.u.e.e.u.e.e.;.e.;.e.;.e.-.r.:.e.e.r.-.r.-.r.;.;.;.e.e.;.e.;.;.e.e.;.e.:.e.r.r.r.r.:.e.r.:.r.:.e.;.<.;.;.<.e.;.e.;.e.;.:.:.r.e.;.e.:.;.;.r.i.h.:.[ 4.4.4.h.Q Q 4.4.4.4.[ :.Q h.Q :.Q :.[ :.-.r.-.e.w.-.e.:.e.;.r.r.e.:.w.e.e.-.e.r.e.a._ O ; 5 ; < < ; 5 < < 5 < ; ; 6 sX0X0X9X9X0X0X0X0X0X9X9X9XrX0XrXrXiXuXuXuXuXuXuXuXrXrXrXuXuXaX$ * * * 5 * * 5 * 5 * , > * ; y ' E E E E E E E E E _ E E E E E E E E E E _ E ^ E E E E R _ 8 < 2 < 4 2 2 < 2 < 2 2 2 3 1 2 2 < < < < < < 2 < < < 1 5 < < H 9X9XyX9XrX9X9XrXyX9XrX9XrX9X9XrX9X9X9XrX9XdX9XrXyXdX9XdXyXrX0XGX                                                ",
"                                                    ^.$XoXoX.XoXoXoX.X:XoXoX>X`.oX].g.f.f.g.s.s.g.s.f.s.g.s.g.s.s.c.n.M.n.M.M.G.m.G.G.G.G.G.G.M.G.G.M.G.m.m.F.F.n.m.n.n.m.n.m.m.n.G.H.G.M.F.A.G.m.m.G.m.M.m.G.H.f.a.f.a.a.p.i.i.i.h.a.s.g.h.a.g.h.f.f.h.h.f.4.h.f.h.p.h.h.i.n.F.F.F.f.M.M.F.F.F.F.F.h.F.F.F.F.F.g.F.F.n.n.n.n.F.n.n.n.n.F.F.n.n.n.n.G.n.n.F.F.n.F.n.F.F.F.m.F.G.F.M.F.F.H.M.n.F.F.F.n.F.F.n.n.F.n.n.n.G.n.n.n.n.n.n.n.m.n.G.n.n.n.G.G.n.n.z.n.n.n.n.G.n.n.n.m.n.n.m.n.m.n.n.n.m.n.n.G.n.n.n.z.n.n.n.n.g.g.F.F.g.F.g.<.i.:.r.e.:.:.r.:.e.:.;.r.e.:.:.<.:.>.:.:.:.:.;.:.;.<.<.:.;.;.;.:.u.:.;.<.;.;.;.<.;.e.u.i.e.e.e.u.;.r.;.:.e.:.e.;.e.;.e.e.r.;.u.e.;.;.e.e.;.;.;.e.;.e.e.e.;.;.e.o.u.u.e.+.e.e.u.u.o.u.o.u.;.r.;.r.r.r.;.e.;.r.;.r.;.r.e.:.-.:.-.:.;.:.;.i.e.:.e.:.e.r.r.e.;.e.r.r.:.r.:.r.:.r.<.<.r.i.;.;.;.;.;.e.;.-.e.;.r.:.w.;.r.r.y.:.h.4.4.4.Q h.4.4.4.[ 4.4.4.h.Q Q h.Q h.:.Q -.:.-.r.e.-.-.e.e.-.e.:.w.r.-.r.e.e.e.e.e.r.k._ - < < ; < < < < * < < < ; ; . iX9XtX0X9X0X0XtX0X9X9X9X9X0X9XrXrXuXrXuXuXuXuXrXuXrXrXrXtXiXaX$ - * 5 * 5 * * 5 * ; * * ; : y _ E ' E E E E E E E ~ E E E E E E E E E E E E E E E E E E E X 2 2 < 4 4 4 1 < 2 2 2 4 2 2 2 5 < < < 0 < < < 2 < < 2 < < j H 9XdX9XdXrX9X9X9X9X9XrX9X9X9X9X9X9XrX9XrX9XrX9X9XrXrXrXrXyXrXuXGX                                                ",
"                                                    ^.$XoX.X.XoXoXXXoXXXXXoXXXXXoXXXn.s.g.s.p.s.a.s.g.g.g.s.s.f.s.n.m.M.m.M.M.M.M.G.M.H.G.M.F.m.M.G.M.G.G.n.F.m.m.n.m.F.n.n.n.m.n.n.G.G.G.M.M.G.G.m.G.m.n.m.M.J.g.a.h.p.p.i.a.p.p.a.a.f.a.h.a.a.a.f.p.p.p.4.h.2.4.p.2.h.f.p.g.F.M.F.F.F.F.F.M.F.F.F.F.F.F.F.F.F.F.n.n.F.n.F.g.n.F.g.n.F.n.F.n.F.F.M.F.F.F.M.F.F.F.F.F.F.F.G.F.F.G.F.F.F.F.F.n.F.F.F.n.n.F.F.G.M.n.m.n.m.m.n.m.F.n.G.n.G.n.n.n.U.n.n.G.G.n.n.n.m.F.m.m.n.m.n.n.n.n.n.n.m.m.n.n.n.n.n.U.n.n.n.F.n.n.g.g.g.g.M.g.g.g.g.>.;.e.<.;.r.r.:.i.:.e.:.r.:.:.:.<.<.i.<.<.:.;.<.;.:.>.<.;.i.<.;.,.;.e.<.;.u.,.r.;.i.r.:.e.;.e.e.;.;.,.:.,.;.;.;.e.e.e.e.e.u.e.;.e.;.e.e.;.e.u.;.e.;.r.;.r.;.u.;.,.e.u.e.e.e.e.%.e.e.u.e.,.e.;.e.r.-.e.:.e.r.;.r.;.r.e.;.;.e.;.e.e.;.e.;.u.;.e.e.;.e.;.;.e.r.e.r.r.r.e.r.r.r.i.;.i.e.,.;.;.;.e.-.;.;.;.;.-.r.e.w.:.-.r.i.h.:.4.Q 4.4.h.4.Q [ [ 4.Q 4.Q h.Q h.h.:.[ :.r.w.r.w.e.e.-.e.e.;.;.e.r.e.;.w.w.e.e.e.e.:.t._ O < 5 5 < 5 < < < < < < , , o sX0X9X0X0X9X0X9X9X9X0X9X0X9X9XuXrXuXuXuXuXuXuXuXuXiXrXrXrXrXaXo * * 5 5 * * 5 5 * * * * * < q ` E E E E E E E _ E E ~ E E E E E E E E E E E E E E R E E _ 8 < 2 2 4 < 2 2 4 4 2 1 4 4 4 2 2 5 < < - < < 2 < < 2 1 2 < > S rXrXrX9XdX9XrXdX9X9X9X9X9XrXrX9X9X9XrX9XdX9XrXdXdX9XrX9XdXrXuXx                                                 ",
"                                                    ^.2XoXoXoXoX#XoXoXoXoXXXXXoXoX Xs.g.f.s.f.f.f.f.s.f.g.g.s.s.s.n.m.M.M.m.m.n.M.n.M.M.M.G.G.M.M.G.G.M.m.G.m.m.m.G.n.n.m.G.n.G.M.m.G.M.G.H.m.G.G.G.M.G.M.G.F.H.g.i.a.a.p.i.p.a.a.a.f.a.a.g.a.g.h.f.h.h.h.h.f.h.h.f.h.h.2.<.g.F.F.F.f.M.F.h.M.F.F.F.F.F.F.F.M.h.n.F.n.F.n.n.F.n.F.F.n.F.n.n.n.F.F.F.n.F.F.F.F.G.m.F.F.F.M.F.F.F.M.F.F.H.M.F.F.n.F.n.F.F.n.n.F.F.F.m.G.n.n.n.n.n.n.n.n.n.n.G.n.n.n.G.n.n.m.F.m.n.m.n.n.G.n.m.m.F.m.m.F.n.n.m.n.m.n.n.n.n.n.n.n.n.g.n.n.F.n.g.F.f.g.a.;.;.:.r.r.:.<.e.;.r.:.r.:.r.r.;.>.:.:.:.;.<.;.:.:.,.:.:.:.,.;.i.;.:.:.;.;.:.;.<.;.;.e.u.e.u.u.i.;.:.;.e.:.;.<.e.e.,.;.r.;.;.r.e.,.e.,.e.e.,.e.;.;.r.;.e.;.u.;.e.e.e.%.e.u.e.u.e.u.e.e.e.e.;.e.:.;.r.;.e.;.r.e.;.e.;.r.r.:.;.-.;.:.;.;.e.;.e.e.;.;.r.e.r.r.e.r.r.r.r.r.r.r.;.r.;.e.<.e.e.;.e.:.e.:.;.;.r.;.;.;.:.;.;.r.:.h.:.4.4.[ Q [ 4.4.4.4.4.[ 4.h.Q h.Q Q :.:.:.-.w.:.w.e.e.-.;.;.e.r.;.w.:.r.w.e.e.;.e.e.e.k._ O ; 5 5 5 < * < < < ; < ; < 6 iX0XrX9X9X9X9X9X9X9XtX0XrX9XrXrXuXiXrXuXuXuXuXuXuXrXrXrXrXiXsX& * * * 5 * 5 * * * * > * 5 ; q _ E E E E ~ E E ~ E E _ E E E E E E E E E E E E E R E E ] _ 8 2 4 3 4 4 2 2 2 4 2 3 4 4 4 2 2 5 < < < < < - < < < < < 2 < S uX9X9XdX9X9XrXyXrXrX9XrXrX9X9X9XrX9X9XrXrX9XrX9XyXyXrXdX9XuXiXGX                                                ",
"                                                    ^.=XoXoX.XoX#XoXoXXXoX.X.XoXoXoXj.c.g.h.s.s.s.c.f.s.f.g.f.s.p.f.G.n.M.M.G.M.M.m.M.G.G.F.G.G.G.M.H.G.M.H.G.G.M.n.m.G.F.m.n.F.F.n.G.M.M.G.G.m.G.m.G.G.M.G.G.G.g.i.a.p.h.i.i.p.p.h.g.a.a.h.g.a.h.p.p.4.f.h.2.h.h.p.h.p.h.4.F.F.F.F.f.M.F.F.F.F.F.M.F.M.F.M.M.F.F.n.n.g.n.n.n.F.n.n.n.F.n.M.n.F.n.M.F.F.F.n.M.F.F.F.M.F.F.M.F.M.F.G.M.F.F.F.n.F.F.F.n.F.F.F.n.M.m.n.G.n.n.n.G.z.n.n.G.n.n.n.n.n.m.n.n.n.n.m.z.m.n.m.F.m.n.m.m.n.n.G.n.m.n.n.m.z.n.n.n.n.n.U.n.F.F.F.g.g.g.g.g.g.g.g.;.;.:.r.:.r.r.;.r.:.e.:.r.;.:.;.<.:.<.;.<.:.<.<.;.3.;.<.;.;.e.r.i.;.;.;.;.<.,.:.;.;.i.e.u.e.;.r.:.;.;.:.;.i.,.e.;.u.,.;.i.;.e.;.e.;.;.e.,.e.;.;.;.e.:.e.e.;.e.e.e.e.e.%.u.e.e.e.,.+.u.e.e.e.;.e.r.e.;.e.r.;.r.:.e.r.r.e.;.;.;.-.e.:.e.;.e.;.;.e.;.i.r.r.r.r.e.y.r.r.r.r.e.r.r.e.e.t.i.;.;.;.;.;.;.e.;.;.e.;.;.e.;.;.r.r.h.:.4.4.4.4.:.:.:.h.4.Q 4.4.Q Q [ :.e.-.-.e.r.w.e.-.w.-.-.;.e.;.e.e.r.e.r.w.e.e.e.e.r.;.t.E - : 5 5 < < 5 5 < < < < < < . sXwX0X9X0X9X9X0X9X0X9X9X9XrX9XrXrXuXuXuXuXuXuXuXuXrXrXiXrXrXiX= ; * 5 * 5 * * * > * 5 * 5 - q ` E E E E E E ~ E E E E E E E E E E R E E R E R E E R g E _ q 4 2 4 4 4 2 2 2 2 4 4 4 4 4 < < < < < < < < 0 < < 2 < < 2 * H uX9XrX9XdX9XdXyXrX9XrXdXrXrX9XrXdX9X9XrX9XdXrX9X9XrXdXrXrXrXiXGX                                                ",
"                                                  GX/.$XoXoXoXoXoX#X:XXXoX.XoX.XoXXXg.h.g.s.f.f.s.s.f.f.g.s.c.s.s.c.m.G.m.n.m.n.m.M.M.G.M.G.m.M.G.M.M.M.M.H.G.M.F.G.n.M.m.F.n.m.n.m.M.G.G.A.G.G.G.G.G.G.H.H.G.H.g.p.h.s.p.p.a.a.a.a.a.a.a.s.a.a.f.h.h.h.2.h.4.h.4.h.4.h.h.h.f.F.F.M.F.F.F.F.F.F.F.F.h.F.F.h.F.F.n.F.n.n.g.n.n.n.n.F.F.n.F.n.n.F.F.F.F.F.F.F.F.F.F.F.G.F.F.G.F.F.F.F.F.F.F.F.M.F.n.n.F.F.n.F.F.F.G.n.n.m.n.n.m.n.n.n.n.n.n.G.G.n.n.n.U.n.n.n.n.n.n.m.G.n.G.n.n.G.m.n.G.n.m.n.n.n.n.F.U.n.n.n.n.n.n.n.F.g.F.n.n.n.n.h.;.;.r.;.e.<.:.r.:.r.:.r.:.r.r.:.<.;.:.:.:.:.;.<.:.:.<.;.<.:.<.,.;.<.,.r.,.e.e.<.e.<.e.;.r.e.u.e.u.;.u.;.:.;.:.;.r.e.e.e.e.;.i.;.,.e.;.;.e.e.;.;.r.;.e.;.;.e.;.e.+.,.,.e.e.u.u.%.e.e.e.e.,.;.e.r.:.r.r.;.-.r.;.e.;.e.e.:.;.-.;.;.:.;.;.:.;.r.r.;.;.e.w.:.w.r.e.r.r.r.r.e.e.r.:.e.e.r.e.e.;.;.e.;.:.e.;.;.;.;.r.-.:.;.e.i.:.:.[ 4.[ 4.:.h.:.:.4.4.[ 4.[ 4.4.Q e.w.e.e.w.e.-.e.e.e.-.e.-.;.:.;.w.:.w.;.e.e.e.e.e.w.&._ : < 5 < < < < < < < < < < 2 $ iX0X9XtX0XtX0X9X9X9X9X9X9X9X9XrXrXuXuXuXuXuXrXuXuXuXrXrXrXrXiX* < < * 5 * > * 5 * * * > * 0 a _ E E E E _ E _ E E E E E E R E E g E E E E E E E R E E E E q k 2 j 2 4 2 2 2 2 1 4 4 4 2 2 < < < < < < < < ; 2 < < < < 2 S uX9XyX9X9XrX9XyXrX9X9X9X9X9XrX9XrX9XrXdXrX9XrX9XyXrXyX9X9XrX0XGX                                                ",
"                                                  GX^.%XoXoXoXoX.XoXoX#X.XoXoXoXoX Xk.g.f.s.f.s.f.f.f.s.s.g.s.f.s.n.n.m.m.n.n.m.n.m.F.m.G.M.A.G.G.M.H.G.H.M.H.M.M.m.M.G.n.m.m.n.G.m.J.F.G.G.G.G.G.G.G.G.H.H.G.H.g.a.a.p.a.p.a.p.p.h.a.a.a.a.s.a.a.f.f.p.2.h.2.h.h.p.4.h.4.<.g.M.h.F.F.M.F.M.h.F.F.F.F.F.F.f.F.f.F.g.n.n.F.F.n.F.n.n.n.n.F.n.n.n.F.F.G.F.F.G.M.F.F.F.F.F.M.F.G.F.H.M.F.n.F.F.M.F.M.F.F.n.G.n.F.F.n.G.m.n.m.n.G.n.U.n.n.n.n.G.n.n.n.n.n.m.n.n.m.n.m.G.n.m.n.n.G.n.n.n.G.m.n.n.n.n.n.G.n.F.n.n.n.F.n.n.n.n.F.g.n.g.n.a.>.;.i.:.r.e.e.r.e.r.r.r.r.r.r.:.<.:.;.<.<.;.<.;.:.;.<.<.<.e.e.<.e.;.r.,.;.r.;.;.:.e.;.,.e.<.:.,.e.:.:.;.<.,.;.e.e.;.u.;.e.,.u.;.;.e.;.e.;.;.e.;.e.e.r.e.;.:.e.e.;.%.o.u.;.,.;.u.,.u.e.,.,.e.e.e.e.r.e.r.:.w.r.e.r.r.:.e.r.-.-.;.e.-.;.e.e.;.;.e.e.e.r.w.r.e.e.r.r.r.e.e.r.e.e.t.e.e.e.;.u.;.-.:.;.-.e.;.;.;.;.;.:.:.r.h.h.:.Q 4.:.h.h.:.:.h.Q 4.4.4.4.4.Q h.-.e.e.e.e.e.w.;.e.-.e.-.e.:.;.r.e.e.:.w.e.e.e.e.t.e.t._ O 5 < ; - 5 5 5 ; < < < < < $ iX0X0X0X9X0X0X0XrX9X9X9X9X9XrXuXuXuXuXuXuXuXuXuXuXrXrXiXrXiXiX; 2 < * * * > * > * * 5 > ; - a ` E E E E E E E E E E E E _ E E E E E g E R f E E E E R E E w 0 2 4 2 2 2 2 < 2 2 2 < 4 2 < < < < < < < < < < 2 < < 2 < < H uX9X9XrX9XrXrXrX9X9X9X9XrX9XrXrX9XrX9XrX9XrX9XdX9XrX9X9X9XrX0X                                                  ",
"                                                    ^.%XoXoXoXoXoXoXoXoXoXoXoXoXoX Xg.g.f.a.f.s.f.s.s.g.f.f.g.s.s.n.M.n.G.M.m.G.M.G.M.G.M.F.F.M.G.G.G.G.M.F.J.M.G.G.G.G.G.m.G.G.G.G.H.H.G.G.G.G.G.G.H.H.M.H.J.H.f.p.s.f.a.i.i.p.a.a.g.a.g.a.a.g.h.p.h.p.h.p.p.p.p.p.p.p.h.2.g.F.M.F.F.F.F.M.F.F.h.F.F.F.F.F.F.F.n.F.g.F.n.n.F.g.F.F.n.F.n.n.F.F.F.m.F.F.F.F.H.F.G.F.M.F.F.F.F.F.F.F.F.M.n.M.F.F.n.F.M.F.F.F.n.F.G.n.n.G.n.n.n.F.n.F.G.F.n.G.n.m.n.G.n.n.m.n.F.m.n.n.G.G.n.G.n.G.n.G.n.n.n.G.n.G.n.n.n.n.F.F.n.n.n.n.n.F.M.F.n.n.n.a.;.e.e.r.r.r.i.r.r.r.r.r.r.i.r.<.;.:.:.:.<.:.:.:.,.<.;.<.;.r.<.e.<.;.;.;.<.;.r.,.;.<.;.;.;.:.;.;.;.e.e.;.e.e.e.;.;.r.;.e.;.e.e.;.r.;.u.;.;.;.r.;.;.:.;.;.,.;.e.,.e.e.u.e.,.o.e.,.;.%.e.e.%.e.e.:.r.e.r.;.r.r.;.r.r.;.e.r.e.;.:.;.;.e.;.e.;.e.r.u.;.e.e.:.w.r.;.y.r.e.e.r.e.r.r.r.e.r.e.u.;.e.e.e.e.;.;.e.;.e.;.;.-.-.r.:.:.h.h.:.h.:.h.:.h.:.4.[ Q 4.Q Q h.Q ;.-.;.-.-.-.-.;.e.e.-.-.e.:.;.e.;.e.;.r.e.e.e.e.t.e.*.' O 5 < 5 < < < < < < < < < < $ iXwX0X9X0X9X0X0X0XtX9X0X9XrXrXrXuXuXuXuXuXuXuXuXdXuXrXrXrXrXrX* < 5 5 5 * * ; * 5 * * * 5 - q _ E E E ~ E E E E E E E ~ E E R E E E E E R R R E R E R E R y 0 4 2 2 1 2 2 4 4 4 < 0 < 2 0 2 < < < < < < < < < 2 < < 4 4 S iX9XdX9XyX9X9X9X9XrXuX9X9XrXdXrX9X9X9XrXdX9X9XrX9XdXrXrXdXrX9X                                                  ",
"                                                    ^.%XoX.XoXoXoX.XoX.X.X.XoXoX X Xs.n.f.a.g.s.s.s.f.s.g.h.s.s.s.n.n.n.m.F.m.n.G.M.M.G.G.G.m.M.M.H.H.H.H.H.H.H.G.G.G.G.G.G.G.G.G.G.G.G.G.G.G.G.G.G.G.G.G.G.F.M.s.p.s.i.a.p.d.a.a.s.s.a.a.a.s.a.p.f.h.p.p.h.2.h.2.f.p.p.p.<.g.F.F.f.F.F.F.n.F.F.F.F.F.F.F.F.n.F.n.n.F.n.n.n.F.n.g.F.F.n.n.n.F.n.F.G.F.F.F.M.F.M.F.F.F.M.H.F.M.F.F.F.F.F.M.F.F.F.F.G.M.F.M.n.F.F.F.F.F.n.n.G.n.n.n.n.n.G.G.n.n.G.m.n.n.m.n.n.n.m.G.n.m.G.n.F.n.n.n.n.n.G.n.n.n.n.n.n.n.F.F.n.n.U.F.n.n.G.F.n.G.n.n.a.o.r.e.r.r.e.r.r.e.r.r.e.r.e.r.;.<.:.:.<.:.<.:.,.:.:.;.<.<.,.e.,.;.e.r.;.;.;.<.e.;.<.r.;.;.u.,.;.<.;.;.e.e.;.u.;.;.e.<.e.u.;.e.;.e.;.e.u.;.r.;.e.;.:.e.;.;.;.;.u.;.e.,.o.u.,.e.;.,.%.e.e.;.e.r.e.i.e.r.r.e.r.r.w.r.w.r.e.r.-.-.e.;.e.-.;.e.e.e.e.e.e.r.e.r.w.e.r.r.w.r.r.r.r.y.e.e.r.e.u.;.;.;.e.;.e.e.;.;.;.e.;.;.-.r.r.i.i.:.h.:.:.h.:.:.:.h.h.:.r.;.;.e.$.-.;.o.e.-.e.;.o.w.-.e.e.e.e.e.e.;.;.-.e.e.e.e.r.e.e.&.!.o - < 5 < 5 5 5 2 < < < < < $ iX9X0XrXwX0X9X9X9X9X9X9X9X9X9XtX9XiXrXrXuXuXuXuXuXuXrXrXuXrXiX5 2 5 * * * * 5 * * 5 * 5 * - y _ E E E E E E E E E E E E E E E E E R E E E E R R g E E E E a 2 2 2 2 2 2 2 1 2 4 1 2 4 4 1 < < < < < : < 2 < 2 ; 2 5 < 5 S iXwXyXyX9XyX9XdX9X9X9X9XrX9XdXrX9XrX9XdXrXrX9X9X9XyX9X9XrXyXrX                                                  ",
"                                                    W.@XoXoXOXoX.XoXoXoX.XoX.XoXoX Xj.s.f.a.g.g.g.g.s.g.g.g.f.g.f.n.m.m.G.n.F.m.G.F.G.M.M.F.G.G.G.M.H.J.H.H.F.J.G.G.G.G.G.G.G.G.G.G.G.G.m.J.G.G.K.m.G.G.n.G.F.G.n.s.s.s.i.p.i.a.s.s.k.s.a.g.a.s.p.p.p.p.p.<.p.p.h.i.h.p.p.p.g.F.F.F.F.F.g.F.F.n.F.M.F.F.F.F.F.g.F.g.g.M.F.n.n.F.n.F.n.F.F.n.n.F.F.M.F.n.F.F.F.F.M.n.H.F.F.F.M.F.M.F.M.F.F.F.F.F.F.n.n.F.n.M.n.n.M.n.G.n.n.G.G.n.G.n.G.n.n.n.m.n.n.m.n.G.G.m.G.n.n.m.F.n.n.G.m.n.G.G.n.n.G.n.n.n.n.m.n.n.F.U.H.n.F.F.U.G.F.U.H.G.M.p.;.r.r.r.e.i.r.i.r.r.e.i.r.e.r.:.;.:.:.;.:.>.:.;.>.<.;.:.;.i.<.r.;.<.,.;.<.e.;.<.u.;.,.;.<.;.;.;.e.;.u.i.;.e.:.e.e.;.e.;.;.e.u.;.i.;.;.;.e.;.e.:.e.e.;.r.,.;.e.;.u.%.e.u.e.o.e.u.u.;.u.%.+.e.e.:.;.e.;.r.r.;.e.r.r.r.w.r.;.w.:.e.e.-.r.e.;.e.r.;.e.;.r.e.e.e.e.e.r.r.w.r.w.r.w.:.e.e.e.;.;.;.w.;.e.;.e.o.e.;.;.;.;.;.r.i.:.h.:.h.:.h.:.:.4.[ :.i.<.h.e.-.e.e.;.-.o.-.;.e.;.;.e.e.;.-.e.e.e.;.;.e.e.e.e.;.w.r.e.t.t._ O 5 5 5 < < < 5 5 5 5 5 < < = rXwXwX0X9XrX9X9X9X9X9X9X9X9X9XrXrXuXuXuXuXuXuXuXuXrXrXuXrXrXiX- < * 5 * 5 * 5 5 5 5 * * > o 9 ' E E E ~ E E E E E E E E E E E E E E E R f R E E R E E E E a 4 4 2 2 2 2 2 4 < 4 < 2 < 2 < < < < < < 2 < < 2 ; 2 < 0 5 5 H yXwX8XwX9XdX9XrXdXyXrXdXdXyXyXrX9X9XrX9X9X9X9XrXyX9XyX9XdXrXiX                                                  ",
"                                                    ^.3XoXoX XoXoXoXoX.XoXoXoXoXoXXXa.s.f.s.s.g.g.s.f.g.s.g.f.s.s.g.G.n.n.G.m.G.n.M.G.m.M.m.F.m.M.H.F.F.H.H.H.M.G.M.H.G.G.G.J.m.G.G.G.G.G.G.M.G.G.G.G.m.G.F.H.H.z.d.p.i.a.p.s.a.a.a.s.a.s.a.s.a.p.2.h.p.2.p.p.p.p.p.p.p.p.2.g.n.F.F.F.F.F.M.n.n.M.h.M.F.F.F.g.F.F.n.F.F.F.n.g.F.F.n.n.n.n.M.F.F.F.F.F.G.F.F.F.M.M.H.F.M.M.H.H.F.F.F.F.F.H.H.F.F.F.F.F.F.F.F.n.M.n.n.n.G.G.n.m.n.n.G.n.G.G.n.m.n.n.m.n.n.G.n.n.m.n.n.n.m.m.m.n.n.z.G.n.n.n.n.F.F.U.n.G.n.n.n.n.G.n.G.H.F.H.G.G.G.F.s.;.,.e.u.i.e.e.;.e.r.r.r.e.i.r.r.r.:.r.;.r.r.:.,.,.e.<.;.<.;.:.u.:.e.e.<.e.:.,.;.:.;.e.:.:.;.;.:.;.e.e.r.e.,.e.e.;.u.;.e.e.i.i.e.r.r.r.;.e.r.e.:.;.;.r.;.;.<.e.;.;.e.e.;.u.;.e.e.e.,.u.u.u.e.e.r.r.r.r.r.r.r.r.e.e.r.r.w.:.:.-.e.e.e.w.r.e.r.e.w.e.e.-.r.w.r.w.r.e.r.e.r.e.r.r.e.r.e.e.;.;.;.;.e.;.e.;.e.e.;.;.;.e.-.r.:.h.:.:.:.:.h.h.h.:.h.:.:.i.r.e.e.w.e.e.e.e.-.%.;.;.e.o.e.;.e.e.e.e.e.e.e.e.e.w.r.e.:.w.$.&._ o 5 > 5 5 5 5 < 5 < < < < < = uXrX9X9X9X9X9X9X9X0X0XrX9X9XrX9XuXiXrXuXrXuXuXrXrXiXrXrXrXrXiX- 2 < < ; * 5 * * < * * 5 * % q E E E E E E E E E E E E E E E E E R R E E R E R E E E E E E a 3 4 2 3 4 2 2 4 < 4 2 4 < 2 < < < < < < < < < < < < < 2 5 j S 8XyXyXyX9XrXdXyXrXrXyXyXrXrXrX9X9X9XdX9XrX9X9X9X9X9X9XyXrXuXsX                                                  ",
"                                                    W.$XoXoXoXoXoX.XoX.XoXoXoXoXoXXXd.s.f.p.s.g.s.g.g.s.g.f.s.g.g.s.M.m.m.G.n.n.m.n.G.n.F.F.G.M.G.H.G.F.H.H.H.H.J.F.H.H.G.G.G.G.G.G.H.G.G.G.G.G.G.G.G.G.G.F.G.M.f.p.s.s.d.d.s.a.s.s.a.s.s.s.a.a.p.h.p.f.f.p.h.h.p.h.p.s.h.2.F.F.M.f.M.M.F.M.M.M.F.M.M.F.F.F.F.F.F.n.F.F.F.F.F.F.F.F.F.F.F.F.n.F.M.n.F.F.G.F.m.F.H.M.M.H.H.M.H.M.M.M.F.F.M.M.M.M.F.M.M.M.F.F.F.n.G.G.H.n.F.G.n.n.G.G.G.n.n.m.n.F.G.n.n.m.G.m.F.M.m.F.M.n.n.n.G.n.n.G.G.n.U.n.n.g.c.n.n.G.n.n.G.G.G.n.F.U.U.G.U.G.n.s.o.;.e.e.i.e.u.e.i.e.i.e.i.e.u.;.;.:.:.r.:.i.;.:.;.u.<.<.e.i.r.<.e.<.;.<.;.;.:.e.<.;.<.;.;.:.e.<.i.;.u.e.e.t.u.;.r.;.r.;.u.;.e.;.t.r.e.u.r.;.:.e.r.;.e.:.;.t.u.u.%.u.u.e.;.u.u.u.%.e.e.e.;.;.;.e.e.r.;.e.;.e.e.r.r.r.:.;.;.w.e.e.e.e.r.e.e.-.e.e.r.y.r.e.r.-.r.r.r.w.r.e.r.e.e.e.e.e.e.;.e.;.e.;.w.;.e.;.-.;.-.;.-.:.r.:.h.:.:.h.:.:.:.:.h.:.:.h.r.e.e.e.e.w.w.o.e.;.;.e.-.;.e.;.w.e.e.e.w.w.e.e.y.e.y.y.r.w.t.t.k._ o > > 5 0 > 5 < < 5 < 5 < < * rX9X9X9X9X9X0X0XtXtX9X9X9X9X9XrXuXrXrXuXuXrXuXiXrXrXrXuXrXrXiX- : * * 5 * * * * * * 5 * 5 o 8 _ _ E E E ~ O.E E E E E E E E E E E E E E E E E E E R E E E a 0 4 4 2 2 3 2 1 2 4 1 1 2 1 2 < < < < < < < < 2 < < 2 2 2 2 H yXyXyX8XrX9X9X9X9XyXrX9XdX9X9X9X9X9X9X9X9XdX9X9X9X9X8X9XyXrXiX                                                  ",
"                                                    ^.2X.X<X.X.X@X@X%X%X@X@X2X%X.XXXa.s.s.g.a.g.g.g.s.c.s.g.s.g.s.n.U.G.G.G.m.m.n.m.U.m.n.F.F.G.M.M.M.n.M.n.G.M.G.F.G.G.H.H.G.G.G.G.m.n.U.G.n.z.n.G.n.G.n.n.n.M.s.s.s.s.s.d.a.s.d.i.a.a.y.a.a.a.a.d.p.p.p.r.i.i.r.a.p.i.i.i.F.k.F.f.F.g.M.M.m.M.F.M.g.g.F.g.g.F.n.n.n.F.n.F.F.F.n.g.n.n.n.F.F.n.G.F.n.n.n.n.n.M.n.M.m.m.F.n.n.n.n.F.F.F.M.M.M.n.n.M.n.n.n.n.n.n.n.n.n.F.n.n.z.n.z.z.m.z.n.c.n.c.n.n.g.n.c.c.n.n.n.n.M.M.n.n.G.n.m.F.F.F.F.F.F.F.G.G.F.F.n.F.n.z.n.U.G.U.U.n.m.G.G.s.;.e.i.;.e.e.u.e.i.e.u.t.i.r.e.r.h.h.i.i.i.i.p.i.i.i.i.<.i.i.u.r.2.r.r.;.;.:.e.;.e.e.;.,.3.:.;.;.;.i.:.;.e.e.e.:.-.r.e.t.t.u.y.i.r.i.i.i.r.r.e.u.e.e.r.r.r.r.e.e.%.e.e.e.e.e.o.u.r.r.e.e.u.u.r.i.r.r.r.h.r.r.y.r.r.i.r.r.:.[ r.r.r.y.w.w.r.w.r.e.e.h.e.;.y.r.e.r.r.r.r.w.r.r.e.e.;.e.:.;.;.e.;.e.;.;.;.;.;.;.;.;.:.-.r.r.r.i.:.h.:.h.:.h.:.:.:.:.:.r.e.e.w.t.e.o.;.e.e.-.-.;.;.o.e.e.e.t.y.y.t.k.k.k.y.y.k.h.t.t.k.' o 5 5 5 < < < < 5 5 < 5 ; 2 > rX9X9X9X9X9X9X9X9X9X9X9X9X9XrXrXuXrXuXrXuXuXuXuXrXrXuXrXrXrXiX* 1 * * 5 * * * * * * 5 5 * $ q E E E E _ ) _ E ] _ E _ E E _ R ) E _ E ] E E E R ] E ~ E _ p 0 4 2 2 3 4 2 2 2 1 2 2 1 2 < 2 < < < < < < < < < < 1 < 2 2 H yXyX9XyX9X9XyXyXrX9XrXrXrX9XrXuX8X9X8X9X9X9X9X9XyX9X9X9XrXrXiX                                                  ",
"                                                    G /./.(.(.(.!./.^.!.W././.!.(.~.j.z.g.s.s.s.s.a.j.s.s.s.s.j.s.g.H.G.H.J.G.U.G.G.G.U.H.J.H.J.H.+XoX X}. X X{.oX X{.{. X X X X X+X X{.}.}.].}.}.}.{. X].].].}.].U.].].].].].].].].].'.].].].].H.].H.k.H.].].H.H.].j.H.H.H.].+X].+X].].].].].].].F.].].].H.].H.].H.].H.].].H.].].].].].H.].].].].H.].].].].].I.].].].].].+X].].{.[.].[.].{.].{.].}.[.}.].[.+X].].}.}.].].].].].].].].].].].].].].U.].].].].].].].I.].].}.}.].{.}.].].}.]. X{.{.].{.{.].}.].].].].].].'.].'.'.{.}.j.t.a.j.j.j.j.k.k.j.j.j.j.k.k.j.k.a.k.j.j.j.k.k.j.g.j.j.j.j.j.j.j.j.k.j.j.j.k.j.j.a.k.j.k.j.j.j.j.j.j.k.y.j.a.a.j.k.y.j.g.j.j.j.k.j.j.j.k.j.k.k.k.j.j.j.k.j.j.j.j.j.a.j.j.j.k.j.j.j.j.j.j.k.j.j.j._.k.j._.j.k.H.k.]._.j.].k._._._._._._.]._.k.k._._.].].k.e.w.e.e.r.y.w.r.r.r.w.r.e.e.e.w.;.-.o.w.w.o.-.-.o.-.o.-.-.>.r.r.h.r.:.h.:.:.:.:.h.h.:.h.h.r.e.e.w.e.w.e.e.e.e.e.e.e.o.w.e.&.' !.Q.' Q.' ' _ !.!.!.' ' _ _ } - 5 5 5 < < 5 5 5 < 5 < ; 2 * rX9X0X9X9X9X9X9X9X9X9X9X9X9X9XrXrXuXuXuXuXuXuXuXuXrXuXuXrX9XiX* 2 < * 5 5 * * < * 5 * 5 * > - y a s a d d d f g s ^ g s a a a g g a a a a a a a g g g d _ q 0 4 3 1 2 3 4 1 2 3 2 4 4 4 4 < < < < < 5 0 < < < < < 2 ; 2 S yX9X9X9X9XyXyXwXdXyX9XdX9XrXuXqX8X0X0X0X0XqXqXqXqXqXqX0X0X8XdX                                                  ",
"                                                    e o o o o o o @ o o o @ 6 o o X _ d.%.+.d.%.u.e.t.d.a.u.+.d.%.+.%.%.%.%.%.+.%.o.%.o.%.+.%.o.%.s 8 8 7 7 7 8 8 8 7 7 8 8 8 r r 8 8 r 8 r r r 7 r 8 7 y y y a a y a a a s a a a s s s s d s a a a g g g a a a a g a a a a d a d a g a a a s a a a s a s a d d d d s d s d s s s a s a d a a a s a y a a a y y a y r g a y a a a y y a a a y a a a a a a a a y y a a a a s a s s a y a a y a a a y y a y a y y y y a a y a a a a a s s p a a s s a s s a s a a a a a a a a a d s a a q q a q a a q a a a q a q a q q q q a a a a a a a a a a a a a a a a a a a a a a a a a a a a g a a a a a q a a a a a q a a q a q a a a a q a a a a a a y a a a q a q q q q q q q q y q q q y q q q q y a a y q q q q q q q q q 8 8 q q q 8 8 8 q 7 8 R k.Q Q Q [ -.[ -.Q -.Q -.-.-.X.-.X.X.X.X.Q X.X.X.Q X.Q Q X.X.-.-.Q :.:.-.-.:.-.-.-.-.-.:.Q :.-.w.$.$.$.$.-.$.X.-.w.X.-.w.[ ' O O + + 7 O 9 9 7 7 7 - 8 - 9 9 - < < 5 5 < 5 < < 5 < < ; 2 o rX0XtX0X0X9X9XtX0X9XtX0X9X9X9XrXrXrXrXuXrXuXuXuXrXrXrXuXrX9XiX5 2 5 5 5 5 * 5 5 * * 5 > > 5 $ $ o o o % % - - - - % - % : ; - : - - : - 9 9 - : - - O 9 9 2 1 3 3 3 3 3 3 3 3 3 3 3 3 0 2 2 < 2 < 2 < < 2 1 2 < < < < < S yX9X9XyXyXyXdX9X9XdX9XyX9XuXiX< 5 > > & > > * * > & * > & = 2                                                   ",
"                                                    z $ % * % % % % % & = % & & - o _ j.a.+.%.+.%.+.+.%.%.%.%.+.%.%.%.&.%.%.%.&.%.&.+.&.&.%.%.%.j.s o % - * % % % % ; ; ; o % - - % ; o % % % * - * * % = % - % - % o ; : - < - - o % & % o % o % - % - % - - - - - - - - & o o o o - - % % % % - O - - - - - o % O & % % o % - - - - - - - - ; - - ; - - - : % : - - - - - % % % o % % = = $ $ = % % % - - - - - - - ; ; - - - * ; : ; ; : ; : - : : - : : - : : - % o - % % % % o o $ o o = $ & % % % * % - ; ; ; ; ; % - < ; ; < - - : - : - - O - - - % o - % - - % - o % % o % o % o o o % % o - % % - - : - - - - - - - - - : - - : - - - - - - - - - O % o - O o o 6 o o % o o o o o o % % % O - - 5 - - ; ; : ; - - : ; - - - - - o o % o o & o o % & - - O - o - - - o - - % % o q k.Q Q Q Q -.-.Q Q [ [ Q Q Q Q X.Q Q X.w.X.X.X.Q $.w.Q $.[ -.-.r.-.-.-.-.-.-.:.-.-.-.-.-.-.Q X.$.$.Q X.$.X.X.X.Q X.X.-.Q $.Q.- 2 0 3 3 0 < 0 j 0 0 0 k < 0 2 > 2 < < 5 5 5 < 5 5 < 5 ; 2 * 9X9X0XtX9X9X9X0X0X9X9X0X9X9X9XrXrXuXuXuXuXuXrXrXrXuXrXuXrX9XiX* < 5 5 5 5 < 5 * 5 5 5 > * > * & * * > * & - & - & * & % 5 5 < ; ; ; ; - ; ; < ; < - < 5 5 4 4 1 3 3 3 3 1 2 3 3 1 3 3 3 4 < 2 ; < 2 < < < < < < 2 0 - > H yX9XdX9X9X9X8X9X9X9X9X9X9X9XuX< < , , 5 5 > > < , , * * , * *                                                   ",
"                                                    x % * = % * = * > * * * = , * o _ *.u.%.+.d.u.1.%.+.%.+.1.*.*.+.*.%.&.&.&.&.%.&.&.o.&.%.&.*.*.g - o % * * * * > * & * * * = = & * * & & = $ = = = = $ = * * > * = = = * = = & & * * * = > = = > 5 > * * * * * * * * * * % % * * % % * * * * * * * * * * > * % * * % % * * & * % * * * * * > * * > * * * * * * * * * = * * * * * = = * & & , * * & * > * * * * * * * * * * * * * * ; ; * ; > - > & * * > - & * * = & > & * & * = % = = = & % & & & & & * > * * - * * * * % * * & > > * 5 5 > * * * * * * * % % * % & & % & & & & = = = = = = % % = = = * * > * > * > > > = > & * * - * * * ; % = % % % % % = = = % % % % % = % = = % % = % * % % * * % , % , > > , * * > * * & & - & * = = $ = = = = = = = = * * = & * = * % % % ; = o r k.Q Q X.o.[ w.Q Q [ Q w.$.X.w.-.w.Q $.Q w.' X.X.$.Q $.Q w.Q w.-.-.-.-.:.-.-.-.-.-.-.-.-.:.-.w.$.X.$.$.$.w.X.-.-.Q $.w.$.*.' 9 1 4 4 4 3 1 4 0 4 4 0 3 4 0 < - 5 5 5 ; 5 < 5 , < < < < < * rX9X9X9X9X9X9X0X9X9X0X9X9X9X9XwXyXyXuXuXuXuXrXuXdXuXuXyXdXdXiX& < 5 < 5 5 5 * 5 ; , * * * ; * * % & & & > & & & & & & & * 0 5 5 - 5 5 0 5 < < - - < < 2 < 2 0 0 2 j 2 k 2 4 4 0 3 3 3 3 3 < < < < 2 < < < < < < < < < ; H rXdXrX9X9X9X9X9X9X9X9X9X9XrX9X5 > > > > > > , > > 5 < > > & $                                                   ",
"                                                    GX$ 5 = * * > * * * * & * * > o _ s.d.%.%.%.+.*.%.d.%.u.u.%.+.+.O.%.O.+.O.&.%.+.*.O.+.%.o.+.*.a - = - & * * & & & & * & * & & * * * & * > * = = * > * * * * * * * * * * * * & & * * * & = = * = = * * = * % * & * * % * * % * * > * * * * * * * * * = = = * * & * * * & & > * % % * * & * * * & & * * & * * * * * * * * * * * * * , * * * * * * * * & * * & * - * & * - * & * ; * * * * & * * * - > * > > & * * > > > & & * & & % * * * & * = > & > > > * * * * * 5 * * * * > - & & * * * % * * * * * > * * > * * * * % * * % * * % * * % % % * * * % * % * & * & % & = > = & & & * * * * * * * * % * % % % * * % = % = & * * * * % * * * % * * * = % * % % * * * * * * * * * * * > * * = * % = = = * * = * = * * * = > * * * * % = O q t.' w.X.Q Q [ Q $.w.[ Q $.[ Q ' Q $.Q w.w.-.[ w.X.-.-.' Q -.-.w.-.;.Q :.-.-.-.-.-.:.-.>.-.-.Q w.$.$.$.$.Q w.Q ' w.w.$.' ' _ 7 < 0 1 3 1 4 1 0 3 3 1 2 0 0 < > < 5 < < , 5 < 5 ; , 5 < < ; 9X9X9X9X9X9X9XwX9X9X9X9X9X9X9XrXuXdXuXyXuXuXuXuXrXrXdXrXuXyXsX$ < * 5 5 5 5 5 5 * 5 5 ; , 5 * > & & * & * & & > & & & & > > 5 < > < > - < < < 2 < & 0 < < < 2 < l 2 0 2 0 4 j 3 3 3 3 1 2 < < < 2 5 5 2 < 1 < 2 < < 2 > S uX9X9X9X9X9X9X9X9XrX9X9X9X9XrX> > , > > > > > > > , > , > > &                                                   ",
"                                                    GX$ * * * * * = * * * * * * % 6 _ *.u.+.%.%.u.%.%.%.u.+.d.%.+.%.O.%.+.&.o.+.%.o.O.%.o.%.*.%.*.s O % * & % * & > * & * * * * > * * - & > * > * * * * * * * * * * * * * * * > > & * * * * * = * * * * & > * % * * > * * * * * * & & & * * * * * * * * * * & * * * * % * * * = * * * % * * * * * % % % * * * * * = & * * & * * & * & & * * * * & * * * - & - % - - > & - - % - * * * * * * * * - - > & & > > & * > * * * > & & 5 * * * * * * & > * * & & * * * * * * * * * * * - & > & & * & * * * * % > & * > * * * * * & > & * * * % * * * * * * * & * & * % & * > & = > * > * * > & * * > * * * * * & & % * * * * * & * & * * * * * > = * * , = , = , % * , * > * * & > , = * & & > * * * = * * * % * * * * > & * * * * % % * * * * o a &.X.Q [ Q $.w.Q Q Q X.w.w.Q w.Q X.w.Q w.Q Q Q Q [ Q -.w.Q Q -.w.-.-.-.w.-.-.:.-.:.-.:.-.-.-.$.Q $.$.Q $.Q ' $.$.' w.Q [ &._ O 0 < 0 2 0 4 0 1 4 3 3 4 4 0 2 > < < < < 5 ; < < 5 5 < < < * wX0X0XwX9X9X9X9X9X9X9X9X9X9X9XwXuXuXyXuXuXrXuXrXuXrXuXyXuXuXsX$ < * 5 * 5 5 * 5 * * ; * 5 , * & = % = % % > & & > & & & < 5 5 5 0 < 5 < 5 ; ; - < < < - < < 0 0 < 4 4 0 j 4 0 j 0 3 1 3 2 < < < < < 0 < < < < 2 < 1 2 - S uXrX9X9X9X9XdX9X9X9XdX9X9X9X9X* > > > = > > > > > > > > > > &                                                   ",
"                                                    GX% * % * * * * = * * * * * % 6 _ =.&.+.+.d.%.+.+.%.d.%.+.%.+.%.&.+.&.&.o.*.&.*.+.%.o.%.+.%.&.s % * % > % % & * * * & * & * & * & & * * * * * * = = > = * * * * * * * * = = * * * * * * & & > = = * * * * % & & & & * * * % * % * * * = = = * % = > = * * = * * * * & & = * % % * * * * = = % * * * = * * & * * * = * * * & * & * * = * * * * * % % & * * % & & & & & & * * * * * * * * * * > & & - & > * & = > * , > & > > * * > * * * > > & > * * * > * % * * * * * * * % & > & & * & * % % % * * & * * % * * * > * * & * * % * * * % * * * * & > * % % = * * & & & & * * & * * * * * = * * * * % * > & * = = = = % * % * = * % % * = = = * = * * * * * % > = * * * & = = > * * & % * * * * * * * * * * = = = = = * * * % % * % % % a t.[ w.X.$.-.[ Q w.X.Q Q Q Q -.[ [ Q Q Q -.[ Q w.-.Q Q Q [ -.w.e.-.;.-.-.-.-.-.-.-.-.-.-.-.-.w.Q $.$.$.$.-.$.-.' $.Q o.$.' ' 9 4 2 0 2 2 0 4 3 1 2 4 3 1 2 < - 5 5 > 5 < 5 , 5 < < 5 ; 2 * 9XtX9X0X9X0XtX9X0XtX9X0XtX0X9XyXyXuXuXrXuXuXdXuXyXuXrXdXrXyXsX$ < * 5 5 5 5 * 5 > 5 , > * > > * * * * * > & > * * & > - 5 < < 5 < 5 0 > - < < < < < < < < 0 2 l 0 0 4 0 4 4 0 4 4 3 3 2 2 < < < 2 < < 2 < < 2 < < 2 < % S iXdXrX9XdX9X9X9X9X9XrX9X9X9X0X* > , > > > > > > > > > , > > 4                                                   ",
"                                                    GX$ * * = % = * * = * * & * % o Q.r.:.e.+.%.%.%.+.%.+.t.%.%.%.%.%.*.*.O.+.O.o.&.%.%.&.+.%.%.&.q - - * & * * = * * * * * = * & * & * * * * & * * * = * & * * * * * * = * * * & % & & & * * * * = & = * * & * & & & = = * = = * = & * & * = * % * * * * * * * * * * * * * = * % * * * & * * = * = = * * & * & * = * * * * * * * * * * = * * % % % * % * % * % * & * * * % % % % - % * - * * & * % * & & * * * * * * * * = * * * * * * * * * > * > & * > * * * * % % * * * & * * * * * * * * * * * * * * * * * * * * * * * * * * * * * * * * > * * * * * * & > & * * % * * * * * * * * * * & * * * * * * * & * * = * = = * * * * = & * * & * = = = * , = * , , * * = * * * , * & * * * * * * & * * * * * = * * & & * * = * * = * * * * % q k.Q Q Q [ -.Q [ -.[ [ $.Q $.Q $.Q w.[ -.-.-.Q w.Q w.w.Q [ -.w.-.;.-.:.-.-.-.-.-.-.-.-.-.-.-.w.[ $.$.Q $.$.$.$.$.$.$.X.$.&.' 8 2 0 4 1 2 1 4 0 2 3 1 3 2 1 2 > < 5 < ; 5 < 5 5 < 5 < < < 2 0XwX0XwX0X0X9X9X9X9XwX0X9XwX9X9XrXuXyXuXyXuXrXrXuXuXyXuXuXrXiX$ 2 * 5 5 * * 5 5 * 5 5 5 5 , * * * * * * * - & > & & > & > < < < 0 2 5 < 0 < < < 5 < < 2 < 1 3 3 3 4 4 3 3 0 2 0 0 0 4 0 2 < < < 0 < < 5 2 < 2 < 0 < 2 * S iXrX9X9X9X9X9X9XyX9X9X9X9X8X0X* > , * > > > > > > > > > > > 2                                                   ",
"                                                    GX= 5 * * * * * * * * * * * - o Q.d.e.u.+.u.+.u.%.d.%.e.+.d.+.%.%.+.%.%.&.&.&.+.+.&.O.&.&.%.*.a - & * * * > , = * = = * = = & * * * * & * * = * * * * * * = * % * * * * * = * * * & * & * * * * * * = * * & & & * * * = * * * * * * * * * & * % * = = * = * * = & * * * > = % * * = * & * * = * & = & & = * = * = & = * = & * * * * * * * = * % % * % % % * - & & - - * & * % * * % % * * * * * * * * * * & * * * * * * * * * % * * * * * * * * * > * * * * * * * * * * * * * * * * * & * * * * * & % * * * * * * = = * * * * * * * * * * * % * * * * & * & * * & * * = = * * * & * * * > * * * * * * * * & * * * * * & * & * * = * & * * * * * * * , * = * > * = > * * * * * * * * * * * * * * * * % * = * = * * * * * * * & * & & o g t.' Q w.w.Q Q -.$.Q w.Q ' Q $.X.w.Q Q -.[ Q Q Q Q w.Q -.-.Q w.-.:.-.-.-.-.:.:.-.-.-.:.-.;.w.-.-.$.-.$.$.w.' $.$.$.$.$.$.t.} 9 1 4 4 2 1 4 4 1 3 2 3 1 4 3 < 5 < 5 5 < , 5 ; 5 < , < < < < 0X9XwX0XwX9X9X9X9X9X0X9X9XrX9XrXrXyXdXyXuXrXdXrXdXuXrXrXrXuXsX$ < 5 5 * ; ; , , ; 5 5 * 5 , * * * * * * * & & > * & > > < 5 < 5 > 5 2 < 5 0 < - 0 5 < 5 < 2 3 3 3 j 0 0 4 2 k j 2 4 0 4 < < : 2 ; < < 5 0 2 ; < < < 1 * V rX9XdX9X9X9X9X9X9X9X9X9X9X9X9X5 , * , , > > > , > , > > > > ,                                                   ",
"                                                    GX* > = & * * = * = & * & * % o @.t.u.u.%.%.*.%.+.%.u.+.,.,.&.+.%.%.o.%.o.o.o.+.&.%.+.+.&.+.j.a - & * * * > * * * * * * * * * * * % & * * * = > * * & * * & & * * % * * * * * * % * * = * = * = * = & * & * & & > & = = = * * & * & * * * * * * = * * * & * * & * & = * = * * * * * & * * & * = = * & * * = * = * = * * * * & = * = = * * > % = * % * * * - * % * % * % % & * % * * % % * % * & * * * > * * * = * * * * * * * * * * * * * * * * * * * * * * * * * * * > * * * * * * * * * * > * > & * * * * * = = * * * * > * * * * * * * * * * * * * * * * * * * * * * = * & * % * * & * * * * * * * * & * * = * * * * % * = * = * * * * * * = * * * * * * * * * * * * = , & * * * * & * & * * * * * = * * * = * * * = * * * % * * % g t.Q Q Q Q [ Q [ [ w.-.' -.$.' -.Q $.Q Q [ Q [ Q Q Q ' e.-.Q w.w.-.-.-.-.-.-.:.-.-.:.-.>.-.-.-.X.$.' $.$.$.$.w.X.$.$.w.w.t.' 8 3 3 1 1 2 4 < 4 3 2 2 3 4 3 2 5 < < 5 < 5 , ; ; 5 5 < < 5 2 0XwX0X9X9X9X9X9X9X9XwX0X9X9X9XrXrXyXuXrXuXuXdXyXrXdXyX9XdXwXiX$ < * * < * 5 5 5 5 5 * * 5 > * * * * * * * * 5 * * & & & 5 < < < < - 5 < < > < < 5 < 5 < 2 4 0 3 1 3 3 4 3 0 2 0 4 j 0 0 < < 4 < 2 0 2 5 < 0 < < < < 2 , V 9X9X9X9X9X9X9X9X9X9X9X9X9X0X0X* * * > > > > > > > > > > , > >                                                   ",
"                                                    GX* * * = * & * * * * * * * * 6 !.e.%.+.+.%.1.%.+.%.%.%.+.*.+.+.%.%.&.&.+.&.&.o.&.o.&.o.O.*.j.g - - > * & & * = * * = * * * % * * * * & & * * = * * * * * & * & * * & * = * & * & * & * * * = * * = * & * & > = & = = > * = & * & * = = = * = = * = = * * * * * * * * * * * * * * * & * & * = * * = * & = * = * = * = * * * * * * * * * = = * * % * % % * % % * % * * & % - % * % % * * % * * * * * * * * * * * * * = * * * * * * * * * * * > * * * * * * * * * > * * * * * * * * * * * & * * * & * & * * * * * > * * * * * * * > * * * * * * * * * * * * * & % * * * = > * * * * * * * * & * * * * & & > & * * & * = * * * * = * * & * & * * * * = * * * * * = * * * * = = * * * * * * & * * * = * * * * = = * = = * * * = * % * * - g k.Q [ w.Q -.Q w.Q Q Q $.Q Q Q Q w.Q Q w.-.w.-.-.Q w.Q Q [ Q w.-.-.:.:.-.:.-.:.-.-.:.-.-.:.-.X.$.$.$.Q $.$.$.' &.Q Q $.w.[ Q.9 < 4 4 2 1 0 1 1 2 3 1 1 2 3 < 5 5 5 < 5 < ; 5 5 < 5 < > 2 5 9X0X9X9X9XtX9X9X9XrX0XrX9X9XwXrXrXdXrXuXuXuXyXrXyXdXyXrXrXrXiX$ 4 < < * < , ; * 5 5 5 > ; 5 * * * * * * 5 5 * * * - 5 & 5 5 < < < 0 < < < 5 < < < < < < < 2 3 3 3 3 3 3 3 2 0 j 4 0 2 0 2 2 < 2 < - < 2 2 5 < 5 0 < < ; D uXdX9X9XdX9X9X9X9X9X8X9X9X9XrX, * , > , > > > > * , > > > * ,                                                   ",
"                                                    GX* * * = * * & * * * & * * * 6 Q.%.%.t.%.+.u.+.%.+.%.%.+.%.u.+.%.%.%.%.&.o.%.%.%.%.+.%.%.o.*.a - * % * * > = * * * * * * = = * * = * * = * * = * * * * * * * & * * & * * & = * = = * * = * * * * = = * = * = * = = * * > = * * * * * = * = * * * = * = * * * * * * * * = * = * * = * = = & * & = & * = * = * = * * * = * & * * * * = = = * % % * % = % % % & & - - & * * % * % - % * * & > * * * * * > * * * * = * = * * = * * * * * * * * * * * * * * * * * * * * * * * * * & * * * * * * * * * * * = * * * > * = * * * * * * * * * * * * * * * * * * * * * * * * * = = * * * * * * = * * * * * * * = * * * * * * * = * = * = * = = * = * * * * = * = * * * * * * = * * * * * * = * * * * = * = * * = * = * = * = * * * * * * % * % 8 k.Q e.Q -.Q [ Q Q Q Q w.' Q $.Q Q $.-.[ -.-.[ Q Q -.w.Q Q w.-.-.-.;.-.w.:.:.-.-.-.-.-.;.-.-.w.X.' w.$.w.e.Q w.w.w.Q [ -.w.' 9 2 4 1 4 1 1 4 4 1 3 1 4 2 2 < ; * < < 5 ; , 5 ; , < 5 , , ; 9X0XtX9X9X0X0X0X9X9X9X9X9X9X9XwXwXrXrXrXrXrXrXrX9XdXyXyX9X9XiX= 2 ; < * < 5 5 ; 5 5 5 5 , 5 * * * * * * 5 * * * * * * * < < < < < < < < ; < < < < < < < < < 3 3 3 3 3 3 3 0 4 4 0 4 4 2 2 < < 0 < - 0 ; 2 2 < 2 5 0 0 > S iXrX9X9X9X9X9X9X9X9X9X9X9XwXuX< * , > > > > > > > > > > = > j                                                   ",
"                                                    GX= * = * = & % & * * * % * * o _ t.u.%.+.%.%.+.+.%.%.d.%.d.*.%.+.&.%.%.+.&.%.&.+.%.&.%.+.%.j.g = * % * * & * * * = * = * * * * * * = * * * * * = * = * * = * * & & * * * & * = * * * = * * * * * = * = & * * * * * * = = * = * = = = * = * * & * & = * & * * * = * * * * * * * * * * * * * * * * * * = = * = * = * * * * * * = * = > > = * = * * = % % * % - & & & * % % * % & = * % & & & * * * * * * * * * * * * * * * * * * * * * * * * * * * * * * > * * * * * * * * * * * * & * = * * * & * * * * * * = * * * = * * * * * * * * * * * * * * * * * * * = * = * * * * * * * = * * * * = * * , * * * = * = * = * * * * = = = = > * * * * * = * = * * * * * = * * * * * = * * * * * = * = * * * * * * = * & = = * * = * * * & & * - q k.[ [ -.' w.-.w.w.[ Q X.-.Q ' Q $.-.-.-.Q [ -.w.Q Q $.[ -.[ w.e.;.-.:.-.-.-.-.-.;.:.;.-.e.e.-.w.w.$.$.$.' $.w.' ' w.-.-.t.!.9 4 4 1 1 4 2 1 4 4 2 4 1 2 3 < < < 5 < < 5 < ; < < 5 < , e ; 0X0X9X0X9X9X0X0XtX9X0X9X9X9X9X9XrXrXrXrXyXdXrXrXdX9XyXyX9X9XiX- < > * > ; 5 * > * ; , 5 * 5 * 5 * * 5 * * * > * * * * % 2 < < < < < 1 < < < < < < < < < < < 3 3 3 3 1 3 2 4 4 0 4 0 4 0 2 0 2 5 < 2 < 2 2 < 2 5 0 5 5 < B uX9XrX9X9X9X9X9X9X9X9X9X9X0XuX> > > > > , > > > > > > > , = ,                                                   ",
"                                                    4 = % = * = = * * * * * = % % 6 _ a.t.+.o.+.%.+.%.u.+.%.+.d.d.+.%.%.+.%.%.o.%.%.o.%.%.+.%.o.j.g % * & % * > * * = * * = * = * * * * * * * = * * * * = * * * * & & * & * * * * = * * = * * = = * = * * = * * * = * * * = * * * = = * & * * = & * * * = = * = = = * * * * * * * * = * * = * * * * * * * * * = * = = * * * * * = * * * = = = * * % * * % & = % & - & - % & * * - & * & - & > & * * * * * * * * * * * = = * * = * * % * * * * * * * * * * * * * * * * * * * * & * * * * * * * * * * * * * * * = * * * * * = * * * * * * * * * * * * * > * * & * * * * * * * * * = * * = * * * * * * * * * * * * * * * * = = * = * = * = * = = * * * = * * * * * * * * * = * = * * = * * = * * * = * * * = * * = = * = * * * = * * = % * o r k.Q -.[ $.Q w.Q Q Q [ X.w.' -.Q -.w.Q w.w.w.-.w.[ Q X.$.w.Q -.w.-.:.:.-.-.-.:.-.-.-.;.-.-.e.w.w.w.w.w.[ w.$.w.' -.w.w.[ [ !.7 2 2 3 4 4 4 4 1 4 2 3 4 3 3 4 ; 5 < 5 , < < ; 5 , ; ; , ; ; 0X9X0X9X0X0X9X9X9X0X0X9X9X9X9XwXwXuXuX9XuXrXuX9XyXyXyXyX9X9XiX5 < 5 > * < ; , * 5 * * 5 > < * * * 5 5 * 5 5 5 - * * * % < < < < < 2 < < ; 0 - < ; < < < 5 < 4 4 3 4 0 1 3 4 0 4 4 4 0 4 2 5 < 5 2 < 2 2 < < 5 2 < 5 2 0 G iXrXrX9X9X9X9X9X9X9X9XrXrX8XuX< , , > > 5 > > > > > > > > & j                                                   ",
"                                                    z $ % % = = % % & % = * * % & 6 } *.t.d.e.+.%.u.d.%.u.%.%.&.%.%.%.e.*.%.&.%.&.&.*.%.&.&.e.$.j.g o % & = - & * * * * * * * * = * * = * * * = = * = * > * * = * * * * * & & * = * = * = * * * * * * * * * = * * * = = = * * = * * * = * = = * * & & * * * * * * * = = = * * = * = * * * * = * = * = = = & = * = * * * = % & * * * = * * > * * * * * & * * * * > & & & & - & * & * & * & & & & & * > & * * * * = * * * * * * * * & * * * * * * * * > * * * * * > * % * * * * * * * * * * = = * * * * * * * * * = > = * * * * * = > * * * * * * * * * * * & * & = * * = = * * = * * * * * = * * = * * = = * * = = * * = * * * * = > = = * * * * * = * = = = * = * * = * * * * * * * * & * * * = * * = * * * = * * = * = = * * = & * * * O q _.[ Q $.$.Q ' w.Q ' Q ' Q [ ' w.Q ' -.[ [ w.w.w.[ [ w.w.Q w.w.r.w.Q -.-.w.[ Q r.-.-.-.Q -.w.' Q Q ` ' w.$.Q ' Q w.w.w.[ y.*.9 4 < 1 2 1 1 4 4 4 4 1 3 4 1 4 5 < 5 < < ; , 5 < 5 < , , ; : 0XrX9X9X9X9X9X9X9X9X0XtX9X9X9X9XrXrXyXuX9XdXyXyXyXyX9XyX9X9XuX* 2 * ; 5 > 5 5 5 * ; , ; ; - 5 * > > * > > * * * * 5 * % < < 2 < < ; < < 0 2 - < 5 0 < < 2 < 0 0 4 3 4 3 4 4 4 0 4 4 4 4 4 < < 0 < < < < < < 0 < 2 < 2 > H iXuXuX9X0X0X0X0X0X9X9X0X9X9XyX* & * * * > > , > , , , , , j j                                                   ",
"                                                    4 = = = = * * % = & = = = = & 6 Q.!.j.].'.&.j.j._.j._.j.j.=.j.j.*.*._.j.j.j.*.*.j.j._.k.k.j.'.a o & * * & & * * = * * = * * * * * * * = * * = * = * = = * * * * * & * & * & = = = > * = * = * * = * * * * = * * * * * * = * * * = = * = * = * * * * * = * * * = * * * = * = * * * * * * * = = * * = * = * * = * * = = * * = = = * * * * * * * * * * & > & * & & > & - > - & * > % & & & - & - & * & * * * * * * * * * = * * * * & * & * * * & & - & * > - & 5 * * * & & & & & * > * * * , * , * * * * * = * * = * = > = * * > > = * * * * * * * * * * * * * * * * = = * * * = * = * * = * * * = * & * = * = * * = * * * * = * = * * * = * * > = = * * = * * = * * * = * * = * * * * * = * * * = * & * = * = * = * * = * * = * * * = % q `.*.!.*.k._._.k.&.!.k._._.[ k.k._._._._.k._.k._._.k._._._.k.t.k.' !.[ k.*.*.[ _.*.k.k.t.!._._.*.!.k._.!._.&.j.*.!.k._._.`.(.p 2 e 4 4 4 1 3 3 4 2 4 4 1 4 1 < 5 < < < , 5 < 5 5 < 5 ; 5 * rX9X9X9X9X0X0XrX9X0X0XrXrX9X9XwXrXyXyXyXdXyXuXdXyXyXwXyX9X9XuX* < 5 5 * 5 , ; * ; ; 5 5 5 ; * * = & > = & = & & = = = $ * * > < > 5 > 5 * & > > > < 4 5 < 4 4 0 0 3 4 0 2 2 2 0 0 2 k k < 0 < 0 > 2 < < 1 < 2 2 2 2 0 5 G aXaXaXuXuXuXuXrX9X9X9XiXiXiXiX* = > > * & * , , * * * * , , 2                                                   ",
"                                                    x 3 3 e 3 GXz z h h h h h z 3 z t 8 8 r r 8 r r a g y a r q a a a a a s a s s y g s g g d _ f 7 % * & & * & = * & = = * = = = * * = * * * * * * * * * * = * * & * & & * & & = > = & * * * * = * * * = * * * = * = * * = * * = * * * = * * * = * = * * * & * = * * * * * * * * = * * * = = * = * * * * = = * * * * = * * * * > = * * * * * = * * = * * & & * & > & > & & & > & * & & & > & > & > * > > * * * * * * * * * * = * & * & * * * * > > & > * > & > * * * * * & > - * * * * * * * * * * * * * , * * * * * * = * * * = * = > * * , * * , * * * & & * = = = , * * * * * * * * * * * * * * * * * * * * * = * = * = * > * * * * * * * * * * * = = * * = * * * = * * * * * = * = * * * * * * * * * = * & = * = & = * * * = * * * > O 9 8 8 8 8 8 8 8 8 8 8 q 8 8 8 8 8 8 8 8 X 8 8 8 X 8 X 8 X 8 8 X X 8 X 8 8 X 8 X O 8 8 X 8 8 8 8 8 8 8 8 8 8 8 8 8 8 8 7 8 q ; ; ; 2 < < < < < < < < < 2 < 2 5 < < 5 ; 5 < 5 < < 5 5 , 5 = rX0XtX0X9X0XtX0X9X9XrXrX0X9X0X9XrXyXuXrXrXrXrX9XdXyX9X9X9X9XiX* 2 5 5 5 5 5 5 5 5 > > 5 5 5 4   x                               GX                        k 4 2 2 1 4 0 2 0 2 2 2 2 2 < 0 5 < < 2 2 < < < < < < ; < < 2 l n n m u 3 3 3 e e 3 z e c v GX                                                                                  ",
"                                                                                    = % o & - o o % o % o o o o o o o o o % o o o o o % o - O o - - * * > * * * * = * * * * * * = * * * * = * * * * * * = * * * * * * & * & & > * * = > = * * * = * * * * = * = * * * = = * * = * * = * * * * * * * * = * * * * * * , = * = * * * * = = * * * = * = * = = * * * * * = * * * * * * = = * * * = * * * * = * * * * & & & & & & & & & & > & > & & & & > * * * * * > * * * * * * * * & > * * & & & & & > > & & - * > > 5 * * > & > & * & * * * * * * = * * * * * * * = * = * * * * * * * > = * * * = = * * = * * * * , = * = * * = * = * = * * * * * * * * * * = * = * * * * = * = * * * = * * = * * = * * = = = * = = * * = * = = * = * * * * = * * * * * * & * * = * = * * & * * = = * = * & - o % & & - ; ; ; 9 - - - - > - - & % - & & & & & & & & o & - & & - o - & - & $ & & & - & o & - - - - & & - - - ; & 5 ; % % ; < < ; < < < < < < < < < < < < , < 5 5 < 5 < < < < < < < , 5 * uX9X0X9X9X9X9X9X9X9X9X0XtX9X9XyXyXuXyXyXuXuXdXrXyXyXyXyXyX9XiX* < 5 5 5 * * 5 5 5 > * 5 5 5 GX                                                            j 4 0 < 0 < < 2 2 < 0 < < 2 < < < 2 0 > < 4 1 < < < < < < 2 < 0 1 2 < * $ $ = * * > , 5 5 < ,                                                                                   ",
"                                                                                    3 * % = & * * - % & - & & & & & $ = % % $ $ = $ o % & $ & & - & * & & * * * * * * * * * * * * * * & * * = * = * = * * = * * * * * & & > & & * & & & = * * * = * = * * * * * = * * * * * * * = = * * = * * * * * * * = = * = = * = * * * * = * = = * = * * * * & = * & * = * = * * * * = = * * * * * * * * * * = * * = & * * - & > > > & & > & & & - & & > - > & * * * * * * * * * * * * * * * * * * > & > - & & & > & > * * * 5 & * * * > & * & * * * * * = * * * * * * * * * * * * * = = = > * * * * * * * * * * * = * * * = * * * * * * * * * * * * * * = * * = * * * * * * * = = * = * = * = * * * > = * = * * * * * * * * * * * * * * * * * = * * * = * * = * = * * = * & = * = * = = * & = * = $ - & & & & & & & & & & * * & & & - & & & & & & > & > & & - * * & - - & & > * & > * > * & & & $ & & - & & - > > - & > & - * ; 5 ; < < 2 < < < < < < < < < < < < 5 5 < 5 < 5 5 , ; 5 < , ; 5 = uX9X9X9XrX9X9X9X9X9X9X0X0X9X8XyXyXuXrXuXrXyXrXrXrXyXyXyXwX9XuX% < 5 5 5 5 5 5 5 5 5 5 5 5 5                                                               3 2 2 2 2 0 2 2 < 2 5 < 2 < 0 < 2 < < 2 < 2 < < < 0 2 < 2 2 < 5 5 < , 5 * > > 5 5 > 5 * > , ,                                                                                   ",
"                                                                                    $ * = % & & & & * % & % % & - & o & & % % % & & & % $ & % $ & & & * * * * * * * * * * * * * * = > * * = * = * * = * > = > * * & * * & * & * & * * = = * * * = = * * = * = * * * * * = * * * * * * * = * * * * = * = = = > = * * & * = * = * * = = = & * * * * * * * = * * * = * * * = * * * * * = = * * * * * * * = * * * * * * * * > > & & & & * & * > * & > > & > * * > * * * * * * * * * * * * , * * * * * * * * * * * * * * * * * > = * > & - - & > * * * & * * * * * > & * * * * * * * * * * * * * * * * * * * * * * * = * = * * * * * * * * * * * * * * * = * & * * * * & = * = * = * * * = = * * * * * * * = = * * = * * * * * = * * * * * * * * * * * = * = = * = = * * > = = = = * & & * * & = * = * * * * * * & = = = = = = % = * * * * * * * * = > > = = = > = > > = > = = = = * * * * = , * - % % * * ; - % - - - * , % ; , < < < 2 < < < < < < < < , < 5 5 2 5 < 5 < < > < < * ; , = rX9X9X9X9X9X9X9X9XrXrX0XrXtX0X9XrXrXuXrXdXyXyXyXrXyXyXyX9X8XuX* < < 5 5 5 * 5 5 5 5 5 , < <                                                               3 3 1 4 0 2 < 0 < < 2 2 : 2 2 < < 2 1 2 < 2 < 1 2 1 < 2 < 1 < , 5 5 5 5 5 > , , 5 5 5 5 5 > 2                                                                                   ",
"                                                                                    = = = = * % & % = & % % % % & & & % & $ $ $ % = o = & & % = & & > & = * * * * * * * * * * * * * = * * * = * * * * * & = & & * * * & & * & * * * * * = * * = & * = * * * * = = = * = * = = = = * * = * * = * = * = * * * = * = * > = * * * * * * * * * * * = = = * = * * = * * = = * * = * = = * & * = * = * & * * * * = = = * * * * & * * * > & & * > & * * * * - & * * * * * * * * * * * * * * * = * * * * * * * * * * * * = * * = * = * * & & & & & & * & * * * * * * & * * * * * * = = * & * * * * * * * * & * * * = * * * * * * * * * * * = = * * = = * = * * * * & & * = & * = * = = * * = * * * * * * * * , = * * * * = * * = = * * * = * = * = * = * * * * * * = * * = * = * = * * = & & & & * = * = * = * = & = & & = * * * * = = % & = * = & = = * = = = * * * = = = = * = * > * * % , * , * % , * , - * * , % % , % , - , ; e < < < < < < 2 < < < < ; < < < > > 5 5 < 5 < < 5 < < 5 5 $ uX9X9X9X9X9X9X9X9X0XrXrX0X9X0XrXdXrXrXuXrXuXrXrXdXyXyXdXyXwXiX* < 5 5 5 5 5 5 5 5 5 5 5 5 >                                                               k 4 2 4 2 1 < 0 < 2 2 ; < 2 2 2 < < < 2 < 2 2 2 2 < 2 < < 2 1 < 5 5 5 5 5 5 5 5 5 5 5 * > 5 4                                                                                   ",
"                                                                                    = = % = % % * % = % % & % % - & & & = % % % $ % = & & = & & & * & * & * & * * * * * * * = * * = * * * * * * * * * = > = * * * * * * * = * * * * * & * * = * = * * * * = = = * * = * * = * = = = * = = * = * * = * * * = = * * = > * & * = > * = = * = * = * = * = * = * = * = * = * * = = * = = = * * * * * = * * * * * * * = * = & > * & * * & * & & & > * * * & * * * > * * * * * * & * * * * * * * * * * * * * > * * * * * = * * * * * * & > & - & * * * * * * * * * * * * * * * * * * * * * * * * * > * * * & * * * * = * * * * * * * = * * * * * = * = * * * = & > = > * = & * = * * * * * = * * * * * * * = = = * = * * = > * * * = * * * * * * * * * = * * * * * * * * * = = * = = * = > * = * = & * * & = * * = * = * = * = * = * * * * * * * * = * = = = > * * * * > = > > > * * * * * * * * * , * , * * , % , % - % % * * , < < < < < < < ; < < < , < < , < < < , < < > > < 5 < < 5 5 $ iX9X9X9X9X9X9XtX0X9XrX9X9X9X9X9XrXuXrXuXdXrXdXyXyXyXyXyXyXwXiX& 5 5 5 < * 5 5 5 5 5 5 5 5 *                                                               j 2 2 0 4 < 2 2 < 0 2 2 2 < 2 < 1 2 < < < 2 < 2 < 2 < 2 < 2 4 , 5 5 5 5 5 > ; 5 5 * 5 > ; 5 4                                                                                   ",
"                                                                                    * = % * % % % & % % & % & % & & & % % & $ % % = = % & & & = & & * * > & * & * * * * * = * * * * = * = * = * * = * * = = * = & * & * * * * & * * * * * * * * * * = * * = * * * * * * * * * * * * * * * * * * * * = * * * * * * = = * * * & & * * * * * * * * * & = * * * * = * = * = * * * = * * * = = * = * * * * * * * = * * * * , & & * * & * & * - & & * * * * * * * * * * * * * * * * * * * * * * * * * * * * * * * * * * > * * * * * % & & > & > & * * * * > * * * & * = * * & * * * * * * * * * * * * * = * * * * * * * = * = * * * * * * * = * * * * = * = * = > = = * * * = * = * * * * = * * = * = = * * = * * * * * * = * * = * * = * * = * * = * * * * = * = * * * * * * = * = = = * = = = * * = = = * = * = = & = * = * = = * = & * & = = * * = > = = = = * = * = * = = * * * * * * * * * * ; - - * - - - % , , , % % , ; < < < < < < , < < < < ; < < ; , < 5 < < 5 < < 5 5 < 5 5 ; # uX9X9X9X0X0X9X9X0X9X9X9X9X9X9XrXrXrXuXrXrXrXyXyXyXyXyXyXyX9XiX= < 5 5 < 5 * < 5 5 5 5 5 5 *                                                               l < 2 2 2 0 2 2 < < 2 < < < 2 1 2 < 2 < < 1 < < 2 1 2 < 2 < 1 5 5 5 5 5 > 5 * > > 5 5 > * , 3                                                                                   ",
"                                                                                    & > * & * % % % % & % % & - % & & & = $ % = = = % & $ & & & & * * * > * * * * * * = = * * = = * * = = * * = = * = * = * * * = * = * = * = * * & * * * * * * = * * = * = = * = > = * * * * = * * & * * * = > * * = * * * = * * = * = * * * & = * * * * * * * = * * * = * = * > = * = = * * * * * * * * * * * * * * * * * * * * * * * * * & * & & > & * * * * * > * * * * * * * * > * * * * * * * * * % , * * * * * * * * * * * * * * * * * * & > > > * * * * * * * * * * * * * * * * = * * * * * * * * * * & * = = * * * * * * * * * * * * * * * , * * * * = > = * * * = = * * * = * * * * = * * = * * * * * * * * = = * = * * = > = = = * = * = * * = * = * * * * = * * * = * * * * = = = & & & = * * = = * * = * = = & = * = * = * % = % * & > & * = & = = $ = & & & & = * * * * * * * * * * * * % % % - , * - % - , % % * , * - , < < < < < < < < < < < < < < , < < < < < < 5 < 5 < 5 < 5 ; * $ iX9X9X9X9X9X9X9XrX9X9X9X9X9XdXyXrXuXrXrXrXyXyXyXyXyXyXyXyX0XiX$ 5 5 5 5 > < 5 < < * < 5 5 *                                                               k 2 4 2 2 2 2 2 1 < 2 < 2 2 < < 2 < < 2 2 2 < < 2 < < 1 1 < < < , ; 5 , 5 5 * 5 5 * ; , , ; e                                                                                   ",
"                                                                                    * = % & = % % & % = = % % & & % & & = % % % % = = % & & & & & & * * * = * * * * * * * * * * * * * * * * * * = * * = * * * * * * * * * * = * * & * * % % & * * * & * * * * * * = * * = * * * * & = * * = * = * = * * * = * * * * * * * & * * * * * = & = * * = * = * * * * * = = * * * = * = = * = * * = * = = * * * * * * * * * * * * & & * & & & & * * * * * & * & * * * * * * * * * * * * * * * * * * * * * * * * * * * * * > * * * * * * & & & & * * * * * * * * * > * * * = * * * * * * * * > * * * * * * * * * * * = * * = * * = * * * * * = * * * = * * = = * * = = * = = * * = * * * * * * = * * * * * * * * * * * = * * = * = > * * * * * * * * * * * = * * = * * * = * = & > = & > > = * = = * = = = * = * = * * = = = * & = * * & = & & = = = > & > = & > * & = * = * = * * = * * * * * , * , % * , * , * , % - , - * % * < < , < < < < ; < < ; , ; , ; , < , < < , 5 < < < 5 < 5 , , $ iX9X9X0X0X9X9X0X9X9X9X9X9X9X9XyXrXdXrXrXrXyXyXyX9XyXyXwX9XwXsX& 5 5 > < * > 5 * < 5 5 5 * >                                                               j 2 4 1 2 2 1 : < 2 < 2 < 2 2 2 < < 2 1 < 1 2 < 2 < 2 2 < 2 2 5 , 5 5 5 5 5 5 > 5 > > * * 5 3                                                                                   ",
"                                                                                    = % * % = % & % % % % % = $ % $ & % = = % = & = & & & & = % & * * * * * * * * * * * * = * = = * = * * * , = > * = * = = * = * * = * = * * * & * * * * & & & = = * * * * * = = * = * = * * = * * & & = > * = * = * * = * * = * * * * * = = * * * * * * & & * * * * * * * * * = > * = = = * = * * * = * = * * * * * * * * * * * * * * * * * * & > & * * * * * * * * * * * * > > = * * * * * * * * * * * * * * * * * * * * * * * * * * & > * & > - * * * > * * * * * * * * * * * * * * * * * * * * * * * > * * * * * * = * * * * = * = = * * * * * * * = * * * * = * = = * = = * = * = * = * * * = = * * * * * * = * = = * * > * = = = = * * * = * = * * * & * * , = = * = * = * * * * * & & = * = * = = * & * * = * = * * = * = * * = * = = & = & = = = > = & = > & = * * * * * * * * * = * * * * * * , - * * % , % - - % , * - * * * < < 2 < , < < < < < < < < , < < < < , , ; < ; < < 5 5 < ; ; o uX9X0X0X9X9X0X0X9X9X0X0X9X9X9XyX9XrX9XdX9XyXyX9XyX9XyXyXyXwXuX5 5 < * < > 5 < ; 5 5 5 5 5 >                                                               l 2 < 0 2 0 2 < 2 2 < : < 2 < 2 < < 2 < < 2 < < < < 2 2 2 2 1 5 5 5 5 5 5 5 5 5 * 5 5 > 5 5 e                                                                                   ",
"                                                                                    $ & % & = % % * % & & % % % % & & & % % & % % & & & & - = = & & * % * * * * * * * * * * * * * * * * * = = * = * * * > = * = = * * * * * = * * & * & * * & & = * = * * * = * = = * * * * * * & * & > = = * * * * * = * = = > * * = * * * * * & * & * & & = * = = & * = * = * = = = = * * * * = * * * * * * = * * * * * * , = * * * & > * & * * * * * & * = * * * * * * > * * * > * * * * * * * * > * * * * * * * > * * * * , * * * * * > * * * * * * * * * * * * * * * * * * * * * * * * * , * * * * * * * > * * * , * * = * * * * * * * * * * * * * * * = * * = = * * * * = = * * * = * * = * = * * * * * * * * * * * * * = * * * * = * * = * * * * * = * * * = = * * * * * = * * * * & = * = * = = * = * * = * = * & = * = = & = * = * & * = = > = = & = > = & & = * = & * = * = * * * > * * * * * * * - * - % , % % , - % * * * * < ; < < < < ; < < , < < < < , ; < < < < < 5 < , 5 < 5 5 , < % rX0X9X9X0X9XtX0X9XtX0X0X9X9X9X9XdXrXyXyXyXyXyX9X9XyX9X9XuX9XuX> 5 - > * < 5 * > 5 5 5 5 5 >                                                               4 2 2 ; 2 2 2 2 < 2 2 < : 2 2 < 1 < < < 2 1 < 2 < 1 2 < 1 2 2 5 ; * 5 5 5 5 ; * ; 5 > 5 > < 3                                                                                   ",
"                                                                                    $ * * % = % & % % & % % % & - & & & * % - $ % % % = = & = = & * * * & > & > = * * * * * * * * * * * * * , = & > > = = * * * * * * * * > = * * & * & & > > & = * & * = > > = * = = * = * * = * * = * * * * * * * * * * * * * * & * = > > & > * * * > * & * * % * * * > * * & & & & > & & * & & & * * * & * * = > = > > * * * * & * * % % % * * * * * > * & * * * * * > * * * * > = * * * * * * * * * * * * % * > * * * * * * * 5 * * * * * * * * * * * * & * * * * & * & > * , * * & * * * & * * * * * * * * > * * * * & & * = * * * = , * * > * * > & > * * * * * & * * * * = = & & & * * * * * * * * = * & * & * = & * & > & > = = > > & & & * * & * & * * = * * * > & * * * * * = = * * = & & & = = * * = & & & & % % = % = * & & % % & & = > & & & & = = = * = = & & * * * * * * * * * = * * = * * - * ; , * % * * * * * , % * * 2 < < < < < < < < < < ; < ; < < < < < < < 5 , ; , ; < < , < = uX9X9X8X9X0X8X9X9X9X9X9X9X9X8XyXyXyX9XyX9XrX9XyXyXdXyXyXwXyXuX> < < < < > , 5 5 5 5 5 5 5 = z                                                             3 < 4 4 2 2 2 1 2 1 < < < < < 2 2 < 2 < < < < 2 < < 2 3 2 2 3 , > 5 > 5 ; - 5 5 * 5 5 * > , >                                                                                   ",
"                                                                                    . $ = = = = % & & & % = = = & & % % % % % & % % % = = % % % & & * * - & > & * * * * * * * * * * = * * * = = * & = = = * = = = * * = = = * * * * & * & & & > * = * & & = = * = * = * * * * * * * * * = * = = = * & * * & * & * * * & = & & & * * * * * & % = = % = % & & * * > & & & & & * & > & * * * * = * = = = = = * * * > > * ; ; * * * * * * * * * * * * * * * * * 5 * * * * * * * * * * * * - * % * ; * * * * 5 * * * * * * & * * * - * % * * * * > * % * * * * > & * = * * * * * * * * * > * * * * * & & * & * & > & * * * * * = = * * * & * & & & & & & & = * * * * = > & > * & & * = = * & = = * * & & & & & & & & & = = > & & & & * * & * > & * * & * & * & * & & * * * * = * = = & > & & = * = = & = = = * % * % = = = = & & & * = = & & = = = > & & & * * & & * * = = = & & * * * * * * * % ; * ; % , - , - ; * , * * , ; ; < < < ; < < < < , < < < , < , ; , < < 5 < < < 5 , ; ; < = iX0X9X0X9X9X9X9X9X9X9X9XwX9X9XwXyX9XyXyXyXwXyXrXrXrX9XwXwX9XiX2 < 5 * * > * 5 5 , 5 5 > > = z                                                             2 2 2 4 2 < 2 < < < < < 2 < 2 < < < < < 1 2 2 < 2 2 1 3 3 3 e < 5 5 5 < 5 5 5 > * 5 5 ; > , *                                                                                   ",
"                                                                                    . $ * * * & & % = = & & * * & & * & % % & & = = = = % % % = * * & * & & & - * * * * * * = * * = = * * = * = & * = > * * > = * = * * * = = * & & & & & * & * * = * & & > = = = * * * * * = * * * = * * * * = * * * = & * > * * * * , & > & > * * * * * & & = = = = = & % * & & & & * > * * > * * > * * , * > , * > * > * > * = = * * * % * % % % * * & & & * * * 5 * * * 5 * * * * ; * 5 * 5 5 * * * * * * > * * * > * > * * & & & & & % & * % % * % % & & & * * * & * * * * * * > * > * * * > * * * > & * * > & = = $ = & $ = = = = * = = * & = = * & & & & = * * , * * * * * , > > , * > > = , * * * > * * & & = = & & & & & = & = = = & & $ $ $ = $ & & & > * > * * > > * * * * = = = & & = = * = * * * > * * * * & > * = $ $ $ $ $ $ $ $ = = = = $ = = = = = = * & & > > > > , > > > > > , = = * * * ; 5 * * % , - % * ; * , - * < ; < < < < < < < < < < , < < < < < < < < < < < < < < 5 5 < = 9X9X0X9X9X9X9X9X9X0XwX9X0X9X0X0X0X0X9X9XyXuXuXrXwXuX9XyXyXuXiX, 2 < < , , < < 5 ; 5 5 5 5 = z                                                             3 < < 2 2 2 2 2 < 1 2 2 < 2 < < < < 2 2 < 2 1 2 1 2 2 2 2 2 < < 5 < , , < 5 > > 5 * ; 5 , > =                                                                                   ",
"                                                                                    * = $ $ $ & & * * * = & = = & $ $ $ * % % * = $ $ = = $ # # $ = * & > & > > * * * * * * * * * * * * * * * * * & * * = * = * * * * = = = * * > & * > * & * & = * & & & & * = = = * = = * & * * = * = = * * * * * * * = > * * = = # $ = $ $ $ $ $ $ $ $ = $ $ # $ # $ $ $ # $ $ $ $ $ $ $ $ & & & & = = = * & = * = , = = * & = = = = = = = = $ $ $ $ $ $ $ $ # # # # $ $ $ $ $ $ $ $ = $ = = = = = = = = = = & & & & & & $ = $ $ $ $ $ $ $ $ $ # $ $ $ # $ $ $ $ # # $ = = & = = * & & & > > * * > * * * * = = & # # # # # # # # # # # # # # # # $ $ # $ $ $ = = * = * & & * = = = & * = = * = = = = = = = * $ = $ = = $ $ = $ $ = $ # # # # $ # $ $ $ $ = = = * * & * * > > > > * = $ = = * > = = * * * * > = = $ = # # # # # # # # # # $ $ # $ # = $ $ # $ = # # # # * , , , , , , > > 2 , * $ # $ $ % % 5 , * % - , * * ; * * * * < 2 < < < < < 2 < < < < ; < ; < , 5 ; < ; , 5 5 , ; 5 5 5 < = 0X9X9X9X9X9X9X9X9X9XwX9X8X0X9XwXuXyXiXuXiXsXaXaXaXsXsXaXaXsXaX& , , > * > , , , , , * * = # z                                                             3 5 < 5 < 5 < < < 5 < < < < < < < ; < 5 5 5 * 5 5 * * 5 5 > , * > = * , * & > > , > > > > = $                                                                                   ",
"                                                                                                                                                  3 * * * - & * * * * * * * * * * = * * * * * * * & & * * * * * * * * = * = * * * = > & * * & * * * = & * = = * * = * & & & = * = = = * = * * = = * = = * > z       GXGX                                GX  GXGX                                                                                                                                                                                                                                                                                                                                                                                                                                                                                                                        GX$ * * - - % , * * ; * , * * 5 , ; ; , 5 5 5 ; 5 5 5 * 5 5 5 5 5 5 5 * 5 5 5 5 5 5 5 5 5 < > 9X9X9XrX9X9X9XyXyX9XyXyXyXwXuXm < 2 3 3 3 c c m c c c m m b S GX                                                                                            GXGXz GXGXGXGXGXGXGX                  GX                                            GXx e GX                                                                                  ",
"                                                                                                                                                  GX* % * * & * * * * * * * * * * * = * * = = * * & = * = * = * = * * * = * * * * = & & & & & * * = * * = * * = = * & & * & * = = * * = = = * = * = % = = > *                                                                                                                                                                                                                                                                                                                                                                                                                                                                                                                                                                           GX$ - 5 * , % - ; * * * * 5 * * , * * , * > 5 * 5 * > ; > 5 5 * 5 5 5 5 5 5 5 > 5 * * 5 5 5 $ 9X9X9XrXdXwX9XyX9X9XyXyX9XwXiX4 $ & $ % 5 2 1 2 2 2 3 2 2 3 c                                                                                                                                                                                                                                                                             ",
"                                                                                                                                                  GX5 * * * * * * * * * * * * * * * = = = = * * & = * * = * * * * > * = = = = * * * * & * & * * = * * = = = * = = & > & = = = = = * = * = = = * & & = % = * ,                                                                                                                                                                                                                                                                                                                                                                                                                                                                                                                                                                             = 5 5 * , , - * * * * * * * * 5 5 5 5 5 5 , > 5 5 5 , 5 5 5 5 5 5 5 * 5 5 ; 5 5 5 * 5 5 < $ 9X9X9X9X9XyXyXyXyXyXyXyXyXyXyX3 = * * * < < < < ; ; 5 5 ; < e                                                                                                                                                                                                                                                                             ",
"                                                                                                                                                  x > % * * * > * * , = , = * * = * * * * * * = * * & = = * * = = * * * * * * * & * * * * * = * * * = * * * = = > = = > * & * & * = * = * * * = * & & * * * ,                                                                                                                                                                                                                                                                                                                                                                                                                                                                                                                                                                             5 5 * ; * , * ; * , ; * * * 5 5 * ; , * ; * ; 5 * 5 * * * 5 5 * 5 5 5 5 > * > * 5 5 5 5 5 % 9X9X9XrX9X9X9XdXyX9XyX9XyXyXiX4 % 5 ; 5 5 * ; * * 5 * 5 5 , 3                                                                                                                                                                                                                                                                             ",
"                                                                                                                                                  x = = * * * * * * * * & * * & * * * * * = * & * = = * * * * = * * * * * * = > = = = > = * * = * = * * * * = > = * = * * & * = = = * = = * = * & & & & & & *                                                                                                                                                                                                                                                                                                                                                                                                                                                                                                                                                                             > > < , , * * * 5 * * * ; * 5 5 , ; * * 5 ; * ; * * 5 5 5 5 5 * 5 5 5 5 * 5 5 , * * 5 > > $ 9X9X9X9X9X9XyXrXrXyXyX9XrXwXiX3 % 5 * 5 ; * ; * ; > 5 ; * , e                                                                                                                                                                                                                                                                             ",
"                                                                                                                                                  z = = - * * * * * * * * * * * * * & * * * * * * * * = = * * = * * = * * = * * * * * * = * * * = * = * * = * * * * * * = = = * = * = = * = * & & * = = & & *                                                                                                                                                                                                                                                                                                                                                                                                                                                                                                                                                                             5 - * * 5 , ; > * * , * * * 5 5 5 , 5 5 5 > , 5 5 5 * * 5 5 5 > 5 5 5 5 5 5 * ; > ; * * > $ 9X9X9X9X9XdX9X9X9XdX9X9XdXyXsXk * < < * ; * ; * ; * * * ; , 4                                                                                                                                                                                                                                                                             ",
"                                                                                                                                                  e = = * * * * * * * * & * * * = * * = * * * * * * * * * * * = = * * * * * * * * * * * & & = = * = * * * * * * * * * = * * * = = = = * = * = = = & & & & = *                                                                                                                                                                                                                                                                                                                                                                                                                                                                                                                                                                             > 5 * * > * * ; * 5 * * * * * 5 * * ; * 5 5 5 > > > 5 > 5 5 , * 5 5 5 5 5 5 5 * > 5 > > * . 9X9X8X9X9X9X9XyXrXyXyXrXrXuXaXc < < * ; * * ; * * * 5 ; ; < 3                                                                                                                                                                                                                                                                             ",
"                                                                                                                                                  z = > * * * > * * * & * & * * * = * * * = = * = * * = = * * * = * * = * = * = * = * = * > = > * * = = * = * = * = * = * = = & = = * = * = * & * = = & = = $                                                                                                                                                                                                                                                                                                                                                                                                                                                                                                                                                                             * 5 5 > > * ; * , * * * > * 5 * > 5 * > 5 * * * 5 > > > > 5 5 > 5 5 5 ; , 5 * 5 * * 5 5 * . 9X9X9X9X9X9XrX9XdX9X9XdXrXuXaXm 5 < * 5 5 5 5 ; * 5 * 5 * < 3                                                                                                                                                                                                                                                                             ",
"                                                                                                                                                  x = * = * * * * * * * * * * * * * * * * * * * * * * * * * * * * > * * * * * * * * * * * * * & = * * > * = * * * = * = & = & = & & = * = & = = = = = * = = #                                                                                                                                                                                                                                                                                                                                                                                                                                                                                                                                                                             * > * * , * 5 * 5 > * * 5 * * 5 * 5 , 5 ; > 5 5 > * > > > 5 5 > > > * * * 5 * * * > 5 * * . dX9X9X9X9X9X9X9XyX9XdX9X9XuXaXm < 5 5 * 5 * , ; * * 5 ; * < e                                                                                                                                                                                                                                                                             ",
"                                                                                                                                                  z * * > * 5 * * & & > * * & * * & * & % * * * * = * = * * , = * * * = = * * * * * = = & * * * * * * = * * * = * * = * & & = & * * * * = * * = & = = & = = $                                                                                                                                                                                                                                                                                                                                                                                                                                                                                                                                                                             * 5 > * * * > 5 * * * ; * * 5 5 > * ; 5 * * > > > 5 5 > > > 5 5 5 5 > > > > ; > ; * * 5 * . 9X9X9X9X9X9X9X9X9X9X9XrX9XrXaXm 5 , * ; * ; ; * ; ; * * ; < 2                                                                                                                                                                                                                                                                             ",
"                                                                                                                                                  e = * * * * * * * * > * & * & * * & * * * * * * = * * * * * = * * * > * * * = = * = * = * * = * * * = * = * * = * * = & & = = = * = * * = * & = * = & & = $                                                                                                                                                                                                                                                                                                                                                                                                                                                                                                                                                                             < < > 5 > * * * * , ; % * * * > , > > > * ; 5 * 5 > * > > 5 5 > * 5 > 5 5 > * * * * > 5 * # rX9X9X9X9X9X9X9X9XdX9X9X9XrXaXc , ; 5 * ; * ; * * * ; ; ; , e                                                                                                                                                                                                                                                                             ",
"                                                                                                                                                  2 $ * * * * * * * * * * * & * * * & * * = * = * * * = * * * * * * * = = * = > * * * * * * * * = * * * * * * * * * * * > & = = = = = = = * = = & = = & = & $                                                                                                                                                                                                                                                                                                                                                                                                                                                                                                                                                                             = 5 * > * * * * * * * * * = * > > 5 * * * > * > > > > > > 5 > > > > > > * , * 5 * * * 5 ; # uX9X9X9X9X9XdX9X9X9X9XrX9XrXaXc < 5 ; ; * * ; ; * ; * % ; 5 z                                                                                                                                                                                                                                                                             ",
"                                                                                                                                                  , = * * * * * * * * * > * & * = * * * * * * * * * = * * * * * > * * = * = * = * * * = * = * = * = > = * * * = = * * * = = = = = & * = * = * = & & & = = = =                                                                                                                                                                                                                                                                                                                                                                                                                                                                                                                                                                             > > > , * * * > * * = * * * * > * > > * * 5 5 ; > > > > > > 5 , 5 * , > > 5 * > * * > * < = sXrX9X9X9X9X9X9X9X8XyX9XyXyXaXl < 5 5 5 ; * , ; * * * ; ; * ,                                                                                                                                                                                                                                                                             ",
"                                                                                                                                                  * $ = % * % * * * * * * * * * * = * = = * * * * * = * = = * = * * * * * * * * = * * * * * * * * * > = = * = * * * = * * = = = = & = * = * = * & & > & > = #                                                                                                                                                                                                                                                                                                                                                                                                                                                                                                                                                                             = > > * > * , * * > > * > > * 5 > > > > ; , * * > > > > > 5 > * * > , > * 5 * * ; * > 5 5 * iX9X9X9X9X9X9X9X9XdXdX9X8XyXaXv * 5 5 ; * ; ; ; * , ; * , , =                                                                                                                                                                                                                                                                             ",
"                                                                                                                                                  > $ = * - * > & * = = * * * * * * = * * * * * * , * * * * * = * * = * * = * * * = * = * = * = > = = & * * * * = * = * = = = = = * * = * = * = & & & = = = $                                                                                                                                                                                                                                                                                                                                                                                                                                                                                                                                                                           GX= > > > = , * = = * > > * * 5 > * 5 * * 5 ; , > > > > > > > 5 * 5 * ; > ; > * , * * 5 * < $ sXrX9X9XrX9XwX9X9XdXdXwX0XuXaX1 < < 5 ; < * , ; , < , % * , =                                                                                                                                                                                                                                                                             ",
"                                                                                                                                                  > # # & % & * $ $ * > , , 2 , , * * = * * % = & * = * = * * * * * * * * * = * * * * * = > = = & * * * = * = = * = * * > * = * = * = = = * * = & & > & & & =                                                                                                                                                                                                                                                                                                                                                                                                                                                                                                                                                                             $ & & = , , , , 2 2 3 z x GXz * ; 5 5 > > * 5 * 5 5 5 > > 5 > 5 * 5 * * 5 * > ; 5 * 5 5 < % 0X0X0X0XqX^.G qX7XqX| qXqXqXwXb k GXe e 3 e e e e e 2 < 5 , 4                                                                                                                                                                                                                                                                             ",
"                                                                                                                                                                                4 * > * * * * * * = = * * * * = = * * * * = = * * = * = * * * * & & * = * = = * = * * & = & > & = * = * = * = * * = * = = = $                                                                                                                                                                                                                                                                                                                                                                                                                                                                                                                                                                                                           5 * = * * * * * * * * * * * > * * , * 5 * > 5 * * > ; > ; * 3 > > = = = # # # # # . $ & $ $ G                                                                                                                                                                                                                                                                                                           ",
"                                                                                                                                                                                j > = * * * * * * * * * * = * * * * = * * * * * * = * * = * * = & * = * * * * * * = * = = = & & * = * * * & * = = * & = & & $                                                                                                                                                                                                                                                                                                                                                                                                                                                                                                                                                                                                           > > * * * * * * * * * * * * * 5 ; * ; * * * ; , 5 5 * > 5 5 , % 5 5 5 ; > > & > & > > 5 * =                                                                                                                                                                                                                                                                                                             ",
"                                                                                                                                                                                j > * % & * * * * * * * * = * = = * = * * = * * * = * = > = * * & * * * * * * * * * * * = * * & = * = * = * * = = * * = & & *                                                                                                                                                                                                                                                                                                                                                                                                                                                                                                                                                                                                           > > * * * * * * * * * * * > 5 * * ; * ; 5 * 5 5 > 5 5 5 5 5 * 5 5 5 , * > = > > * 5 * 5 * &                                                                                                                                                                                                                                                                                                             ",
"                                                                                                                                                                                j * % % * * * * * = * = * * * * * * * * = > * = * * * * = * * * * * & * * = * = * = * = * = * & * = * & * = * = * = * & & & =                                                                                                                                                                                                                                                                                                                                                                                                                                                                                                                                                                                                           > > * * * * > * * * = * * * * 5 * ; * * 5 5 * 5 * * > ; * > 5 5 5 * * ; > > > & > * 5 5 5 %                                                                                                                                                                                                                                                                                                             ",
"                                                                                                                                                                                , $ = & > & * * * * & * * * * & = * * = = * = * * = * = * * * * * * = * * * * * * * * = = * = = = & * * * * = * = * = * = & $                                                                                                                                                                                                                                                                                                                                                                                                                                                                                                                                                                                                         x * * * * * * , * * % * * * = * * % * , - * , * * 5 5 * 5 * 5 * * 5 * > * ; , * ; ; 5 5 * , ,                                                                                                                                                                                                                                                                                                             ",
"                                                                                                                                                                                , = * & * > * * * * * * & * * * * * * * * * * * * * * * * = * * = * * * * = * * * = * * * = = > = > & * & & * = * = * = & & &                                                                                                                                                                                                                                                                                                                                                                                                                                                                                                                                                                                                         4 & * * * * * * * * * * * * > * , , % - , , * , ; 5 * * 5 5 5 5 5 ; , * 5 * > * , * * , * , ,                                                                                                                                                                                                                                                                                                             ",
"                                                                                                                                                                                , > & & * * * * * * * * * * & * * * * * * * = * * & * * * = * = * * = * = * * = * = * = * = * = > & * * * * = * = * = * & = = GX                                                                                                                                                                                                                                                                                                                                                                                                                                                                                                                                                                                                      4 * = * * * * * * = * * * * % * 5 - - ; * - , * * , * 5 5 * 5 * ; * ; * * * * ; * > * > * 5 ,                                                                                                                                                                                                                                                                                                             ",
"                                                                                                                                                                                , = & * & * * * * & * & * & > & * & * * = * * * * * = * * * * * * * * * * * * * * * * * * = = * & & * & = * & = * = * = % = &                                                                                                                                                                                                                                                                                                                                                                                                                                                                                                                                                                                                         j * * , * * * * * * * * * * * > * , * * * * * ; , * , ; * > 5 5 * , * * > ; * * * * ; ; * > > GX                                                                                                                                                                                                                                                                                                          ",
"                                                                                                                                                                                j $ = * & * * * * & * * & > & * * & & * * & * * = * = * * * * * = * * * * * * = * * = * * = = = = * * * * * = * = * = % = = &                                                                                                                                                                                                                                                                                                                                                                                                                                                                                                                                                                                                         j , = * * * * * * = * = > * > * 5 * * , - 5 * > * ; * ; > * 5 ; , * ; 5 * * * * * ; * * * > , GX                                                                                                                                                                                                                                                                                                          ",
"                                                                                                                                                                                , & = * > * * * * & * & * * & & * > > & * * * = * * * * = * * = * * * * * * = > * * * * * * * = * * = = = = = = * = * = % = =                                                                                                                                                                                                                                                                                                                                                                                                                                                                                                                                                                                                         z , = * * * * * * * * > = * * 5 * * ; * * * 5 * > * , 5 * , 5 * 5 5 * , 5 * ; % ; * * ; * > , G                                                                                                                                                                                                                                                                                                           ",
"                                                                                                                                                                                , & & * & & % * & - > > * & * & * * & * * * * * = * = * * * * * * = = * * = = * * * * * = = > * * = = * & = * = = * = = = = =                                                                                                                                                                                                                                                                                                                                                                                                                                                                                                                                                                                                         z * > , * * * * * * * > * * * * 5 ; * * ; 5 * 5 ; ; * * 5 * 5 * 5 , * * * * ; * ; ; * ; * , , GX                                                                                                                                                                                                                                                                                                          ",
"                                                                                                                                                                                > $ > & & > * % & & > & & * & * * * * & & * * & * * * * * * * * * * * * * * * * * = * = = * = * * = * = * * * * * % * = % % $                                                                                                                                                                                                                                                                                                                                                                                                                                                                                                                                                                                                         2 = & * > > * * > * * = * , % > * * * ; * 5 5 * > * , * 5 5 * 5 * > ; * , * * * * * ; 5 * 5 * GX                                                                                                                                                                                                                                                                                                          ",
"                                                                                                                                                                                > = & * * * * * & > * * & * & * * * * * * & & * * * * * * * * * * * * * * = = * % * = * * * & * * = = * * * * = = * = = = = #                                                                                                                                                                                                                                                                                                                                                                                                                                                                                                                                                                                                         , = 5 * * = > = > * * = > * * * , * * * 5 * * , * * * , ; * * * , * ; , * , - = > * * * * > $                                                                                                                                                                                                                                                                                                             ",
"                                                                                                                                                                                , > & > * * * % - & & % * & * * * * * * % * * * * * & * * * & * = = = = % * * = * * * * % * * * * * * = & * * * * = * = = = $                                                                                                                                                                                                                                                                                                                                                                                                                                                                                                                                                                                                         2 = * * 5 > > > = * > > * * * * * ; * ; * 5 ; * ; - , * * , - ; * * - * ; ; * , = * > * ; > #                                                                                                                                                                                                                                                                                                             ",
"                                                                                                                                                                                2 = & * = 5 * > & * * > * * & * * & * > * * * & * = = * > = = = & * * * = = = $ = % = = & * > & * = * * > = * , * * > * = * *                                                                                                                                                                                                                                                                                                                                                                                                                                                                                                                                                                                                         , $ = * * , * , , , , , , , ; , , * 5 , , , * , * , * * , * , * * , , * , , , , , = , 5 * * $                                                                                                                                                                                                                                                                                                             ",
"                                                                                                                                                                                GX, j 4 > , , 2 2 2 2 < , < 2 < > , > , > > > , , , , , , , , , > > > , , > > > * > , , , , , , , , , , > > > , * = , , , , ,                                                                                                                                                                                                                                                                                                                                                                                                                                                                                                                                                                                                         , = , , 4 e , e x e 4 , 2 , , 2 , , < 4 , , , , , , , , < , , , , , , , e e e 4 e 4 2 e < * ,                                                                                                                                                                                                                                                                                                             ",
"                                                                                                                                                                                                                                                                                                                                                                                                                                                                                                                                                                                                                                                                                                                                                                                                                                                                                                                                                                                                                                                                                                                                                                                                                                                                                                                                ",
"                                                                                                                                                                                                                                                                                                                                                                                                                                                                                                                                                                                                                                                                                                                                                                                                                                                                                                                                                                                                                                                                                                                                                                                                                                                                                                                                ",
"                                                                                                                                                                                                                                                                                                                                                                                                                                                                                                                                                                                                                                                                                                                                                                                                                                                                                                                                                                                                                                                                                                                                                                                                                                                                                                                                ",
"                                                                                                                                                                                                                                                                                                                                                                                                                                                                                                                                                                                                                                                                                                                                                                                                                                                                                                                                                                                                                                                                                                                                                                                                                                                                                                                                ",
"                                                                                                                                                                                                                                                                                                                                                                                                                                                                                                                                                                                                                                                                                                                                                                                                                                                                                                                                                                                                                                                                                                                                                                                                                                                                                                                                ",
"                                                                                                                                                                                                                                                                                                                                                                                                                                                                                                                                                                                                                                                                                                                                                                                                                                                                                                                                                                                                                                                                                                                                                                                                                                                                                                                                ",
"                                                                                                                                                                                                                                                                                                                                                                                                                                                                                                                                                                                                                                                                                                                                                                                                                                                                                                                                                                                                                                                                                                                                                                                                                                                                                                                                ",
"                                                                                                                                                                                                                                                                                                                                                                                                                                                                                                                                                                                                                                                                                                                                                                                                                                                                                                                                                                                                                                                                                                                                                                                                                                                                                                                                ",
"                                                                                                                                                                                                                                                                                                                                                                                                                                                                                                                                                                                                                                                                                                                                                                                                                                                                                                                                                                                                                                                                                                                                                                                                                                                                                                                                ",
"                                                                                                                                                                                                                                                                                                                                                                                                                                                                                                                                                                                                                                                                                                                                                                                                                                                                                                                                                                                                                                                                                                                                                                                                                                                                                                                                ",
"                                                                                                                                                                                                                                                                                                                                                                                                                                                                                                                                                                                                                                                                                                                                                                                                                                                                                                                                                                                                                                                                                                                                                                                                                                                                                                                                ",
"                                                                                                                                                                                                                                                                                                                                                                                                                                                                                                                                                                                                                                                                                                                                                                                                                                                                                                                                                                                                                                                                                                                                                                                                                                                                                                                                ",
"                                                                                                                                                                                                                                                                                                                                                                                                                                                                                                                                                                                                                                                                                                                                                                                                                                                                                                                                                                                                                                                                                                                                                                                                                                                                                                                                ",
"                                                                                                                                                                                                                                                                                                                                                                                                                                                                                                                                                                                                                                                                                                                                                                                                                                                                                                                                                                                                                                                                                                                                                                                                                                                                                                                                ",
"                                                                                                                                                                                                                                                                                                                                                                                                                                                                                                                                                                                                                                                                                                                                                                                                                                                                                                                                                                                                                                                                                                                                                                                                                                                                                                                                ",
"                                                                                                                                                                                                                                                                                                                                                                                                                                                                                                                                                                                                                                                                                                                                                                                                                                                                                                                                                                                                                                                                                                                                                                                                                                                                                                                                ",
"                                                                                                                                                                                                                                                                                                                                                                                                                                                                                                                                                                                                                                                                                                                                                                                                                                                                                                                                                                                                                                                                                                                                                                                                                                                                                                                                ",
"                                                                                                                                                                                                                                                                                                                                                                                                                                                                                                                                                                                                                                                                                                                                                                                                                                                                                                                                                                                                                                                                                                                                                                                                                                                                                                                                ",
"                                                                                                                                                                                                                                                                                                                                                                                                                                                                                                                                                                                                                                                                                                                                                                                                                                                                                                                                                                                                                                                                                                                                                                                                                                                                                                                                ",
"                                                                                                                                                                                                                                                                                                                                                                                                                                                                                                                                                                                                                                                                                                                                                                                                                                                                                                                                                                                                                                                                                                                                                                                                                                                                                                                                ",
"                                                                                                                                                                                                                                                                                                                                                                                                                                                                                                                                                                                                                                                                                                                                                                                                                                                                                                                                                                                                                                                                                                                                                                                                                                                                                                                                ",
"                                                                                                                                                                                                                                                                                                                                                                                                                                                                                                                                                                                                                                                                                                                                                                                                                                                                                                                                                                                                                                                                                                                                                                                                                                                                                                                                ",
"                                                                                                                                                                                                                                                                                                                                                                                                                                                                                                                                                                                                                                                                                                                                                                                                                                                                                                                                                                                                                                                                                                                                                                                                                                                                                                                                ",
"                                                                                                                                                                                                                                                                                                                                                                                                                                                                                                                                                                                                                                                                                                                                                                                                                                                                                                                                                                                                                                                                                                                                                                                                                                                                                                                                ",
"                                                                                                                                                                                                                                                                                                                                                                                                                                                                                                                                                                                                                                                                                                                                                                                                                                                                                                                                                                                                                                                                                                                                                                                                                                                                                                                                ",
"                                                                                                                                                                                                                                                                                                                                                                                                                                                                                                                                                                                                                                                                                                                                                                                                                                                                                                                                                                                                                                                                                                                                                                                                                                                                                                                                ",
"                                                                                                                                                                                                                                                                                                                                                                                                                                                                                                                                                                                                                                                                                                                                                                                                                                                                                                                                                                                                                                                                                                                                                                                                                                                                                                                                ",
"                                                                                                                                                                                                                                                                                                                                                                                                                                                                                                                                                                                                                                                                                                                                                                                                                                                                                                                                                                                                                                                                                                                                                                                                                                                                                                                                ",
"                                                                                                                                                                                                                                                                                                                                                                                                                                                                                                                                                                                                                                                                                                                                                                                                                                                                                                                                                                                                                                                                                                                                                                                                                                                                                                                                ",
"                                                                                                                                                                                                                                                                                                                                                                                                                                                                                                                                                                                                                                                                                                                                                                                                                                                                                                                                                                                                                                                                                                                                                                                                                                                                                                                                ",
"                                                                                                                                                                                                                                                                                                                                                                                                                                                                                                                                                                                                                                                                                                                                                                                                                                                                                                                                                                                                                                                                                                                                                                                                                                                                                                                                ",
"                                                                                                                                                                                                                                                                                                                                                                                                                                                                                                                                                                                                                                                                                                                                                                                                                                                                                                                                                                                                                                                                                                                                                                                                                                                                                                                                ",
"                                                                                                                                                                                                                                                                                                                                                                                                                                                                                                                                                                                                                                                                                                                                                                                                                                                                                                                                                                                                                                                                                                                                                                                                                                                                                                                                ",
"                                                                                                                                                                                                                                                                                                                                                                                                                                                                                                                                                                                                                                                                                                                                                                                                                                                                                                                                                                                                                                                                                                                                                                                                                                                                                                                                ",
"                                                                                                                                                                                                                                                                                                                                                                                                                                                                                                                                                                                                                                                                                                                                                                                                                                                                                                                                                                                                                                                                                                                                                                                                                                                                                                                                ",
"                                                                                                                                                                                                                                                                                                                                                                                                                                                                                                                                                                                                                                                                                                                                                                                                                                                                                                                                                                                                                                                                                                                                                                                                                                                                                                                                ",
"                                                                                                                                                                                                                                                                                                                                                                                                                                                                                                                                                                                                                                                                                                                                                                                                                                                                                                                                                                                                                                                                                                                                                                                                                                                                                                                                ",
"                                                                                                                                                                                                                                                                                                                                                                                                                                                                                                                                                                                                                                                                                                                                                                                                                                                                                                                                                                                                                                                                                                                                                                                                                                                                                                                                ",
"                                                                                                                                                                                                                                                                                                                                                                                                                                                                                                                                                                                                                                                                                                                                                                                                                                                                                                                                                                                                                                                                                                                                                                                                                                                                                                                                ",
"                                                                                                                                                                                                                                                                                                                                                                                                                                                                                                                                                                                                                                                                                                                                                                                                                                                                                                                                                                                                                                                                                                                                                                                                                                                                                                                                ",
"                                                                                                                                                                                                                                                                                                                                                                                                                                                                                                                                                                                                                                                                                                                                                                                                                                                                                                                                                                                                                                                                                                                                                                                                                                                                                                                                ",
"                                                                                                                                                                                                                                                                                                                                                                                                                                                                                                                                                                                                                                                                                                                                                                                                                                                                                                                                                                                                                                                                                                                                                                                                                                                                                                                                ",
"                                                                                                                                                                                                                                                                                                                                                                                                                                                                                                                                                                                                                                                                                                                                                                                                                                                                                                                                                                                                                                                                                                                                                                                                                                                                                                                                ",
"                                                                                                                                                                                                                                                                                                                                                                                                                                                                                                                                                                                                                                                                                                                                                                                                                                                                                                                                                                                                                                                                                                                                                                                                                                                                                                                                ",
"                                                                                                                                                                                                                                                                                                                                                                                                                                                                                                                                                                                                                                                                                                                                                                                                                                                                                                                                                                                                                                                                                                                                                                                                                                                                                                                                ",
"                                                                                                                                                                                                                                                                                                                                                                                                                                                                                                                                                                                                                                                                                                                                                                                                                                                                                                                                                                                                                                                                                                                                                                                                                                                                                                                                ",
"                                                                                                                                                                                                                                                                                                                                                                                                                                                                                                                                                                                                                                                                                                                                                                                                                                                                                                                                                                                                                                                                                                                                                                                                                                                                                                                                ",
"                                                                                                                                                                                                                                                                                                                                                                                                                                                                                                                                                                                                                                                                                                                                                                                                                                                                                                                                                                                                                                                                                                                                                                                                                                                                                                                                ",
"                                                                                                                                                                                                                                                                                                                                                                                                                                                                                                                                                                                                                                                                                                                                                                                                                                                                                                                                                                                                                                                                                                                                                                                                                                                                                                                                ",
"                                                                                                                                                                                                                                                                                                                                                                                                                                                                                                                                                                                                                                                                                                                                                                                                                                                                                                                                                                                                                                                                                                                                                                                                                                                                                                                                ",
"                                                                                                                                                                                                                                                                                                                                                                                                                                                                                                                                                                                                                                                                                                                                                                                                                                                                                                                                                                                                                                                                                                                                                                                                                                                                                                                                ",
"                                                                                                                                                                                                                                                                                                                                                                                                                                                                                                                                                                                                                                                                                                                                                                                                                                                                                                                                                                                                                                                                                                                                                                                                                                                                                                                                ",
"                                                                                                                                                                                                                                                                                                                                                                                                                                                                                                                                                                                                                                                                                                                                                                                                                                                                                                                                                                                                                                                                                                                                                                                                                                                                                                                                ",
"                                                                                                                                                                                                                                                                                                                                                                                                                                                                                                                                                                                                                                                                                                                                                                                                                                                                                                                                                                                                                                                                                                                                                                                                                                                                                                                                ",
"                                                                                                                                                                                                                                                                                                                                                                                                                                                                                                                                                                                                                                                                                                                                                                                                                                                                                                                                                                                                                                                                                                                                                                                                                                                                                                                                ",
"                                                                                                                                                                                                                                                                                                                                                                                                                                                                                                                                                                                                                                                                                                                                                                                                                                                                                                                                                                                                                                                                                                                                                                                                                                                                                                                                ",
"                                                                                                                                                                                                                                                                                                                                                                                                                                                                                                                                                                                                                                                                                                                                                                                                                                                                                                                                                                                                                                                                                                                                                                                                                                                                                                                                ",
"                                                                                                                                                                                                                                                                                                                                                                                                                                                                                                                                                                                                                                                                                                                                                                                                                                                                                                                                                                                                                                                                                                                                                                                                                                                                                                                                ",
"                                                                                                                                                                                                                                                                                                                                                                                                                                                                                                                                                                                                                                                                                                                                                                                                                                                                                                                                                                                                                                                                                                                                                                                                                                                                                                                                ",
"                                                                                                                                                                                                                                                                                                                                                                                                                                                                                                                                                                                                                                                                                                                                                                                                                                                                                                                                                                                                                                                                                                                                                                                                                                                                                                                                ",
"                                                                                                                                                                                                                                                                                                                                                                                                                                                                                                                                                                                                                                                                                                                                                                                                                                                                                                                                                                                                                                                                                                                                                                                                                                                                                                                                ",
"                                                                                                                                                                                                                                                                                                                                                                                                                                                                                                                                                                                                                                                                                                                                                                                                                                                                                                                                                                                                                                                                                                                                                                                                                                                                                                                                ",
"                                                                                                                                                                                                                                                                                                                                                                                                                                                                                                                                                                                                                                                                                                                                                                                                                                                                                                                                                                                                                                                                                                                                                                                                                                                                                                                                ",
"                                                                                                                                                                                                                                                                                                                                                                                                                                                                                                                                                                                                                                                                                                                                                                                                                                                                                                                                                                                                                                                                                                                                                                                                                                                                                                                                ",
"                                                                                                                                                                                                                                                                                                                                                                                                                                                                                                                                                                                                                                                                                                                                                                                                                                                                                                                                                                                                                                                                                                                                                                                                                                                                                                                                ",
"                                                                                                                                                                                                                                                                                                                                                                                                                                                                                                                                                                                                                                                                                                                                                                                                                                                                                                                                                                                                                                                                                                                                                                                                                                                                                                                                ",
"                                                                                                                                                                                                                                                                                                                                                                                                                                                                                                                                                                                                                                                                                                                                                                                                                                                                                                                                                                                                                                                                                                                                                                                                                                                                                                                                ",
"                                                                                                                                                                                                                                                                                                                                                                                                                                                                                                                                                                                                                                                                                                                                                                                                                                                                                                                                                                                                                                                                                                                                                                                                                                                                                                                                ",
"                                                                                                                                                                                                                                                                                                                                                                                                                                                                                                                                                                                                                                                                                                                                                                                                                                                                                                                                                                                                                                                                                                                                                                                                                                                                                                                                ",
"                                                                                                                                                                                                                                                                                                                                                                                                                                                                                                                                                                                                                                                                                                                                                                                                                                                                                                                                                                                                                                                                                                                                                                                                                                                                                                                                ",
"                                                                                                                                                                                                                                                                                                                                                                                                                                                                                                                                                                                                                                                                                                                                                                                                                                                                                                                                                                                                                                                                                                                                                                                                                                                                                                                                ",
"                                                                                                                                                                                                                                                                                                                                                                                                                                                                                                                                                                                                                                                                                                                                                                                                                                                                                                                                                                                                                                                                                                                                                                                                                                                                                                                                ",
"                                                                                                                                                                                                                                                                                                                                                                                                                                                                                                                                                                                                                                                                                                                                                                                                                                                                                                                                                                                                                                                                                                                                                                                                                                                                                                                                ",
"                                                                                                                                                                                                                                                                                                                                                                                                                                                                                                                                                                                                                                                                                                                                                                                                                                                                                                                                                                                                                                                                                                                                                                                                                                                                                                                                ",
"                                                                                                                                                                                                                                                                                                                                                                                                                                                                                                                                                                                                                                                                                                                                                                                                                                                                                                                                                                                                                                                                                                                                                                                                                                                                                                                                ",
"                                                                                                                                                                                                                                                                                                                                                                                                                                                                                                                                                                                                                                                                                                                                                                                                                                                                                                                                                                                                                                                                                                                                                                                                                                                                                                                                ",
"                                                                                                                                                                                                                                                                                                                                                                                                                                                                                                                                                                                                                                                                                                                                                                                                                                                                                                                                                                                                                                                                                                                                                                                                                                                                                                                                ",
"                                                                                                                                                                                                                                                                                                                                                                                                                                                                                                                                                                                                                                                                                                                                                                                                                                                                                                                                                                                                                                                                                                                                                                                                                                                                                                                                ",
"                                                                                                                                                                                                                                                                                                                                                                                                                                                                                                                                                                                                                                                                                                                                                                                                                                                                                                                                                                                                                                                                                                                                                                                                                                                                                                                                ",
"                                                                                                                                                                                                                                                                                                                                                                                                                                                                                                                                                                                                                                                                                                                                                                                                                                                                                                                                                                                                                                                                                                                                                                                                                                                                                                                                ",
"                                                                                                                                                                                                                                                                                                                                                                                                                                                                                                                                                                                                                                                                                                                                                                                                                                                                                                                                                                                                                                                                                                                                                                                                                                                                                                                                ",
"                                                                                                                                                                                                                                                                                                                                                                                                                                                                                                                                                                                                                                                                                                                                                                                                                                                                                                                                                                                                                                                                                                                                                                                                                                                                                                                                ",
"                                                                                                                                                                                                                                                                                                                                                                                                                                                                                                                                                                                                                                                                                                                                                                                                                                                                                                                                                                                                                                                                                                                                                                                                                                                                                                                                ",
"                                                                                                                                                                                                                                                                                                                                                                                                                                                                                                                                                                                                                                                                                                                                                                                                                                                                                                                                                                                                                                                                                                                                                                                                                                                                                                                                "
};
