/* XPM */
static char *result[] = {
/* columns rows colors chars-per-pixel */
"50 50 174 2 ",
"   c #000000",
".  c #080707",
"X  c #090807",
"o  c #0B0A09",
"O  c #100E0E",
"+  c #11100F",
"@  c #141312",
"#  c #181714",
"$  c #1B1916",
"%  c #1D1C1B",
"&  c #201E1B",
"*  c #221F14",
"=  c #23201E",
"-  c #2D261C",
";  c #29251A",
":  c #252322",
">  c #292725",
",  c #292826",
"<  c #272928",
"1  c #2B2E2E",
"2  c #2E2F30",
"3  c #2F3234",
"4  c #303233",
"5  c #3B3D3C",
"6  c #443B1E",
"7  c #4B3F1E",
"8  c #41351B",
"9  c #4B3F20",
"0  c #3D413D",
"q  c #53431E",
"w  c #5B471F",
"e  c #5C481F",
"r  c #634D1F",
"t  c #69531F",
"y  c #7A5A1F",
"u  c #4C4020",
"i  c #5D4D21",
"p  c #5A5022",
"a  c #624D20",
"s  c #655320",
"d  c #665A24",
"f  c #6B5D23",
"g  c #6F5421",
"h  c #725C22",
"j  c #735621",
"k  c #6E6327",
"l  c #746623",
"z  c #7A6221",
"x  c #766A25",
"c  c #7B6B23",
"v  c #776B2C",
"b  c #3F4A4D",
"n  c #3C4345",
"m  c #414A4D",
"M  c #494C4C",
"N  c #434340",
"B  c #4F5345",
"V  c #4F5353",
"C  c #515454",
"Z  c #555B5D",
"A  c #746C48",
"S  c #5E6566",
"D  c #5F6668",
"F  c #616669",
"G  c #636A6C",
"H  c #6B6D6C",
"J  c #656664",
"K  c #6F706F",
"L  c #70706D",
"P  c #637271",
"I  c #63757A",
"U  c #6E777A",
"Y  c #6F787B",
"T  c #6C7273",
"R  c #727371",
"E  c #727A7B",
"W  c #7C7D7C",
"Q  c #7D7F75",
"!  c #826423",
"~  c #8B6623",
"^  c #826B23",
"/  c #8C6B22",
"(  c #876A2C",
")  c #926D23",
"_  c #897827",
"`  c #897629",
"'  c #907023",
"]  c #9E7124",
"[  c #816C3B",
"{  c #A67924",
"}  c #A27425",
"|  c #816D41",
" . c #89774D",
".. c #867751",
"X. c #8D7D55",
"o. c #7F807E",
"O. c #8F8225",
"+. c #988A2C",
"@. c #AE8424",
"#. c #AE8627",
"$. c #B48524",
"%. c #B58B26",
"&. c #B98B26",
"*. c #AD9827",
"=. c #AF9329",
"-. c #BB9226",
";. c #BA942A",
":. c #B59A2B",
">. c #B39126",
",. c #AC9830",
"<. c #B6A027",
"1. c #B5A128",
"2. c #C98E27",
"3. c #C98E28",
"4. c #C49426",
"5. c #CA9027",
"6. c #CB9D26",
"7. c #C79B28",
"8. c #CE9B29",
"9. c #C59A27",
"0. c #CFA827",
"q. c #CCA32A",
"w. c #C6AF2D",
"e. c #CCAC2A",
"r. c #CAA027",
"t. c #D4A427",
"y. c #D4A729",
"u. c #D9AB29",
"i. c #D6A62A",
"p. c #C7B02D",
"a. c #C9B22D",
"s. c #D9B329",
"d. c #D7B82E",
"f. c #D7B92C",
"g. c #CEB430",
"h. c #D0B734",
"j. c #D1B834",
"k. c #EAAC27",
"l. c #EBAB28",
"z. c #EBB427",
"x. c #EAB429",
"c. c #E7BA2A",
"v. c #E9BB2A",
"b. c #EAC32C",
"n. c #E9C92C",
"m. c #A79F4D",
"M. c #ABA44B",
"N. c #82837E",
"B. c #95907F",
"V. c #B59C60",
"C. c #BAA367",
"Z. c #C7AE72",
"A. c #CDB477",
"S. c #6D7F85",
"D. c #6E8186",
"F. c #6F8288",
"G. c #7F8180",
"H. c #708389",
"J. c #838382",
"K. c #888987",
"L. c #898C8A",
"P. c #8E908D",
"I. c #969080",
"U. c #939696",
"Y. c #9B9D9B",
"T. c #969B9C",
"R. c #BEBA83",
"E. c #A3ACAE",
"W. c #A6AFB4",
"Q. c #B1BBBD",
"!. c #BABAB9",
"~. c #C7BF9E",
"^. c #BFC1BF",
"/. c #CCC1A1",
/* pixels */
"                                                                                                    ",
"                                                                                                    ",
"                                                                                                    ",
"                                                                                                    ",
"                                                                                                    ",
"                                                                                                    ",
"                                                                                                    ",
"                                                                                                    ",
"                                                                                                    ",
"                                                                                                    ",
"                                        @ @ @ @ @ @ @ @ @ @                                         ",
"                                        $ K R K J.W W K.R #                                         ",
"                                        $ J.1 5 W W K G.P.#                                         ",
"                                        $ !.G.W J S G.L.^.#                                         ",
"                          o . . o o + O % K.Y.C $ $ M T.L.$ . o . o o . o                           ",
"                      . ; p p p p i p p p p p p p p p p p p i p p p p p p ; .                       ",
"                    . = f a.p.a.a.a.a.a.a.a.w.a.a.a.w.w.w.a.w.w.w.w.w.p.p.d $ .                     ",
"                    # k :.< < < < < < < > > > , , , , , > > , , > > > - > ,.l $                     ",
"                  # x +.5 S.S.S.S.S.S.S.S.S.S.S.S.S.S.S.S.S.S.S.S.S.S.S.S.0 O.v @ .                 ",
"                + l O.5 F.D.F.F.H.H.H.H.H.H.H.H.H.H.H.H.H.H.H.H.H.H.H.H.F.F.n _ x #                 ",
"                + l M.P F.F.F.F.H.H.H.S.H.S.H.H.D.H.H.H.H.S.H.H.H.H.H.H.F.F.I m.x @                 ",
"      $ $ $ $ % t ' B P P T P P P P P P P P P P P P P P P P P P P P P P P P T M ' y $ $ * * #       ",
"  . % ;.y.y.y.s ^ f.a.j.j.j.j.j.j.j.j.j.h.h.j.j.h.h.h.h.h.h.h.h.j.j.j.j.j.j.h.g.f.^ y y.y.y.;.% .   ",
"    . 8 u u u ' g.f.e.8.8.8.8.8.8.8.8.8.8.8.8.8.8.8.8.8.8.8.8.8.8.8.8.8.8.8.7.q.d.w.c u 9 9 9 o     ",
"      o o $ l a.n.b.x.4.g ! x.l.l.l.l.l.k.k.k.k.l.l.l.l.l.l.l.l.k.x.k.k./ j ;.x.n.n.e.x % o o       ",
"          @ 6 p i i  ./.Y.J.g v.s.a w w w w e w ..X.i i 7 a r w r s.b.l o.Y.~.X.i p i 6 %           ",
"        + Z U U S.U I U G.Q.J.x ~.R Y E U U Y Y G G U U U U U U E R.v N.Q.Q H U U U U U Z O         ",
"        $ C F F D D M u U.W.H E J S S D F F F S G T D D S S S S F J E G E.U.u m S F D D C #         ",
"        & r c c c c c [ B.C.( A.z z c x c c x c A A z l z x c x x z Z.( V.B.[ ! c ^ c ^ t #         ",
"        & %.c.b.v.v.c.4.~ l.k.k.z.c.c.c.c.c.c.c.#.@.x.c.c.c.c.x.c.k.k.k.k./ 4.c.v.c.c.v.%.#         ",
"        * { k.k.k.k.l.l.l.t.@.{ { { { { { { { { { { { { { } { { { { { { t.z.k.k.z.k.z.k.&.#         ",
"        & @.4.$.$.4.x.x.u.` 1 1 1 1 1 , 1 1 1 1 1 1 1 1 1 1 2 2 1 1 1 1 ` u.c.z.6.@.@.-.$.#         ",
"        $ @./ q u ^ v.b.;.< m m b b b b b b b b b b b b b b b b b b b b > =.b.c.' 7 u ! -.#         ",
"      . % *.0.4.-.7.x.k.%.% & & = & % % % : % % % % % % & & % = % : % % % @.l.k.6.;.7.e.:.$ o       ",
"      # & *.z - j 6.c.x.%.= 3 3 3 3 3 4 3 3 3 3 3 3 3 3 3 3 3 3 3 3 3 3 : @.l.x.7.h - f <.& #       ",
"      # ; >.r.&.-.6.v.x.%.% $ % % $ $ $ % % % % % % % % $ $ $ $ % $ $ % % #.l.x.r.%.%.7.;.= #       ",
"      $ = ] 2.2.5.3.3.) : 4 4 3 4 3 2 2 2 2 1 2 3 3 2 2 2 2 2 3 1 3 2 4 2 = ~ 2.3.3.3.3.} = #       ",
"      $ = > - - - - - ; % & & % % % & & & & & % % % & % & % & % % % % % & & ; ; - - - - - : $       ",
"      # = > : = # . . . . . . . . . . . . . . . . . . . . . . . . . . . . . . . . @ = > > : #       ",
"      $ > , < = @                                                                 O = , > > $       ",
"      . : & % % @                                                                 O & & & % .       ",
"        o . . o .                                                                 . o . X X         ",
"                                                                                                    ",
"                                                                                                    ",
"                                                                                                    ",
"                                                                                                    ",
"                                                                                                    ",
"                                                                                                    ",
"                                                                                                    ",
"                                                                                                    "
};
