/* XPM */
static char *result[] = {
/* columns rows colors chars-per-pixel */
"50 50 210 2 ",
"   c #000000",
".  c #080605",
"X  c #0C0B07",
"o  c #0C0C0B",
"O  c #100E09",
"+  c #19170C",
"@  c #1C190F",
"#  c #14120A",
"$  c #131313",
"%  c #1A1B1B",
"&  c #191915",
"*  c #3D361E",
"=  c #322C19",
"-  c #222222",
";  c #2B2B2B",
":  c #282728",
">  c #3A342C",
",  c #343434",
"<  c #383735",
"1  c #3B3B3C",
"2  c #383837",
"3  c #40381E",
"4  c #423B22",
"5  c #4E3F2B",
"6  c #423D36",
"7  c #7B3A38",
"8  c #4C4429",
"9  c #4A4227",
"0  c #53472C",
"q  c #5F5427",
"w  c #45433E",
"e  c #48453F",
"r  c #4A4132",
"t  c #534F3F",
"y  c #5F5531",
"u  c #664C28",
"i  c #735B2D",
"p  c #655A34",
"a  c #735F32",
"s  c #6A582C",
"d  c #7A6427",
"f  c #6C633C",
"g  c #73683B",
"h  c #7E713C",
"j  c #3D3D40",
"k  c #414244",
"l  c #484541",
"z  c #424649",
"x  c #46494C",
"c  c #4A4B4B",
"v  c #555244",
"b  c #55534B",
"n  c #5B5A4B",
"m  c #4A4E52",
"M  c #474B50",
"N  c #4D5256",
"B  c #4E545A",
"V  c #525454",
"C  c #51565C",
"Z  c #585957",
"A  c #665E43",
"S  c #67634C",
"D  c #726B49",
"F  c #7E7040",
"G  c #716C57",
"H  c #696C6E",
"J  c #646565",
"K  c #7E6C6F",
"L  c #727272",
"P  c #7D7E7D",
"I  c #873C3A",
"U  c #81701D",
"Y  c #A76F1F",
"T  c #BD7C1E",
"R  c #915E33",
"E  c #86433B",
"W  c #A64139",
"Q  c #AF5935",
"!  c #AE5735",
"~  c #B45C39",
"^  c #866526",
"/  c #886625",
"(  c #88692A",
")  c #8F732D",
"_  c #92742C",
"`  c #9A782B",
"'  c #81733B",
"]  c #8C7C39",
"[  c #8A7938",
"{  c #937C36",
"}  c #94682D",
"|  c #A37223",
" . c #A67C26",
".. c #BC702C",
"X. c #BA7D29",
"o. c #B86631",
"O. c #B76D2E",
"+. c #C1742C",
"@. c #9F5C5C",
"#. c #844C4B",
"$. c #A14D4D",
"%. c #B05841",
"&. c #877947",
"*. c #847756",
"=. c #B07148",
"-. c #B36845",
";. c #9D6D6D",
":. c #80686A",
">. c #A57166",
",. c #BE831E",
"<. c #998637",
"1. c #948228",
"2. c #AC8427",
"3. c #B88D2A",
"4. c #B7942A",
"5. c #A58F37",
"6. c #A79234",
"7. c #B59B39",
"8. c #BEA32A",
"9. c #BAA130",
"0. c #C58C1F",
"q. c #C2871F",
"w. c #C8961F",
"e. c #C7991F",
"r. c #C8981F",
"t. c #D6B51F",
"y. c #D8B51F",
"u. c #C28621",
"i. c #C58C21",
"p. c #C98E22",
"a. c #C69322",
"s. c #CA9423",
"d. c #CB9B23",
"f. c #CA9329",
"g. c #CD9D29",
"h. c #C59B26",
"j. c #D19C29",
"k. c #D19924",
"l. c #C38E30",
"z. c #CB9D37",
"x. c #CEA223",
"c. c #CBAC25",
"v. c #C0A529",
"b. c #CDA62B",
"n. c #D2A524",
"m. c #D4AC24",
"M. c #D1A12A",
"N. c #D4AE29",
"B. c #D6B324",
"V. c #D9B425",
"C. c #D9B827",
"Z. c #D5B42A",
"A. c #D9B52A",
"S. c #D7B82A",
"D. c #D9B929",
"F. c #CAA938",
"G. c #D3AC35",
"H. c #D6B433",
"J. c #D8B635",
"K. c #D4B53F",
"L. c #DAB837",
"P. c #99874B",
"I. c #938652",
"U. c #8C805A",
"Y. c #A18E4E",
"T. c #AC9344",
"R. c #B49D56",
"E. c #B59C42",
"W. c #BBA458",
"Q. c #978F73",
"!. c #C4994C",
"~. c #C29E5B",
"^. c #D9BA4B",
"/. c #D8B743",
"(. c #C6AB56",
"). c #C4AA59",
"_. c #C8A859",
"`. c #DBBB55",
"'. c #D5B75D",
"]. c #D5B85E",
"[. c #DABB5C",
"{. c #D3B655",
"}. c #C0A749",
"|. c #CBB66F",
" X c #CBB360",
".X c #DBBC62",
"XX c #D5B963",
"oX c #7E7E81",
"OX c #888B8C",
"+X c gray53",
"@X c #92918F",
"#X c #929292",
"$X c #9C9C9C",
"%X c #A09F9F",
"&X c #BFAB82",
"*X c #9BA0A1",
"=X c #A3A2A2",
"-X c #ABAFAF",
";X c #BFBAA3",
":X c #B4BBBC",
">X c #C7B181",
",X c #C0BCA4",
"<X c #D1C9AF",
"1X c #CFC8AE",
"2X c #B6BDC1",
"3X c #CCCFCF",
"4X c #C3C8C9",
"5X c #CCD0CF",
"6X c #CCD0D0",
"7X c #D0D2D1",
/* pixels */
"                                                                                                    ",
"                                                                                                    ",
"                                                                                                    ",
"                                                                                                    ",
"                                                                                                    ",
"                                                                                                    ",
"                                                                                                    ",
"                                                                                                    ",
"                                                                                                    ",
"                                                                                                    ",
"                                                                                                    ",
"                                            X % % % % % % % % .                                     ",
"                                            m 5X6X6X6X6X4X2X2X%                                     ",
"                                          Z :X:XH H H *X4X4X:X%                                     ",
"                                          oX7X4XOXOXOX-X4X4X:XJ $                                   ",
"                            4 9 4 4 4 9 8 Q.1X<X<X1X1X1X1X;X;X;XS 8 8 8 8 9 @                       ",
"                        . @ W.[..X[.[.[.`..X[.[.[.[.[.[.[.[.[.[.[.[.[.[.[.[.q #                     ",
"                    . X @  X`.[.^.D.D.D.D.C.C.C.C.D.D.D.D.D.D.D.D.J.D.D.D.D.C.d .                   ",
"                    p W.(.Z.D b v v v v v t v v v v v v v v v v W.I.v v v v v h 1.                  ",
"                  y W.W.S S c z k k z z k k k k k k l z k k k z W.*.m m z z N n D <.X               ",
"                y R.W.G m z k k z k k k k j j k k k x z x M k ] &.S C C M z N m n &.d + * *         ",
"            X 9 }.^.I.N x k k k z j j j k k k k k j z j x m D G.[ n B C N z m C B c 5.q h p o       ",
"        X @ = XXL.D.P.b v b v v v v v v v v v v v v v v v A {.Z.m.<.V B N z m C C N j T.g 2 ;       ",
"      . p XXXX.X[.`.[.'.'.'.XX].XX'.XXXX'.'.'.'.'.'.'./.G.N.A.D.m.g.{ C z B N N C V w w w 1 ; .     ",
"      Y..X[.`.D.C.C.C.C.C.A.D.D.S.C.C.C.C.C.C.C.B.C.C.V.C.A.V.A.N.m.J..X.X.X.X.X[..X.X.X.X.XW.      ",
"  X Y.-.%.%.o.f.d.s.w.w.a.d.e...Q o.s.e.d.e.e.e.e.s.c.X.! ! ! ! f.N.J.`.`.[.^./.^.`.[.L./.{.{.T.$   ",
"  X =.>.;.@.W l.M.s.s.g.!.f.h.+.O...0.0.d.z.F.d.a.x.x.O.$.;.;.W o.f.A.K.&./.5.7.F.P.K.<.9.E.Y.{.#   ",
"  . 7 K oXK E ` c.n.m.K.>X` _ _ _ _ _ _ ` R.'.m.d.B.4.R #.P P #.I R 4.Z.g 6.' [ <.g 6.h ] <.&.].0 + ",
"  . 6 l k e l l v.m.V.K.>X, ; ; : : : ; ; *.].B.m.t.f e l k e e l e f V.B.v 6.<.f c.c 9.h [ H.W.`.* ",
"  O _.L.A.A.N.m.V.V.V.K.&X< ; ; ; > ; ; ; *.].B.0.m.B.B.A.A.N.A.B.Z.C.C.B.t 6.<.D c.x 9.h <.4.1 (.> ",
"  o {.J.V.m.j.k.k.j.n.B.G.8.v.v.v.v.v.v.8.F.Z.m.i.i.i.x.A.V.V.V.C.n.x.b.v.3.h.M.h.x.4.e.4.,.2.; @ . ",
"  o (.J.m.m.n.k.p.p.s.z.|.|.|.|.|.|.|.|.|.|._.,.,.i.i.M.n.s.A.V.x.d.d.h.g.i p ` M.x.e.e.d.` 0 o     ",
"  X (.J.s.s.V.n.p.i.i.l.~.~.~.~.~.~.~.~._.~.!.T ,.i.d.n.p.+.A.V.s.w.e.d.d < , i j.s.s.a.e.( , $     ",
"  X (.z.+.+.V.C.w.s.w.w.s.w.w.0.a.s.s.a.f.f.s.f.d.f.n.m.s.+.m.n.k.s.d.h., V 1 u  .i.a.a.2.d j , .   ",
"  X (.-.W +.V.V.y.y.y.y.t.y.t.t.y.y.y.y.t.t.t.t.t.C.m.m.m.m.d.s.d.s.s.i.< #XZ , 0 u.i.i.p j j , .   ",
"  O _.L.M.s.p.s.s.s.p.p.0.p.s.p.p.p.p.s.s.s.p.i.i.0.0.i.s.n.C.s.i.i.i.i.< #X=XL 8 u.a.i.i J +X, .   ",
"  X ).J.g.0.a.p.p.i.i.i.0.0.i.0.0.0.0.i.0.0.0.i.i.0.0.i.0.0.t.a.j.f.i.u.< #X=XL 0 +.i.p.i J $X+Xo   ",
"  O _.G.j.j.M.M.k.s.k.j.j.j.j.j.g.g.k.g.i.0.w.0.0.i.0.a.i.0.d.0.s.p.u.3.< @X%XL 8 Y Y i 6 J %X$X$   ",
"  . &.3.d.3.) ) } ( ) _ _ _ _ _ { _ _ _ / / ^ / / / / ^ ^ } q.q.i.i.X.( , #X%XL > u u 6 < J @XH o   ",
"    % d  .^ ; ; ; ; ; ; ; ; ; ; ; ; ; ; ; ; ; ; ; ; ; ; ; > Y | | | ^ 2 , @X%XL ; - : 2 2 Z L - .   ",
"      % ; ; ; ; ; ; : ; ; ; ; ; ; ; ; ; ; ; ; ; ; ; ; ; ; ; : ; ; ; , , , @X=XL -     ; 2 < :       ",
"          o ; ; ; ; : -                                           & ; ; , #XV %                     ",
"            o ; : ; : -                                             $ ; ; 1 %                       ",
"              $ $ $ $ o                                             X $ $ $ .                       ",
"                                                                                                    ",
"                                                                                                    ",
"                                                                                                    ",
"                                                                                                    ",
"                                                                                                    ",
"                                                                                                    "
};
