/* XPM */
static char *result[] = {
/* columns rows colors chars-per-pixel */
"50 50 174 2 ",
"   c #000000",
".  c #070807",
"X  c #0B0B0B",
"o  c #100F0F",
"O  c #0F100F",
"+  c #10100F",
"@  c #131312",
"#  c #1A1917",
"$  c #1C1C1B",
"%  c #21211F",
"&  c #2B2A1E",
"*  c #242423",
"=  c #2A2926",
"-  c #2C2C2B",
";  c #292724",
":  c #332F2A",
">  c #342F27",
",  c #343029",
"<  c #343027",
"1  c #2F2F30",
"2  c #2F3133",
"3  c #323335",
"4  c #393937",
"5  c #34363A",
"6  c #3A3B3C",
"7  c #35393C",
"8  c #4E4828",
"9  c #4B4126",
"0  c #564B2B",
"q  c #5E552D",
"w  c #514C36",
"e  c #594B32",
"r  c #5A563D",
"t  c #535037",
"y  c #60502D",
"u  c #63592E",
"i  c #7A5F28",
"p  c #645C36",
"a  c #695D38",
"s  c #725D3A",
"d  c #6C602F",
"f  c #7C6028",
"g  c #7B6E2F",
"h  c #7B6027",
"j  c #666037",
"k  c #6E6432",
"l  c #6E663C",
"z  c #766932",
"x  c #786B31",
"c  c #796638",
"v  c #7A663C",
"b  c #7E7033",
"n  c #7E743B",
"m  c #3D3E42",
"M  c #3E4144",
"N  c #424344",
"B  c #43464A",
"V  c #46494E",
"C  c #4C4B4B",
"Z  c #4A4A40",
"A  c #4A4D52",
"S  c #474B50",
"D  c #4E5256",
"F  c #4F5358",
"G  c #515456",
"H  c #53565A",
"J  c #555A5D",
"K  c #595B5E",
"L  c #6E5E41",
"P  c #756242",
"I  c #7B6542",
"U  c #595D62",
"Y  c #5B6066",
"T  c #60656B",
"R  c #65696C",
"E  c #686B6E",
"W  c #696E72",
"Q  c #676C71",
"!  c #6C7175",
"~  c #6D7579",
"^  c #777A7D",
"/  c #797A79",
"(  c #737576",
")  c #87782F",
"_  c #84752F",
"`  c #81683C",
"'  c #847633",
"]  c #8C7C34",
"[  c #80763B",
"{  c #8F733F",
"}  c #857835",
"|  c #957732",
" . c #836B44",
".. c #836D49",
"X. c #947849",
"o. c #7F807F",
"O. c #8F8139",
"+. c #978634",
"@. c #988634",
"#. c #9C8A35",
"$. c #928238",
"%. c #9D863B",
"&. c #9B8B39",
"*. c #A48E39",
"=. c #A49034",
"-. c #AC9636",
";. c #AE9935",
":. c #A3913A",
">. c #AA9638",
",. c #B19B35",
"<. c #B69C3C",
"1. c #BAA237",
"2. c #B7A139",
"3. c #BAA439",
"4. c #BFA939",
"5. c #C7AE37",
"6. c #C9AF37",
"7. c #C3AB3A",
"8. c #CBAF3C",
"9. c #CDB339",
"0. c #D5B63F",
"q. c #D6BB3A",
"w. c #D8BC3A",
"e. c #AE8A4A",
"r. c #AB874A",
"t. c #B38D4C",
"y. c #AC9A40",
"u. c #BC934B",
"i. c #B98D59",
"p. c #B4A140",
"a. c #BDAE59",
"s. c #9F9E7F",
"d. c #A59F6D",
"f. c #A89D77",
"g. c #ACA56F",
"h. c #B2A76B",
"j. c #AAA472",
"k. c #B1AA70",
"l. c #C19C46",
"z. c #CEA847",
"x. c #CFA649",
"c. c #CFA94A",
"v. c #C5A047",
"b. c #D2AC46",
"n. c #D1AB49",
"m. c #D0A74B",
"M. c #D4B342",
"N. c #D8BA46",
"B. c #C1AC59",
"V. c #C5AE56",
"C. c #C7B558",
"Z. c #ECB16C",
"A. c #7C7F82",
"S. c #7D8083",
"D. c #818989",
"F. c #9A9C86",
"G. c #8B999E",
"H. c #989A9D",
"J. c #909A98",
"K. c #96A0A7",
"L. c #99A6AA",
"P. c #9BA9AE",
"I. c #9BADB3",
"U. c #A8A9A7",
"Y. c #A9AAA9",
"T. c #A5A7A4",
"R. c #BFC1C0",
"E. c #C2C5C4",
"W. c #CACBCA",
"Q. c #DBDDDD",
"!. c #EDEDEE",
"~. c #EFEFF0",
"^. c #F6F7F7",
"/. c gray99",
/* pixels */
"                                                                                                    ",
"                                                                                                    ",
"                                                                                                    ",
"                                                                                                    ",
"                                                                                                    ",
"                                                                                                    ",
"                                                                                                    ",
"                                                                                                    ",
"                                                                                                    ",
"                                                                                                    ",
"                                                                                                    ",
"                                                                                                    ",
"                              . X X X . . . . X .                                                   ",
"                              * 4 4 : 6 = 6 : : - * .                                               ",
"                            $ o.Y.T.N Q.- E.C = ( / %                                               ",
"                            $ o.Y.N W.- Q.C E./ Q./ #                                               ",
"                            $ o.U.N W.- Q.Z R./ Q./ $                                               ",
"            O $ % % % % * % * 6 N , C = D 2 C 4 C 4 * * *                                         . ",
"          O 9 +.#.+.+.+.+.+.+.+.@.@.@.@.+.+.+.+.+.@.@.+.' * .                                       ",
"      @ % 8 #.q.w.w.q.q.q.w.w.q.q.q.q.q.q.q.q.q.q.q.q.w.5.' % X                                     ",
"      # 8 ;.w.q.9.n n [ n n n n n n n n [ n 6.:.n [ [ n O.q.' ; .                                   ",
"      # g q.w.9.&.l 7 o.S.S.S.S.S.S.S.S.S.B 3.l U S.S.^ w &.q.g & X                                 ",
"      # g q.q.>.q w.M !./././././././././.G 4.l H././.~.( ! 2.9.q #                                 ",
". . . & O.w.:.Z q.3.R !./././././././././.D 3.l H./././././.Q y.0.u # .                             ",
"= = = @.w.q.:.Z 7.m ^././././././././././.G 3.l H././././././.U 2.q * #       .     .               ",
"q.q.q.q.q.q.>.6 2 5 7 3 3 3 5 5 3 3 3 1 5 2 3.k 5 2 2 5 5 1 3 3 <.q.q.b - - = = - - - = 1 - - - ;   ",
"q.w.q.w.q.q.9.3.3.3.3.1.2.3.3.3.2.3.2.3.3.3.q.7.3.3.3.3.3.3.2.2.0.q.w.8.2.3.2.1.2.3.3.2.2.3.2.2.*.* ",
"q.p 3.[ $.+.n 7.p w.w 7.p >.O.$.>.w p q.w 7.p -.O.$.>.k 4.t N.p 7.n &.] ' q.q.w.w.q.q.q.q.a.F.j.M.i.",
"w.,.z ] [ ' ] a %.q *.u ] c ' ' z >.&.q =.u #.g ' ' z +.k :.q &.u ] _ } 3.q.q.q.q.w.w.w.a.j.h.f.N.Z.",
"w.w.@.<.,.-.<.{ v.` m.{ l.*.-.;.=.q.9._ q.@.6.=.;.,.=.5.+.q.) 9.+.7.-.;.M.b.b.n.n.n.q.w.B.f.k.B.9. .",
"w.w.w.w.q.M.m.u.P P P P P t.M.q.q.q.q.q.q.q.q.q.w.w.w.w.w.w.q.w.w.w.M.m.e.L L v s u.c.N.N.B.B.N.d.; ",
"w.w.w.w.0.x.u. .5 7 7 5 5 X.z.q.q.q.q.q.q.q.q.w.w.q.q.q.q.q.w.w.w.w.b.t.L 3 5 4 1 I u.n.b.M.w.C.J.; ",
"0.0.0.0.b.u...6 M V B B M ..u.M.0.0.0.0.0.0.0.0.0.0.0.0.w.0.0.b.0.b.x.{ m m M M M m X.t.l.m.N.V.S.M ",
"t.e.e.e.e.P 6 B H Y W U A 6 P u.u.u.u.u.u.u.u.u.u.u.u.u.l.| l.u.l.u.X.` m S U U D D V M P X.i.X.M G.",
"* ; ; * * = 3 V R Y P.Y A 5 8 i i h f f h h h i i i i i ` ` _ ` ` ` 0 > B U ( K.U G M 6 1 * * ; ; ; ",
"I.I.I.H s I 6 V ~ I.K.W D 4 ` n.b.b.b.n.b.b.b.b.b.b.b.b.8.z.z.n.z.m.` : B Q T.K.T H m 6 ~ I.I.I.G.; ",
"Y Y U m 9 e 6 V U ! ! K V 3 y | | | | | | | | | | | | | | | | | | | y 1 B U ! ! H D m 6 S U U U G ; ",
"= = # * = = 1 V D J J D V 2 = < < < < < < < < < , > , , , , , , > & = : N G K U H V m 1 - - - - 3 + ",
"@ @ . X @ @ $ 3 A D D V 4 % + @ @ @ @ @ @ @ @ @ @ @ @ @ @ @ @ @ o o @ & 5 A G G A M 1 * @ @ @ @ @   ",
"            X % 3 3 3 3 * X                                     . .   o % 3 3 3 5 1 % o             ",
"              . X @ + o .                                               . X @ X X o .               ",
"                                                                                                    ",
"                                                                                                    ",
"                                                                                                    ",
"                                                                                                    ",
"                                                                                                    ",
"                                                                                                    ",
"                                                                                                    ",
"                                                                                                    ",
"                                                                                                    "
};
