/* XPM */
static char *result[] = {
/* columns rows colors chars-per-pixel */
"50 50 174 2 ",
"   c #000000",
".  c #070807",
"X  c #080807",
"o  c #0C0B0B",
"O  c #0F100F",
"+  c #10100F",
"@  c #131312",
"#  c #1A1A17",
"$  c #1C1C1B",
"%  c #21211F",
"&  c #2C2A1E",
"*  c #242423",
"=  c #2A2925",
"-  c #2C2B2B",
";  c #292724",
":  c #322F25",
">  c #332F2A",
",  c #353028",
"<  c #343027",
"1  c #2F2F30",
"2  c #2F3133",
"3  c #323335",
"4  c #393836",
"5  c #34363A",
"6  c #3A3B3C",
"7  c #35393C",
"8  c #4E4828",
"9  c #4B4126",
"0  c #564B2B",
"q  c #5E552D",
"w  c #514C36",
"e  c #594B32",
"r  c #55523D",
"t  c #535037",
"y  c #60502D",
"u  c #655A2E",
"i  c #6B5F2F",
"p  c #7A5F28",
"a  c #635B35",
"s  c #695D38",
"d  c #725D3A",
"f  c #6C612F",
"g  c #7C6028",
"h  c #7B6E2F",
"j  c #7B6027",
"k  c #6B6234",
"l  c #6E663C",
"z  c #766932",
"x  c #786B31",
"c  c #796638",
"v  c #776638",
"b  c #7E7033",
"n  c #7E743B",
"m  c #3D3E42",
"M  c #3E4144",
"N  c #424344",
"B  c #43464A",
"V  c #464A4E",
"C  c #4C4C4C",
"Z  c #4A4A40",
"A  c #4A4D52",
"S  c #4E5256",
"D  c #4F5358",
"F  c #515356",
"G  c #53565A",
"H  c #555A5D",
"J  c #595B5E",
"K  c #6E5E41",
"L  c #756242",
"P  c #7A6441",
"I  c #7E6944",
"U  c #595D62",
"Y  c #5B6066",
"T  c #60656B",
"R  c #65696D",
"E  c #686B6E",
"W  c #696E72",
"Q  c #6C7175",
"!  c #6D7579",
"~  c #777A7D",
"^  c #797A79",
"/  c #737576",
"(  c #87782F",
")  c #84752F",
"_  c #81683C",
"`  c #847633",
"'  c #8C7C34",
"]  c #80763B",
"[  c #8F733F",
"{  c #857835",
"}  c #957732",
"|  c #947F38",
" . c #836B44",
".. c #836D49",
"X. c #947849",
"o. c #7F807F",
"O. c #8F8139",
"+. c #978634",
"@. c #988634",
"#. c #9C8A35",
"$. c #928339",
"%. c #9D863B",
"&. c #9B8B39",
"*. c #A48E39",
"=. c #A59034",
"-. c #AC9636",
";. c #AE9935",
":. c #A4923A",
">. c #AA9638",
",. c #B19B35",
"<. c #B49D3A",
"1. c #BA9F3D",
"2. c #BAA237",
"3. c #B7A239",
"4. c #BAA339",
"5. c #BFA93A",
"6. c #C7AE37",
"7. c #C9AF37",
"8. c #C4AC3A",
"9. c #CBAF3C",
"0. c #CDB339",
"q. c #D5B63E",
"w. c #D7BB3A",
"e. c #D8BC3A",
"r. c #AE8A4A",
"t. c #AB874A",
"y. c #B38D4C",
"u. c #AC9A40",
"i. c #BC934B",
"p. c #B98D59",
"a. c #B4A140",
"s. c #BEAE59",
"d. c #A59F6D",
"f. c #A89D77",
"g. c #ACA56F",
"h. c #B2A76B",
"j. c #A8A375",
"k. c #B1AA70",
"l. c #C09B46",
"z. c #CEA847",
"x. c #CFA649",
"c. c #CFA94B",
"v. c #C5A047",
"b. c #D2AC46",
"n. c #D1AB49",
"m. c #D0A74B",
"M. c #D4B342",
"N. c #D9BA45",
"B. c #C1AB5A",
"V. c #C7AE54",
"C. c #C8B657",
"Z. c #ECB16C",
"A. c #7C7F82",
"S. c #7D8083",
"D. c #818989",
"F. c #9C9D84",
"G. c #8B999E",
"H. c #989A9D",
"J. c #909A98",
"K. c #A1A29F",
"L. c #96A0A7",
"P. c #99A6AA",
"I. c #9BA9AE",
"U. c #9BADB3",
"Y. c #A8A9A7",
"T. c #A9AAA9",
"R. c #BDBFBE",
"E. c #BFC1C0",
"W. c #C7C9C8",
"Q. c #DBDDDD",
"!. c #EDEDEE",
"~. c #EFEFF0",
"^. c #F6F7F7",
"/. c gray99",
/* pixels */
"                                                                                                    ",
"                                                                                                    ",
"                                                                                                    ",
"                                                                                                    ",
"                                                                                                    ",
"                                                                                                    ",
"                                                                                                    ",
"                                                                                                    ",
"                                                                                                    ",
"                                                                                                    ",
"                                                                                                    ",
"                                                                                                    ",
"                                                  . . . X . X X X o                                 ",
"                                              . * > ; - 6 - m > 4 4 * .                             ",
"                                              $ ^ / ; C W.> Q.N K.T.o.$                             ",
"                                              # ^ Q.^ R.C Q.- W.N Y.o.$                             ",
"                                              # ^ Q.^ R.C Q.- W.w I.~ $                             ",
"                                          * * * 4 C 4 C 1 C - C 1 N 6 ; % * % % % % % O             ",
"                                      X * ( +.@.@.+.+.+.@.+.@.@.@.@.@.@.+.+.+.@.@.+.@.9 O           ",
"                                    X * ` 6.w.w.w.w.e.w.w.w.e.e.e.w.e.e.w.w.w.w.w.w.e.#.8 % @       ",
"                                  X & ) w.O.] ] n n :.8.n n n ] n ] ] n ] n ] ] n 0.w.e.;.0 #       ",
"                                . : z w.&.Z ~ S.S.Y l 3.N S.S.S.S.S.S.S.S.S.~ 7 l #.0.e.w.h #       ",
"                              . # u w.a.Q / !././.H.l 3.F /././././././././.!.M e.q :.0.w.x @       ",
"                              # u w.u.R /././././.H.l 4.F /././././././././.~.R 5.w.r :.w.O.& . . . ",
"                    .   .   # * q <.U /./././././.H.l 3.S /./././././././././.^.m 8.r :.w.w.@.; ; - ",
"  * - - - - > - - - - - - - b w.q.<.3 5 2 2 3 2 2 5 l 3.3 2 2 2 3 2 2 2 2 5 2 5 5 2 5 *.w.e.w.w.w.w.",
"= =.4.4.4.4.4.3.3.3.4.3.3.3.6.e.w.w.4.4.4.4.3.4.4.4.8.q.4.3.5.4.4.4.4.4.4.4.3.4.3.4.4.0.w.w.e.e.w.e.",
"p.M.j.F.s.w.e.e.e.e.e.e.e.n $.@.n 5.a e.r 5.k >.$.O.>.k 8.w e.a w >.$.$.>.k 5.r e.r 5.n %.$.] <.a e.",
"Z.N.F.g.g.s.w.w.w.e.w.e.e.4.` b ' f @.q =.f @.x ` ) z @.k :.q @.>.x ` { z +.u t.u &.i ' ` ` ' z ,.e.",
"..0.B.k.f.s.e.w.n.n.b.b.M.b.,.-.4.+.0.' w.+.6.=.;.;.=.6.+.w.) 0.e.=.;.;.%.i.[ x._ v.X.1.-.,.1.#.e.e.",
"; d.N.C.B.N.M.m.i.d L L L t.z.M.e.w.e.w.w.w.w.w.e.e.e.e.e.e.w.w.w.w.e.z.r.v L P L v i.x.M.e.e.e.e.e.",
"; J.C.e.M.b.m.i.P > 3 3 3 K y.b.w.w.e.e.e.e.e.e.e.e.e.e.e.w.w.w.w.w.w.z.X.5 7 7 7 3 I y.m.e.e.e.e.e.",
"M D.V.M.c.i.y.X.m m M N m m ..z.b.q.q.M.q.q.7.q.q.q.q.q.e.q.q.q.q.q.b.i. .m B B V M 6  .i.m.M.q.N.M.",
"G.M X.t.t.L m V D D Y G V M L y.l.-.i.i.i.i.i.,.i.i.i.i.i.} i.i.i.i.i._ m A U W T D B 6 L t.t.y.r.r.",
"; ; ; * * 1 6 N D U L.Q U B 1 9 ) _ j _ _ ) _ _ } j _ j _ ) ) _ ) _ _ 9 5 A Y P.T R V 3 ; * * ; * ; ",
"* G.U.U.U.! m m U T P.I.W B 1 c m.m.9.n.z.z.2.x.l.7.x.x.b.9.v.b.2.b.9._ 5 F E L.I.! V m _ d H U.U.U.",
"; G U U U A 7 m F G Q W U B 1 e } } } } } } } } } } } } } } } } } } } y > C U Q W U V 6 e 8 m U U U ",
"+ 2 - - - - 1 m V G U J F M 1 : : > > > > , , , : & , , , , < < : & : : 1 C A U H S V 1 ; ; % # - - ",
"  @ @ @ @ @ * 1 N A F F A 4 % @ @ # @ @ @ @ @ @ + + + @ @ + @ @ + @ @ + % 5 C F S A 3 $ @ @ o . @ @ ",
"            o * 1 5 5 3 3 % o                   o o X X X X X   X X X X X * 3 3 3 3 % X             ",
"              . + o + + o .                                               X + o + + .               ",
"                                                                                                    ",
"                                                                                                    ",
"                                                                                                    ",
"                                                                                                    ",
"                                                                                                    ",
"                                                                                                    ",
"                                                                                                    ",
"                                                                                                    ",
"                                                                                                    "
};
