/* XPM */
static char *result[] = {
/* columns rows colors chars-per-pixel */
"50 50 132 2 ",
"   c #0F0D0B",
".  c #140E0C",
"X  c #15110E",
"o  c #19110E",
"O  c #161211",
"+  c #1C1512",
"@  c #1E1916",
"#  c #1F1B1A",
"$  c #221715",
"%  c #221916",
"&  c #241C1A",
"*  c #291E1B",
"=  c #26201D",
"-  c #2B211E",
";  c #32231F",
":  c #262122",
">  c #2C2421",
",  c #2E2825",
"<  c #2D2928",
"1  c #332622",
"2  c #332925",
"3  c #3A2A26",
"4  c #342C2A",
"5  c #3B2E2A",
"6  c #37302C",
"7  c #3C322E",
"8  c #3D3532",
"9  c #402A23",
"0  c #412F2A",
"q  c #44332D",
"w  c #433531",
"e  c #4A3631",
"r  c #453A36",
"t  c #4C3A35",
"y  c #463C3A",
"u  c #4B3E3A",
"i  c #513C36",
"p  c #513E39",
"a  c #4C413D",
"s  c #54423D",
"d  c #5A453E",
"f  c #4E4542",
"g  c #554542",
"h  c #5A4641",
"j  c #544944",
"k  c #5C4A45",
"l  c #574D49",
"z  c #5C4E4A",
"x  c #5D524D",
"c  c #5D5352",
"v  c #614C46",
"b  c #614E49",
"n  c #64534D",
"m  c #6A544E",
"M  c #645653",
"N  c #6A5652",
"B  c #655955",
"V  c #6C5A55",
"C  c #655958",
"Z  c #6D5D58",
"A  c #705653",
"S  c #715C56",
"D  c #725E59",
"F  c #785E59",
"G  c #6D615B",
"H  c #75625C",
"J  c #79645E",
"K  c #756561",
"L  c #7B6661",
"P  c #756963",
"I  c #7D6A64",
"U  c #7B6D69",
"Y  c #7F726B",
"T  c #826B66",
"R  c #846E69",
"E  c #84726C",
"W  c #8A736D",
"Q  c #8B786F",
"!  c #857671",
"~  c #8C7671",
"^  c #867A72",
"/  c #8C7B74",
"(  c #897E78",
")  c #917670",
"_  c #927B75",
"`  c #957E79",
"'  c #997F7D",
"]  c #8E8177",
"[  c #8E8179",
"{  c #908277",
"}  c #94837B",
"|  c #9B847E",
" . c #97887E",
".. c #9B897F",
"X. c #9C8681",
"o. c #9C8B83",
"O. c #9C8F88",
"+. c #9E9087",
"@. c #9F9289",
"#. c #A08480",
"$. c #A38B85",
"%. c #A88D87",
"&. c #A68E89",
"*. c #A98F8A",
"=. c #A39187",
"-. c #A5938B",
";. c #AA928C",
":. c #A6998D",
">. c #AC998F",
",. c #A69591",
"<. c #AC9791",
"1. c #A69890",
"2. c #AD9B92",
"3. c #B19C94",
"4. c #AFA197",
"5. c #B3A196",
"6. c #B8A297",
"7. c #B5A39A",
"8. c #BAA59C",
"9. c #BBA99E",
"0. c #BCABA1",
"q. c #C0AB9E",
"w. c #C2ACA2",
"e. c #C5B1A6",
"r. c #C8B1A7",
"t. c #C5B3AA",
"y. c #C9B5AA",
"u. c #CDB9AD",
"i. c #CFBBB1",
"p. c #D2BDB2",
"a. c #D4C2B6",
"s. c #D8C2B5",
/* pixels */
": y k g j h j j s g r & l C M C C C c C C C C c f 4 < c z 8 # c B B C B B C y # 8 8 6 6 6 < : = 6 4 ",
"% r T T T T T T T H q % L &.&.%.&.&.&.&.&.&.&.&.~ 5 * m h t # &.*.*.*.%.*.%.z O O O O O X + O X & 1 ",
"+ % 0 e i i e 0 9 3 O - k A T _ ' #.#.#.' ' ' _ A ; O : & + c ' ` ` _ / ~ R r X l K ! ! ^ Y 7 X . o ",
". . $ % * * % $ $ O X X & * ; ; 1 1 2 1 1 1 1 1 < O . O . . & 2 2 5 2 2 1 4 $ Z 7.} R R T Q x G 3.e.",
"1.( a % q d B G D K U P C f . X # : 8 y y < $ 4 8 8 V u.y.7.( V j y 8 8 X a k  .S Z S S V V 5 $.w...",
"V s + 3.6.3.;.| ` / R H n 2 f p.p.w.3.&.! D - 3.3.2.<.X.~ ~ ~ ` o.-.-.x , T V N V S J J T R 7 x #.T ",
"V - * 3.| *.%.%.#._ R F z & x ! K D D D D p $ 8.L L H D Z S Z S V V d 3 = -.R R R R R R T R q @ H T ",
"s @ 2 q.*.;.*.;.*.*.*.*.R @ f D D D Z Z Z w * t._ T T I L L K F S H k 3 o 3.%.R T T R R R J q X 7 T ",
"e O 6 0.*.*.*.*.*.*.*.*.$.2 2 K Z C Z Z D w : o.T T T T T T T T T L v 5 o ;.%.T T T T T T S t O - k ",
"> . & A S F F F N b h d p @ O l g g u 8 $ $ + L I L D A A V N N b u w w o s i s d d s s s t e & . 2 ",
"8 r r > . . . o % - - - - $ X . X X O 6 8 * . . . X X . . O : 5 r y f j f 4 X X o o X o % @ @ . . + ",
"w.u.q.;.z 7 -.<.>.,.;.-.-.2.2.{ r G 0.0.3.3.3.8.3.X.P : <.y.i.i.u.0.&.' ` U > U / 2.7.=.W + f ] 2.0.",
"I R L L c u ' F H H H H F H S n - E V N N N n n n z u 1 3.K L I H Z V V V n a 3.W J H V M 4 Q H H H ",
"I I L L z j q.L H H H F H H D j w L V G N A A Z V V g 5 ` Z V Z V V V C V n ; G V V V S n & 9.#.$.$.",
"I L L J l 8 p._ ~ ~ ` | | #.-.` k T T T T T T T T T L $ Z V V Z V N b k j u - J T J J J H . e.*.*.*.",
"k d p i 1 > q.3.*.*.*.*.&.&.*.V 6 T T T T J T T T T T & % 0 0 5 3 3 3 3 3 % o J T T T T V . -.%.*.*.",
"q 3 1 2 * 1 A $.&.*.&.$.| | ..E $ e k m F H J J T J H - + 5 q e t t t u t ; o J H H H H k X s F W } ",
"o . . . . @ 7 u p s u w 5 3 3 1 + $ $ % - ; 1 1 1 1 ; X   . . O + % % - ; $   = $ $ $ $ o X & - * - ",
"/  . .] U l 8 & o X o > n V H I Q | .._ H x O l x 4 . u { =.o.( I B f 8 , - o B o.{ / o...+.o.} I 8 ",
"r.q.9.9.q.9.0.9.3.^ & G w.9.3.#.) W W T S u f p.p./ j s.e.q.e.8.5.5.2.-.o. .a } / V N H U E W W ! a ",
"*.*.| ~ D M N M n j > 7 n D Z S G G S V m % ! R S 4 k 3.;.;.;.%.` R F n v k - n V V V V V B N M k % ",
"*.*.*.*.*.X.~ L V 7 u 1.u r l h a e w 5 ; + j B M 4 u 3.;.;.;.;.*.;.*.&.#.W b 2 s e k h s t w 0 3 % ",
"*.*.*.;.*.&.*.*./ 5 y H U @ . . . . X o . . O = : o ; 3.;.*.;.*.*.*.*.*.*.-.$.4 * ; d h d h h h g w ",
"*.*.*.*.*.&.*.$.L & w N n & K / { ..-.>.,.-./ I Z 7 . v A T ` ` ' $.*.*.*.*.-.H o - d s s g s g g g ",
"N L W W _ W T N s . j M r r $.&.$.&.$.%.$.o.X.W A z o r d n n m n m T Q ) W E V O & g s g d s d s g ",
"k k k h k h h u > : M u . 5 N M M N N N N V N N N 5 . X 1 5 w e u k z k k h h g & X w u p g s g s g ",
"& & @ + @ O . . O O & O O & & & & & & % $ + O + . o & 1 7 w 7 > @ O X X O X X X X . X . X o o + $ & ",
"w.2.E f a $.O. .} X.X.O.2.3.7.7.7.9.9.7.3.2.} % z 3.y.p.y.9.#.-.2.o.! o n } =.2.7.5.2.<.X.H a * O w ",
"n z z > C o.J J L L K L R ' W T R I R I I T u 6 p.u.-.I V m N n S N z . e.q.;.=. ./ Q _ ..=.o.{ g p.",
"K Z n @ M } o.$.$.$.&.&.*.*.W T T T T I I F @ a >.N F H H H H H D n - % q.G V G V V V V V N d a & 3.",
"T T I - u <.;.*.*.*.;.*.*._ T T T T I T T i X x q...R T E T T T T I > 4 ) T T J J H H F H H N j 1 -.",
"T L F * 4 <.*.*.*.*.*.$.) T T T T I I S d q . n q.3.` T T T T I T H & - J E T T E T T T T T E H = X.",
"F F k $ o I E T W ` _ L L H A b k i q ; - - . M =.W T T T T I I V k & & d m J T T R T T T E T I % s ",
"1 1 * X X - ; ; ; - - - * * * * % O . . . . . O & - - * = = & & @ % O O = ; 5 e a d d d d s d s * $ ",
"c P E [ o.-.1.} J > 2 K 8 o > 8 a B U [ O.7.7.4.O.( - , x G K P U Y Y P 7 X . . . X . X . . X .   . ",
"} H L R I I J T H % [ :.M r E ` / E I T T I I I L L 2 G 3.{ P H K I I H r 1 o.+.=.:.9.9.4.4.:.B a +.",
"E H H H L H H H D $ 0.N 5 g R R T T T T T T T T L F ; C =.H H H Z H G b o Q p.q.| W S m n b d - C o.",
"K H H F D D V m h * I N & n R T T T T T T T J G m u - - k n V m N N M w 1 e.6.;...| | ` { Q H $ G 8.",
"w 7 5 3 3 3 ; ; & o V z @ w v N V S S n d i e q 0 1 o X O @ o @ + + o X C ;.;.%.;.%.%.%.%.%.Q + G 7.",
"O O o o . X o X X o r : O O $ $ * * - - % o X X + r n / :.4.:.+.] ^ J a T ;.;.%.%.%.*.*...) s $ C $.",
":.P + x O.w.5.t.2.( K M = < c I E E Y U J G x = ,.} O.<.:.$.X.} } ` E p 7 I { $.;.` m b i i e $ - H ",
"V a >. .T N N V K D I H = 7.s.s.y.6.5.5.:. .] 4 $.E E R R R X.$.&.$.$.r . + + $ % $ % % + + + o X X ",
"C r I N N N m N N M s r & >.} / T T J T J H d + U S D F H L ~ ` | X._ * k U P H S * j 2.5.5.6.5.:.$.",
"q j %.H H H F H F L H F - J T T T T T T T T d + * 2 5 5 5 5 5 4 5 4 > X M I U U H * V W ` } { / / _ ",
"% K 2.E T T R E T T T T 6 h F S S S A N N b w @ X O   X X O X X . . . . d N H J s X ; j n V V D D V ",
"X r n n b n b v v h s a $ % 3 3 3 4 3 3 3 1 $ u ` 2.0.t.y.7.X.! K M , ( ^ Y G n 8 = X o O & & & & % ",
"  + + + O O O @ % & # # X X O % = = & & % . c 0.0.t.0.X.K Z D D L z u e.8.5.@.=.9.t.r.5...P 8 # z U ",
"=.:.] & U ] ] Y j + f P ] 2.9.9.7.7.7.7.1.5 / W I L / X.$.$.&.&.&.j > D C V G V V G P U H N 4 G w.L ",
"N j a a ;.;.;.%.W $ 7. .T W | #.%.%.$.&.4 g ,.*.%.$.*.&.*.&.$._ I 4 : F Z D H K L K D C C N $ ! t.X.",
"I I N 2 ' | #.| T o 3.8.' $.%.%.*.$.$.$.1 c *.*.*.*.*.*.*.$.T K K & y R I E R W R R R U Z h . X.r.,."
};
